Joohwan-Seo/mujoco_sysID/UR5e/logs/square_PIH_4.csv
q1,q2,q3,q4,q5,q6,dq1,dq2,dq3,dq4,dq5,dq6,t1,t2,t3,t4,t5,t6
0.020000952524029555,-0.49999985639786326,0.6599997511966174,-0.8000000012517086,0.10000009184895048,0.30000000000095656,0.00047626201477784656,7.18010683795254e-05,-0.00012440169136113412,-6.2585427267982e-07,4.5924475239974824e-05,4.78284554257968e-10,2.0000000873448727,-52.36685044955767,-17.44763512521278,-1.1582570884706946,0.33065420908780363,2.4766855233337992e-12
0.02000285757113729,-0.49999956919602156,0.6599992535835623,-0.8000000035179092,0.10000027554769166,0.300000000002684,0.0009525235538679038,0.0001436009208534109,-0.00024880652756874863,-1.1331003615499113e-06,9.184937058795664e-05,8.637335750627061e-10,1.9999945893538629,-52.3698573353668,-17.443835842981457,-1.158657389554239,0.3303042664759564,-0.0007499997088432895
0.020005715004909955,-0.49999914233518866,0.6599985156314543,-0.8000000067563293,0.10000054977911514,0.29999999964487495,0.0014287168863327216,0.00021343041645146253,-0.00036897605400336073,-1.6192100219188185e-06,0.0001371157117400272,-1.7890453447417834e-07,1.999977737862156,-52.37286761825108,-17.4400369131449,-1.1590578186447102,0.32995434753082353,-0.0014999977278525073
0.020009524683425185,-0.49999857975616857,0.6599975458112488,-0.8000000109326968,0.10000091322600445,0.2999999986354916,0.0019048392576147836,0.00028128951004428393,-0.0004849101027298361,-2.088183733456801e-06,0.00018172344465537102,-5.046916871038573e-07,1.999949524782827,-52.375881176422745,-17.436238371971395,-1.1594583675979264,0.3296044511753765,-0.002249992367195158
0.020014286459250206,-0.4999978853998259,0.6599963525940808,-0.8000000160192235,0.10000136457104299,0.2999999967378313,0.002380887912511138,0.00034717817133081674,-0.0005966085840012586,-2.543263383416768e-06,0.00022567251927229113,-9.488301453136003e-07,1.9999099421124378,-52.37889788809807,-17.432440255728295,-1.159859028276875,0.32925457633454097,-0.0029999819395270214
0.0200200001794414,-0.4999970632070535,0.6599949444511162,-0.8000000219933756,0.10000190249682077,0.2999999937600429,0.002856860095596986,0.00041109638622308906,-0.000704071482364499,-2.987076046151824e-06,0.0002689628888893389,-1.4888942079600154e-06,1.9998589819310315,-52.38191763149694,-17.428642600679876,-1.1602597925500984,0.3289047219347517,-0.003749964757509941
0.02002666568554454,-0.4999961171187376,0.6599933298534092,-0.8000000288368766,0.1000025256858401,0.29999998954662915,0.003332753051571554,0.00047304415796915245,-0.0008072988535061057,-3.421750511515925e-06,0.00031159450966401477,-2.1067068528052767e-06,1.9997966364022084,-52.38494028484316,-17.42484544308563,-1.1606606522904062,0.32855488690358686,-0.004499939133823611
0.020034282813595622,-0.49999505107572145,0.6599915172717657,-0.8000000365349,0.10000323282052051,0.2999999839715597,0.0038085640255409604,0.0005330215080637999,-0.000906290821698081,-3.849011727163095e-06,0.00035356734020675713,-2.7875347228290356e-06,1.9997228977732575,-52.387965726364634,-17.42104881919863,-1.1610615993737752,0.32820507016948597,-0.005249903381165819
0.02004285139412212,-0.49999386901876747,0.6599895151766103,-0.8000000450754147,0.10000402258320301,0.29999997693268843,0.0042842902632500195,0.0005910284769872075,-0.0010010475777296472,-4.270257340813824e-06,0.00039488134125216116,-3.5194356416110705e-06,1.999637758375337,-52.390993834294164,-17.417252765264255,-1.161462625678632,0.32785527066152265,-0.005999855812255806
0.020052371252144666,-0.49999257488851784,0.6599873320378559,-0.8000000544486542,0.1000048936561538,0.2999999683472289,0.004759929011272641,0.0006470651248040836,-0.001091569377232766,-4.686619735156009e-06,0.00043553647539279104,-4.292729757509223e-06,1.999541210623687,-52.39402448687006,-17.41345731751893,-1.1618637230851414,0.3275054873092243,-0.006749794739842053
0.020062842207179004,-0.49999117262545456,0.6599849763247773,-0.8000000646466868,0.10000584472156752,0.2999999581480871,0.005235477517168664,0.0007011315316497093,-0.001177856539326621,-5.099016305019814e-06,0.000475532706863724,-5.099570892204664e-06,1.9994332470178684,-52.397057562337146,-17.40966251218914,-1.1622648834747231,0.3271557190424328,-0.007499718476703413
0.02007426407323823,-0.4999896661698583,0.6599824565058863,-0.8000000756630672,0.10000687446157026,0.2999999462808889,0.005710933029613478,0.0007532277981242685,-0.0012599094455204472,-5.50819020531709e-06,0.000514870001368211,-5.9335991075038225e-06,1.999313860142023,-52.400092938947886,-17.40586838549043,-1.1626660987296733,0.3268059647911989,-0.00824962533564581
0.02008663665883524,-0.49998805946176705,0.6599797810488086,-0.8000000874925539,0.10000798155822213,0.29999993270157066,0.006186292798505576,0.0008033540456127793,-0.001337728538825593,-5.914743375859806e-06,0.000553548325936664,-6.789659101658526e-06,1.999183042665146,-52.40313049496352,-17.402074973626608,-1.163067360732874,0.3264562234856979,-0.008999513629521567
0.020099959766985354,-0.499986356440934,0.6599769584201626,-0.8000001001308805,0.10000916469351975,0.2999999173744267,0.006661554075056218,0.0008515104165446837,-0.0014113143230369961,-6.319163306852587e-06,0.0005915676488126531,-7.663571962229851e-06,1.9990407873413685,-52.40617010865511,-17.39828231278889,-1.1634686613675878,0.32610649405616854,-0.009749381671222556
0.020114233195209084,-0.4999845610467848,0.6599739970854382,-0.80000011357457,0.10001042254939847,0.29999990027052637,0.007136714111864575,0.0008976970746044977,-0.0014806673621518144,-6.721844731414874e-06,0.0006289279393607972,-8.551950165824145e-06,1.99888708701025,-52.4092116583051,-17.394490439155224,-1.163869992517263,0.3257567754328692,-0.010499227773680871
0.020129456739251036,-0.4999826772057383,0.6599709055449098,-0.8000001291201241,0.10001175380214665,0.29999988076735173,0.00761177202097526,0.0009419205232514243,-0.0015457702642601408,-7.772777052647367e-06,0.0006656263740913782,-9.751587306601007e-06,1.9987219358164652,-52.412255024292236,-17.390699390636843,-1.1642713479004603,0.3254070670533969,-0.011249050249819351
0.0201456301899509,-0.4999807088417829,0.65996769230329,-0.8000001482677112,0.10001315712712613,0.29999985526443534,0.008086725349931498,0.0009841819777061454,-0.0016066208099156291,-9.573793550202964e-06,0.000701662489740041,-1.275145820046584e-05,1.9985453272002378,-52.41530008722096,-17.386909205369335,-1.1646727215244506,0.3250573684339669,-0.011998847412648627
0.02016275333266068,-0.49997865987845624,0.65996436586379,-0.8000001725172835,0.10001463119964615,0.29999982016144,0.008561571354888909,0.0010244816633293637,-0.0016632197499740259,-1.2124786150736992e-05,0.0007370362600112422,-1.7551497660238416e-05,1.998357254520283,-52.41834672768939,-17.38311992146582,-1.165074107395857,0.3247076790892681,-0.012748617575250927
0.020180825947248033,-0.49997653423880106,0.6599609347280039,-0.8000002033685698,0.10001617469496485,0.2999997718581671,0.009036307293676838,0.0010628198276023252,-0.0017155678930950563,-1.5425643173630896e-05,0.0007717476593473943,-2.415163644286744e-05,1.9981577112213944,-52.42139482630952,-17.37933157702196,-1.1654754995204601,0.3243579985337207,-0.013498359050769671
0.020199847808099657,-0.4999743358453208,0.6599574073957923,-0.8000002423210685,0.10001778628829071,0.2999997067545646,0.009510930425811486,0.001099196740127495,-0.0017636661057467023,-1.9476249335138312e-05,0.0008057966629302935,-3.255180124958492e-05,1.9979466908347425,-52.42444426370866,-17.375544210115326,-1.165876891903331,0.32400832628150233,-0.014248070152407484
0.020219818684124674,-0.49997206861993554,0.6599537923651679,-0.80000029087404,0.10001946465478408,0.29999962125073515,0.009985438012508981,0.001133612692628985,-0.0018075153122086782,-2.4276485752563423e-05,0.0008391832466825541,-4.2751914726069654e-05,1.9977241869781694,-52.42749492053116,-17.371757858805037,-1.1662782785489283,0.3236586618465727,-0.014997749193438447
0.02024073833875807,-0.4999697364839376,0.6599500981321788,-0.8000003505264999,0.10002120846955861,0.2999995117469442,0.010459827316698402,0.0011660679989526656,-0.0018471164945750359,-2.9826229948471013e-05,0.0008719073872690515,-5.475189546262004e-05,1.9974901933564806,-52.43054667743965,-17.367972561131175,-1.1666796534611932,0.323309004742698,-0.015747394487212314
0.02026260652996414,-0.49996734335794746,0.6599463331907932,-0.8000004227772116,0.10002301640768281,0.29999937464362825,0.010934095603034743,0.001196562995066055,-0.00188247069275599,-3.6125355854928936e-05,0.0009039690620983694,-6.8551657994336e-05,1.9972447037617338,-52.433599415116596,-17.364188355114138,-1.1670810106436214,0.3229593544834759,-0.01649700434714722
0.020285423010239965,-0.4999648931618693,0.6599425060327843,-0.8000005091246792,0.10002488714418147,0.29999920634140265,0.011408240137911833,0.0012250980390578897,-0.0019135790044788805,-4.3173733817778855e-05,0.0009353682493242563,-8.415111280131016e-05,1.996987712073525,-52.43665301426588,-17.360405278754385,-1.167482344099404,0.3226097105823604,-0.017246577086746345
0.020309187526618915,-0.49996238981484703,0.6599386251476137,-0.8000006110671405,0.10002681935403716,0.29999900324107004,0.01188225818947519,0.0012516735111374627,-0.0019404425852883223,-5.0971230600942554e-05,0.0009661049278470871,-0.00010155016630882831,1.996719212259273,-52.4397073556141,-17.356623370031663,-1.1678836478315142,0.32226007255268563,-0.017996111019593287
0.020333899820674184,-0.49995983723521975,0.6599346990223166,-0.8000007301025592,0.1000288117121918,0.2999987617436283,0.012356147027634835,0.001276289813633653,-0.0019630626485455205,-5.951770939075585e-05,0.000996179077315331,-0.00012074872088757896,1.9964391983744962,-52.44276231991212,-17.3528426669046,-1.1682849158427735,0.32191043990769264,-0.0187456044593585
0.02035955962852234,-0.49995723934047775,0.6599307361413858,-0.8000008677286188,0.10003086289354805,0.2999984782502786,0.012829903924078042,0.0012989473709937003,-0.0019814404654267537,-6.881302980033155e-05,0.0010255906781270277,-0.00014174667485387224,1.9961476645630924,-52.44581778793649,-17.34906320731017,-1.1686861421359993,0.32156081216055227,-0.019495055719808436
0.020386166680826906,-0.4999546000472182,0.6599267449866559,-0.8000010254427146,0.10003297157297092,0.29999814916243367,0.01330352615228205,0.0013196466297817006,-0.0019955773649210124,-7.885704787395764e-05,0.0010543397114312675,-0.00016454392246986787,1.9958446050576113,-52.448873640490795,-17.3452850291631,-1.1690873207140906,0.3212111888243913,-0.020244463114798664
0.02041372070280196,-0.49995192327110083,0.6599227340371883,-0.8000012047419467,0.10003513642528918,0.2999977708817258,0.013777010987526705,0.0013383880586768182,-0.002005474733826823,-8.964961609152004e-05,0.0010824261591296793,-0.00018914035394381249,1.995530014179526,-52.45192975840729,-17.341508170355386,-1.1694884455800818,0.32086156941231714,-0.0209938249582839
0.020442221414215773,-0.4999492129268039,0.6599187117691547,-0.8000014071231134,0.10003735612529693,0.2999973398100149,0.014250355706907072,0.0013551721484712374,-0.002011134016748224,-0.00010119058337295808,0.0011098500038779244,-0.0002155358554302861,1.9952038863395,-52.45498602254803,-17.337732668755773,-1.169889510737309,0.32051195343744276,-0.021743139564324904
0.020471668529394464,-0.4999464729279798,0.6599146866557225,-0.8000016340827035,0.10003962934775511,0.2999968523493969,0.01472355758934597,0.0013699994120678343,-0.002012556716089912,-0.00011347979508274929,0.0011366112290871959,-0.0002437303090304579,1.9948662160376527,-52.45804231380657,-17.33395856220914,-1.1702905101894676,0.32016234041291125,-0.022492405247085588
0.020502061757225677,-0.4999437071872108,0.6599106671669384,-0.8000018871168896,0.10004195476739296,0.2999963049022113,0.015196613915606477,0.0013828703844775531,-0.002009744392051541,-0.0001265170930344206,0.0011627098189257244,-0.00027372359279235104,1.9945169978638209,-52.461098513108986,-17.330185888536008,-1.1706914379407325,0.31981272985192033,-0.023241620320839075
0.020533400801162286,-0.4999409196159652,0.6599066617696131,-0.8000021677215206,0.1000443310589096,0.29999569387104985,0.015669521968304373,0.0013937856228165312,-0.0020026986626211947,-0.00014030231549509131,0.0011881457583202894,-0.0003055155807111167,1.9941562264978172,-52.46415450141576,-17.326414685532,-1.1710922879958345,0.31946312126774934,-0.023990783099975453
0.020565685359226128,-0.4999381141245526,0.659902678927206,-0.8000024773921149,0.10004675689697551,0.2999950156587644,0.016142279031920538,0.001402745706302936,-0.0019914212035680094,-0.00015483529719004287,0.0012129190329577373,-0.00033910614272931767,1.9937838967096857,-52.46721015972264,-17.32264499096727,-1.1714930543601747,0.3191135141737822,-0.024739891899001578
0.020598915124011755,-0.4999352946220801,0.6598987270997091,-0.8000028176238535,0.10004923095623408,0.29999426666847495,0.016614882392813286,0.0014097512362535192,-0.00197591374843396,-0.0001701158693073186,0.001237029629286503,-0.0003744951447372207,1.9934000033599542,-52.47026536906239,-17.31887684258596,-1.1718937310399364,0.31876390808353317,-0.025488945032540435
0.020633089782690215,-0.4999324650164079,0.6598948147435321,-0.8000031899115725,0.10005175191130311,0.2999934433035778,0.017087329339230673,0.001414802836079905,-0.001956178088524816,-0.00018614385950234776,0.0012604775345181397,-0.0004116824485730984,1.9930045413998838,-52.47332001050596,-17.315110278105664,-1.1722943120421636,0.3184143025106723,-0.02623794081534692
0.02066820901701286,-0.49992962921410533,0.6598909503113862,-0.8000035957497563,0.10005431843677637,0.29999254196775377,0.01755961716132273,0.0014179011512845828,-0.0019322160729002265,-0.00020291909190260258,0.001283262736628852,-0.00045066791202354,1.9925975058717158,-52.47637396516377,-17.311345335216807,-1.1726947913748589,0.31806469696904976,-0.026986877562301854
0.020704272503315167,-0.49992679112040644,0.6598871422521695,-0.8000040366325305,0.10005692920722509,0.2999915590649761,0.018031743151153655,0.001419046849456644,-0.0019040296083629971,-0.00022044138711227703,0.0013053852243610359,-0.000491451388823772,1.992178891908913,-52.47942711418737,-17.307582051582177,-1.173095163047104,0.31771509097272155,-0.02773575358841799
0.020741279912520595,-0.4999239546391659,0.6598833990108506,-0.8000045140536549,0.10005958289719953,0.2999904909995188,0.018503704602713965,0.0014182406202672135,-0.0018716206594474878,-0.00023871056221699708,0.0013268449872248231,-0.0005340327286579869,1.9917486947364018,-52.48247933877029,-17.303820464836342,-1.173495421069149,0.3173654840359748,-0.02848456720884517
0.02077923091014446,-0.49992112367281494,0.6598797290283538,-0.8000050295065165,0.10006227818123054,0.29998933417596446,0.018975498811932584,0.001415483175464626,-0.0018349912484072017,-0.0002577264307885558,0.0013476420154996307,-0.0005784117771596823,1.991306909670808,-52.48553052014981,-17.300060612585018,-1.1738955594525087,0.3170158756733513,-0.029233316738873628
0.020818125156297836,-0.4999183021223172,0.6598761407414434,-0.8000055844841223,0.100065013733831,0.29998808499921265,0.019447123076688885,0.0014107752488693108,-0.001794143455201501,-0.00027748880288967466,0.0013677763002357163,-0.0006245883759120089,1.9908535321206908,-52.48858053960803,-17.296302532404567,-1.1742955722100608,0.31666626539967435,-0.029982000493936033
0.020857962305691483,-0.4999154938871245,0.6598726425826085,-0.8000061804790924,0.10006778822949751,0.29998673987448776,0.019918574696824693,0.0014041175963683907,-0.001749079417481477,-0.0002979974850787932,0.0013872478332557382,-0.0006725623624481269,1.990388557586774,-52.49162927847317,-17.29254626184147,-1.1746954533561602,0.316316652730074,-0.03073061678961793
0.020898742007639796,-0.4999127028651327,0.6598692429799473,-0.8000068189836532,0.10007060034271183,0.29998529520734724,0.020389850974156222,0.001395510995910012,-0.0016998013305749892,-0.00031925228041488165,0.0014060566071563193,-0.0007223335702515727,1.9899119816621724,-52.494676618120906,-17.288791838411637,-1.1750951969067196,0.3159670371800104,-0.03147916394165131
0.020940463906064768,-0.4999099329526377,0.6598659503570524,-0.8000075014896302,0.10007344874794244,0.2999837474036897,0.020860949212485984,0.0013849562474973866,-0.0016463114474708415,-0.00034125298846228235,0.001424202615309618,-0.0007739018287566342,1.989423800032618,-52.49772243997581,-17.28503929959994,-1.1754947968793275,0.3156174182653011,-0.032227640265923764
0.020983127639499995,-0.49990718804429135,0.6598627731328948,-0.8000082294884407,0.10007633211964617,0.299982092869763,0.021331866717614625,0.00137245417318256,-0.0015886120788021149,-0.0003639994052955742,0.0014416858518649018,-0.0008272669633487355,1.98892400847668,-52.50076662551219,-17.281288682859614,-1.1758942472933434,0.31526779550214473,-0.03297604407848576
0.0210267328410947,-0.4999044720330572,0.6598597197217091,-0.8000090044710878,0.10007924913226968,0.2999803280121723,0.02180260079735274,0.0013580056170598874,-0.00152670559282865,-0.00038749132350446406,0.0014585063117501258,-0.0008824287953648308,1.988412602865983,-52.503809056255896,-17.27754002561165,-1.1762935421699907,0.3149181684071474,-0.033724373695546074
0.021071279138617765,-0.49990178881016667,0.6598567985328783,-0.8000098279281522,0.10008219846025103,0.2999784492378881,0.02227314876153262,0.001341611445259231,-0.0014605944154186723,-0.00041172853219870095,0.0014746639906735174,-0.0009393871420938073,1.987889579165423,-52.50684961378513,-17.273793365244213,-1.1766926755324505,0.3145685364973468,-0.03447262743348351
0.021116766154461803,-0.4998991422650748,0.6598540179708182,-0.8000107013497862,0.10008517877802128,0.2999764529542545,0.02274350792201996,0.0013232725459388901,-0.001390281030029576,-0.0004367108170130176,0.001490158885125163,-0.0009981418167768978,1.9873549334333782,-52.50988817973191,-17.270048739112138,-1.177091641406004,0.3142188992902375,-0.035220803608845816
0.021163193505647254,-0.49989653628541625,0.6598513864348629,-0.8000116262257064,0.10008818876000604,0.2999743355689973,0.023213675592725507,0.001302989829278218,-0.0013157679776878378,-0.000462437960112094,0.001504990992378601,-0.0010586926286081015,1.9868086618219194,-52.512924635783335,-17.26630618453627,-1.1774904338180674,0.31386925630379847,-0.03596890053835706
0.021210560803826488,-0.4998939747569613,0.6598489123191489,-0.8000126040451868,0.10009122708062702,0.2999720934902318,0.02368364908961669,0.0012807642274699942,-0.001237057856968114,-0.0004889097401955464,0.0015191603104924179,-0.0011210393827346158,1.986250760577013,-52.51595886368262,-17.262565738802877,-1.1778890467983538,0.3135196070565149,-0.03671691653891693
0.021258867655287946,-0.4998914615635719,0.659846604012501,-0.8000136362970518,0.10009429241430365,0.2999697231264713,0.024153425730729174,0.001256596694712477,-0.0011541533239714326,-0.0005161259325029388,0.0015326668383118486,-0.0011851818802572748,1.9856812260387267,-52.51899074523051,-17.25882743916312,-1.1782874743789264,0.3131699510674055,-0.03746484992760766
0.021308113660960304,-0.4998890005871575,0.6598444698983164,-0.8000147244696695,0.10009738343545459,0.29996722088663486,0.024623002836178375,0.0012304882072011975,-0.0010670570923025625,-0.0005440863088188196,0.0015455105754703818,-0.0012511199182309999,1.985100054641426,-52.52202016228633,-17.255091322832417,-1.1786857105943396,0.3128202878560484,-0.03821269902169913
0.021358298416416645,-0.4998865957076313,0.6598425183544503,-0.8000158700509444,0.10010049881849938,0.29996458318005553,0.025092377728170932,0.0012024397631204618,-0.0009757719330465346,-0.00057279063747778,0.0015576915223913677,-0.0013188532896652567,1.984507242913972,-52.52504699676935,-17.251357426989884,-1.179083749481715,0.31247061694260425,-0.03896046213864602
0.021409421511878676,-0.499884250802866,0.6598407577531008,-0.8000170745283112,0.10010363723785995,0.2999618064164885,0.025561547731016147,0.0011724523826345686,-0.0008803006747442801,-0.000602238683369536,0.0015692096802896313,-0.0013883817835245232,1.9839027874799144,-52.52807113065975,-17.24762578877768,-1.1794815850808418,0.312120937847844,-0.03970813759610043
0.021461482532220952,-0.4998819697486503,0.6598391964606941,-0.800018339388727,0.1001067973679623,0.29995888700611906,0.02603051017113734,0.0011405271078787375,-0.0007806462033674291,-0.0006324302079440336,0.0015800650511730875,-0.0014597051847287665,1.983286685057681,-52.53109244600008,-17.243896445300518,-1.1798792114342733,0.3117712500931721,-0.04045572371191307
0.021514481056975118,-0.4998797564186444,0.6598378428377695,-0.8000196661186655,0.10010997788323799,0.2999558213595708,0.026499262377083204,0.0011066650029497719,-0.0006768114622922512,-0.0006633649692165745,0.0015902576378443618,-0.0015328232741539285,1.982658932460764,-52.53411082489611,-17.24016943362492,-1.180276622587447,0.3114215532006534,-0.041203218804126744
0.021568416660334197,-0.4998776146843366,0.659836705238865,-0.800021056204109,0.10011317745812578,0.2999526058879135,0.026967801679539084,0.0010708671538964152,-0.000568799452272738,-0.000695042721772966,0.0015997874439024136,-0.001607735828632421,1.9820195265979044,-52.537126149518286,-17.236444790778783,-1.1806738125888032,0.3110718466930379,-0.041950621190999314
0.021623288911156873,-0.4998755484149992,0.6598357920124022,-0.8000225111305426,0.10011639476707328,0.2999492370026716,0.027436125411338216,0.001033134668709425,-0.00045661323141281017,-0.0007274632167746923,0.0016086544737441623,-0.00168444262095363,1.9813684644732725,-52.540138302102704,-17.23272255375063,-1.181070775489807,0.31072213009378535,-0.04269792919099055
0.021679097774907615,-0.4998735530283625,0.6598350734991891,-0.8000240306395682,0.10011962795037149,0.2999457111212145,0.027904431875370773,0.0009976933183533062,-0.0003592566065379405,-0.000759754512809425,0.0016165916491049238,-0.0017629407285728231,1.9807062353884395,-52.543147442650096,-17.229002871206653,-1.1814675449668721,0.3103724136181251,-0.04344514111805283
0.021735842809784873,-0.49987163238914395,0.6598345580351118,-0.8000256162156576,0.1001228756824917,0.2999420246559995,0.028372517438628564,0.0009603196092775701,-0.0002577320386826855,-0.0007927880447102198,0.001623866060103441,-0.0018432326074968742,1.9800323596980316,-52.54615345450915,-17.225285786587314,-1.1818641163690882,0.31002269739835864,-0.044192255295646354
0.021793523568662092,-0.4998697903597146,0.6598342539496004,-0.8000272693427637,0.10012613663791846,0.2999381740199627,0.0288403794386102,0.0009210147146530511,-0.00015204275570676644,-0.0008265635530676164,0.0016304777133810267,-0.0019253180183897278,1.9793468346208998,-52.54915622005322,-17.2215713367932,-1.1822604837717752,0.30967298096414214,-0.044939270042882486
0.02185213959909213,-0.4998680308000556,0.6598341695655151,-0.8000289915043138,0.10012940949115122,0.299934155626527,0.029308015215018232,0.0008797798295260279,-4.2192042634177606e-05,-0.0008610807750554442,0.0016364266163789887,-0.002009196717874422,1.9786496574720203,-52.552155621726556,-17.217859558683674,-1.1826566412537136,0.30932326384594655,-0.045686183679095875
0.02191169044331167,-0.49986635756771397,0.6598343131990319,-0.8000307841832027,0.1001326929167059,0.2999299658896099,0.02977542210977023,0.0008366161708069091,7.181675837877465e-05,-0.0008963394444361206,0.0016417127773402818,-0.0020948684585336374,1.9779408256626652,-52.55515154204547,-17.214150489076285,-1.1830525828972782,0.3089735455750766,-0.04643299452384289
0.02197217563824569,-0.49986477451775946,0.659834693159528,-0.8000326488617858,0.10013598558911653,0.2999256012236321,0.030242597467009802,0.0007915249772586636,0.00018998024807626701,-0.0009323392915659718,0.001646336205311163,-0.0021823329889102596,1.9772203367005716,-52.55814386359954,-17.210444164746196,-1.1834483027885256,0.30862382568370117,-0.0471797008969174
0.022033594715511924,-0.4998632855027405,0.6598353177494684,-0.8000345870218726,0.10013928618293681,0.2999210580435251,0.030709538633117577,0.000744507509484929,0.00031229497013663586,-0.0009690800434005702,0.0016502969101428494,-0.002271590053507945,1.9764881881901055,-52.56113246905269,-17.20674062242556,-1.183843795017294,0.3082741037048779,-0.04792630111834879
0.022095947201425367,-0.49986189437264067,0.6598361952642907,-0.8000366001447196,0.1001425933727418,0.2999163327647395,0.03117624295672215,0.0006955650499178623,0.0004387574112069002,-0.0010065614235000963,0.0016535949024931793,-0.002362639392791699,1.9757443778324228,-52.564117241144125,-17.20303989880292,-1.18423905367731,0.3079243791725769,-0.04867279350839686
0.02215923261700279,-0.49986060497483503,0.6598373339922926,-0.8000386897110237,0.10014590583312945,0.29991142180325314,0.03164270778871098,0.0006446989028056984,0.0005693640009381485,-0.0010447831520347163,0.0016562301938282762,-0.002455480743188464,1.974988903425629,-52.56709806268983,-17.199342030522654,-1.1846340728662883,0.3075746516217087,-0.049419176387571574
0.022223450477967272,-0.49985942115404663,0.6598387422145167,-0.8000408572009152,0.1001492222387223,0.29990632157557895,0.03210893048224122,0.0005919103942000064,0.0007041111120217982,-0.0010837449457899828,0.0016582027964242147,-0.002550113837087714,1.9742217628649326,-52.57007481658317,-17.19564705418431,-1.185028846686014,0.3072249205881475,-0.05016544807662488
0.022288600294752773,-0.49985834675230273,0.6598404282046371,-0.8000431040939515,0.10015254126416905,0.29990102849877326,0.03257490839275057,0.000537200871942681,0.0008429950602267032,-0.0011234465181722529,0.0016595127233686897,-0.0026465384028420617,1.9734429541427985,-52.573047385796436,-17.19195500634208,-1.1854233692425016,0.30687518560875876,-0.05091160689656155
0.02235468157250871,-0.4998573856088914,0.659842400228846,-0.8000454318691099,0.10015586158414617,0.29989553899044374,0.03304063887796799,0.0004805717056526328,0.0009860121044371257,-0.0011638875792141245,0.001660159988562688,-0.0027447541647678724,1.9726524753490973,-52.57601565338162,-17.18826592350413,-1.1858176346460239,0.3065254462214237,-0.05165765116863502
0.022421693811104558,-0.499856541560318,0.6598446665457394,-0.8000478420047811,0.10015918187335962,0.29988984946875746,0.033506119297924464,0.0004220242867121964,0.001133158446691583,-0.0012050678355798948,0.0016601446067221618,-0.002844760843145887,1.971850324671249,-52.57897950247147,-17.184579842132003,-1.1862116370112548,0.3061757019650655,-0.05240357921436532
0.022489636505134487,-0.4998558184402615,0.6598472354062038,-0.8000503359787622,0.10016250080654639,0.299883956352449,0.03397134701496368,0.00036156002825326033,0.0012844302322225362,-0.0012469869905710322,0.0016594665933797052,-0.0029465581542218555,1.971036500394368,-52.581938816280804,-17.180896798640067,-1.1866053704573805,0.30582595237967336,-0.053149389355525135
0.022558509143921993,-0.4998552200795312,0.6598501150533028,-0.8000529152682504,0.10016581705847616,0.2998778560608286,0.03443631939375265,0.00029918036514308446,0.0014398235494969581,-0.0012896447441316707,0.0016581259648862329,-0.0030501458102071785,1.9702110009014004,-52.58489347810724,-17.177216829394798,-1.1869988291081555,0.30547619700632966,-0.053895079914153314
0.022628311283505148,-0.4998547471838375,0.6598533120232258,-0.8000555814728603,0.10016912934150886,0.29987154501353736,0.034901069791577685,0.0002364478468613433,0.0015984849615108647,-0.0013331023049520366,0.001656141516352819,-0.0031555236456406225,1.9693739167134745,-52.58784342787333,-17.17353996377239,-1.1873920046915307,0.3051264346129009,-0.05464064921280423
0.022699042688676795,-0.4998543911728355,0.6598568277927233,-0.8000583365573786,0.1001724364797043,0.29986501963005663,0.0353657025858229,0.000178005501002536,0.0017578847486916386,-0.0013775422591625662,0.0016535690977201368,-0.0032626917403725574,1.968525526989682,-52.59078877252624,-17.169866212295712,-1.187784882331226,0.3047766619118085,-0.05538609557480655
0.02277070283297201,-0.49985415586847043,0.6598606705807275,-0.8000611819971628,0.10017573714793998,0.2998582763314717,0.035830072147608236,0.00011765218253365835,0.0019213940021209912,-0.0014227198921333867,0.0016503341178401036,-0.0033716492924479547,1.9676654692796955,-52.59372938734522,-17.16619561681507,-1.1881774581838813,0.3044268794327485,-0.0561314173220584
0.022843291184671256,-0.4998540450896452,0.6598648485978961,-0.8000641192669434,0.10017903002113263,0.2998513115394758,0.03629417584962193,5.538941261271557e-05,0.0020890085842926822,-0.0014686348903150187,0.0016464365963194413,-0.003482395997947425,1.966793742319966,-52.59666515603264,-17.1625282135421,-1.188569726397364,0.304077086722676,-0.056876612777699335
0.022916807206805126,-0.4998540626521771,0.6598693700464984,-0.8000671498408171,0.1001823137742398,0.299844121676378,0.03675801106693497,-8.781265938304374e-06,0.002260724301172405,-0.0015152869368236658,0.0016418765535900837,-0.0035949315489205826,1.9659103449453441,-52.59959596237898,-17.158864038637248,-1.1889616811246078,0.30372728332976406,-0.05762168026515042
0.022991250357159147,-0.4998542123687544,0.6598742431203029,-0.8000702751922399,0.10018558708226163,0.2998367031651112,0.037221575177011475,-7.485828864930396e-05,0.002436536902243527,-0.001562675711446818,0.0016366540109108688,-0.003709255633386745,1.9650152760892032,-52.60252169026397,-17.155203128209227,-1.1893533165237633,0.3033774688034294,-0.058366618108120646
0.023066620088278585,-0.4998544980488932,0.659879476004464,-0.8000734967940213,0.10018884862024237,0.2998290524292405,0.03768486555971912,-0.00014284006941822413,0.0026164420805536446,-0.0016108008906488725,0.001630768990369232,-0.003825367935335637,1.9641085347835585,-52.60544222365751,-17.15154551831443,-1.1897446267582739,0.30302764269435706,-0.05911142463061382
0.023142915847473265,-0.49985492349889427,0.6598850768754094,-0.8000768161183165,0.10019209706327213,0.2998211658929711,0.0381478795973395,-0.00021272500052750153,0.002800435472762046,-0.0016596621475767695,0.001624221514882902,-0.003943268134728108,1.9631901201591837,-52.6083574466206,-17.147891244956163,-1.1901356059969805,0.3026778045545271,-0.05985609815692392
0.023220137076822422,-0.49985549252179956,0.6598910539007278,-0.8000802346366206,0.10019533108648854,0.2998130399811561,0.038610614674578415,-0.00028451145266078666,0.0029885126591880184,-0.0017092591520656468,0.001617011608201597,-0.004062955907496854,1.962260031445725,-52.61126724330627,-17.144240344084096,-1.1905262484142192,0.30232795393723727,-0.06060063701164726
0.023298283213179574,-0.4998562089173494,0.6598974152390555,-0.8000837538197619,0.10019854936507835,0.29980467111930503,0.03907306817857619,-0.0003581977749199654,0.00318066916386001,-0.0017595915706445065,0.0016091392949087225,-0.004184430925547154,1.9613182679718095,-52.614171497960896,-17.140592851593667,-1.190916548189926,0.30197809039713286,-0.06134503951967919
0.02337735368817741,-0.49985707648193906,0.6599041690399646,-0.800087375137895,0.1002017505742792,0.2997960557335915,0.03953523749891788,-0.0004337822948424773,0.003376900454565685,-0.001810659066541899,0.0016006046004230713,-0.004307692856757611,1.9603648291651536,-52.61707009492459,-17.136948803325357,-1.1913064995097578,0.3016282134902287,-0.06208930400622586
0.0234573479282327,-0.4998580990085759,0.6599113234438504,-0.8000911000604943,0.1002049333893812,0.2997871902508616,0.03999712002764349,-0.0005112633184189058,0.0035772019429028265,-0.0018624612996916237,0.0015914075510005236,-0.004432741364980906,1.9593997145526671,-52.61996291863271,-17.133308235064145,-1.191696096565154,0.3012783227739363,-0.06283342879680351
0.023538265354551214,-0.4998592802868361,0.6599188865818191,-0.8000949300563478,0.10020809648572868,0.2997780710986415,0.04045871315925811,-0.0005906391301108769,0.003781568984331107,-0.0019149979267384398,0.001581548173735747,-0.004559576110044558,1.9584229237605537,-52.62284985361646,-17.129671182538786,-1.1920853335534665,0.30092841780708784,-0.0635774122172374
0.023620105383132698,-0.4998606241028219,0.6599268665755755,-0.8000988665935499,0.1002112385387218,0.299768694705146,0.04092001429074206,-0.000671907992869215,0.00398999687822472,-0.0019682686010437976,0.0015710264965639012,-0.0046881967477516925,1.9574344565144088,-52.625730784503965,-17.126037681421245,-1.1924742046780572,0.3005784981499645,-0.06432125259367485
0.02370286742477582,-0.4998621342391182,0.6599352715373114,-0.8001029111394953,0.10021435822381833,0.2997590574992862,0.04138102082156097,-0.0007550681481524342,0.004202480867925899,-0.0020222729726915786,0.0015598425482623397,-0.004818602929881824,1.9564343126393142,-52.62860559602108,-17.122407767326013,-1.1928627041483888,0.3002285633643187,-0.06506494825258108
0.023786550885083173,-0.4998638144747501,0.6599441095695929,-0.8001070651608723,0.10021745421653523,0.29974915591067786,0.041841730153675816,-0.0008401178159454686,0.004419016140799263,-0.0020770106884938546,0.0015479963584523143,-0.0049507943041916455,1.955422492059932,-52.63147417299255,-17.118781475809474,-1.1932508261801482,0.29987861301340085,-0.06580849752075447
0.02387115516446628,-0.49986566858513964,0.6599533887652494,-0.8001113301236562,0.10022052519245044,0.299738986369649,0.04230213969155294,-0.0009270551947787392,0.004639597828287078,-0.0021324813919966555,0.00153548795760068,-0.005084770514415821,1.9543989948005898,-52.63433640034256,-17.11515884236925,-1.1936385649953132,0.29952864666198603,-0.06655189872531571
0.023956679658150626,-0.4998677003420631,0.6599631172072614,-0.8001157074931031,0.10022356982720448,0.29972854530724846,0.04276224684217401,-0.0010158784617474706,0.004864221005965336,-0.0021886847234857563,0.0015223173770216,-0.005220531200267799,1.9533638209853699,-52.63719216309595,-17.11153990244363,-1.1940259148222856,0.29917866387639747,-0.0672951501937159
0.02404312375618072,-0.4998699135136082,0.6599733029686486,-0.8001201987337431,0.10022658679650225,0.2997178291552536,0.04322204901504595,-0.0011065857725313284,0.005092880693600745,-0.002245620319992473,0.0015084846488782517,-0.005358075997440624,1.9523169708381898,-52.64004134637905,-17.107924691410812,-1.1944128698959806,0.2988286642245336,-0.06803825025374939
0.02413048684342514,-0.49987231186413106,0.6599839541123591,-0.8001248053093737,0.10022957477611462,0.29970683434617834,0.04368154362221085,-0.0011991752614143216,0.005325571855208536,-0.0023032878152994722,0.0014939898061845337,-0.005497404537607764,1.9512584446828838,-52.64288383542027,-17.104313244588326,-1.1947994244579168,0.298478647275893,-0.06878119723354757
0.02421876829958165,-0.4998748991542137,0.6599950786911574,-0.8001295286830535,0.10023253244188023,0.2996955573132815,0.04414072807825582,-0.0012936450413050067,0.005562289399111184,-0.0023616868399465966,0.0014788328828067708,-0.0056385164484239435,1.9501882429432782,-52.6457195155514,-17.100705597232356,-1.195185572756345,0.29812861260159834,-0.06952398946158543
0.024307967499182296,-0.4998776791406212,0.6600066847475133,-0.800134370317096,0.10023545846970716,0.2996839944905745,0.04459959980032282,-0.0013899932037569845,0.005803028177997961,-0.0024208170212366986,0.0014630139134654235,-0.005781411353525988,1.949106366143266,-52.64854827220817,-17.09710178453715,-1.1955713090463218,0.2977785597744249,-0.0702666252666857
0.024398083811598532,-0.49988065557625916,0.6600187803134913,-0.8001393316730625,0.10023835153557463,0.2996721423128294,0.04505815620811841,-0.0014882178189896806,0.0060477829889853665,-0.002480677983241489,0.0014465329337367923,-0.0059260888725336785,1.9480128149068774,-52.651369990931315,-17.093501841634268,-1.195956627589822,0.29742848836882263,-0.07100910297802665
0.02448911660104638,-0.499883832210131,0.6600313734106387,-0.8001444142117561,0.10024121031553473,0.2996599972155873,0.04551639472392357,-0.0015883169359094114,0.006296548573678425,-0.0025412693468073967,0.0014293899800547265,-0.006072548621050608,1.946907589958348,-52.65418455736725,-17.08990580359205,-1.1963415226558376,0.2970783979609457,-0.07175142092513513
0.02458106522659159,-0.49988721278729525,0.6600444720498752,-0.8001496193932152,0.10024403348571416,0.29964755563516593,0.04597431277260334,-0.0016902885821307597,0.006549319618232854,-0.0026025907295614413,0.0014115850897123306,-0.006220790210665059,1.9457906921221835,-52.656991857269,-17.086313705414838,-1.1967259885205024,0.2967282881286729,-0.07249357743790287
0.024673929042154822,-0.4998908010488233,0.660058084231382,-0.800154948676707,0.10024681972231589,0.29963481400866804,0.04643190778161655,-0.001794130763998213,0.006806090753418086,-0.0026646417459171142,0.001393118300863672,-0.006370813248950878,1.9446621223232214,-52.6597917764969,-17.082725582042382,-1.1971100194671291,0.2963781584516371,-0.0732355708465843
0.02476770739651687,-0.4998946007317565,0.6600722179444913,-0.8001604035207212,0.10024956770162094,0.2996217687739891,0.046889177181025456,-0.0018998414666081059,0.007066856554681153,-0.0027274220070802753,0.0013739896525254871,-0.006522617339468368,1.9435218815866908,-52.662584201019804,-17.079141468349274,-1.197493609786401,0.29602800851124944,-0.07397739948179297
0.024862399633323883,-0.4998986155690642,0.6600868811675757,-0.8001659853829632,0.1002522760999901,0.29960841636982555,0.04734611840350534,-0.0020074186538308657,0.007331611542211459,-0.0027909311210550566,0.0013541991845788888,-0.006676202081765187,1.9423699710382683,-52.665369016915335,-17.0755613991441,-1.1978767537763901,0.29567783789072355,-0.07471906167452462
0.02495800509109259,-0.4999028492896008,0.6601020818679377,-0.8001716957203485,0.10025494359386564,0.2995947532356828,0.047802728884354086,-0.0021168602683335107,0.00760035018100639,-0.00285516869264978,0.0013337469377710715,-0.006831567071377253,1.94120639190413,-52.668146110371104,-17.07198540916892,-1.198259445742709,0.29532764617510304,-0.07546055575613804
0.025054523103215594,-0.499907305618064,0.6601178280016996,-0.8001775359889954,0.10025756885977306,0.29958077581188314,0.048259006061501734,-0.002228164231602477,0.007873066880937809,-0.0029201343234828824,0.0013126329537170181,-0.006988711899829665,1.9400311455110035,-52.67091536768544,-17.068413533098603,-1.1986416799985857,0.2949774329512847,-0.07620188005837866
0.025151952997966635,-0.4999119882749519,0.6601341275136933,-0.8001835076442194,0.10026015057432286,0.29956648053957385,0.04871494737551997,-0.0023413284439667108,0.008149755996819394,-0.0029858276119888527,0.0012908572749012043,-0.007147636154637622,1.9388442332862148,-52.67367667526801,-17.064845805540102,-1.1990234508649926,0.2946271978080456,-0.07694303291336421
0.025250294098505897,-0.49991690097652114,0.6601509883373502,-0.8001896121405263,0.10026268741421222,0.29955186386073523,0.04917055026963162,-0.0024563507846210725,0.00843041182847488,-0.0030522481534241796,0.0012684199446793035,-0.0073083394193073645,1.9376456567577325,-52.67642991964081,-17.061282261031856,-1.1994047526707121,0.29427694033606755,-0.07768401265360794
0.025349545722885336,-0.49992204743474444,0.6601684183945918,-0.8001958509316061,0.10026517805622678,0.29953692221818856,0.049625812189720064,-0.002573229111650005,0.008715028620807107,-0.0031193955398733067,0.0012453210072798913,-0.007470821273337115,1.9364354175542093,-52.67917498743875,-17.05772293404309,-1.199785579752467,0.2939266601279629,-0.07842481761200416
0.025449707184054014,-0.4999274313572685,0.6601864255957196,-0.8002022254703266,0.1002676211772424,0.2995216520556041,0.050080730584338665,-0.0026919612620515013,0.009003600563867979,-0.003187269360254599,0.0012215605078061474,-0.007635081292218032,1.9352135174050222,-52.68191176541056,-17.054167858973162,-1.2001659264549993,0.2935763567783011,-0.07916544612184806
0.025550777789863453,-0.49993305644737207,0.6602050178393055,-0.8002087372087272,0.10027001545422688,0.2995060498175092,0.050535302904720136,-0.0028125450517613713,0.009296121792929272,-0.003255869200326319,0.0011971384922375588,-0.0078011190474351726,1.9339799581403057,-52.68464014041951,-17.050617070150913,-1.2005457871311735,0.2932260298836297,-0.07990589651681983
0.025652756843073023,-0.4999389264039234,0.6602242030120826,-0.8002153875980126,0.10027235956424174,0.2994901119492963,0.050989526604785874,-0.0029349782756777965,0.009592586388554303,-0.00332519464269261,0.0011720550074316213,-0.007968934106468463,1.932734741690989,-52.68735999944408,-17.047070601833983,-1.200925156142125,0.2928756790425053,-0.08064616713101241
0.025755643641355335,-0.4999450449213388,0.660243988988836,-0.8002221780885462,0.100274652184444,0.29947383489723073,0.05144339914115527,-0.003059258707686153,0.00989298837667045,-0.003395245266809489,0.0011463101011255383,-0.008138526032793678,1.9314778700888229,-52.69007122957891,-17.043528488208164,-1.2013040278572757,0.2925253038555147,-0.08138625629891398
0.025859437477301645,-0.49995141568954016,0.6602643836322932,-0.8002291101298442,0.10027689199208786,0.29945721510845896,0.051896917973154995,-0.0031853841006841584,0.010197321728642558,-0.003466020648990848,0.001119903821937922,-0.008309894385883435,1.9302093454664082,-52.69277371803518,-17.039990763386733,-1.2016823966544956,0.2921749039253021,-0.0821261623554263
0.025964137638427302,-0.4999580423939134,0.660285394793016,-0.800236185170569,0.10027907766452661,0.29944024903101657,0.052350080562828236,-0.0033133521866072746,0.010505580361347196,-0.0035375203624144645,0.0010928362193704897,-0.008483038721208185,1.9289291700572218,-52.6954673521417,-17.036457461409753,-1.202060256920195,0.29182447885659446,-0.08286588363585869
0.02606974340717719,-0.4999649287152663,0.6603070303092905,-0.8002434046585233,0.10028120787921423,0.2994229331138361,0.052802884374943904,-0.003443160676454429,0.010817758137247762,-0.003609743977128019,0.001065107343809761,-0.008657958590237231,1.9276373461956375,-52.69815201934541,-17.03292861624346,-1.2024376030494168,0.2914740282562264,-0.08360541847593715
0.026176254060931204,-0.49997207832978696,0.6603292980070194,-0.8002507700406434,0.10028328131370728,0.29940526380675525,0.05325532687700583,-0.003574807260314006,0.011133848864470483,-0.0036826910600551203,0.0010367172465287533,-0.008834653540439734,1.9263338763169453,-52.700827607212226,-17.029404261779554,-1.2028144294459309,0.291123551733165,-0.08434476521180671
0.026283668872009728,-0.49997949490900173,0.6603522056996132,-0.8002582827629934,0.10028529664566666,0.29938723756052465,0.053707405539261885,-0.0037082896073901334,0.011453846296881233,-0.003756361175001338,0.0010076659796886748,-0.009013123115285744,1.9250187629573678,-52.70349400342747,-17.025884431834513,-1.2031907305223324,0.2907730488985344,-0.08508392218003749
0.026391987107679152,-0.4999871821197338,0.6603757611878815,-0.8002659442707587,0.10028725255285934,0.29936885082681614,0.05415911783471314,-0.0038436053660292585,0.011777744134163246,-0.0038307538826602436,0.0009779535963406179,-0.009193366854247239,1.923692008754075,-52.70615109579693,-17.02236916014902,-1.2035665007001806,0.2904225193656441,-0.08582288771762209
0.0265012080301574,-0.4999951436240613,0.6603999722599253,-0.8002737560082399,0.10028914771316019,0.29935010005823054,0.05461046123912292,-0.0039807521637470105,0.012105536021895666,-0.0039058687406194584,0.0009475801504272488,-0.009375384292799159,1.9223536164451938,-52.708798772247334,-17.01885848038714,-1.2039417344100491,0.2900719627500108,-0.08656166016198788
0.02661133089661945,-0.5000033830792758,0.6604248466910285,-0.8002817194188466,0.10029098080455376,0.2993309817083057,0.05506143323102587,-0.0041197276072553616,0.012437215551632973,-0.003981705303366705,0.0009165456967844975,-0.00955917496242047,1.9210035888698171,-52.71143692082704,-17.015352426135816,-1.2043164260916412,0.289721378669385,-0.08730023785098961
0.026722354959202926,-0.5000119041378408,0.6604503922435505,-0.8002898359450912,0.10029275050513604,0.2993114922315245,0.05551203129173699,-0.004260529282490068,0.012772776260985262,-0.004058263122295873,0.0008848502911432437,-0.009744738390595219,1.91964192896801,-52.71406542970673,-17.011851030904044,-1.2046905701939232,0.28937076674377654,-0.08803861912292958
0.026834279465013648,-0.5000207104473501,0.6604766166668179,-0.8002981070285826,0.1002944554931163,0.2992916280833228,0.055962252905360624,-0.004403154754638398,0.013112211633699366,-0.004135541745713083,0.0008524939901310033,-0.00993207410081361,1.9182686397808117,-52.716684187180014,-17.00835432812234,-1.2050641611751711,0.2890201265954797,-0.08877680231654224
0.026947103656131247,-0.5000298056504864,0.6605035276970174,-0.8003065341100203,0.10029609444681885,0.2992713857200977,0.056412095558799426,-0.0045476015681671575,0.013455515099740864,-0.004213540718842757,0.0008194768512736113,-0.01012118161257308,1.9168837244502368,-52.71929308166435,-17.004862351141966,-1.205437193503111,0.2886694578490965,-0.08951478577101309
0.027060826769614774,-0.50003919338498,0.6605311330570881,-0.8003151186291879,0.10029766604468485,0.29925076159921493,0.0568615567417633,-0.004693867246850998,0.013802680035376923,-0.004292259583833704,0.0007857989329969027,-0.010312060441379394,1.9154871862192715,-52.7218920017012,-17.00137513323427,-1.2058096616550005,0.2883187601315649,-0.09025256782597217
0.02717544803750833,-0.5000488772835676,0.6605594404566146,-0.8003238620249474,0.1002991689652741,0.2992297521790174,0.05731063394677831,-0.004841949293801016,0.01415369976326,-0.004371697879765201,0.0007514602946283927,-0.01050471009874774,1.9140790284318705,-52.724480835957166,-16.997892707590093,-1.2061815601177424,0.2879680330721814,-0.09099014682150539
0.02729096668684672,-0.5000588609739506,0.6605884575917197,-0.8003327657352327,0.1003006018872669,0.299208353918833,0.05775932466919556,-0.004991845191493638,0.014508567552512423,-0.004451855142653082,0.0007164609963989529,-0.010699130092203836,1.912659254532948,-52.72705947322427,-16.994415107318982,-1.206552883387963,0.2876172763026283,-0.0917275210981555
0.02740738193966112,-0.5000691480787541,0.6606181921449573,-0.8003418311970436,0.1003019634894658,0.2991865632789824,0.05820762640720005,-0.00514355240179979,0.014867276618811785,-0.00453273090545584,0.0006808010994444868,-0.01089531992528505,1.911227868068368,-52.72962780242087,-16.99094236544861,-1.2069236259721323,0.2872664894569958,-0.09246468899692549
0.02752469301298476,-0.5000797422154861,0.6606486517852063,-0.8003510598464397,0.10030325245079741,0.29916437672078733,0.05865553666181948,-0.005297068366014372,0.015229820124477234,-0.0046143246980807195,0.000644480665807602,-0.011093279097541524,1.9097848726849322,-52.73218571259198,-16.987474514924024,-1.2072937823866545,0.2869156721718091,-0.09320164885927647
0.027642899118858623,-0.5000906469964959,0.6606798441675634,-0.8003604531185345,0.1003044674503143,0.29914179070657826,0.05910305293693306,-0.005452390504885997,0.015596191178556588,-0.004696636047389826,0.0006074997584392802,-0.01129300710453731,1.9083302721303634,-52.73473309291001,-16.984011588607057,-1.207663347157986,0.2865648240860554,-0.09393839902714701
0.027761999464337182,-0.5001018660289331,0.6607117769332372,-0.800370012447489,0.10030560716719669,0.29911880169970256,0.05955017273928026,-0.00560951621864704,0.01596638283691433,-0.004779664477206237,0.000569858441200545,-0.011494503437851513,1.9068640702532882,-52.73726983267556,-16.980553619275597,-1.2080323148226875,0.2862139448412043,-0.0946749378429395
0.02788199325149412,-0.5001134029147072,0.6607444577094419,-0.8003797392665056,0.10030667028075442,0.2990954061645324,0.059996893578469566,-0.005768442887043953,0.016340388102320424,-0.004863409508320112,0.000531556778864127,-0.011697767585079443,1.9053862710032174,-52.739795821317685,-16.97710063962286,-1.2084006799275826,0.28586303408123515,-0.09541126364953234
0.028002879677428094,-0.5001252612504459,0.660777894109291,-0.8003896350078226,0.10030765547042865,0.29907160056647275,0.06044321296698719,-0.005929167869367888,0.016718199924539996,-0.004947870658494813,0.0004925948371161259,-0.01190279902983378,1.9038968784305215,-52.74231094839473,-16.973652682256876,-1.208768437029811,0.2855120914526631,-0.09614737479028501
0.028124657934268507,-0.5001374446274548,0.6608120937316918,-0.8003997011027075,0.10030856141579376,0.29904738137196923,0.060889128420205725,-0.006091688504485596,0.017099811200423892,-0.00503304744247303,0.0004529726825576706,-0.012109597251745745,1.9023958966864067,-52.7448151035947,-16.97020977969961,-1.2091355806969597,0.2851611166045632,-0.0968832696090391
0.028247327209181293,-0.5001499566316765,0.6608470641612398,-0.8004099389814515,0.10030938679655918,0.2990227450485163,0.06133463745639284,-0.006256002110870609,0.01748521477400004,-0.005118939371982899,0.00041269038270657553,-0.012318161726466279,1.900883330022886,-52.747308176736055,-16.966771964386457,-1.209502105507157,0.2848101091885929,-0.09761894645012296
0.028370886684374732,-0.5001628008436497,0.660882812968113,-0.800420350073363,0.10031013029257117,0.2989976880646649,0.06177973759671987,-0.006422105986634719,0.017874403436565697,-0.005205545955744137,0.00037174800599899555,-0.012528491925667228,1.89935918279275,-52.74979005776818,-16.963339268665482,-1.209868006049135,0.2844590688590224,-0.09835440365835275
0.028495335537105274,-0.5001759808384688,0.6609193477079666,-0.800430935806762,0.10031079058381476,0.29897220689003084,0.06222442636527046,-0.006589997409559737,0.018267369926780526,-0.005292866699474174,0.0003301456217910762,-0.012740587317042553,1.8978234594495325,-52.75226063677181,-16.95991172479675,-1.2102332769223934,0.28410799527275415,-0.09908963957903794
0.028620672939683373,-0.500189500185743,0.660956675921828,-0.8004416976089738,0.10031136635041547,0.2989462979953022,0.0626687012890491,-0.006759673637129544,0.01866410693076053,-0.005380901105894286,0.00028788330036060245,-0.012954447364309526,1.8962761645474768,-52.75471980395992,-16.956489364951697,-1.2105979127372353,0.2837568880893503,-0.09982465255798767
0.028746898059479352,-0.5002033624495562,0.6609948051359924,-0.8004526369063233,0.10031185627264129,0.2989199578522478,0.06311255989798971,-0.00693113190656243,0.019064607082172842,-0.005469648674735735,0.0002449611129086433,-0.013170071527209951,1.8947173027414965,-52.757167449677866,-16.95307222121235,-1.2109619081149179,0.28340574697105697,-0.10055944094151363
0.02887401005892928,-0.5002175711884259,0.6610337428619171,-0.8004637551241288,0.1003122590309044,0.29889318293372474,0.06355599972496413,-0.007104369434843702,0.019468862962331336,-0.005559108902745908,0.000201379131561194,-0.013387459261511392,1.893146878787138,-52.759603464404236,-16.949660325570786,-1.2113252576877105,0.28305457158282943,-0.10129400307642754
0.029002008108323374,-0.5002321299381323,0.6610734966451696,-0.8004750536618553,0.10031258060435014,0.29886596971366897,0.06399902469704652,-0.007279374853170114,0.01987689162624472,-0.005649268863236205,0.00016078672286431317,-0.013606610027899441,1.8915649119854914,-52.76202774040995,-16.946253711629456,-1.2116879586134295,0.2827033612976831,-0.10202833728800649
0.029130891389267347,-0.5002470422070483,0.6611140740785846,-0.8004865338863939,0.10031283624369296,0.298838314667098,0.0644416404719867,-0.007456134458036297,0.020288716707522542,-0.005740112269285781,0.00012781967140974347,-0.013827523285491635,1.8899714260949838,-52.76444017340058,-16.942852415936095,-1.212050011544895,0.28235211515326025,-0.10276244189544924
0.02926065907338951,-0.500262311504645,0.6611554827204281,-0.8004981971734468,0.10031303831000533,0.29881021427014876,0.06488384206108251,-0.007634648798300425,0.02070432092175652,-0.005831643526482984,0.00010103315618638455,-0.014050198474621156,1.8883664210813358,-52.766840660173955,-16.93945647543867,-1.2124114165278936,0.28200083235394835,-0.10349631525495738
0.029391310323305435,-0.5002779413401649,0.6611977300979723,-0.8005100449056581,0.1003131968222381,0.29878166500008413,0.06532562495796106,-0.007814917759967888,0.02112368877210351,-0.005923866105656255,7.925611638564789e-05,-0.01427463503231956,1.886749897942401,-52.769229096645965,-16.936065926093246,-1.2127721726973784,0.28164951218716333,-0.1042299557218046
0.029522844293400963,-0.500293935221541,0.6612408237103741,-0.800522078471097,0.10031331990099848,0.29875266333529976,0.06576698504776327,-0.007996940688023908,0.021546806200855525,-0.006016782719435339,6.153938018579383e-05,-0.014500832392191552,1.8851218585414693,-52.77160537804289,-16.932680803033136,-1.2131322784522172,0.28129815400816144,-0.10496336165059882
0.029655260130468035,-0.5003102966545113,0.6612847710309881,-0.8005342992620278,0.10031341412824234,0.2987232057553311,0.06620791853353629,-0.008180716485186755,0.021973660307045874,-0.006110395465359214,4.7113621929864977e-05,-0.01472878998431375,1.8834823054696448,-52.77396939905711,-16.929301140705814,-1.2134917315968274,0.28094675722773643,-0.1056965313955057
0.029788556974221184,-0.5003270291418952,0.6613295795092233,-0.8005467086739115,0.10031348483881322,0.2986932887408608,0.06664842187657365,-0.00836624369195494,0.022404239117579796,-0.006204705941869418,3.535528544433766e-05,-0.014958507235152867,1.8818312419324748,-52.7763210539736,-16.92592697298399,-1.2138505294560664,0.28059532130225395,-0.10642946331043006
0.029922733957717305,-0.5003441361829982,0.6613752565720268,-0.8005593081045962,0.10031353635674142,0.2986629087737258,0.06708849174806052,-0.008553520551492989,0.02283853140174843,-0.006299715342326373,2.5758964099388508e-05,-0.015189983567499664,1.8801686716567136,-52.778660236773,-16.922558333255363,-1.2142086689683242,0.28024384572558636,-0.10716215574916343
0.030057790200996807,-0.5003616212820997,0.6614218095993549,-0.8005720989666787,0.10031356836128953,0.2986320623369343,0.06752812163975157,-0.00874254955072032,0.023276513664058123,-0.006395431041226909,1.6002274053169772e-05,-0.015423218395755377,1.8784945908280914,-52.78098684046623,-16.919195253669514,-1.2145661454539507,0.2798923301784644,-0.10789460707768324
0.030193724817477712,-0.5003794879398533,0.6614692459485851,-0.8005850826750852,0.10031357953427346,0.2986007459146647,0.0679673082404531,-0.008933328876831174,0.023718174615109368,-0.006491854203287547,5.586491964588396e-06,-0.015658211134802993,1.8768090031498477,-52.783300757086806,-16.915837765419177,-1.2149229537055306,0.2795407743602243,-0.10862681565119187
0.030330536915709,-0.5003977396509065,0.6615175729611191,-0.8005982606436705,0.10031356855767672,0.2985689559922711,0.06840604911564471,-0.009125855526615425,0.02416350626701756,-0.006588984292615753,-5.488298368743814e-06,-0.01589496119678063,1.8751119144816015,-52.78560187860462,-16.912485899458627,-1.2152790884846623,0.27918917796776815,-0.10935877982231547
0.03046822559937669,-0.5004163799038606,0.6615667979622807,-0.8006116342852113,0.10031353411365229,0.2985366890562914,0.06884434183384434,-0.009320126477045356,0.024612500580757972,-0.00668682077040764,-1.7222012210111684e-05,-0.016133467989867548,1.873403330782926,-52.78789009712852,-16.909139686644004,-1.2156345445651708,0.2788375407010265,-0.1100904979442226
0.030606789967309922,-0.5004354121812312,0.6616169282612132,-0.8006252050114012,0.10031347488452452,0.2985039415944548,0.06928218396661659,-0.00951613868531196,0.025065149466272297,-0.006785363094954131,-2.9614563882146886e-05,-0.01637373091828551,1.8716832581132798,-52.79016530490702,-16.905799157732723,-1.2159893167332725,0.278485862262979,-0.1108219683706363
0.030746229113487084,-0.500454839959409,0.6616679711507784,-0.8006389742328445,0.100313389552791,0.2984707100956902,0.06971957308858084,-0.009713889088861534,0.025521444782576026,-0.006884610721647117,-4.2665866765281726e-05,-0.016615749382300118,1.8699517026319334,-52.79242739432872,-16.902464343382764,-1.216343399787625,0.27813414235968326,-0.11155318945584054
0.03088654212704192,-0.5004746667086198,0.6617199339074541,-0.8006529433590505,0.10031327680112441,0.29843699105013377,0.07015650677741947,-0.009913374605432528,0.025981378337866644,-0.006984563102985613,-5.637583329620717e-05,-0.016859522778222176,1.8682086705978982,-52.79467625792273,-16.899135274152062,-1.2166967885394515,0.2777823807002975,-0.11228415955467497
0.031027728092269693,-0.500494895892886,0.6617728237912334,-0.8006671137984276,0.10031313531237447,0.29840278094913697,0.07059298261388597,-0.010114592133092716,0.026444941889632704,-0.0070852196885819166,-7.07443749663353e-05,-0.017105050498409064,1.8664541683698488,-52.79691178835903,-16.8958119804977,-1.2170494778126295,0.2774305769971064,-0.11301487702254395
0.031169786088633317,-0.5005155309699866,0.6618266480455229,-0.8006814869582779,0.10031296376956983,0.29836807628527445,0.07102899818181309,-0.010317538550276601,0.02691212714476366,-0.007186579925167766,-8.577140232026471e-05,-0.01735233193126612,1.8646882024060456,-52.799133878448984,-16.8924944927754,-1.2174014624437732,0.2770787309655448,-0.11374534021542392
0.03131271519076956,-0.5005365753914183,0.6618814138970422,-0.8006960642447911,0.10031276085591992,0.29833287355235194,0.07146455106812093,-0.01052221071582315,0.02738292575966058,-0.007288643256600494,-0.00010145682495425202,-0.017601366461248012,1.8629107792642559,-52.801342421145854,-16.889182841238743,-1.2177527372823689,0.2767268423242227,-0.11447554748985846
0.031456514468495206,-0.5005580326023563,0.661937128555723,-0.8007108470630389,0.10031252525481689,0.2982971692454142,0.071899638862825,-0.010728605469013764,0.027857329340347667,-0.007391409123869184,-0.00011780055151468631,-0.017852153468860158,1.861121905601671,-52.803537309544964,-16.88587705603856,-1.2181032971908645,0.27637491079495063,-0.11520549720296618
0.031601182986813296,-0.5005799060416155,0.6619937992146081,-0.8007258368169691,0.10031225564983749,0.2982609598607529,0.0723342591590443,-0.010936719629610566,0.02833532944258461,-0.0074948769651008215,-0.00013480248969656807,-0.018104692330660112,1.8593215881748235,-52.80571843688443,-16.882577167222237,-1.2184531370447118,0.27602293610276396,-0.11593518771245007
0.03174671980591932,-0.5006021991416113,0.6620514330497521,-0.8007410349094002,0.10031195072474501,0.2982242418959144,0.0727684095530094,-0.011146549997894937,0.028816917571979756,-0.007599046215566447,-0.00015246254624199336,-0.018358982419258988,1.8575098338394997,-52.80788569654535,-16.879283204733042,-1.2188022517325354,0.2756709179759465,-0.11666461737659281
0.03189312398120746,-0.5006249153283208,0.6621100372201203,-0.8007564427420155,0.10031160916349113,0.29818701184970775,0.07320208764407035,-0.011358093354706365,0.0293020851841041,-0.007703916307687305,-0.0001707806269386415,-0.01861502310332288,1.8556866495506539,-52.810038982052156,-16.875995198409495,-1.2191506361561972,0.27531885614605683,-0.11739378455425735
0.03204039456327687,-0.5006480580212437,0.6621696188674895,-0.8007720617153576,0.1003112296502179,0.2981492662222126,0.07363529103470477,-0.011571346461481535,0.029790823684606102,-0.007809486671040992,-0.00018975663661826807,-0.018872813747574296,1.8538520423623164,-52.812178187073364,-16.872713177984675,-1.2194982852308929,0.2749667503479517,-0.11812268760490742
0.03218853059793792,-0.5006716306333643,0.6622301851163481,-0.8007878932288224,0.10031081086925958,0.29811100151478703,0.07406801733052577,-0.01178630606029373,0.03028312442932734,-0.007915756732367602,-0.00020939047915520152,-0.019132353712793603,1.8520060194275039,-52.81430320542156,-16.869437173085565,-1.2198451938852624,0.27461460031981044,-0.11885132488859446
0.032337531126218504,-0.500695636571112,0.662291743073797,-0.8008039386806536,0.10031035150514465,0.2980722142300754,0.07450026414028994,-0.012002968873892498,0.030778978724418943,-0.008022725915575872,-0.00022968205746484586,-0.01939364235582047,1.8501485879981248,-52.81641393105396,-16.866167213232337,-1.220191357061455,0.27426240580315897,-0.11957969476596608
0.03248739518437031,-0.5007200792343235,0.6623542998294499,-0.800820199467937,0.10030985024259766,0.2980329008720163,0.07493202907590525,-0.012221331605743586,0.03127837782645888,-0.008130393641749318,-0.0002506312735021868,-0.01965667902955533,1.8482797554248835,-52.81851025807289,-16.8629033278378,-1.220536769715277,0.27391016654289646,-0.12030779559827648
0.03263812180387519,-0.5007449620162037,0.6624178624553351,-0.8008366769865953,0.10030930576654114,0.29799305794585035,0.07536330975243899,-0.012441390940069175,0.03178131294257004,-0.008238759329152379,-0.0002722380282603032,-0.01992146308296086,1.846399529157184,-52.820592080725994,-16.85964554620667,-1.2208814268162447,0.2735578822873176,-0.12103562574738033
0.03278971001145144,-0.5007702883032874,0.6624824380057962,-0.8008533726313818,0.1003087167620976,0.29795268195812824,0.07579410378812562,-0.012663143541888373,0.03228777523053916,-0.008347822393236549,-0.00029450222176888356,-0.02018799386106344,1.8445079167430294,-52.82265929340668,-16.856393897534907,-1.2212253233477053,0.27320555278813724,-0.1217631835757423
0.03294215882906019,-0.5007960614754016,0.6625480335173941,-0.8008702877958751,0.10030808191459141,0.2979117694167183,0.0762244088043747,-0.01288658605705799,0.032797755798936505,-0.00845758224664651,-0.00031742375309274723,-0.02045627070495465,1.8426049258289232,-52.8247117906545,-16.853148410909036,-1.221568454306912,0.27285317780051394,-0.12249046744644017
0.033095467273911744,-0.5008222849056262,0.6626146560088085,-0.8008874238724736,0.10030739990955075,0.2978703168308147,0.07665422242577871,-0.013111715112313602,0.03331124570723643,-0.008568038299226264,-0.00034100252033036996,-0.020726292951792763,1.8406905641597633,-52.826749467155466,-16.849909115305564,-1.2219108147051436,0.2725007570830775,-0.12321747572316508
0.03324963435847199,-0.5008489619602569,0.6626823124807404,-0.8009047822523896,0.10030666943270952,0.2978283207109451,0.07708354228012088,-0.013338527315310862,0.033828235965938716,-0.008679189958025253,-0.00036523842061241544,-0.02099805993480425,1.8387648395787402,-52.82877221774253,-16.84667603959026,-1.2222523995677834,0.2721482903979494,-0.12394420677022827
0.033404659090468754,-0.5008760959987661,0.6627510099158138,-0.8009223643256442,0.10030588917000932,0.29778577756897856,0.07751236599838301,-0.01356701925466712,0.03434871753669071,-0.008791036627304492,-0.00039013135010027103,-0.021271570983285294,1.836827760027229,-52.830779937395704,-16.84344921251752,-1.2225932039344303,0.27179577751076855,-0.1246706589525679
0.03356054047289826,-0.5009036903737661,0.6628207552784786,-0.8009401714810613,0.10030505780760135,0.29774268391813336,0.07794069121475329,-0.013797187500003293,0.034872681332410276,-0.008903577708542675,-0.00041568120398458995,-0.02154682542260331,1.8348793335446825,-52.83277252124262,-16.84022866272972,-1.2229332228589809,0.27144321819071593,-0.1253968306357429
0.03371727750403153,-0.5009317484309701,0.6628915555149134,-0.8009582051062623,0.10030417403184838,0.29769903627298494,0.07836851556663402,-0.01402902860198602,0.0354001182174096,-0.009016812600442304,-0.00044188787648383654,-0.021823822574198473,1.83291956826852,-52.834749864558816,-16.83701441875654,-1.2232724514097357,0.2710906122105373,-0.12612272018594733
0.03387486917742083,-0.5009602735091548,0.6629634175529284,-0.8009764665876601,0.1003032365293267,0.2976548311494738,0.0787958366946494,-0.014262539092370099,0.03593101900751971,-0.00913074069893579,-0.00046875126084283875,-0.022102561755585268,1.830948472434018,-52.83671186276801,-16.833806509014337,-1.2236108846694738,0.2707379593465683,-0.12684832597001236
0.034033314481906135,-0.500989268940123,0.6630363483018689,-0.8009949573104544,0.10030224398682804,0.29761006506491305,0.0792226522426533,-0.014497715484041182,0.036465374470215875,-0.009245361397191563,-0.0004962712493313447,-0.02238304228035403,1.828966054374194,-52.8386584114425,-16.830604961805477,-1.223948517735578,0.27038525937875946,-0.12757364635539695
0.03419261240162161,-0.501018738048665,0.6631103546525183,-0.8010136786586257,0.10030119509136155,0.2975647345379967,0.07964895985773693,-0.014734554271058742,0.03700317532474378,-0.009360674085620177,-0.0005244477332425853,-0.02266526345817251,1.8269723225196943,-52.840589406303415,-16.8274098053177,-1.2242853457201217,0.27003251209069656,-0.12829867971021064
0.03435276191600208,-0.5010486841525225,0.6631854434770028,-0.8010326320149295,0.10030008853015578,0.29751883608880714,0.08007475719023655,-0.01497305192869934,0.03754441224224649,-0.009476678151880408,-0.0005532806028918411,-0.02294922459478742,1.8249672853986776,-52.84250474322123,-16.824221067623473,-1.2246213637499341,0.26967971726962914,-0.12902342440320574
0.03451376199978957,-0.5010791105623494,0.6632616216286946,-0.8010518187608913,0.10029892299066055,0.29747236623882306,0.08050004189374117,-0.015213204913500132,0.03808907584589223,-0.009593372980885346,-0.0005827697476150165,-0.02323492499202605,1.8229509516366942,-52.84440431821572,-16.821038776679313,-1.2249565669667482,0.26932687470648997,-0.12974787880378189
0.03467561162303977,-0.5011100205816761,0.6633388959421166,-0.8010712402768009,0.10029769716054902,0.2974253215109275,0.08092481162510025,-0.015455009663302667,0.03863715671100296,-0.00971075795480849,-0.000612915055767217,-0.023522363947797803,1.82092332995657,-52.84628802745675,-16.81786296032522,-1.225290950527247,0.26897398419592294,-0.13047204128199627
0.03483830975112863,-0.5011414175068707,0.6634172732328469,-0.8010908979417071,0.10029640972771958,0.2973776984294153,0.08134906404443124,-0.015698462597296944,0.03918864536518371,-0.009828832453089823,-0.0006437164147213342,-0.023811540756095834,1.8188844291782822,-52.848155767264124,-16.814693646283903,-1.2256245096031877,0.26862104553630295,-0.13119591020855226
0.035001855344758886,-0.5011733046271029,0.6634967602974239,-0.8011107931334119,0.10029505938029785,0.2973294935200013,0.08177279681512732,-0.015943560116065764,0.039743532288452794,-0.009947595852441902,-0.0006751737108666355,-0.024102454706998618,1.8168342582188393,-52.850007434108214,-16.8115308621603,-1.2259572393814848,0.26826805852976443,-0.13191948395482586
0.03516624735996662,-0.5012056852243061,0.6635773639132506,-0.8011309272284657,0.10029364480663865,0.297280703309828,0.08219600760386497,-0.016190298601629318,0.04030180791337272,-0.010067047526855923,-0.0007072868296073586,-0.02439510508667158,1.814772826092154,-52.85184292461014,-16.8083746354408,-1.2262891350643068,0.26791502298221936,-0.13264276089284774
0.03533148474812784,-0.501238562573141,0.6636590908385009,-0.8011513016021609,0.10029216469532792,0.29723132432747323,0.08261869408061158,-0.016438674417490064,0.04086346262518193,-0.010187186847607797,-0.0007400556553613132,-0.02468949117736871,1.8127001419089206,-52.85366213554201,-16.80522499349267,-1.2266201918691668,0.2675619387033846,-0.13336573939531926
0.03549756645596511,-0.5012719399409584,0.6637419478120248,-0.8011719176285274,0.1002906177351848,0.29718135310295835,0.08304085391863299,-0.016688683908677886,0.041428486761927355,-0.010308013183264214,-0.000773480071558487,-0.024985612257434193,1.8106162148764857,-52.855464963827416,-16.802081963563435,-1.2269504050290276,0.26720880550680615,-0.1340884178356091
0.03566449142555411,-0.501305820587762,0.663825941553254,-0.8011927766803267,0.10028900261526352,0.29713078616775573,0.08346248479450108,-0.016940323401795493,0.04199687061459773,-0.010429525899688695,-0.0008075599606396588,-0.025283467601304045,1.8085210542987196,-52.85725130654139,-16.798945572780195,-1.2272797697923745,0.2668556232098791,-0.13481079458776754
0.03583225859433031,-0.501340207766172,0.6639110787621085,-0.8012138801290468,0.10028731802485541,0.2970796200547967,0.08388358438810134,-0.01719358920506411,0.042568604427257684,-0.01055172436004765,-0.0008422952040550161,-0.025583056479507763,1.806414669575887,-52.859021060911026,-16.79581584814903,-1.2276082814233373,0.2665023916338739,-0.13553286802651635
0.036000866895095594,-0.5013751047213888,0.6639973661189029,-0.8012352293448964,0.10028556265349088,0.29702785129847936,0.08430415038264037,-0.01744847760836942,0.04314367839718262,-0.01067460792481642,-0.0008776856822627799,-0.025884378158669976,1.8042970702045156,-52.86077412431556,-16.792692816554315,-1.2279359352017576,0.26614911060395946,-0.13625463652726486
0.036170315256024904,-0.5014105146911554,0.6640848102842529,-0.8012568256968,0.10028373519094143,0.2969754764346763,0.08472418046465338,-0.0177049848833078,0.04372208267499441,-0.010798175951785326,-0.0009137312747278339,-0.026187431901512116,1.8021682657772624,-52.86251039428677,-16.789576504758212,-1.2282627264233008,0.2657957799492268,-0.13697609846610212
0.03634060260067293,-0.5014464409057219,0.6641734178989825,-0.8012786705523921,0.10028183432722158,0.2969224920007426,0.08514367232401171,-0.017963107283232766,0.04430380736479784,-0.010922427796065693,-0.0009504318599203611,-0.026492216966854085,1.8000282659827804,-52.864229768509084,-16.786466939399872,-1.228588650399532,0.26544239950271015,-0.13769725221980852
0.03651172784798079,-0.5014828865878085,0.6642631955840311,-0.8013007652780123,0.10027985875259096,0.2968688945355234,0.08556262365393032,-0.018222841043301782,0.04488884252431782,-0.011047362810095888,-0.0009877873153144854,-0.026798732609615943,1.797877080605582,-52.865932144820015,-16.783364146994963,-1.228913702458043,0.2650889691014131,-0.1384180961658599
0.03668368991228274,-0.5015198549525696,0.6643541499403612,-0.8013231112386996,0.10027780715755619,0.2968146805793618,0.0859810321509752,-0.018484182380523226,0.045477178165037394,-0.011172980343647335,-0.00102579751738692,-0.027106978080819594,1.7957147195259031,-52.86761742121035,-16.780268153934944,-1.2292378779424844,0.2647354885863301,-0.13913862868242588
0.03685648770331288,-0.5015573492075571,0.6644462875488659,-0.8013457097981872,0.10027567823287295,0.2967598466741066,0.08639889551507089,-0.01874712749380369,0.04606880425233654,-0.011299279743830536,-0.0010644623416156207,-0.02741695262759049,1.7935411927195641,-52.8692854958244,-16.777178986486533,-1.2295611722127369,0.2643819578024707,-0.13985884814837696
0.037030120126211895,-0.5015953725526852,0.6645396149702771,-0.8013685623188974,0.10027347066954799,0.29670438936312027,0.08681621144950785,-0.01901167256399554,0.04666371070563169,-0.011426260355101076,-0.0011037816624784467,-0.027728655493159345,1.7913565102578315,-52.87093626696031,-16.774096670790968,-1.2298835806449233,0.26402837659888234,-0.14057875294329056
0.03720458608153379,-0.501633928180193,0.6646341387450742,-0.8013916701619359,0.10027118315884109,0.29664830519128654,0.08723297766094994,-0.0192778137539447,0.047261887398516084,-0.011553921519265629,-0.0011437553534518266,-0.028042085916863836,1.7891606823072757,-52.872569633070306,-16.771021232863546,-1.2302050986315685,0.26367474482867215,-0.14129834144744252
0.03737988446525267,-0.5016730192746102,0.664729865393392,-0.8014150346870869,0.10026881439226708,0.2965915907050182,0.08764919185944174,-0.019545547208538742,0.04786332415890084,-0.011682262575487951,-0.001184383287009431,-0.028357243134150348,1.7869537191296303,-52.874185492760844,-16.767952698592826,-1.2305257215816503,0.2633210623490318,-0.14201761204183
0.037556014168769504,-0.5017126490127197,0.6648268014149302,-0.8014386572528075,0.10026636306159784,0.29653424245226506,0.08806485175841602,-0.019814869054755224,0.04846801076915684,-0.01181128286029487,-0.0012256653346208513,-0.028674126376575695,1.7847356310816485,-52.875783744793026,-16.76489109374019,-1.2308454449207082,0.262967329021261,-0.1427365631081607
0.03773297407891891,-0.5017528205635231,0.6649249532888627,-0.8014625392162227,0.10026382785886434,0.29647625698252145,0.08847995507470105,-0.020085775401710287,0.04907593696625733,-0.011940981707582265,-0.0012676013667502848,-0.02899273487180888,1.7825064286149581,-52.87736428808267,-16.76183644393911,-1.2311642640909226,0.2626135447107868,-0.14345519302885806
0.037910763077975966,-0.5017935370882045,0.6650243274737465,-0.8014866819331199,0.10026120747635862,0.2964176308468342,0.088894499528528,-0.020358262340707506,0.04968709244192131,-0.012071358448621046,-0.0013101912528552257,-0.029313067843632835,1.7802661222759182,-52.87892702170077,-16.75878877469465,-1.2314821745512414,0.26225970928719144,-0.14417350018707137
0.038089380043663044,-0.5018348017400951,0.665124930407432,-0.801511086757944,0.10025850060663585,0.2963583605978103,0.08930848284353825,-0.020632325945287033,0.050301466842757714,-0.012202412412063116,-0.0013534348613851632,-0.029635124511946182,1.778014722705469,-52.8804718448735,-16.75574811138272,-1.2317991717773988,0.26190582262423057,-0.14489148296667378
0.03826882384915663,-0.5018766176646376,0.6652267685069728,-0.8015357550437919,0.10025570594251629,0.29629844278962475,0.0897219027467907,-0.020907962271274956,0.05091904977041029,-0.012334142923947331,-0.0013973320597802856,-0.02995890409276502,1.7757522406389874,-52.88199865698255,-16.75271447924957,-1.2321152512621003,0.26155188459985956,-0.14560913975226938
0.03844909336309416,-0.5019189879993513,0.6653298481685362,-0.8015606881424073,0.10025282217708735,0.2962378739780283,0.09013475696876917,-0.021185167356832957,0.051539830781703294,-0.012466549307705455,-0.00144188271447019,-0.030284405798224685,1.7734786869061367,-52.8835073575655,-16.749687903411193,-1.2324304085150466,0.26119789509625413,-0.14632646892919252
0.03863018744958094,-0.5019619158737963,0.6654341757673138,-0.8015858874041757,0.10024984800370561,0.29617665072035515,0.0905470432433896,-0.021463937222508212,0.05216379938878789,-0.012599630884168106,-0.001487086690872601,-0.030611628836581552,1.7711940724307165,-52.884997846315734,-16.7466684088527,-1.2327446390630394,0.26084385399983306,-0.14704346888351746
0.03881210496819695,-0.5020054044095389,0.6655397576574323,-0.8016113541781188,0.10024678211599883,0.29611476957553073,0.09095875930800736,-0.021744267871283546,0.052790945059289336,-0.012733386971570684,-0.0015329438533920915,-0.030940572412214824,1.768898408230511,-52.88647002308293,-16.743656020427675,-1.2330579384500888,0.26048976120128337,-0.1477601380020529
0.0389948447740038,-0.5020494567201161,0.6656466001718653,-0.80163708981189,0.10024362320786799,0.29605222710407947,0.09136990290342455,-0.022026155288627863,0.053421257216454944,-0.012867816885559316,-0.0015794540654188154,-0.03127123572562835,1.7665917054171398,-52.88792378787323,-16.740650762857694,-1.2333703022374738,0.26013561659557793,-0.14847647467235925
0.039178405717551594,-0.5020940759110012,0.6657547096223438,-0.8016630956517684,0.10024036997348934,0.2959890198681326,0.09178047177389723,-0.022309595442546803,0.054054725239302714,-0.013002919939196758,-0.0016266171893272424,-0.03160361797345242,1.7642739751959016,-52.88935904084943,-16.737652660731634,-1.2336817260038664,0.2597814200820032,-0.14919247728273807
0.03936278664488588,-0.5021392650795684,0.6658640922992694,-0.8016893730426543,0.10023702110731639,0.2959251444314357,0.09219046366714266,-0.022594584283633697,0.0546913384627708,-0.013138695442968324,-0.0016744330864749022,-0.031937718348445616,1.7619452288656217,-52.89077568233108,-16.734661738505146,-1.2339922053454202,0.2594271715641781,-0.14990814422224322
0.03954798639755457,-0.5021850273150587,0.6659747544716251,-0.8017159233280639,0.10023357530408199,0.2958605973593567,0.09259987633434655,-0.02288111774512074,0.055331086177867646,-0.013275142704787784,-0.0017229016172011335,-0.032273536039496606,1.759605477818497,-52.89217361279502,-16.731678020500013,-1.2343017358758197,0.25907287095007825,-0.15062347388068498
0.03973400381261492,-0.5022313656985445,0.6660867023868888,-0.8017427478501239,0.10023003125880034,0.2957953752188935,0.09300870753017024,-0.023169191742930438,0.05597395763182294,-0.013412261030003262,-0.0017720226408258406,-0.03261107023162603,1.7572547335399404,-52.89355273287525,-16.728701530903628,-1.234610313226409,0.258718518152057,-0.15133846464863143
0.039920837722640434,-0.502278283302896,0.6661999422709453,-0.8017698479495667,0.10022638766676904,0.2957294745786815,0.0934169550127579,-0.023458802175727322,0.05661994202823925,-0.013550049721403126,-0.0018217960156482567,-0.03295032010598832,1.7548930076084226,-52.89491294336332,-16.725732293768353,-1.2349179330462667,0.25836411308686824,-0.15205311491741294
0.04010848695572792,-0.502325783192746,0.6663144803279998,-0.8017972249657251,0.10022264322357115,0.29566289200900175,0.09382461654374377,-0.02374994492496988,0.05726902852724444,-0.013688508079221867,-0.001872221598945714,-0.033291284839873564,1.7525203116953156,-52.89625414520855,-16.722770333011002,-1.235224591002299,0.2580096556756898,-0.15276742307912186
0.040296950335504435,-0.502373868424456,0.6664303227404911,-0.8018248802365274,0.1002187966250772,0.29559562408178836,0.09423168988825928,-0.024042615854962784,0.057921206245644785,-0.01382763540114597,-0.0019232992469724202,-0.03363396360670939,1.7501366575647341,-52.89757623951811,-16.719815672412228,-1.2355302827793366,0.25765514584414284,-0.15348138752662582
0.040486226681134316,-0.5024225420460818,0.6665474756690052,-0.801852815098492,0.10021484656744728,0.29552766737063624,0.09463817281494022,-0.024336810812909334,0.058576464257078846,-0.013967430982319779,-0.001975028814958241,-0.03397835557606281,1.7477420570733746,-52.89887912755738,-16.716868335615953,-1.235835004080203,0.2573005835223162,-0.15419500665355762
0.04067631480732618,-0.5024718070973397,0.6666659452521896,-0.8018810308867228,0.10021079174713307,0.29545901845080896,0.0950440630959339,-0.024632525628964178,0.059234791592172084,-0.014107894115351351,-0.002027410157107491,-0.03432445991364214,1.7453365221703565,-52.900162710750045,-16.71392834612879,-1.2361387506258177,0.25694596864478725,-0.15490827885433303
0.040867213524339994,-0.5025216666095723,0.6667857376066669,-0.8019095289349034,0.10020663086087987,0.29538967389924636,0.09544935850690626,-0.024929756116286277,0.0598961772386922,-0.014249024090318304,-0.0020804431265977314,-0.034672275781298875,1.7429200648970609,-52.90142689067832,-16.710995727319528,-1.2364415181552826,0.25659130115064527,-0.15562120252414566
0.04105892163799409,-0.5025721236057145,0.6669068588269503,-0.801938310575293,0.10020236260572872,0.2953196302945723,0.09585405682704903,-0.025228498071092113,0.060560610141705176,-0.014390820194773649,-0.0021341275755785726,-0.035021802337029596,1.7404926973869672,-52.902671569083246,-16.708070502418508,-1.236743302425982,0.25623658098351165,-0.15633377605897247
0.041251437949672266,-0.5026231811002598,0.6670293149853578,-0.8019673771387205,0.10019798567901837,0.2952488842171024,0.0962581558390868,-0.025528747272709162,0.06122807920373207,-0.014533281713751622,-0.0021884633551704858,-0.03537303873497788,1.7380544318654925,-52.903896647864606,-16.705152694517068,-1.2370440992136351,0.25588180809156125,-0.15704599785557738
0.041444761256330835,-0.5026748420992271,0.6671531121319276,-0.80199672995458,0.10019349877838744,0.2951774322488515,0.09666165332928411,-0.025830499483629605,0.06189857328490654,-0.014676407929773507,-0.0022434503154636206,-0.03572598412543621,1.7356052806498266,-52.905102029081505,-16.702242326567028,-1.237343904312424,0.2555269824275473,-0.15775786631151356
0.04163889035050574,-0.5027271096001262,0.6672782562943339,-0.8020263703508258,0.1001889006017764,0.29510527097354183,0.0970645470874526,-0.026133750449564286,0.06257208120313308,-0.014820198122853439,-0.002299088305516629,-0.03608063765484794,1.7331452561487675,-52.906287614952284,-16.69933942138012,-1.2376427135350732,0.25517210394881906,-0.15846937982513268
0.041833824020319654,-0.5027799865919252,0.6674047534778024,-0.8020562996539669,0.10018418984742969,0.2950323969766102,0.09746683490695798,-0.02643849589949692,0.06324859173424595,-0.014964651570504207,-0.002355377173355497,-0.03643699846580919,1.7306743708625585,-52.90745330785478,-16.6964440016274,-1.2379405227128994,0.25481717261734627,-0.1591805367955825
0.04202956104948911,-0.5028334760550167,0.6675326096650267,-0.8020865191890624,0.10017936521389774,0.2949588068452161,0.09786851458472717,-0.026744731545738573,0.06392809361216889,-0.01510976754774305,-0.002412316765972385,-0.03679506569707081,1.7281926373827203,-52.90859901032652,-16.693556089838744,-1.2382373276959588,0.25446218839974133,-0.15989133562280808
0.04222610021733162,-0.5028875809611847,0.6676618308160849,-0.8021170302797166,0.1001744254000391,0.294884497168249,0.0982695839212553,-0.02705245308398234,0.06461057552907548,-0.015255545327097438,-0.0024699069293244716,-0.03715483848354035,1.7257000683918862,-52.90972462506499,-16.69067570840226,-1.2385331243530875,0.25410715126727623,-0.16060177470756481
0.042423440298772847,-0.5029423042735714,0.6677924228683559,-0.8021478342480738,0.10016936910502243,0.29480946453633644,0.09867004072061278,-0.0273616561933583,0.06529602613555023,-0.015401984178610842,-0.0025281475083328052,-0.03751631595628399,1.7231966766636346,-52.910830054927644,-16.687802879563815,-1.2388279085720078,0.2537520611959093,-0.1613118524514166
0.04262158006435375,-0.5029976489466444,0.6679243917364375,-0.8021789324148135,0.10016419502832867,0.2947337055418514,0.09906988279045226,-0.027672336536488724,0.06598443404075043,-0.015549083369848503,-0.002587038346881167,-0.03787949724252855,1.720682475062322,-52.91191520293233,-16.684937625426436,-1.239121676259412,0.2533969181663034,-0.1620215672567409
0.04282051828023778,-0.5030536179261635,0.6680577433120626,-0.8022103260991453,0.10015890186975304,0.2946572167789201,0.09946910794201569,-0.027984489759543506,0.06667578781256861,-0.015696842165903183,-0.0026465792878149342,-0.03824438146566345,1.718157476542914,-52.912979972257226,-16.682079967949747,-1.2394144233410467,0.2530417221638483,-0.16273091752672644
0.04302025370821806,-0.5031102141491481,0.6681924834640182,-0.8022420166188041,0.10015348832940717,0.2945799948434296,0.09986771399014131,-0.02829811149229584,0.06737007597779585,-0.015845259829400913,-0.0027067701729399565,-0.0386109677452427,1.7156216941508173,-52.91402426624112,-16.67922992894957,-1.2397061457618006,0.2526864731786821,-0.16343990166538483
0.0432207851057246,-0.5031674405438445,0.6683286180380628,-0.8022740052900451,0.10014795310772112,0.2945020363330356,0.10026569875327063,-0.02861319734817816,0.06806728702228561,-0.01599433562050673,-0.002767610843021436,-0.038979255196986896,1.71307514102171,-52.915047988383684,-16.676387530097234,-1.2399968394857939,0.25233117120571036,-0.16414851807754666
0.04342211122583151,-0.5032253000296932,0.668466152856845,-0.8023062934276389,0.10014229490544556,0.29442333784717006,0.10066306005345538,-0.028929742924338295,0.06876740939111844,-0.016144068796930398,-0.0028291011377828143,-0.03934924293278525,1.710517830381372,-52.91605104234549,-16.673552792919132,-1.2402865004964467,0.2519758162446309,-0.164856765168877
0.04362423081726424,-0.5032837955172966,0.6686050937198225,-0.8023388823448668,0.10013651242365375,0.2943438959870487,0.1010597957163645,-0.029247743801695886,0.06947043148876728,-0.01629445861393213,-0.00289124089590467,-0.03972093006069758,1.7079497755455146,-52.917033331948375,-16.670725738796232,-1.2405751247966068,0.25162040829995164,-0.16556464134586846
0.043827142624406824,-0.5033429299083866,0.668745446403181,-0.8023717733535155,0.1001306043637437,0.29426370735567875,0.1014559035712911,-0.029567195544999033,0.07017634167926345,-0.016445504324328283,-0.002954029955023619,-0.040094315684956354,1.7053709899196094,-52.91799476117537,-16.66790638896349,-1.24086270840858,0.2512649473810119,-0.16627214501584053
0.04403084538730914,-0.5034027060957923,0.6688872166597537,-0.8024049677638725,0.10012456942744023,0.2941827685578668,0.10185138145115934,-0.029888093702881174,0.07088512828636345,-0.016597205178497075,-0.0030174681517312254,-0.040469398905968706,1.7027814869987177,-52.91893523417112,-16.66509476450935,-1.2411492473742416,0.25090943350200573,-0.16697927458696213
0.04423533784169421,-0.5034631269634081,0.6690304102189412,-0.8024384668847213,0.10011840631679708,0.29410107620022613,0.10224622719253142,-0.030210433807918238,0.07159677959371627,-0.016749560424384257,-0.0030815553215729173,-0.04084617882031849,1.7001812803673173,-52.919854655242005,-16.66229088637529,-1.2414347377551411,0.2505538666819995,-0.1676860284682305
0.04444061871896544,-0.5035241953861614,0.6691750327866313,-0.8024722720233364,0.10011211373419898,0.2940186268911846,0.10264043863561445,-0.03053421137668598,0.07231128384503158,-0.016902569307508795,-0.003146291299046911,-0.04122465452076834,1.697570383699132,-52.92075292885606,-16.659494775355203,-1.2417191756325463,0.25019824694495396,-0.16839240506949668
0.04464668674621397,-0.5035859142299811,0.6693210900451197,-0.8025063844854783,0.10010569038236378,0.29393541724099204,0.1030340136242674,-0.030859421909817608,0.07302862924424844,-0.017056231070968535,-0.003211675917603144,-0.0416048250962617,1.6949488107569575,-52.92162995964358,-16.656706452095,-1.2420025571075584,0.2498425743197461,-0.1690984028014589
0.04485354064622599,-0.5036482863517653,0.6694685876530312,-0.8025408055753892,0.10009913496434449,0.2938514438617282,0.10342695000600792,-0.031186060892061614,0.07374880395570482,-0.017210544955445863,-0.00327770900964221,-0.04198668963192492,1.692316575392489,-52.922485652396915,-16.65392593709209,-1.2422848783011815,0.24948684884018774,-0.16980402007566336
0.045061179137490026,-0.5037113145993499,0.6696175312452398,-0.8025755365957876,0.10009244618353146,0.29376670336731003,0.1038192456320193,-0.03151412379233985,0.07447179610430774,-0.01736551019921335,-0.003344390406514308,-0.04237024720906933,1.6896736915461477,-52.9233199120709,-16.65115325069483,-1.2425661353544142,0.24913107054504777,-0.17050925530451816
0.04526960093420434,-0.5037750018114775,0.6697679264327913,-0.8026105788478639,0.10008562274365441,0.29368119237349966,0.10421089835715729,-0.031843606063805846,0.07519759377570409,-0.0175211260381394,-0.003411719938518193,-0.042755496905193306,1.6870201732469066,-52.924132643782876,-16.64838841310206,-1.2428463244283243,0.2487752394780708,-0.17121410690128114
0.045478804746284254,-0.5038393508177653,0.6699197788028242,-0.8026459336312753,0.10007866334878461,0.2935949074979117,0.10460190603995696,-0.032174503143903334,0.07592618501645214,-0.017677391705693855,-0.003479697434900138,-0.04314243779398439,1.6843560346121167,-52.924923752812866,-16.64563144436263,-1.2431254417041377,0.24841935568799867,-0.17191857328007884
0.045688789279369535,-0.5039043644386741,0.6700730939184926,-0.8026816022441412,0.1000715667033369,0.293507845360021,0.1049922665426396,-0.03250681045442505,0.07665755783419373,-0.017834306432953636,-0.0035483227238529,-0.043531068945321376,1.6816812898473326,-52.9256931446039,-16.64288236437491,-1.2434034833833334,0.248063419228591,-0.17262265285590267
0.045899553234831775,-0.5039700454854773,0.6702278773188882,-0.8027175859830384,0.10006433151207188,0.29342000258117046,0.10538197773111947,-0.03284052340157173,0.07739170019782711,-0.017991869448608335,-0.0036175956325146964,-0.04392138942527642,1.6789959532461374,-52.926440724761946,-16.64014119288629,-1.2436804456876844,0.24770743015864424,-0.1733263440446153
0.046111095309781795,-0.5040363967602294,0.6703841345189636,-0.8027538861429964,0.10005695648009794,0.29333137578457824,0.1057710374750107,-0.03317563737601137,0.07812860003768048,-0.01815007997896582,-0.0036875159869681857,-0.04431339829611718,1.6763000391899674,-52.92716639905627,-16.6374079494927,-1.2439563248593988,0.24735138854201377,-0.17402964526294978
0.04632341419707706,-0.5041034210557352,0.670541871009455,-0.8027905040174923,0.10004944031287345,0.2932419615953456,0.10615944364763405,-0.03351214775293866,0.07886824524568613,-0.018308937247957822,-0.0037580836122394585,-0.04470709461630892,1.6735935621479372,-52.927870073419605,-16.63468265363821,-1.2442311171611689,0.2469952944476305,-0.17473255492851836
0.04653650858532911,-0.5041711211555195,0.6707010922568061,-0.8028274408984466,0.10004178171620885,0.29315175664046456,0.10654719412602377,-0.033850049892134734,0.07961062367555534,-0.018468440477145503,-0.003829298332297033,-0.04510247744051667,1.6708765366766645,-52.928551653948055,-16.631965324614406,-1.244504818876235,0.24663914794952502,-0.17543507145980852
0.04675037715891098,-0.5042394998337956,0.670861803703092,-0.8028646980762181,0.10003397939626875,0.2930607575488253,0.10693428679093435,-0.03418933913802707,0.08035572314295387,-0.018628588885725033,-0.0039011599700508595,-0.04549954581960734,1.6681489774200924,-52.92921104690174,-16.629255981560107,-1.2447774263085183,0.24628294912684567,-0.1761371932762035
0.046965018597964675,-0.5043085598554351,0.6710240107659433,-0.8029022768395991,0.10002603205957404,0.29296896095122404,0.1073207195268473,-0.03453001081974966,0.08110353142567815,-0.01878938169053314,-0.003973668347351333,-0.04589829880065193,1.6654108991093155,-52.9298481587045,-16.626554643460754,-1.2450489357826533,0.24592669806387585,-0.17683891879795913
0.04718043157840863,-0.5043783039759375,0.671187718838471,-0.8029401784758112,0.10001793841300406,0.2928763634803702,0.10770649022197795,-0.03487206025120339,0.08185403626383209,-0.01895081810605265,-0.0040468232849883105,-0.04629873542692763,1.6626623165624024,-52.93046289594432,-16.62386132914804,-1.2453193436440988,0.24557039485005824,-0.1775402464462335
0.04739661477194519,-0.5044487349413997,0.671352933289191,-0.8029784042705,0.10000969716379868,0.29278296177089436,0.1080915967682822,-0.035215482731116673,0.08260722536000452,-0.019112897344418043,-0.004120624602690138,-0.046700854737920044,1.65990324468422,-52.93105516537343,-16.62117605729941,-1.2455886462592025,0.24521403958001195,-0.1782411746430707
0.04761356684606812,-0.504519855488486,0.6715196594619499,-0.8030169555077309,0.10000130701956043,0.2926887524593557,0.10847603706146326,-0.03556027354310627,0.08336308637944741,-0.01927561861542096,-0.004195072119122685,-0.04710465576932533,1.6571336984662552,-52.931624873908575,-16.61849884643769,-1.2458568400153027,0.24485763235355235,-0.17894170181142163
0.047831286464070075,-0.5045916683443975,0.6716879026758504,-0.8030558334699839,0.09999276668825666,0.2925937321842496,0.1088598090009784,-0.03590642795573836,0.08412160695025456,-0.01943898112651572,-0.004270165651888384,-0.04751013755305241,1.6543536929864413,-52.93217192863089,-16.61582971493047,-1.246123921320769,0.24450117327571058,-0.17964182637513143
0.04804977228505017,-0.5046641762268427,0.6718576682251776,-0.8030950394381495,0.09998407487822161,0.2924978975860152,0.10924291049004568,-0.036253941222589826,0.08488277466354108,-0.01960298408282483,-0.004345905017525279,-0.04791729911722518,1.6515632434089773,-52.93269623678652,-16.613168680989908,-1.2463898866051486,0.24414466245675406,-0.18034154675895792
0.04826902296392147,-0.5047373818440073,0.6720289613793248,-0.8031345746915238,0.09997523029815861,0.2924012453070428,0.10962533943565066,-0.036602808582309763,0.08564657707362341,-0.019767626687144487,-0.004422290031506081,-0.04832613948618469,1.6487623649841538,-52.93319770578638,-16.61051576267205,-1.2466547323191615,0.24378810001220305,-0.1810408613885589
0.04848903715141858,-0.5048112878945247,0.6722017873827212,-0.8031744405078037,0.09996623165714213,0.29230377199168184,0.11000709374855311,-0.03695302525868122,0.08641300169820008,-0.019932908139950037,-0.004499320508237234,-0.04873665768049137,1.6459510730481757,-52.93367624320654,-16.607870977876562,-1.2469184549348564,0.24343148606285325,-0.1817397686905111
0.048709813494105164,-0.504885897067446,0.6723761514547583,-0.8032146381630826,0.09995707766462002,0.292205474286248,0.11038817134329372,-0.03730458646068316,0.087182036018533,-0.020098827639401472,-0.004576996261057981,-0.04914885271692726,1.6431293830229825,-52.934131756788354,-16.605234344346265,-1.2471810509456338,0.24307482073479345,-0.18243826709230315
0.04893135063438157,-0.5049612120422111,0.6725520587897176,-0.8032551689318452,0.09994776703041554,0.29210634883903097,0.11076857013820078,-0.0376574873825526,0.08795366747962942,-0.020265384381348887,-0.0046553171022394434,-0.04956272360849824,1.640297310416074,-52.934564154438654,-16.602605879666637,-1.2474425168663836,0.24271810415942519,-0.18313635502234737
0.04915364721049236,-0.5050372354886188,0.6727295145566984,-0.8032960340869639,0.09993829846472957,0.2920063923003021,0.11114828805539684,-0.038011723203847034,0.08872788349042461,-0.02043257755933793,-0.004734282842983709,-0.04997826936443626,1.637454870820332,-52.9349733442299,-16.599985601265505,-1.247702849233491,0.24236133647348063,-0.18383403090997436
0.04937670185653397,-0.5051139700667978,0.6729085238995464,-0.8033372348996931,0.09992867067814272,0.29190560132232174,0.11152732302080541,-0.038367289089507046,0.08950467142396504,-0.020600406364615242,-0.004813893293422922,-0.05039548899020159,1.6346020799138423,-52.93535923440032,-16.59737352641254,-1.247962044604983,0.24200451781904192,-0.18453129318544448
0.04960051320246229,-0.5051914184271776,0.6730890919367816,-0.8033787726396654,0.09991888238161749,0.29180397255934676,0.1119056729641576,-0.03872418018991914,0.09028401861759225,-0.0207688699861339,-0.004894148262618381,-0.0508143814874851,1.6317389534597189,-52.93572173335412,-16.5947696722189,-1.2482200995605623,0.24164764834355984,-0.18522814027994697
0.049825079874100286,-0.5052695832104596,0.6732712237615278,-0.8034206485748865,0.09990893228650037,0.29170150266763833,0.11228333581899874,-0.03908239164097875,0.09106591237312735,-0.020937967610558824,-0.004975047558559651,-0.051234945854210505,1.6288655073059246,-52.93606074966171,-16.59217405563681,-1.248477010701707,0.24129072819987532,-0.18592457062560308
0.05005040049314568,-0.5053484670475878,0.673454924441442,-0.8034628639717311,0.09989881910452404,0.29159818830546924,0.11266030952269508,-0.03944191856415356,0.09185033995705609,-0.021107698422272208,-0.005056590988163674,-0.05165718108453665,1.6259817573850965,-52.936376192059825,-16.58958669345915,-1.248732774651745,0.24093375754623358,-0.1866205826554739
0.05027647367717856,-0.5054280725597209,0.6736401990186434,-0.8035054200949379,0.09988854154780949,0.2914940261331315,0.11303659201644037,-0.039802756066546915,0.09263728860071462,-0.0212780616033789,-0.005138778357273895,-0.05208108616885978,1.623087719714366,-52.93666796945166,-16.58700760231905,-1.2489873880559124,0.24057673654630612,-0.18731617480355925
0.05050329803966908,-0.5055084023582028,0.6738270525096444,-0.8035483182076053,0.09987809832886817,0.2913890128129439,0.11341218124526245,-0.04016489924096158,0.09342674550047579,-0.021449056333711806,-0.005221609470659387,-0.05250666009381585,1.6201834103951838,-52.936935990907145,-16.58443679868954,-1.2492408475814862,0.24021966536920863,-0.18801134550480492
0.05073087218998514,-0.5055894590445348,0.6740154899052803,-0.803591559571187,0.09986748816060415,0.29128314500925934,0.11378707515802994,-0.04052834316596359,0.09421869781793613,-0.021620681790837263,-0.005305084132013992,-0.05293390184228281,1.6172688456131417,-52.937180165663015,-16.581874298883115,-1.2494931499177673,0.23986254418951775,-0.1887060931950988
0.05095919473340006,-0.5056712452103467,0.6742055161706405,-0.8036351454454871,0.09985670975631623,0.29117641938847255,0.11416127170745875,-0.04089308290594639,0.09501313268010336,-0.02179293715006042,-0.0053892021439554605,-0.053362810393382934,1.614344041637795,-52.937400403123185,-16.579320119051385,-1.2497442917762527,0.23950537318729004,-0.18940041631128637
0.0511882642711003,-0.5057537634373691,0.6743971362449996,-0.8036790770886559,0.09984576182970019,0.2910688326190276,0.11453476885011873,-0.04125911351119515,0.09581003717958463,-0.02196582158443059,-0.0054739633080246085,-0.053793384722485106,1.6114090148224878,-52.93759661285872,-16.57677427518468,-1.2499942698906514,0.2391481525480833,-0.19009431329116624
0.05141807940019318,-0.505837016297405,0.6745903550417492,-0.8037233557571855,0.09983464309485082,0.2909603813714252,0.1149075645464402,-0.0416264300179513,0.09660939837477518,-0.0221393342647466,-0.005559367424684473,-0.054225623801207185,1.6084637816041736,-52.93776870460808,-16.574236783111672,-1.2502430810169933,0.23879088246296942,-0.19078778257349452
0.051648638713714626,-0.505921006352302,0.6747851774483293,-0.8037679827059045,0.09982335226626418,0.2908510623182304,0.11527965676072052,-0.04199502744847728,0.09741120329004781,-0.022313474359562126,-0.005645414293319478,-0.0546595265974183,1.6055083585032404,-52.93791658827739,-16.57170765849902,-1.2504907219336772,0.2384335631285574,-0.19148082259798604
0.05187994080063689,-0.5060057361539242,0.6749816083261612,-0.8038129591879749,0.09981188805883971,0.2907408721340799,0.11565104346113068,-0.0423649008111215,0.09821543891594274,-0.022488241035191037,-0.005732103712234608,-0.055095092075241235,1.6025427621233335,-52.938040173940536,-16.569186916850978,-1.250737189441571,0.23807619474700836,-0.1921734318053247
0.05211198424587633,-0.506091208244125,0.6751796525105799,-0.8038582864548863,0.0998002491878824,0.2906298074956898,0.11602172261972182,-0.042736045100383487,0.09902209220935825,-0.022663633455712696,-0.005819435478654591,-0.05553231919505474,1.5995670091511793,-52.9381393718394,-16.56667457350911,-1.2509824803640677,0.23771877752605364,-0.19286560863716373
0.052344767630301194,-0.506177425154719,0.6753793148107674,-0.8039039657564523,0.09978843436910495,0.2905178650818628,0.11639169221243176,-0.043108455296979244,0.09983115009374176,-0.02283965078297728,-0.005907409388723086,-0.05597120691349591,1.596581116356409,-52.938214092383994,-16.564170643651842,-1.25122659154718,0.23736131167901423,-0.19355735153612613
0.052578289530739376,-0.5062643894074548,0.675580600009686,-0.8039499983408055,0.09977644231862995,0.29040504157349584,0.11676095021909154,-0.04348212636790683,0.10064259945928161,-0.02301629217661108,-0.005996025237501874,-0.05641175418346257,1.5935851005913828,-52.93826424615279,-16.561675142294177,-1.2514695198595942,0.23700379742481759,-0.19424865894580906
0.05281254851998624,-0.5063521035139879,0.6757835128640122,-0.8039963854543936,0.099764271752992,0.2902913336535876,0.11712949462343192,-0.04385705326651215,0.10145642716309938,-0.023193556794021783,-0.006085282818970069,-0.05685395995411563,1.590578978791013,-52.938289743892774,-16.55918808428728,-1.251711262192758,0.23664623498801393,-0.19493952931079356
0.05304754316681242,-0.506440569975853,0.675988058104071,-0.8040431283419743,0.09975192138913996,0.29017673800724586,0.11749732341308991,-0.04423323093255491,0.10227262002944276,-0.023371443790403748,-0.006175181926023319,-0.05729782317088145,1.587562767972591,-52.93829049651964,-16.55670948431824,-1.2519518154609484,0.2362886245987961,-0.1956299610766396
0.05328327203597165,-0.5065297912844375,0.6761942404337707,-0.8040902282466118,0.09973938994443901,0.29006125132169497,0.11786443457961523,-0.04461065429227479,0.10309116484987904,-0.023549952318743288,-0.00626572235047303,-0.0577433427754543,1.584536485235609,-52.93826641511806,-16.554239356909658,-1.2521911766013396,0.23593096649301692,-0.19631995268989452
0.0535197336882086,-0.5066197699209545,0.6764020645305377,-0.8041376864096714,0.09972667613667292,0.28994487028628335,0.11823082611847685,-0.04498931825845785,0.10391204838348918,-0.023729081529823913,-0.0063569038830455895,-0.058190517705798694,1.5815001477615864,-52.93821741094194,-16.551777716419345,-1.2524293425741055,0.23557326091220318,-0.19700950259809463
0.05375692668026674,-0.5067105083564155,0.6766115350452518,-0.8041855040708159,0.09971377868404616,0.28982759159249105,0.11859649602906938,-0.045369217730503106,0.10473525735706243,-0.023908830572231587,-0.0064487263133815925,-0.05863934689615184,1.578453772813895,-52.938143395414365,-16.54932457703999,-1.2526663103624487,0.23521550810357666,-0.1976986092497711
0.05399484956489618,-0.5068020090516044,0.6768226566021824,-0.8042336824680006,0.09970069630518609,0.289709411933937,0.11896144231471961,-0.04575034759448928,0.10556077846529155,-0.024089198592359966,-0.0065411894300350885,-0.05908982927702606,1.5753973777375838,-52.93804428012816,-16.54687995279883,-1.2529020769727084,0.23485770832006927,-0.1983872710944541
