Joohwan-Seo/mujoco_sysID/UR5e/logs/square_PIH_2.csv
q1,q2,q3,q4,q5,q6,dq1,dq2,dq3,dq4,dq5,dq6,t1,t2,t3,t4,t5,t6
0.020000946322072225,-0.4999998982218051,0.6599998896852279,-0.799998480365481,0.10000000217655376,0.29999999996962773,0.0004731610361121411,5.088909745373315e-05,-5.5157386071651604e-05,0.0007598172595049425,1.088276877579882e-06,-1.5186122423027144e-08,1.9999999716697499,-52.34684705118939,-17.347632488011055,-0.658254673438055,0.30065355837623825,-4.6074255521944e-12
0.02000283896528841,-0.4999996946663969,0.6599996690531363,-0.7999954411002546,0.10000000611725446,0.2999999999146381,0.0009463216080929987,0.00010177770409935022,-0.00011031604578233279,0.0015196326132588295,1.9703503481007826e-06,-2.7494804809526037e-08,1.9999941266728434,-52.34984721283066,-17.351427944354942,-0.6582511455192068,0.3016523134327391,0.0009999993148886654
0.02000567794970169,-0.4999993900572888,0.6599993321525235,-0.7999908817862956,0.10000001187242513,0.3000000003199138,0.0014194922066394135,0.0001523045540425123,-0.00016845030641388737,0.0022796569794457746,2.877585335167231e-06,2.026378402022416e-07,1.9999767067321599,-52.35284755156076,-17.355221081995772,-0.6582473488248461,0.30265044092369137,0.001999994625221867
0.020009463289886325,-0.49999898511812957,0.6599988730326534,-0.7999848020118163,0.10000001948284265,0.30000000157846324,0.0018926700923176045,0.00020246957959529658,-0.00022955993507531633,0.0030398872396774548,3.805208760850591e-06,6.292747146558077e-07,1.9999477136454833,-52.35584805141318,-17.35901187203233,-0.6582432925464519,0.3036479393763623,0.0029999819264699104
0.02001419499494006,-0.4999984805727021,0.6599982857433591,-0.799977201371268,0.10000002898154514,0.3000000040088265,0.0023658525268677863,0.00025227271373896566,-0.0002936446471663928,0.0038003202741584033,4.749351245342605e-06,1.2151816207023263e-06,1.9999071492905984,-52.35884869643981,-17.36280028556394,-0.6582389858627796,0.3046448073179598,0.003999957218742084
0.020019873068485898,-0.49999787714492255,0.6599975643351442,-0.7999680794653454,0.10000004039529689,0.30000000786918307,0.0028390367729192864,0.0003017138897519265,-0.0003607041074407086,0.004560952961317467,5.706875877438348e-06,1.9301782919725055e-06,1.9998550156252752,-52.36184947071109,-17.366586293691483,-0.6582344379404178,0.3056410432755853,0.004999916502200114
0.020026497508673424,-0.4999971755588407,0.6599967028592825,-0.7999574359009904,0.10000005374577575,0.3000000133687868,0.003312220093762224,0.00035079304090982074,-0.0004307379308690048,0.005321782177511592,6.675239428983443e-06,2.7498018607512868e-06,1.999791314687234,-52.3648503583164,-17.37036986751827,-0.6582296579341964,0.3066366457762053,0.005999855777065289
0.02003406831365836,-0.4999963765312883,0.6599956953889508,-0.7999452702807379,0.10000007218185458,0.30000002067723314,0.0037854024924668756,0.00039951377619282485,-0.0005037351658565732,0.006082810126270126,9.218039411832554e-06,3.6542231812785987e-06,1.9997160488407837,-52.36785134399358,-17.37415097901809,-0.6582246561810656,0.3076316132355624,0.0069997710440581114
0.02004258547734953,-0.4999954807775887,0.6599945360029937,-0.7999315822109965,0.10000009954913339,0.3000000299319722,0.004258581845585802,0.0004478768498113319,-0.0005796929785116382,0.006844034870696701,1.3683639402032453e-05,4.627369539908417e-06,1.999629220438008,-52.370852413029766,-17.377929600523355,-0.6582194432819918,0.3086259440449264,0.007999658303840989
0.020052048988188843,-0.4999944890131959,0.6599932187813339,-0.7999163713044284,0.100000139693011,0.3000000412443976,0.004731755419656109,0.0004958821964194916,-0.0006586108299069556,0.007605453284019423,2.0071938807600573e-05,5.656212699760782e-06,1.999530831869181,-52.37385355084308,-17.38170570441792,-0.658214029830489,0.30961963659545816,0.008999513557118595
0.020062458829150597,-0.4999934019536973,0.6599917378050634,-0.7998996371799567,0.10000019645867145,0.3000000547047815,0.005204920480877035,0.0005435297492786492,-0.0007404881352444019,0.0083670622358169,2.8382830224028855e-05,6.7301919682907644e-06,1.9994208856037876,-52.37685474287421,-17.385479263092954,-0.6582084264103513,0.3106126892780803,0.009999332804723161
0.020073814977740845,-0.49999222031481677,0.6599900871565357,-0.7998813794627725,0.10000027369107031,0.30000007038627485,0.005678074295124002,0.0005908194402726526,-0.0008253242638378731,0.009128858592089182,3.861619943548079e-05,7.84074666313278e-06,1.9992993841904263,-52.37985597458687,-17.389250248947494,-0.6582026435955954,0.3116051004834921,0.010999112047634015
0.02008611740599521,-0.49999094481244605,0.6599882609193327,-0.7998615977846139,0.10000037523491666,0.3000000905740612,0.006151214127182306,0.0006377511853513357,-0.0009131186014921266,0.00989083907931635,5.077192317061175e-05,1.0093893178940077e-05,1.9991663302568283,-52.38285723146715,-17.393018634389758,-0.6581966919510643,0.3125968686018664,0.011998847286987812
0.020099366080478083,-0.49998957616265177,0.6599862531783396,-0.7998402917838097,0.10000050493465874,0.3000001200690487,0.00662433724143599,0.0006843248971436483,-0.0010038704965445336,0.010653000402116796,6.484987104507259e-05,1.4747493758597652e-05,1.9990217265096948,-52.38585849902423,-17.396784391837937,-0.6581905820325153,0.31358799202315685,0.012998534524103855
0.020113560962283825,-0.4999881150816449,0.659984058019978,-0.7998174611049785,0.10000066663447556,0.3000001636719046,0.007097440902870002,0.0007305405034246043,-0.0010975791808437174,0.0114153394155403,8.084990840584997e-05,2.1801427943171798e-05,1.998865575734406,-52.38885976279055,-17.40054749371998,-0.6581843243860812,0.31457846913759235,0.013998169760483205
0.020128702007036228,-0.4999865622857836,0.6599816695322974,-0.7997931053990358,0.10000086417826315,0.3000002261830359,0.007570522376201956,0.0007763979306555473,-0.0011942438402810882,0.012177852971359456,9.877189379376667e-05,3.125556566685206e-05,1.9986978807950273,-52.391861008321,-17.40430791247377,-0.6581779295481353,0.31556829833523187,0.014997748997844684
0.02014478916488802,-0.4999849184915756,0.6599790818050678,-0.7997672243231997,0.10000110140962104,0.3000003124025704,0.008043578925895946,0.0008218971039937288,-0.0012938636148034188,0.01294053791808377,0.00011861567894377924,4.3109767257470404e-05,1.9985186446341936,-52.39486222119319,-17.40806562054769,-0.6581714080453289,0.31655747800597644,0.0159972682381293
0.02016182238052037,-0.499983184415681,0.6599762889298709,-0.7997398175409978,0.10000138217183861,0.3000004271303373,0.008516607816176365,0.0008670379473019491,-0.0013964375984261176,0.013703391100973825,0.00014038110878528216,5.73638834370585e-05,1.9983278702729905,-52.39786338700709,-17.411820590401053,-0.6581647703945853,0.3175460065395822,0.016996723483518023
0.020179801593142456,-0.4999813607749147,0.6599732850001925,-0.7997108847222737,0.10000171030788149,0.30000057516584794,0.008989606311041762,0.0009118203831582819,-0.0015019648392471917,0.01446640936205549,0.00016406802144242186,7.401775532244354e-05,1.9981255608108333,-52.40086449138511,-17.415572794504634,-0.6581580271030733,0.31853388232567414,0.01799611073644867
0.020198726736491014,-0.49997944828624896,0.6599700641115136,-0.7996804255431934,0.10000208966037796,0.3000007613082768,0.009462571674278697,0.0009562443328658616,-0.001610444339461891,0.015229589540134196,0.00018967624823441876,9.307121442588271e-05,1.997911719425344,-52.40386551997184,-17.419322205341135,-0.6581511886682447,0.3195211037537577,0.018995425999629226
0.020218597738829964,-0.499977447666816,0.6599666203614029,-0.7996484396862518,0.10000252407160531,0.3000009903564421,0.00993550116947562,0.0010003097164627513,-0.001721875055378077,0.015992928470809277,0.0002172056136758973,0.00011452408265573599,1.9976863493722223,-52.406866458434195,-17.423068795405623,-0.6581442655778003,0.32050766921323204,0.019994665276058737
0.020239414522950038,-0.49997535963391054,0.659962947849608,-0.7996149268402788,0.10000301738347626,0.3000012671087868,0.01040839206003678,0.0010440164527318707,-0.0018362558974322355,0.016756422986488356,0.00024665593547722506,0.00013837617231717784,1.997449453985118,-52.409867292461044,-17.426812537206036,-0.6581372683097104,0.3214935770934046,0.02099382456903971
0.020261177006168432,-0.4999731849049921,0.6599590406781476,-0.799579886700446,0.10000357343752535,0.300001596363359,0.010881241609196134,0.0010873644592109912,-0.0019535857302062083,0.01752006991640179,0.00027802702454485977,0.00016462728611294674,1.997201036675496,-52.412868007763244,-17.430553403263602,-0.6581302073321936,0.3224788257834994,0.021992899882197242
0.020283885100328494,-0.4999709241976877,0.6599548929514027,-0.7995433189682728,0.10000419607489532,0.3000019829177933,0.011354047080031286,0.0011303536522028134,-0.0020738633724446086,0.01828386608661718,0.000311318684981705,0.00019327721714413384,1.9969411009325027,-52.41586859007344,-17.434291366113275,-0.6581230931037276,0.3234634136726744,0.022991887219487892
0.02030753871179945,-0.4999685782297941,0.6599504987762086,-0.7995052233516327,0.1000048891363235,0.30000243156929113,0.011826805735477442,0.0011729839467851011,-0.002197087597072927,0.01904780832005394,0.0003465307140874742,0.00022432574891100986,1.9966696503228263,-52.41886902514594,-17.438026398304242,-0.6581159360730375,0.3244473391500286,0.023990782585223656
0.02033213774147613,-0.4999661477192805,0.6599458522619461,-0.7994655995647597,0.10000565646212821,0.30000294711460174,0.012299514838341383,0.0012152552568208796,-0.0023232571312163026,0.019811893436497904,0.0003836629023590627,0.00025777265531389036,1.9963866884905561,-52.421869298756604,-17.441758472400227,-0.658108746679114,0.3254306006046196,0.024989581984084838
0.020357682084778762,-0.49996363338429056,0.6599409475206337,-0.7994244473282545,0.10000650189219519,0.30000353435000304,0.012772171651315459,0.0012571674949687138,-0.002452370656219018,0.020576118252616023,0.00042271503349092823,0.00029361770065403997,1.9960922191570383,-52.424869396702654,-17.445487560980048,-0.6581015353511667,0.32641319642547134,0.025988281421136936
0.020384171631652747,-0.49996103594314517,0.6599357786670184,-0.7993817663690905,0.10000742926596394,0.3000041980712823,0.013244773436991595,0.0012987205726930331,-0.0025844268076646577,0.02134047958197109,0.0004636868843754799,0.0003318606396346146,1.995786246120728,-52.42786930480241,-17.449213636637943,-0.6580943125086547,0.32739512500158785,0.02698687690183861
0.0204116062665685,-0.49995835611434464,0.6599303398186676,-0.7993375564206204,0.10000844242241415,0.30000494307371706,0.013717317457875328,0.00133991440027454,-0.0027194241753969507,0.022104974235036535,0.0005065782251034753,0.0003725012173616421,1.9954687732570418,-52.430869008895215,-17.45293667198398,-0.6580870885612875,0.32837638472196523,0.02798536443207678
0.020439985868521297,-0.499955594616571,0.6599246250960604,-0.799291817222582,0.10000954520005208,0.30000577415205576,0.014189800976399852,0.001380748886820664,-0.0028573613035413133,0.022869599019211286,0.0005513888189644261,0.00041553916934504226,1.9951398045182023,-52.43386849484128,-17.456656639644493,-0.6580798739089784,0.32935697397560293,0.028983740018161258
0.020469310311031177,-0.49995275216869045,0.6599186286226794,-0.7992445485211044,0.10001074143689698,0.30000669610049874,0.014662221254940093,0.0014212239402760904,-0.002998236690527056,0.02363435073883467,0.0005981184224470115,0.000460974221499684,1.9947993439330844,-52.43686774852137,-17.46037351226244,-0.6580726789418903,0.33033689115151527,0.029981999666850966
0.02049957946214283,-0.4999498294897556,0.6599123445251012,-0.799195750068714,0.10001203497046746,0.30000771371267904,0.015134575555826788,0.0014613394674333452,-0.0031420487891102916,0.024399226195201372,0.0006467667852395003,0.0005088060901464821,1.9944473956070574,-52.4398667558366,-17.464087262497817,-0.6580655140403919,0.3313161346387435,0.030980139385375225
0.020530793184425553,-0.4999468272990077,0.6599057669330883,-0.7991454216243409,0.10001342963776792,0.30000883178164306,0.015606861141360602,0.0015010953739434544,-0.0032887960063975323,0.02516422218657648,0.0006973336502301806,0.0005590344820135319,1.9940839637218233,-52.44286550270841,-17.467797863027982,-0.658058389575072,0.3322947028263642,0.03197815518143063
0.020562951334973205,-0.499943746315879,0.6598988899796806,-0.7990935629533245,0.10001492927527494,0.30001005509983153,0.01607907527382625,0.0015404915643266372,-0.0034384767038699356,0.025929335508210544,0.0007498187535077992,0.0006116590942372824,1.9937090525352523,-52.44586397507803,-17.47150528654804,-0.6580513159067174,0.33327259410350624,0.03297604306322633
0.02059605376540422,-0.4999405872599951,0.6598917078012858,-0.7990401738274198,0.10001653771892367,0.3000113884590603,0.016551215215506655,0.0015795279419830905,-0.0035910891974082703,0.026694562952354728,0.0008042218243620064,0.0006666796143637486,1.9933226663812182,-52.44886215890643,-17.475209505771268,-0.6580443033863247,0.3342498068593559,0.033973799039469815
0.020630100321861612,-0.4999373508511767,0.6598842145377711,-0.7989852540248032,0.10001825880409423,0.300012836650501,0.0170232782286971,0.00161820440920381,-0.003746631757318545,0.027459901308276,0.0008605425852838128,0.0007240957203497605,1.9929248096694283,-52.451860040174076,-17.478910493429346,-0.6580373623550821,0.3352263394831721,0.034971419119403276
0.02066509084501305,-0.49993403780944234,0.6598764043325545,-0.7989288033300787,0.10002009636559817,0.3000144044646621,0.017495261575719425,0.0016565208671814732,-0.003905102608358309,0.028225347362272384,0.0009187807519660506,0.0007839070805642532,1.9925154868852504,-52.45485760488069,-17.48260822227277,-0.6580305031443543,0.33620219036429305,0.03596889931280673
0.020701025170050923,-0.4999306488550103,0.6598682713326949,-0.7988708215342832,0.10002205423766478,0.3000160966913697,0.017967162518936243,0.0016944772160213883,-0.004066499929763658,0.028990897897688273,0.0009789360333038455,0.0008461133537895928,1.9920947025895401,-52.45785483904467,-17.486302665071197,-0.6580237360756918,0.33717735789215264,0.03696623563002905
0.020737903126692454,-0.49992718470830083,0.6598598096889843,-0.7988113084348933,0.10002413625392756,0.30001791811974815,0.018438978320765156,0.0017320733547524978,-0.004230821855276902,0.029756549694929788,0.0010410081313950953,0.0009107141892229425,1.991662461418462,-52.4608517287034,-17.489993794613728,-0.6580170714608048,0.3381518404562841,0.03796342408198797
0.02077572453917984,-0.49992364608993817,0.6598510135560379,-0.7987502638358304,0.10002634624741064,0.3000198735382011,0.01891070624369301,0.0017693091813384238,-0.004398066473174902,0.03052229953148021,0.0011049967415409576,0.0009777092264776665,1.9912187680833098,-52.46384825991241,-17.49368158370926,-0.6580105196015689,0.3391256364463357,0.03896046068019532
0.02081448922628042,-0.4999200337207528,0.6598418770923853,-0.7986876875474666,0.10002868805051512,0.30002196773439227,0.019382343550290164,0.0018061845926885915,-0.004568231826298107,0.03128814418191545,0.0011709015522463457,0.0010470980955847723,1.9907636273703242,-52.46684441874528,-17.497366005186766,-0.6580040907900031,0.3400987442520797,0.03995734143676681
0.020854197001286868,-0.49991634832178344,0.6598323944605611,-0.7986235793866308,0.10003116549500557,0.30002420549522624,0.019853887503224785,0.001842699484669387,-0.0047413159120802545,0.0320540804179196,0.0012387222452204312,0.0011188804169943918,1.9902970441405077,-52.46984019129356,-17.501047031895663,-0.6579977953082738,0.3410711622634208,0.040954062364449054
0.020894847672017422,-0.49991259061427923,0.659822559827196,-0.7985579391766141,0.10003378241199633,0.3000265916068294,0.020325335365277156,0.0018788537521153826,-0.004917316682578754,0.03282010500830051,0.0013084584953771566,0.0011930558015772995,1.9898190233294353,-52.47283556366598,-17.504724636705998,-0.6579916434286772,0.3420428888704076,0.041950619476621785
0.02093644104081613,-0.4999087613197015,0.6598123673631069,-0.7984907667471761,0.100036542631938,0.30002913085453065,0.020796684399354,0.0019146472888405994,-0.005096232044505729,0.03358621471900545,0.0013801099708357536,0.001269623850626472,1.9893295699470646,-52.47583052198862,-17.50839879250885,-0.6579856454136159,0.34301392246324264,0.04294700878731998
0.020978976904553134,-0.4999048611597262,0.6598018112433883,-0.7984220619345499,0.10003944998460383,0.30003182802284234,0.021267931868502853,0.0019500799876498393,-0.005278059859259758,0.0343524063131368,0.0014536763329212731,0.001348584155858682,1.9888286890775435,-52.4788250524042,-17.512069472216524,-0.6579798115156082,0.34398426143229166,0.04394322631125383
0.021022455054624987,-0.4999008908562455,0.6597908856475024,-0.7983518245814479,0.10004250829907615,0.3000346878954412,0.02173907503592642,0.0019851517403500574,-0.00546279794295827,0.035118676550967856,0.001529157236165119,0.0014299362994161344,1.9883163858790118,-52.48181914107183,-17.51573664876285,-0.6579741519772635,0.34495390416809285,0.044939268063818906
0.021066875276954982,-0.49989685113137,0.6597795847593695,-0.798280054537068,0.10004572140373276,0.30003771525514894,0.02221011116499699,0.0020198624377617885,-0.00565044406647062,0.03588502218995858,0.0016065523283055939,0.001513679853868138,1.9877926655834057,-52.484812774166926,-17.519400295103505,-0.657968677031293,0.34592284906136617,0.04593513006111521
0.021112237351993524,-0.49989274270743056,0.6597679027674586,-0.7982067516570984,0.10004909312623333,0.3000409148839134,0.022681037519270832,0.0020542119697306133,-0.005840995955451838,0.03665143998477154,0.0016858612502884493,0.0015998143822128178,1.9872575334962548,-52.487805937880424,-17.523060384216155,-0.6579633969004476,0.34689109450302485,0.04693080831995864
0.021158541054718528,-0.4998885663069803,0.6597558338648778,-0.7981319158037239,0.10005262729350586,0.3000442915627891,0.023151851362502654,0.002088200225138691,-0.006034451290377044,0.037417926687287814,0.0017670836362674474,0.0016883394378788634,1.9867109949964785,-52.49079861841871,-17.5267168891008,-0.6579583217975649,0.34785863888418056,0.0479262988579014
0.021205786154635847,-0.4998843226527965,0.6597433722494647,-0.7980555468456306,0.10005632773173308,0.3000478500719186,0.02362254995866005,0.002121827091916329,-0.006230807706576551,0.03818447904662298,0.0018502191136049277,0.001779254564727318,1.9861530555361817,-52.49379080200301,-17.530369782779946,-0.6579534619254996,0.3488254805961568,0.0489215976932537
0.021253972415779723,-0.4998800124678824,0.6597305121238761,-0.7979776446580124,0.10006019826633883,0.3000515951905127,0.02409313057193799,0.0021550924570535963,-0.0064300627942715976,0.03895109380914315,0.0019352673028723841,0.001872559297053404,1.9855837206404436,-52.49678247486939,-17.534019038298926,-0.6579488274771688,0.3497916180304942,0.04991670084507613
0.021303099596713268,-0.4998756364754692,0.6597172476956789,-0.7978982091225754,0.10006424272197453,0.3000555316968319,0.024563590466773325,0.0021879962066119934,-0.006632214098610798,0.039717767718481095,0.0020222278178510487,0.0019682531595883886,1.9850029959071087,-52.49977362326773,-17.537664628726,-0.6579444286354788,0.3507570495789614,0.05091160433322934
0.021353167450528985,-0.4998711953990177,0.6597035731774394,-0.7978172401275443,0.1000684649225056,0.3000596643681669,0.025033926907859303,0.002220538225736158,-0.006837259119707225,0.040484497515552394,0.0021111002655324835,0.0020663356675014862,1.984410887006572,-52.502764233462,-17.541306527152702,-0.6579402755733516,0.35172177363356366,0.05190630417836378
0.021404175724849307,-0.4998666899622204,0.659689482786814,-0.7977347375676671,0.10007286869099784,0.3000639979808197,0.025504137160160138,0.002252718398665623,-0.007045195312676179,0.04125127993857163,0.0022018842461191805,0.0021668063264018,1.9838073996815633,-52.505754291729296,-17.544944706693947,-0.6579363784536809,0.35268578858654853,0.052900796401944464
0.02145612416182716,-0.4998621208890029,0.6596749707466387,-0.797650701344221,0.10007745784970389,0.30006853731008437,0.025974218488925557,0.0022845366087466145,-0.007256020087673606,0.042018111723068685,0.0022945793530251713,0.002269664632340301,1.9831925397469283,-52.50874378435974,-17.54857914048829,-0.6579327474293557,0.3536490928304195,0.0538950770262696
0.02150901249814657,-0.499857488903526,0.6596600312850188,-0.7975651313650172,0.10008223622004964,0.300073287130228,0.026444168159705406,0.002315992738443889,-0.0074697308099352065,0.042784989601905035,0.0023891851728766404,0.0023749100718118473,1.9825663130894082,-52.511732697655866,-17.55220980169812,-0.6579293926431906,0.35461168475793814,0.05488914207448244
0.021562840465023297,-0.4998527947301873,0.6596446586354192,-0.7974780275444066,0.10008720762262066,0.30007825221447154,0.026913983438364267,0.0023470866693526197,-0.007686324799816175,0.04355191030529016,0.002485701285512552,0.00248254212175724,1.9819287256674158,-52.514721017932374,-17.555836663509808,-0.6579263242279508,0.35557356276213603,0.055882987570591264
0.02161760778820549,-0.49984803909362285,0.6596288470367535,-0.797389389803285,0.10009237587714863,0.30008343733497067,0.02738366159109609,0.002377818282210326,-0.007905799332831634,0.04431887056079796,0.00258412726398528,0.002592560249565318,1.9812797835108098,-52.51770873151534,-17.559459699133924,-0.6579235523063272,0.3565347252363223,0.0568766095394741
0.021673314187974368,-0.499843222718709,0.6596125907334741,-0.7972992180690982,0.10009774480249775,0.30008884726279683,0.02785319988443885,0.002408187456908837,-0.008128151639697715,0.04508586709338325,0.0026844626745612496,0.0027049639130750903,1.9806194927206664,-52.5206958247421,-17.563078881805385,-0.6579210869909058,0.3574951705740889,0.05787000400691245
0.021729959379144945,-0.499838346330564,0.6595958839756614,-0.7972075122758474,0.1001033182166512,0.300094486767918,0.02832259558528924,0.002438194072506299,-0.008353378906373304,0.04585289662539831,0.0027867070767215838,0.0028197525605779083,1.9799478594690496,-52.52368228396049,-17.566694184783607,-0.657918938384147,0.35845489716932155,0.05886316699959562
0.02178754307106678,-0.4998334106545495,0.6595787210191132,-0.7971142723640942,0.10010909993669752,0.30010036061917966,0.028791845960917366,0.002467838007239213,-0.00858147827410244,0.046619955876609484,0.0028908600231627593,0.0029369256308196747,1.9792648899987775,-52.52666809552867,-17.570305581352734,-0.6579171165784012,0.3594139034162051,0.059856094545136164
0.021846064967624743,-0.49982841641627246,0.6595610961254342,-0.7970194982809657,0.10011509377881711,0.30010647358428566,0.029260948278981482,0.0024971191385345253,-0.008812446839457385,0.04738704156421385,0.0029969210597972726,0.0030564825530030914,1.978570590623187,-52.529653245814295,-17.573913044821676,-0.6579156316558381,0.3603721877092306,0.06084878267208712
0.021905524767239826,-0.4998233643415864,0.6595430035621255,-0.79692318998016,0.10012130355826862,0.30011283042977926,0.029729899807542738,0.0025260373430217495,-0.009046281654382357,0.04815415040285591,0.0031048897257543086,0.0031784227467899465,1.9778649677258968,-52.53263772119428,-17.57751654852435,-0.6579144936884681,0.3613297484432032,0.06184122740996322
0.021965922162869987,-0.49981825515659334,0.659524437602673,-0.7968253474219507,0.10012773308937538,0.30011943592102386,0.030198697815079955,0.00255459249654512,-0.0092829797262379,0.048921279104644375,0.003214765553380423,0.0033027456223034372,1.9771480277605678,-52.5356215080541,-17.58111606581973,-0.6579137127381085,0.36228658401325053,0.06283342478924833
0.022027256842010998,-0.499813089587645,0.6595053925266373,-0.7967259705731923,0.10013438618551186,0.3001262948221841,0.03066733957050442,0.0025827844741757866,-0.009522538017845928,0.04968842437916899,0.003326548068240228,0.003429450580130534,1.9764197772506602,-52.538604592787415,-17.584711570092047,-0.6579132988563536,0.3632426928148258,0.06382537084142334
0.022089528486697346,-0.49980786836134455,0.6594858626197423,-0.7966250594073252,0.1001412666590901,0.30013341189620674,0.031135822343174708,0.0026106131502240423,-0.009764953447535423,0.05045558293351741,0.003440236789117089,0.0035585370113243803,1.9756802227891899,-52.54158696179544,-17.588303034750858,-0.6579132620845788,0.36419807324371845,0.06481706159896422
0.02215273677350317,-0.49980259220454804,0.6594658421739639,-0.7965226139043806,0.10014837832154612,0.30014079190480153,0.031604143402911525,0.002638078398251588,-0.01001022288918878,0.05122275147229211,0.003555831228013828,0.0036900042974067323,1.9749293710384817,-52.54456860148649,-17.591890433231175,-0.6579136124538798,0.36515272369605845,0.06580849309537352
0.022216881373543197,-0.49979726184436585,0.6594453254876192,-0.7964186340509853,0.10015572498332642,0.30014843960842225,0.032072300020012566,0.002665180091083829,-0.010258343172288811,0.05198992669762741,0.0036733308901534347,0.0038238518103704353,1.9741672287299208,-52.547549498275316,-17.595473738993533,-0.6579143599850914,0.3661066425683225,0.0667996613651913
0.02228196195247373,-0.4997918780081642,0.6594243068654553,-0.7963131198403669,0.10016331045387439,0.3001563597662476,0.03254028946526742,0.0026919181008221984,-0.010509311081966403,0.0527571053092065,0.0037927352739797865,0.003960078912681941,1.9733938026637012,-52.55052963858265,-17.59905292552417,-0.6579155146887354,0.3670598282573416,0.06779056244400654
0.022347978170493676,-0.4997864414235665,0.6594027806187371,-0.7962060712723583,0.1001711385416167,0.3001645571361622,0.033008109009972475,0.00271829229885653,-0.010763123359048837,0.05352428400427852,0.003914043871158375,0.00409868495728386,1.9726090997085746,-52.5535090088347,-17.60262796633502,-0.6579170865650166,0.36801227916030693,0.06878119236848278
0.02241492968234557,-0.49978095281845475,0.659380741065337,-0.796097488353403,0.10017921305394986,0.30017303647473736,0.03347575592594585,0.0027443025558774314,-0.011019776700108721,0.05429145947767575,0.0040372561665770424,0.004239669287597554,1.9718131268015922,-52.55648759546234,-17.606198834963863,-0.6579190856037868,0.3689639936747753,0.06977154717635979
0.022482816137316654,-0.499775412920971,0.6593581825298219,-0.7959873710965594,0.10018753779722656,0.30018180253721244,0.03394322748554236,0.0027699487418887266,-0.011279267757513634,0.0550586284218308,0.004162371638346723,0.0043830312375257655,1.9710058909478505,-52.559465384900776,-17.609765504974355,-0.6579215217845156,0.3699149701986739,0.07076162290648495
0.02255163717923999,-0.49976982245951856,0.659335099343543,-0.7958757195215058,0.10019611657674216,0.30019086007747536,0.0344105209616685,0.0027952307262198955,-0.011541593139476357,0.05582578752679383,0.004289389757802196,0.004528770131455286,1.9701873992202292,-52.56244236358885,-17.613327949956112,-0.6579244050762925,0.37086520713030835,0.07175141559881841
0.022621392446495584,-0.49976418216276347,0.6593114858447228,-0.7957625336545453,0.10020495319672117,0.3002002138480439,0.03487763362779745,0.0028201483775385557,-0.011806749410105788,0.05659293348024995,0.004418309989502844,0.004676885284259665,1.9693576587591322,-52.56541851796837,-17.616886143524802,-0.6579277454377933,0.3718147028683663,0.07274092129445074
0.022692081572011552,-0.49975849275963574,0.6592873363785439,-0.7956478135286102,0.10021405146030363,0.3002098686000465,0.03534456275798411,0.0028447015638629774,-0.012074733089458504,0.0573600629675365,0.00454913179123342,0.004827376001301949,1.9685166767722226,-52.5683938344836,-17.620440059322096,-0.6579315528171938,0.3727634558119234,0.07373013603562588
0.022763704183265312,-0.4997527549793306,0.6592626452972367,-0.7955315591832669,0.10022341516953163,0.3002198290832034,0.03581130562688013,0.0028688901525746086,-0.012345540653590944,0.05812717267166054,0.00468185461400482,0.004980241578437472,1.9676644605341571,-52.5713682995807,-17.623989671015828,-0.6579358371522539,0.37371146436044833,0.07471905586574404
0.02283625990228481,-0.4997469695513097,0.6592374069601674,-0.7954137706647203,0.10023304812533575,0.3002301000458074,0.036277859509749044,0.002892714010430644,-0.01261916853461226,0.05889425927331629,0.0048164779020548705,0.0051354813020166685,1.966801017386319,-52.57434189970695,-17.627534952299975,-0.6579406083702044,0.37465872691380825,0.07570767682938867
0.022909748345649773,-0.49974113720530255,0.659211615733926,-0.7952944480258185,0.10024295412752145,0.3002406862347052,0.03674422168248131,0.002916173003576613,-0.012895613120737818,0.05966131945090268,0.004953001092849115,0.005293094448887937,1.9659263547365493,-52.57731462131019,-17.631075876894677,-0.6579458763877493,0.37560524187227246,0.07669599497234098
0.02298416912449299,-0.4997352586713074,0.6591852659924132,-0.7951735913260575,0.10025313697475562,0.300251592395278,0.037210389421609466,0.002939266997558982,-0.013174870756343294,0.060428349880540924,0.005091423617081615,0.005453080286400538,1.965040480058874,-52.58028645083812,-17.6346124185463,-0.6579516511110469,0.37655100763651883,0.07768400634158636
0.023059521844501638,-0.49972933467959274,0.6591583521169292,-0.7950512006315853,0.10026360046455297,0.3002628232714228,0.03767636000432328,0.0029619958573378047,-0.013456937742019476,0.061195347236092164,0.005231744898675756,0.005615438072407523,1.9641434008932315,-52.58325737473784,-17.638144551027402,-0.6579579424356503,0.37749602260763787,0.07867170698534222
0.02313580610591861,-0.49972336596069816,0.6591308684962599,-0.794927276015207,0.10027434839326255,0.3002743836055333,0.03814213070848492,0.002984359447299375,-0.013741810334627666,0.06196230818917516,0.005373964354785061,0.005780167055268717,1.963235124845197,-52.58622737945491,-17.641672248136793,-0.6579647602465202,0.37844028518713485,0.07965909295306849
0.023213021503543898,-0.49971735324543565,0.6591028095267651,-0.7948018175563886,0.10028538455605414,0.300286278138481,0.03860769881264415,0.0030063576312689003,-0.014029484747355726,0.06272922940918405,0.005518081395794015,0.005947266473853721,1.9623156595857054,-52.58919645143293,-17.645195483699506,-0.6579721144179635,0.37938379377693787,0.08064616029548116
0.023291167626736005,-0.4997112972648906,0.6590741696124656,-0.794674825341262,0.10029671274690477,0.3002985116095961,0.03907306159605355,0.003027990272523216,-0.014319957149774765,0.0634961075633061,0.005664095425318894,0.006116735557544967,1.9613850128507728,-52.592164577112676,-17.64871423156678,-0.6579800148136238,0.38032654677939903,0.08163290506456991
0.023370244059413372,-0.499705198750423,0.6590449431651297,-0.7945462994626289,0.10030833675858519,0.3003110887566486,0.03953821633868378,0.003049257233803506,-0.014613223667896476,0.06426293931653965,0.005812005840208603,0.006288573526240803,1.9604431924412145,-52.595131742931535,-17.652228465616076,-0.6579884712864319,0.38126854259730003,0.08261932331361652
0.02345025038005585,-0.49969905843366835,0.6590151246043613,-0.7944162400199655,0.10032026038264628,0.3003240143158293,0.040003160321238816,0.0030701583773280485,-0.014909280384231083,0.06502972133171189,0.005961812030545524,0.006462779590358619,1.9594902062223638,-52.598097935322755,-17.655738159751046,-0.6579974936785946,0.3822097796338545,0.0836054110972093
0.023531186161706193,-0.49969287704653875,0.6589847083576856,-0.7942846471194265,0.10033248740940558,0.30033729302173096,0.040467890825171264,0.0030906935648049704,-0.015208123337845953,0.06579645026949696,0.006113513379646369,0.00663935295083801,1.9585260621237863,-52.6010631407148,-17.659243287901496,-0.6580070918215545,0.3831502562927132,0.08459116447125542
0.023613050971971587,-0.49968665532122386,0.6589536888606368,-0.7941515208738497,0.1003450216279337,0.30035092960732923,0.04093240513269769,0.003110862657445039,-0.015509748524424813,0.06656312278843385,0.006267109264063043,0.006818292799143979,1.9575507681389945,-52.60402734553059,-17.662743824023366,-0.6580172755359428,0.38408997097796577,0.08557657949300058
0.023695844373025216,-0.49968039399019193,0.6589220605568441,-0.7940168614027597,0.10035786682604086,0.30036492880396376,0.04139670052681394,0.003130665515974457,-0.015814151896327615,0.06732973554494452,0.006422599053583513,0.006999598317270175,1.956564332325159,-52.606990536186714,-17.66623974209867,-0.6580280546315698,0.38502892209414596,0.08656165222104131
0.023779565921607838,-0.49967409378619065,0.6588898178981188,-0.7938806688323731,0.10037102679026333,0.30037929534131924,0.04186077429131052,0.003150102000647675,-0.01612132936265103,0.06809628519335202,0.006579982111232687,0.007183268677742168,1.95556676280282,-52.609952699092894,-17.66973101613548,-0.6580394389074045,0.38596710804623374,0.08754637871534687
0.023864215169029413,-0.4996677554422481,0.6588569553445403,-0.7937429432956012,0.10038450530584987,0.3003940339474065,0.04232462371078798,0.0031691719712602343,-0.01643127678928958,0.06886276838589862,0.0067392577932733014,0.007369303043620773,1.9545580677555952,-52.61291382065115,-17.67321762016784,-0.6580514381514885,0.38690452723965757,0.08853075503726936
0.02394979166117076,-0.4996613796916738,0.6588234673645422,-0.7936036849320557,0.10039830615674829,0.3004091493485435,0.04278824607067234,0.003187875287161606,-0.01674398999899738,0.06962918177276407,0.006900425449206812,0.007557700568505391,1.9535382554298875,-52.61587388725493,-17.67669952825573,-0.658064062140951,0.38784117808029844,0.0895147772495571
0.02403629493848522,-0.49965496726805925,0.6587893484349994,-0.7934628938880515,0.10041243312559184,0.30042464626933657,0.0432516386572305,0.0032062118072680515,-0.017059464771450518,0.07039552200208386,0.007063484421774301,0.007748460396537412,1.952507334134589,-52.618832885288626,-17.68017671448497,-0.6580773206419552,0.38877705897449233,0.09049844141638293
0.024123724536000393,-0.4996485189052791,0.6587545930413128,-0.7933205703166115,0.10042688999368575,0.30044052943266136,0.04371479875758576,0.0032241813900755053,-0.017377696843310076,0.07116178571996755,0.007228434046957382,0.007941581662403635,1.9514653122407866,-52.621790801126636,-17.683649152967185,-0.6580912234096705,0.3897121683290337,0.09148174360334349
0.02421207998331986,-0.4996420353374918,0.6587191956774963,-0.7931767143774705,0.10044168054099371,0.30045680355964405,0.044177723659733235,0.0032417838936724605,-0.017698681908285743,0.07192796957051714,0.007395273653979122,0.008137063491339743,1.950412198181463,-52.62474762113257,-17.687116817839648,-0.6581057801882226,0.390646504551174,0.09246467987748873
0.024301360804624972,-0.4996355172991403,0.6586831508462618,-0.7930313262370788,0.10045680854612432,0.3004734733696423,0.04464041065255544,0.0032590191757528686,-0.01802241561720008,0.07269407019584552,0.007564002565304964,0.0083349049991338,1.9493480004511976,-52.627703331658644,-17.690579683265305,-0.6581210007106763,0.39158006604862944,0.09344724630732472
0.024391566518676647,-0.49962896552495306,0.6586464530591057,-0.7928844060686067,0.10047227778631761,0.3004905435802266,0.045102857025837766,0.003275887093629059,-0.018348893578053412,0.07346008423609494,0.007734620096643664,0.008535105292129802,1.9482727276058662,-52.63065791904468,-17.69403772343258,-0.6581368946989872,0.3925128512295789,0.09442943896284457
0.024482696638817216,-0.4996223807499446,0.6586090968363936,-0.7927359540519477,0.1004880920374315,0.30050801890716106,0.04556506007028408,0.0032923875042446503,-0.018678111356089308,0.07422600832945554,0.007907125556948235,0.00873766346723125,1.947186388262338,-52.63361136961756,-17.697490912555306,-0.6581534718639642,0.39344485850266786,0.09541125391552896
0.02457475067297228,-0.4996157637094162,0.6585710767074459,-0.7925859703737234,0.10050425507392834,0.30052590406438484,0.046027017077532296,0.0033085202641875006,-0.019010064473860718,0.07499183911218396,0.008081518248416892,0.008942578611904775,1.9460889910981716,-52.63656366969025,-17.70093922487265,-0.658170741905238,0.39437608627700893,0.09639268723837566
0.024667728123652623,-0.4996091151389568,0.6585323872106232,-0.7924344552272861,0.10052077066886132,0.3005442037639932,0.046488725340169984,0.003324285229702635,-0.019344748411296707,0.07575757321862195,0.008257797466494014,0.009149849804183792,1.9449805448513107,-52.639514805561106,-17.704382634648955,-0.658188714511222,0.39530653296218493,0.09737373500590102
0.024761628487956124,-0.49960243577444335,0.6584930228934117,-0.7922814088127236,0.10053764259386107,0.30056292271621854,0.046950182151750015,0.0033396822567052036,-0.019682158605769818,0.07652320728121507,0.008435962499871111,0.009359476112672193,1.9438610583197768,-52.64246476351295,-17.707821116173623,-0.6582073993590674,0.39623619696824847,0.09835439329416991
0.024856451257569738,-0.49959572635204175,0.6584529783125074,-0.7921268313368625,0.10055487461912205,0.30058206562941164,0.0474113848068062,0.003354711200793443,-0.02002229045216405,0.07728873793053145,0.008616012630487798,0.00957145659654808,1.9427305403613615,-52.64541352981233,-17.711254643760995,-0.6582268061146269,0.397165076705725,0.09933465818079806
0.024952195918771475,-0.49958898760820725,0.6584122480339015,-0.7919707230132719,0.10057247051338912,0.30060163721002275,0.047872330600868984,0.0033693719172616355,-0.020365139302943442,0.07805416179528056,0.008797947133532774,0.009785790305567539,1.9415889998933158,-52.64836109070875,-17.714683191750254,-0.6582469444324246,0.3980931705856133,0.10031452574498288
0.025048861952432437,-0.499582220279685,0.6583708266329651,-0.7918130840622672,0.10059043404394401,0.3006216421625829,0.048333016830481156,0.0033836642611130893,-0.020710700468221283,0.07881947550233204,0.008981765277444816,0.010002476280068439,1.9404364458920411,-52.65130743243366,-17.718106734505202,-0.6582678239555999,0.3990204770193865,0.10129399206750221
0.025146448834018863,-0.4995754251035109,0.6583287086945334,-0.7916539147109137,0.10060876897659184,0.3006420851896849,0.04879344079321358,0.0033975880870731052,-0.021058969215829938,0.07958467567673463,0.009167466323913782,0.010221513550974283,1.9392728873927767,-52.65425254119981,-17.721525246414185,-0.6582894543158848,0.39994699441899195,0.1022730532307394
0.025244956033594224,-0.49956860281701165,0.6582858888129907,-0.7914932151930303,0.1006274790756476,0.3006629709919645,0.049253599787680936,0.003411143249601972,-0.021409940771391262,0.0803497589417351,0.009355049527881607,0.010442901139798094,1.9380983334892856,-52.65719640320028,-17.72493870188993,-0.6583118451335387,0.4008727211968537,0.10325170531870473
0.02534438301582134,-0.49956175415780585,0.6582423615923538,-0.7913309857491927,0.1006465681039227,0.3006843042680818,0.04971349111355752,0.0034243296029079465,-0.021763610318387666,0.08111472191879723,0.00954451413754333,0.01066663805864633,1.9369127933335408,-52.66013900460767,-17.72834707536937,-0.6583350060173383,0.40179765576587145,0.10422994441703858
0.025444729239964527,-0.4995548798638039,0.6581981216463574,-0.7911672266267374,0.1006660398227114,0.30070608971470225,0.05017311207159304,0.003437147000960236,-0.022119972998233744,0.08187956122762088,0.00973585939434811,0.010892723310222844,1.9357162761354092,-52.663080331573255,-17.73175034131343,-0.658358946564499,0.40272179653942247,0.10520776661302898
0.025545994159891783,-0.49954798067320894,0.6581531635985367,-0.7910019380797652,0.10068589799177739,0.3007283320264779,0.05063245996362844,0.0034495952975020037,-0.022479023910348547,0.08264427348616107,0.009929084533000258,0.011121155887832886,1.9345087911623342,-52.666020370226036,-17.735148474206955,-0.6583836763606581,0.40364514193135975,0.10618516799564048
0.025648177224077005,-0.4995410573245168,0.6581074820823123,-0.7908351203691438,0.10070614636934032,0.3007510358960287,0.05109153209261175,0.003461674346063358,-0.02284075811222844,0.08340885531064714,0.010124188781460281,0.011351934775387127,1.9332903477390189,-52.66895910667196,-17.738541448558482,-0.658409204979836,0.40456769035601425,0.10716214465551431
0.025751277875602233,-0.49953411055651686,0.6580610717410732,-0.7906667737625126,0.10072678871206221,0.3007742060139235,0.051550325762613966,0.0034733839999743416,-0.023205170619520578,0.08417330331560192,0.010321171360945926,0.011585058947405741,1.932060955247105,-52.671896526993024,-17.74192923890002,-0.6584355419843599,0.4054894402281932,0.10813869268498974
0.025855295552159922,-0.4995271411082921,0.658013927228261,-0.7904968985342848,0.10074782877503408,0.3007978470686616,0.05200883827884497,0.003484724112377932,-0.023572256406096972,0.08493761411386103,0.010520031485933237,0.011820527369022506,1.9308206231248544,-52.67483261724633,-17.745311819786927,-0.6584626969248597,0.4064103899631808,0.10911480817812423
0.025960229686055263,-0.4995201497192196,0.6579660432074528,-0.7903254949656516,0.10076927031176239,0.30082196374665354,0.05246706694766943,0.0034956945362430362,-0.02394201040412918,0.08570178431659209,0.01072076836415762,0.012058338995988958,1.9295693608668258,-52.677767363463225,-17.748689165797693,-0.6584906793401966,0.40733053797673807,0.11009048723069788
0.026066079704208506,-0.49951313712897083,0.6579174143524444,-0.7901525633445851,0.10079111707415561,0.3008465607322029,0.052925009076622745,0.003506295124377487,-0.024314427504163582,0.08646581053331416,0.010923381196614911,0.012298492774678569,1.928307178023554,-52.6807007516484,-17.75206125153366,-0.6585194987574172,0.4082498826850994,0.11106572594024196
0.026172845028157362,-0.49950610407751195,0.6578680353473341,-0.7899781039658412,0.10081337281251074,0.30087164270748706,0.053382661974427044,0.0035165257294410297,-0.02468950255519724,0.0872296893719171,0.011127869177562467,0.012540987642090976,1.9270340842012246,-52.683632767778995,-17.75542805161897,-0.6585491646917292,0.40916842250497754,0.11204052040604831
0.026280525074059376,-0.499499051305104,0.6578179008866045,-0.7898021171309638,0.10083604127549978,0.3008972143525388,0.05384002295100716,0.0035263862039583128,-0.0250672303647544,0.08799341743868096,0.011334231494520244,0.012785822525856234,1.925750089061351,-52.686563397803575,-17.758789540700185,-0.6585796866464272,0.410086155853557,0.11301486672918047
0.02638911925269439,-0.49949197955230334,0.6577670056752066,-0.7896246031482872,0.10085912621015632,0.30092328034522725,0.054297089317506674,0.0035358764003318804,-0.025447605698963555,0.08875699133829557,0.011542467328271905,0.013032996344239118,1.924455202320449,-52.68949262764143,-17.76214569344621,-0.6586110741128812,0.41100308114849565,0.11398876101249511
0.026498626969466997,-0.4994848895599616,0.6577153444286413,-0.7894455623329394,0.10088263136186205,0.30094984536123953,0.054753858386303915,0.003544996170855144,-0.02583062328263512,0.08952040767388,0.011752575852865915,0.013282508006143457,1.9231494337497093,-52.692420443181376,-17.765496484547953,-0.6586433365704476,0.4119191968079246,0.11496219936066242
0.026609047624409052,-0.49947778206922616,0.6576629118730426,-0.7892649950068454,0.10090656047433329,0.30097691407406174,0.05521032747102808,0.0035537453677253706,-0.026216277799339698,0.09028366304700224,0.011964556235616663,0.013534356411116506,1.9218327931746706,-52.695346830281125,-17.76884188871818,-0.6586764834864447,0.41283450125044524,0.11593517788016709
0.026720380612182203,-0.49947065782154004,0.6576097027452596,-0.7890829014987301,0.1009309172896075,0.3010044911549605,0.055666493886575304,0.003562123843056645,-0.026604563891486927,0.09104675405769873,0.01217840763710558,0.013788540449353355,1.9205052904748923,-52.69827177476599,-17.7721818806912,-0.6587105243161167,0.4137489928951272,0.11690769267934036
0.02683262532208045,-0.49946351755864227,0.6575557117929388,-0.7888992821441211,0.10095570554802986,0.3010325812729639,0.05612235494912477,0.00357013144889284,-0.026995476160404944,0.09180967730449414,0.012394129211182275,0.01404505900170138,1.9191669355836243,-52.70119526242829,-17.775516435222702,-0.6587454685025558,0.41466267016150876,0.11787973986835948
0.02694578113803276,-0.4994563620225678,0.657500933774606,-0.7887141372853522,0.1009809289882398,0.30106118909484325,0.05657790797615486,0.003577768037220586,-0.02738900916642043,0.0925724293844211,0.012611720104965666,0.014303910939664724,1.9178177384874788,-52.704117279026036,-17.778845527089434,-0.6587813254766729,0.41557553146959436,0.1188513155592798
0.02705984743860568,-0.49944919195564785,0.657445363459748,-0.7885274672715662,0.10100659134715749,0.30109031928509405,0.05703315028645931,0.0035850334599822078,-0.02778515742893922,0.09333500689303992,0.012831179458845137,0.01456509512540882,1.916457709226098,-52.70703781028238,-17.78216913108902,-0.6588181046571366,0.4164875752398516,0.11982241586603568
0.027174823597006008,-0.49944200810050965,0.657388995628895,-0.7883392724587173,0.10103269635997045,0.3011199765059176,0.0574880792001634,0.003591927569088674,-0.028183915426527546,0.09409740642445849,0.013052506406481689,0.014828610411764954,1.9150868578918243,-52.709956841884306,-17.78548722203964,-0.6588558154503401,0.4173987998932108,0.12079303690446482
0.02729070898108349,-0.49943481120007677,0.657331825073701,-0.7881495532095746,0.10105924776012007,0.3011501654172021,0.05794269203874016,0.003598450216432536,-0.02858527759699382,0.09485962457135214,0.013275700074809103,0.015094455642234859,1.9137051946293673,-52.7128743594818,-17.788799774779786,-0.658894467250321,0.4183092038510615,0.12176317479232164
0.02740750295333354,-0.49942760199756897,0.657273846597026,-0.7879583098937246,0.10108624927928814,0.30118089067650405,0.05839698612502662,0.0036046012539008433,-0.028989238337471034,0.09562165792498357,0.013500759584035116,0.01536262965099535,1.912312729635472,-52.715790348686895,-17.79210676416802,-0.6589340694387411,0.4192187855352512,0.12273282564929416
0.02752520487090002,-0.4994203812365022,0.657215055013017,-0.7877655428875742,0.10111370464738342,0.30121215693902986,0.05885095878324004,0.003610380533388071,-0.029395792004499734,0.09638350307522284,0.013727684047642606,0.015633131262903,1.9109094731585845,-52.71870479507257,-17.795408165082645,-0.658974631384817,0.42012754336808206,0.12370198559701105
0.02764381408557801,-0.49941314966068856,0.6571554451471888,-0.787571252574353,0.10114161759252821,0.30124396885761684,0.05930460733899422,0.0036157879068090186,-0.029804932914111574,0.09714515661056737,0.013956472572390773,0.015905959293498844,1.9094954354985192,-52.72161768417193,-17.798703952421487,-0.6590161624452757,0.42103547577230865,0.12467065075907224
0.02776332994381664,-0.49940590801423634,0.657095011836505,-0.7873754393441167,0.10116999184104485,0.30127633108271484,0.059757929119315774,0.0036208232261117045,-0.030216655341913447,0.09790661511816204,0.014187124258316346,0.016181112549013128,1.908070627006123,-52.7245290014771,-17.80199410110154,-0.6590586719642846,0.4219425811711352,0.12563881726105025
0.02788375178672196,-0.4993986570415498,0.6570337499294586,-0.7871781035937491,0.10119883111744231,0.3013092482623676,0.06021092145266048,0.003625486343290239,-0.03063095352317221,0.0986678751838193,0.014419638198734788,0.016458589826370097,1.9066350580829414,-52.72743873243823,-17.805278586058726,-0.6591021692734285,0.42284885798821203,0.12660648123051277
0.028005078950059818,-0.49939139748732897,0.6569716542861528,-0.786979245726965,0.10122813914440279,0.301342725042194,0.06066358166892962,0.003629777110397706,-0.031047821652899963,0.09942893339203933,0.014654013480241505,0.016738389913192805,1.905188739180882,-52.73034686246245,-17.80855738224757,-0.6591466636916232,0.4237543046476333,0.12757363879703945
0.02812731076425879,-0.49938413009656984,0.656908719778381,-0.7867788661543129,0.10125791964276822,0.3013767660653696,0.061115907099486354,0.0036336953795590085,-0.03146725388593994,0.10018978632603028,0.014890249182713084,0.017020511587807992,1.9037316808018787,-52.73325337691306,-17.811830464640952,-0.659192164525094,0.4246589195739342,0.1285402860922326
0.028250446554413135,-0.49937685561456385,0.6568449412897068,-0.7865769652931774,0.10128817633152683,0.30141137597260814,0.0615678950771721,0.0036372410029837134,-0.03188924433705293,0.10095043056772848,0.015128344379308514,0.017304953619250964,1.9022638934975555,-52.73615826110821,-17.81509780822971,-0.6592386810672832,0.42556270119208667,0.12950641924973427
0.02837448564028578,-0.4993695747868979,0.6567803137155448,-0.7863735435677818,0.10131891292779976,0.3014465594021427,0.06201954293632298,0.003640413832978869,-0.03231378708100431,0.10171086269781882,0.015368298136470433,0.017591714767270533,1.9007853878688892,-52.73906150032015,-17.81835938802241,-0.6592862225988427,0.42646564792749475,0.13047203440524244
0.028499427336311355,-0.499362288359454,0.6567148319632395,-0.7861686014091903,0.10135013314682761,0.3014823209897074,0.06247084801278624,0.003643213721961823,-0.03274087615265163,0.10247107929575501,0.01561010951392638,0.017880793782333985,1.899296174565871,-52.741963079773996,-17.821615179045,-0.6593347983875226,0.427367758205994,0.13143712769652965
0.028625270951599228,-0.4993549970784091,0.6566484909521455,-0.7859621392553108,0.101381840701957,0.3015186653685187,0.06292180764393672,0.003645640522473011,-0.03317050554703277,0.10323107693978009,0.01585377756469005,0.018172189405632092,1.8977962642871709,-52.74486298464688,-17.824865156340454,-0.6593844176881654,0.4282690304538454,0.13240169526345302
0.028752015789936615,-0.4993477016902347,0.6565812856137065,-0.7857541575508968,0.10141403930462711,0.30155559716925684,0.06337241916869334,0.0036476940871887444,-0.033602669219454685,0.10399085220694679,0.016099301335062568,0.018465900369084152,1.896285667779797,-52.747761200066726,-17.828109294968513,-0.6594350897426187,0.42916946309773213,0.13336573324796686
0.028879661149791687,-0.4993404029416968,0.6565132108915354,-0.7855446567475506,0.10144673266435639,0.30159312102004754,0.0638226799275356,0.0036493742689339584,-0.03403736108558269,0.10475040167313804,0.016346679864633756,0.018761925395343073,1.8947643958387597,-52.75065771111133,-17.831347570005306,-0.6594868237796838,0.43006905456475486,0.13432923779415232
0.029008206324316728,-0.4993331015798554,0.6564442617414923,-0.7853336373037244,0.10147992448872896,0.30163124154644316,0.06427258726252011,0.0036506809206949564,-0.034474575021530326,0.10550972191308754,0.01659591218628343,0.019060263197800496,1.8932324593067305,-52.75355250280742,-17.83457995654303,-0.6595396290150706,0.43096780328242956,0.1352922050482173
0.029137650601351324,-0.49932579835206414,0.6563744331317644,-0.7851210996847237,0.10151361848338132,0.30166996337140434,0.06472213851729718,0.0036516138956321394,-0.03491430486394979,0.10626880950040031,0.016846997326182687,0.019360912480591946,1.891689869073705,-52.75644556012922,-17.83780642968961,-0.6595935146513192,0.43186570767868004,0.13625463115851852
0.02926799326342558,-0.49931849400596995,0.6563037200429441,-0.7849070443627085,0.10154781835198891,0.30170929111528155,0.06517133103712731,0.003652173047092706,-0.035356544410122925,0.10702766100757333,0.017099934303795212,0.01966387193860203,1.8901366360766623,-52.759336867997796,-17.841026964568336,-0.659648489877767,0.4327627661818354,0.1372165122755774
0.029399233587763376,-0.4993111892895127,0.6562321174681081,-0.7846914718166965,0.10158252779625267,0.3017492293957965,0.06562016216889789,0.0036523582286233304,-0.03580128741805278,0.10778627300601622,0.017354722131878587,0.019969140257469657,1.8885727712992268,-52.76222641127986,-17.844241536317554,-0.6597045638704655,0.43365897722062535,0.1381778445520963
0.029531370846285657,-0.4993038849509247,0.656159620412895,-0.7844743825325644,0.10161775051588563,0.3017897828280237,0.06606862926113974,0.00365216929398284,-0.036248527606555725,0.10854464206607195,0.01761135981648562,0.020276716113593322,1.8869982857713274,-52.7651141747866,-17.84745012009028,-0.6597617457921281,0.4345543392241771,0.13913862414297173
0.029664404305613745,-0.49929658173873037,0.6560862238955842,-0.7842557770030504,0.10165349020859957,0.301830956024372,0.06651672966404376,0.0036516060971548484,-0.0366982586553541,0.1093027647570376,0.017869846356965657,0.020586598174136404,1.8854131905688598,-52.768000143272715,-17.850652691053835,-0.6598200447920939,0.4354488506220059,0.14009884720530344
0.0297983332270727,-0.49928928040174564,0.6560119229471739,-0.784035655727756,0.1016897505700915,0.30187275359456606,0.06696446072947763,0.003650668492360379,-0.03715047420516949,0.11006063764718516,0.018130180745965948,0.0208987850970325,1.8838174968133445,-52.770884301435366,-17.85384922438952,-0.6598794700062125,0.43634250984401235,0.14105850989842592
0.029933156866694705,-0.4992819816890775,0.6559367126114583,-0.7838140192131484,0.10172653529403036,0.301915180145628,0.06741181981100247,0.003649356334070466,-0.03760516785781646,0.1108182573037824,0.01839236196943297,0.02121327553099081,1.8822112156715884,-52.77376663391296,-17.85703969529221,-0.659940030556858,0.4372353153204815,0.14201760838391114
0.030068874475222485,-0.49927468635012345,0.6558605879451057,-0.7835908679725622,0.10176384807204358,0.301958240281859,0.06785880426388952,0.003647669477018723,-0.038062333176296946,0.1115756202931138,0.0186563890066138,0.02153006811550156,1.8805943583553453,-52.776647125284235,-17.860224078970006,-0.660001735552784,0.4381272654820683,0.14297613882558408
0.030205485298112757,-0.499267395134571,0.655783544017736,-0.7833662025262011,0.1018016925937037,0.3020019386048207,0.0683054114451369,0.003645607776213909,-0.038521963684895105,0.11233272318050137,0.018922260830057474,0.02184916148084144,1.8789669361209747,-52.77952576006698,-17.863402350643817,-0.6600645940891492,0.43901835875980155,0.1439340973895442
0.03034298857553973,-0.49926010879239713,0.6557055759119974,-0.7831400234011405,0.10184007254651493,0.3020462797133169,0.06875163871348632,0.0036431710869524445,-0.03898405286927278,0.11308956253032577,0.019189976405616364,0.0221705542480791,1.8773289602691037,-52.78240252271719,-17.86657448554709,-0.6601286152473678,0.43990859358507267,0.14489148024417642
0.03048138354239861,-0.49925282807386745,0.6556266787236443,-0.7829123311313284,0.10187899161589983,0.30209126820337506,0.06919748342943989,0.0036403592648309242,-0.039448594176565495,0.11384613490604727,0.01945953469244757,0.02249424502908069,1.875680442144286,-52.78527739762774,-17.869740458925264,-0.6601938080951372,0.4407979683896318,0.14584828356016757
0.030620669428309162,-0.49924555372953594,0.6555468475616134,-0.782683126257588,0.10191845348518586,0.3021369086682281,0.06964294295527688,0.003637172165758584,-0.03991558101547899,0.11460243687022681,0.019730934643014297,0.022820232426515395,1.8740213931346634,-52.78815036912735,-17.872900246035524,-0.6602601816862823,0.44168648160558055,0.1468045035105224
0.030760845457619302,-0.499238286510244,0.6554660775481006,-0.7824524093276188,0.10195846183559203,0.3021832056982958,0.07008801465507053,0.003633609645969771,-0.04038500675638631,0.11535846498454716,0.020004175203087275,0.023148515033861065,1.8723518246716258,-52.79102142147959,-17.87605382214634,-0.6603277450607749,0.4425741316653691,0.14776013627057968
0.03090191084940871,-0.4992310271671199,0.6553843638186377,-0.7822201808959992,0.10199902034621552,0.30223016388116664,0.07053269589470486,0.00362967156203636,-0.04085686473142544,0.11611421580983404,0.020279255311746163,0.02347909143540983,1.8706717482294712,-52.79389053888162,-17.879201162537072,-0.6603965072446117,0.44346091700178697,0.1487151780180217
0.031043864817492495,-0.49922377645157817,0.6553017015221685,-0.7819864415241871,0.10204013269401829,0.30227778780157916,0.07097698404189155,0.003625357770880153,-0.04133114823459749,0.11686968590607733,0.020556173901380974,0.023811960206273786,1.8689811753250685,-52.7967577054632,-17.88234224249759,-0.6604664772497737,0.4443468360479585,0.1496696249329002
0.03118670657042487,-0.4992165351153186,0.6552180858211247,-0.7817511917805221,0.10208180255381367,0.30232608204140393,0.0714208764661868,0.0036206681297852577,-0.0418078505218654,0.11762487183245231,0.020834929897693498,0.024147119912390706,1.867280117517517,-52.79962290528551,-17.885477037327902,-0.6605376640741711,0.4452318872373351,0.15062347319763977
0.03133043531150288,-0.4992093039103258,0.6551335118915023,-0.7815144322402274,0.10212403359825308,0.302375051179625,0.07186437053900821,0.003615602496410426,-0.04228696481125321,0.11837977014734095,0.021115522219698753,0.024484569110529777,1.8655685864078086,-52.80248612233995,-17.888605522337613,-0.6606100767015677,0.44611606900369066,0.15157671899705877
0.03147505023877019,-0.4992020835888682,0.6550479749229363,-0.7812761634854107,0.10216682949781253,0.30242469979232156,0.07230746363365168,0.0036101607288013793,-0.04276848428294584,0.11913437740835325,0.02139794977972643,0.024824306348297395,1.8638465936384896,-52.80534734054722,-17.89172767284571,-0.6606837241014921,0.4469993797811136,0.15252935851839086
0.031620550545020804,-0.4991948749034974,0.6549614701187776,-0.781036386105066,0.10221019392077937,0.30247503245264984,0.07275015312530834,0.0036043426854030815,-0.04325240207938946,0.11988869017234857,0.021682211483422347,0.02516633016414298,1.862114150893322,-52.80820654375601,-17.894843464179996,-0.6607586152292237,0.4478818180040006,0.15348138795128832
0.03176693541780297,-0.49918767860704727,0.6548739926961668,-0.7807951006950751,0.10225413053323887,0.3025260537308246,0.07319243639108156,0.003598148225072011,-0.04373871130539233,0.12064270499545708,0.02196830622974993,0.025510639087364846,1.860371269896947,-52.81106371574207,-17.897952871676722,-0.6608347590256647,0.4487633821070489,0.15443280348784297
0.03191420403942297,-0.4991804954526331,0.6547855378861103,-0.7805523078582088,0.10229864299906086,0.3025777681941008,0.07363431081000378,0.003591577207088383,-0.044227405028226204,0.1213964184331012,0.02225623291099168,0.025857231638116072,1.8586179624145471,-52.8139188402068,-17.901055870680185,-0.6609121644173365,0.44964407052525046,0.15538360132260587
0.03206235558694908,-0.4991733261936508,0.6546961009335548,-0.7803080082041288,0.10234373497988636,0.30263018040675566,0.07407577376305365,0.0035846294911683475,-0.04471847627772829,0.12214982704001706,0.02254599041275066,0.026206106327410456,1.8568542402515094,-52.81677190077629,-17.904152436542248,-0.6609908403162637,0.45052388169388435,0.15633377765259238
0.03221138923221543,-0.49916617158377585,0.654605677097462,-0.7800622023493883,0.10238941013511427,0.3026832949300699,0.07451682263317289,0.0035773049374761496,-0.04521191804640371,0.12290292737027611,0.022837577613952005,0.026557261657128472,1.8550801152530896,-52.81962288100023,-17.90724254462199,-0.6610707956199227,0.4514028140485098,0.15728332867730527
0.032361304141825996,-0.4991590323769626,0.6545142616508829,-0.7798148909174336,0.10243567212188795,0.30273711632230993,0.07495745480528343,0.0035696034066362713,-0.04570772328952849,0.12365571597730661,0.023130993386844417,0.026910696120023274,1.8532955993040756,-52.82247176435072,-17.910326170285213,-0.6611520392111963,0.4522808660249579,0.15823225059875182
0.03251209947715861,-0.4991519093274431,0.6544218498810324,-0.7795660745386058,0.10248252459508195,0.3027916491387094,0.07539766766630439,0.0035615247597455308,-0.046205884925253085,0.12440818941391531,0.023426236597001684,0.02726640819972674,1.8515007043284533,-52.82531853422097,-17.913403288903996,-0.661234579958255,0.4531580360593249,0.1591805396214465
0.03266377439436895,-0.4991448031897263,0.654328437089363,-0.7793157538501412,0.1025299712072886,0.30284689793145086,0.07583745860516915,0.003553068858385155,-0.046706395834706434,0.12516034423230907,0.023723306103324206,0.027624396370755554,1.8496954422890706,-52.82816317392443,-17.91647387585633,-0.661318426714538,0.4540343225879646,0.16012819195244077
0.03281632804439463,-0.499137714718597,0.6542340185916388,-0.779063929496173,0.10257801560880468,0.3029028672496479,0.07627682501284241,0.003544235564632809,-0.04720924886210054,0.12591217698411658,0.024022200758040537,0.027984659098517304,1.8478798251873032,-52.83100566669336,-17.919537906525612,-0.6614035883186622,0.4549097240474805,0.16107520380133172
0.032969759572959306,-0.4991306446691149,0.6541385897180091,-0.7788106021277321,0.1026266614476181,0.3029595616393265,0.07671576428233735,0.003535024741074606,-0.047714436814835566,0.12666368422041008,0.024322919406708925,0.028347194839316657,1.846053865062723,-52.83384599567799,-17.922595356300207,-0.6614900735943523,0.45578423887471853,0.16202157138027398
0.03312406812057677,-0.49912359379661325,0.6540421458130818,-0.7785557724027486,0.10267591236939454,0.30301698564340723,0.07715427380873267,0.003525436250817081,-0.04822195246360546,0.12741486249172712,0.02462546088821887,0.02871200204036152,1.8442175739927629,-52.836684143945014,-17.92564620057303,-0.6615778913503576,0.45665786550675674,0.16296729090400208
0.03327925282255515,-0.49911656285669825,0.6539446822359969,-0.7782994409860524,0.10272577201746412,0.30307514380168676,0.07759235098918975,0.003515469957499105,-0.04873178854250406,0.12816570834809246,0.02492982403479268,0.029079079139769287,1.8423709640923853,-52.83952009447671,-17.928690414741062,-0.6616670503804252,0.4575306023809006,0.1639123585898376
0.03343531280900109,-0.49910955260524764,0.6538461943604986,-0.7780416085493743,0.10277624403280809,0.3031340406508199,0.0780299932229698,0.0035051257253038088,-0.049243937749131814,0.12891621833903982,0.025236007671987064,0.02944842456657308,1.8405140475137516,-52.84235383016967,-17.931727974204943,-0.6617575594631818,0.45840244793467266,0.1648567706577144
0.03359224720482399,-0.4991025637984097,0.6537466775750093,-0.7777822757713471,0.10282733205404548,0.30319368072430136,0.07846719791145104,0.003494403418970428,-0.0497583927447029,0.12966638901363384,0.025544010618694706,0.029820036740728063,1.8386468364458899,-52.84518533383371,-17.93475885436845,-0.6618494273620925,0.45927340060580446,0.16580052333018233
0.03375005512974028,-0.4990955971926021,0.653646127282701,-0.7775214433375061,0.10287903971741978,0.3032540685524476,0.07890396245814585,0.0034833029038061464,-0.05027514615415295,0.130416216920492,0.025853831687145862,0.030193914073117754,1.8367693431143657,-52.848014588190516,-17.93778303063809,-0.6619426628253651,0.460143458832229,0.16674361283243244
0.033908735698277716,-0.4990886535445107,0.6535445389015685,-0.7772591119402904,0.1029313706567856,0.3033152086623787,0.07934028426871798,0.003471824045697873,-0.050794190566247205,0.13116569860780655,0.026165469682909965,0.030570054965560416,1.8348815797809532,-52.850841575872664,-17.940800478422652,-0.6620372745859116,0.46101262105207047,0.16768603539230648
0.034068288019779715,-0.4990817336110885,0.6534419078645011,-0.7769952822790437,0.1029843285035954,0.30337710557800035,0.07977616075099979,0.0034599667111240105,-0.051315518533689285,0.13191483062336662,0.026478923404897246,0.030948457810815448,1.8329835587433057,-52.85366627942253,-17.943811173132648,-0.6621332713612488,0.46188088570363783,0.16862778724030816
0.034228711198409735,-0.49907483814955417,0.6533382296193546,-0.7767299550600145,0.10303791688688613,0.30343976381998555,0.08021158931500945,0.003447730767166158,-0.05183912257323038,0.13266360951458014,0.02679419164536035,0.03132912099258983,1.8310752923346294,-52.856488681290735,-17.946815090179953,-0.6622306618534184,0.4627482512254142,0.16956886460962967
0.03439000433315567,-0.4990679679173911,0.6532334996290231,-0.7764631309963576,0.10309213943326592,0.30350318790575664,0.08064656737296821,0.0034351160815208055,-0.052364995165778985,0.13341203182849606,0.027111273189895986,0.031712042885544606,1.8291567929233563,-52.85930876383551,-17.9498122049773,-0.6623294547489567,0.46361471605604887,0.17050926373615755
0.034552166517834305,-0.49906112367234606,0.6531277133715101,-0.7761948108081339,0.10314699976690081,0.30356738234946723,0.08108109233931766,0.003422122522510965,-0.05289312875651113,0.13416009411182636,0.027430166817446554,0.032097221855301394,1.8272280729128176,-52.86212650932107,-17.952802492937778,-0.6624296587187826,0.4644802786343486,0.1714489808584888
0.03471519684109578,-0.49905430617242785,0.6530208663400001,-0.775924995222312,0.10320250150950142,0.3036323516619841,0.081515161630737,0.00340874995909778,-0.05342351575498114,0.13490779291096827,0.027750871300301815,0.032484656258448937,1.8252891447409212,-52.86494189991666,-17.955785929474374,-0.6625312824181253,0.4653449373992671,0.17238801221795305
0.034879094386428104,-0.4990475161759061,0.6529129540429297,-0.7756536849727679,0.10325864828030962,0.3036981003508692,0.08194877266616035,0.003394998260892081,-0.05395614853523286,0.13565512477202651,0.028073385404100558,0.03287434444254969,1.8233400208798252,-52.86775491769533,-17.958762489999536,-0.6626343344864745,0.4662086907898973,0.17332635405861513
0.03504385823216169,-0.49904075444130974,0.6528039720040579,-0.7753808808002862,0.10331544369608528,0.3037646329203615,0.08238192286679402,0.0033808672981659247,-0.054491019435911434,0.13640208624083544,0.028397707887832274,0.03326628474614645,1.821380713835618,-52.87056554463279,-17.961732149924632,-0.6627388235474843,0.46707153724546135,0.17426400262730157
0.03520948745147396,-0.499034021727426,0.6526939157625372,-0.7751065834525602,0.10337289137109296,0.30383195387135903,0.08281460965613391,0.0033663569418640616,-0.0550281207603755,0.13714867386298138,0.02872383750383884,0.033660475498768994,1.8194112361479944,-52.8733737626062,-17.96469488465953,-0.6628447582089296,0.4679334752053016,0.17520095417360904
0.03537598111239393,-0.49902731879329876,0.6525827808729836,-0.7748307936841926,0.10343099491708858,0.30390006770140093,0.08324683045998278,0.003351467063615392,-0.055567444776809985,0.13789488418382492,0.029051772997816225,0.034056915020940805,1.8174316003899362,-52.87617955339297,-17.967650669612034,-0.6629521470625697,0.46879450310887105,0.17613720494992371
0.03554333827780686,-0.49902064639822724,0.652470562905547,-0.7745535122566956,0.10348975794330621,0.3039689789046493,0.08367858270646765,0.0033361975357443664,-0.05610898371833932,0.13864071374852327,0.029381513108816187,0.03445560162418578,1.815441819167393,-52.87898289866963,-17.970599480187495,-0.6630609986841507,0.4696546193957225,0.1770727512114302
0.03571155800545898,-0.49901400530176465,0.6523572574459806,-0.7742747399384915,0.10354918405644471,0.3040386919718714,0.08410986382605715,0.00332054823128235,-0.05665272978314118,0.1393861591020526,0.029713056569248004,0.03485653361103501,1.8134419051189627,-52.88178378001061,-17.973541291788248,-0.663171321633264,0.4705138225055009,0.17800758921613388
0.03588063934796214,-0.4990073962637167,0.6522428600957115,-0.773994477504913,0.10360927686065448,0.30410921139042146,0.0845406712515789,0.003304519023978944,-0.05719867513456072,0.14013121678923052,0.030046402104880198,0.035259709275033566,1.8114318709155757,-52.88458217888717,-17.97647607981319,-0.6632831244533091,0.4713721108779312,0.17894171522487332
0.03605058135279861,-0.4990008200441401,0.652127366471909,-0.7737127257382035,0.10367003995752416,0.304180541644223,0.0849710024182369,0.0032881097883132615,-0.05774681190122529,0.14087588335473852,0.030381548434842275,0.03566512690074737,1.8094117292601783,-52.887378076666,-17.97940381965719,-0.6633964156714119,0.47222948295281114,0.17987512550132762
0.03622138306232586,-0.49899427740334107,0.6520107722075548,-0.7734294854275172,0.10373147694606742,0.30425268721375054,0.08540085476362896,0.0032713203995051714,-0.05829713217715963,0.14162015534314443,0.030718494271626477,0.036072784763770044,1.8073814928874181,-52.89017145460817,-17.982324486710702,-0.6635112037983322,0.4730859371699987,0.18080781631204432
0.03639304351378139,-0.49898776910187403,0.651893072951511,-0.7731447573689194,0.1037935914227096,0.304325652576012,0.08583022572776415,0.003254150733526488,-0.0588496280219016,0.14236402929892494,0.031057238321089545,0.036482681130729826,1.805341174563331,-52.892962293868074,-17.985238056359215,-0.6636274973283943,0.47394147196940273,0.18173978392644494
0.03656556173928755,-0.4989812959005398,0.6517742643685898,-0.7728585423653864,0.1038563869812745,0.30439944220453063,0.08625911275308015,0.0032366006671121312,-0.05940429146061834,0.1431075017664882,0.03139777928245449,0.03689481425929653,1.8032907870850283,-52.89575057549196,-17.988144503982788,-0.6637453047394353,0.47479608579097454,0.18267102461684617
0.036738936765856475,-0.49897485856038426,0.6516543421396214,-0.7725708412268061,0.10391986721297113,0.304474060569327,0.0866875132844608,0.0032186700777712277,-0.05996111448422294,0.1438505692901964,0.03174011584831238,0.0373091823981885,1.801230343280387,-52.89853628041692,-17.991043804955467,-0.6638646344926713,0.47564977707469425,0.1836015346584627
0.03691316761539498,-0.49896845784269667,0.6515333019615224,-0.7722816547699773,0.10398403570638037,0.3045495121369014,0.08711542476925346,0.0032003588437981793,-0.06052008904949161,0.1445932284143884,0.03208424670462412,0.03772578378717968,1.799159856007739,-52.90131938946975,-17.993935934644924,-0.6639854950326878,0.47650254426056216,0.18453131032944492
0.03708825330470956,-0.4989620945090081,0.651411139547364,-0.7719909838186105,0.10404889604744182,0.3046258013702156,0.08754284465728661,0.003181666844283687,-0.0610812070791813,0.14533547568340235,0.03243017053072229,0.038144616657106625,1.7970793381555652,-52.904099883365674,-17.996820868411852,-0.664107894787305,0.4773543857885897,0.18546034791086877
0.03726419284551133,-0.4989557693210898,0.6512878506264397,-0.7716988292033273,0.10411445181944044,0.3047029327286754,0.0879697704008872,0.003162593959125731,-0.06164446046214779,0.14607730764159846,0.03277788599931292,0.038565679229875596,1.7949888026421865,-52.90687774270716,-17.999698581609493,-0.6642318421675271,0.47820530009878626,0.18638864368676183
0.037440985244421125,-0.4989494830409517,0.6511634309443327,-0.7714051917616606,0.1041807066029934,0.3047809106681123,0.08839619945489824,0.0031431400690404925,-0.06220984105346433,0.14681872083338168,0.03312739177647735,0.03898896971846971,1.79288826241546,-52.90965294798276,-18.002569049583155,-0.6643573455674555,0.47905528563114885,0.18731619394412793
0.03761862950297452,-0.49894323643084054,0.6510378762629836,-0.7711100723380541,0.10424766397603676,0.30485973964076624,0.08882212927669629,0.003123305055573255,-0.06277734067454066,0.14755971180322447,0.03347868652167405,0.03941448632695609,1.790777730452476,-52.91242547956593,-18.005432247669656,-0.6644844133642362,0.47990434082565314,0.1882429949729407
0.03779712461762694,-0.4989370302532383,0.6509111823607571,-0.7708134717838627,0.10431532751381224,0.3049394240952672,0.08924755732620897,0.0031030888011092405,-0.06334695111324258,0.14830027709568958,0.03383176888774049,0.03984222725049306,1.7886572197592532,-52.915195317713795,-18.00828815119685,-0.6646130539179208,0.4807524641222407,0.18916904306617607
0.0379764695797588,-0.49893086527086056,0.650783345032509,-0.7705153909573518,0.10438370078885403,0.3050199684766179,0.0896724810659325,0.00308249118888441,-0.06391866412401195,0.14904041325545292,0.03418663752089497,0.04027219067533737,1.786526743370442,-52.91796244256611,-18.011136735483177,-0.6647432755714445,0.48159965396080917,0.19009433451981975
0.0381566633756807,-0.49892474224665456,0.650654360089653,-0.7702158307236971,0.1044527873709755,0.3051013772261756,0.0900968979609492,0.0030615121029962168,-0.06449247142798717,0.1497801168273264,0.03454329106073853,0.0407043747788515,1.7843863143490215,-52.92072683414387,-18.013977975837054,-0.6648750866505393,0.48244590878120047,0.19101886563288006
0.03833770498663859,-0.49891866194379775,0.6505242233602267,-0.7699147919549846,0.10452259082725601,0.3051836547816346,0.09052080547894516,0.003040151428414309,-0.06506836471312412,0.1505193843562808,0.03490172814025679,0.041138777729510925,1.7822359457860046,-52.92348847234837,-18.0168118475564,-0.665008495463608,0.48329122702318916,0.19194263270741266
0.038519593388819044,-0.4989126251256958,0.6503929306889581,-0.7696122755302096,0.10459311472202766,0.3052668055770084,0.09094420109022763,0.003018409050991188,-0.06564633563431763,0.15125821238746873,0.0352619473858219,0.041575397686911486,1.7800756508001416,-52.92624733695963,-18.01963832592817,-0.6651435103017036,0.4841356071264731,0.19286563204852059
0.03870232755335453,-0.49890663255598083,0.650260477937331,-0.7693082823352771,0.10466436261686204,0.305350834042612,0.09136708226774276,0.0029962848574728246,-0.06622637581352331,0.1519965974662476,0.03562394741719438,0.04201423280177675,1.7779054425376257,-52.92900340763573,-18.02245738622778,-0.6652801394384026,0.4849790475306601,0.19378785996438241
0.038885906446328715,-0.4989006849985098,0.6501268609836512,-0.7690028132630008,0.1047363380705571,0.3054357446050439,0.09178944648709307,0.0029737787355092324,-0.06680847683987994,0.1527345361382026,0.0359877268475251,0.04245528121596542,1.7757253341717998,-52.93175666391125,-18.02526900371868,-0.6654183911297573,0.4858215466752577,0.19470931276626122
0.039070329028781825,-0.49889478321736247,0.6499920757231116,-0.7686958692131024,0.10480904463912381,0.3055215416871689,0.09221129122655508,0.0029508905736649713,-0.06739263026983222,0.15347202494916962,0.03635328428335719,0.04289854106247879,1.7735353389028679,-52.9345070851962,-18.028073153651714,-0.6655582736141978,0.4866631029996612,0.19562998676851712
0.03925559425671602,-0.4988889279768396,0.649856118067857,-0.7683874510922118,0.10488248587577306,0.3056082297080998,0.09263261396709693,0.002927620261429628,-0.06797882762725414,0.15420906044525845,0.03672061832462795,0.04334401046546824,1.7713354699576038,-52.93725465077484,-18.030869811264775,-0.6656997951124525,0.48750371494314143,0.19654987828862208
0.039441701081100816,-0.4988831200414611,0.6497189839470499,-0.768077559813866,0.10495666533090241,0.3056958130831803,0.09305341219239595,0.0029039676892282456,-0.06856706040357262,0.15494563917287577,0.037089727564670855,0.04379168754024274,1.769125740589065,-52.939999339804636,-18.033658951782108,-0.6658429638274532,0.4883433809448354,0.19746898364718782
0.03962864844787853,-0.49887736017596424,0.649580669306934,-0.7677661962985085,0.10503158655208285,0.30578429622396686,0.0934736833888563,0.0028799327484316847,-0.06915732005789174,0.15568175767874828,0.03746061059021747,0.0442415703932764,1.766906164076307,-52.94274113131476,-18.036440550413946,-0.6659877879443061,0.4891820994437315,0.1983872991679576
0.039816435297969785,-0.4988716491453015,0.6494411701108997,-0.7674533614734886,0.10510725308404564,0.30587368353821126,0.09389342504562657,0.002855515331366966,-0.06974959801711736,0.15641741250994587,0.03783326598139947,0.044693657122216054,1.7646767537241,-52.94548000420526,-18.03921458235594,-0.666134275630134,0.49001986887865995,0.19930482117783732
0.04000506056727902,-0.49886598771463886,0.6493004823395476,-0.7671390562730608,0.10518366846866914,0.30596397942984305,0.09431263465461748,0.0028307153313275424,-0.07034388567608224,0.15715260021390476,0.038207692311750606,0.04514794581588892,1.7624375228626457,-52.94821593724568,-18.0419810227886,-0.6662824350340484,0.4908566876882795,0.20022154600691136
0.040194523186700054,-0.4988603766493537,0.6491586019907523,-0.7668232816383839,0.10526083624496556,0.3060551882989517,0.09473130971051942,0.0028055326425835323,-0.07094017439767157,0.15788731733845068,0.0385838881482087,0.04560443455431023,1.7601884848472993,-52.95094890907391,-18.044739846876865,-0.6664322742870477,0.4916925543110664,0.2011374699884465
0.04038482208212169,-0.4988548167150329,0.6490155250797264,-0.7665060385175202,0.10533875994906779,0.3061473145417691,0.09514944771082018,0.0027799671603919007,-0.07153845551294898,0.15862156043182218,0.03896185205111767,0.04606312140869092,1.7579296530582904,-52.95367889819518,-18.047491029769528,-0.6665838015019427,0.49252746718530166,0.2020525894589129
0.04057595617443334,-0.4988493086774709,0.6488712476390838,-0.7661873278654348,0.10541744311421625,0.30624036255065196,0.09556704615582257,0.002754018781006594,-0.07213872032128295,0.15935532604269378,0.03934158257422956,0.04652400444144539,1.7556610409004472,-52.95640588298062,-18.050234546598737,-0.6667370247732621,0.49336142474905886,0.2029669007579977
0.04076792437953066,-0.4988438533026675,0.6487257657189028,-0.7658671506439944,0.10549688927074566,0.30633433671406435,0.09598410254866206,0.0027276874016886224,-0.07274096009047375,0.16008861072019936,0.039723078264706564,0.04698708170619923,1.7533826618029218,-52.95912984166631,-18.052970372479503,-0.6668919521771786,0.4941944254401943,0.20388040022862128
0.04096072560832131,-0.4988384513568261,0.648579075386789,-0.7655455078219664,0.10557710194607191,0.3064292414165599,0.0964006143953245,0.0027009729207160926,-0.07334516605688071,0.1608214110139554,0.040106337663123076,0.04745235124779708,1.7510945292189195,-52.961850752352056,-18.05569848250913,-0.6670485917714242,0.4950264676963298,0.20479308421695014
0.04115435876673064,-0.4988331036063513,0.6484311727279379,-0.7652224003750182,0.10565808466467884,0.3065250810387645,0.09681657920466377,0.0026738752373941972,-0.07395132942555009,0.1615537234740843,0.040491359303467755,0.0479198111023104,1.7487966566254272,-52.96456859300016,-18.058418851766774,-0.6672069515952057,0.4958575499548453,0.2057049490724102
0.041348822755707476,-0.49882781081784716,0.6482820538451972,-0.7648978292857157,0.10573984094810512,0.30662185995735863,0.09723199448841942,0.0026463942520651477,-0.0745594413703432,0.16228554465123793,0.040878141713145605,0.04838945929704539,1.746489057522946,-52.9672833414343,-18.06113145531284,-0.667367039669116,0.49668767065286357,0.20661599114770407
0.04154411647122994,-0.49882257375811495,0.6481317148591291,-0.7645717955435225,0.10582237431493108,0.3067195825450597,0.0976468577612344,0.002618529866118061,-0.07516949303406512,0.1630168710966208,0.041266683412980044,0.04886129385055087,1.7441717454352255,-52.9699949753385,-18.06383626818857,-0.6675288639950628,0.4975168282272383,0.2075262067988292
0.04174023880431129,-0.49881739319415097,0.6479801519080719,-0.7642443001447985,0.1059056882807655,0.30681825317060496,0.09806116654067272,0.002590281981998792,-0.07578147552859375,0.1637476993620136,0.04165698291721503,0.04933531277262625,1.7418447339089989,-52.97270347225569,-18.066533265415423,-0.6676924325561759,0.49834502111454226,0.20843559238507772
0.04193718864100576,-0.49881226989314453,0.6478273611482018,-0.7639153440927989,0.10598978635823254,0.3069178761987336,0.09847491834723718,0.0025616505032197206,-0.0763953799350094,0.1644780259997967,0.04204903873351713,0.04981151406432945,1.7395080365137232,-52.97540880958688,-18.069222421994663,-0.667857753316714,0.49917224775105407,0.20934414426907072
0.04213496486241454,-0.4988072046224758,0.6476733387535943,-0.763584928397673,0.1060746720569585,0.3070184559901696,0.09888811070438701,0.002532635334369483,-0.07701119730372469,0.16520784756297346,0.0424428493629777,0.050289895717985,1.7371616668413168,-52.97811096458974,-18.071903712906742,-0.6680248342219992,0.49999850657274486,0.210251858816762
0.04233356634469165,-0.49880219814971355,0.6475180809162852,-0.7632530540764626,0.10616034888355873,0.30711999690160396,0.09930074113855562,0.0025032363811226545,-0.07762891865461496,0.16593716060519392,0.04283841330011496,0.050770455717192,1.7348056385059047,-52.98080991437757,-18.074577113110884,-0.6681936831983248,0.5008237960152677,0.21115873239744457
0.04253299195904999,-0.49879725124261304,0.6473615838463308,-0.762919722153101,0.10624682034162448,0.30722250328567763,0.09971280717916829,0.002473453550249392,-0.07824853497714916,0.16666596168077824,0.04323572903287619,0.051253192036832255,1.7324399651435618,-52.98350563591821,-18.077242597544494,-0.6683643081528641,0.5016481145139415,0.212064761383788
0.04273324057176731,-0.4987923646691138,0.6472038437718698,-0.7625849336584115,0.10633408993170976,0.3073259794909638,0.10012430635865986,0.0024432867496250064,-0.078870037230521,0.16739424734474026,0.043634795042639875,0.05173810264307838,1.73006466041206,-52.98619810603277,-18.0799001411227,-0.6685367169735938,0.5024714605037416,0.21296994215183054
0.0429343110441923,-0.4987875391973373,0.6470448569391822,-0.7622486896301058,0.1064221611513182,0.3074304298619506,0.10053523621249245,0.0024127358882394907,-0.07949341634378067,0.16812201415281108,0.04403560980421787,0.052225185493401945,1.727679737990618,-52.98888730139457,-18.082549718737823,-0.6687109175292029,0.503293832419283,0.2138742710810031
0.043136202232750644,-0.4987827755955849,0.6468846196127503,-0.7619109911127829,0.10651103749488991,0.3075358587390238,0.1009455942791732,0.002381800876207007,-0.08011866321596697,0.16884925866146272,0.0444381717858576,0.052714438536581656,1.7252852115796526,-52.99157319852798,-18.085191305258846,-0.6688869176690109,0.5041152286948118,0.21477774455415072
0.043338912988951185,-0.49877807463233537,0.6467231280753178,-0.761571839157927,0.1066007224537884,0.3076422704584492,0.10135537810027191,0.002350481624775317,-0.08074576871623983,0.16957597742793165,0.044842479449244264,0.053205859712711606,1.722881094900532,-52.994255773807325,-18.087824875530938,-0.66906472522288,0.5049356477641886,0.21568035895752802
0.04354244215939206,-0.4987734370762427,0.6465603786279498,-0.7612312348239065,0.1066912195162874,0.30774966935235565,0.10176458522043887,0.00231877804633515,-0.08137472368401322,0.17030216701024256,0.04524853124950303,0.05369944695320949,1.720467401695333,-52.996935003455626,-18.090450404374945,-0.6692443480011374,0.5057550880608759,0.216582110680834
0.04374678858576691,-0.4987688636961339,0.6463963675900917,-0.7608891791759721,0.10678253216755781,0.30785805974871727,0.10217321318742245,0.0022866900544295378,-0.08200551892908856,0.17102782396723196,0.045656325635201285,0.05419519818082493,1.7180441457265985,-52.99961086354375,-18.09306786658682,-0.6694257937944716,0.5065735480179268,0.21748299611721414
0.04395195110487108,-0.4987643552610064,0.6462310912996281,-0.760545673286255,0.10687466388965451,0.3079674459713366,0.10258125955208694,0.002254217563763077,-0.08263814523178846,0.1717529448585719,0.04606586104835086,0.05469311130964779,1.7156113407770985,-53.00228332998886,-18.09567723693721,-0.6696090703738649,0.5073910260679683,0.2183830116632779
0.04415792854860794,-0.49875991254002594,0.646064546112942,-0.7602007182337654,0.10696761816150334,0.30807783233982683,0.10298872186843018,0.002221360490211164,-0.08327259334309096,0.1724775262447937,0.04647713592441027,0.055193184245116524,1.7131690006495948,-53.00495237855375,-18.09827849017091,-0.669794185490509,0.5082075206431941,0.21928215371911175
0.04436471974399515,-0.4987555363025243,0.6458967284049725,-0.7598543151043908,0.10706139845888792,0.3081892231695949,0.10339559769360133,0.0021881187508291625,-0.08390885398476414,0.17320156468731177,0.04689014869228703,0.055695414884026594,1.710717139166604,-53.00761798484545,-18.100871601006297,-0.6699811468756893,0.5090230301753425,0.22018041868830435
0.04457232351317098,-0.49875122731799654,0.6457276345692735,-0.7595064649908939,0.1071560082544366,0.308301622771824,0.10380188458791857,0.0021544922638615143,-0.08454691784950108,0.17392505674844724,0.047304897774339875,0.056199801114538886,1.7082557701701688,-53.01028012431411,-18.103456544134932,-0.6701699622407421,0.5098375530956911,0.22107780297794083
0.04478073867340075,-0.49874698635609904,0.6455572610180714,-0.759157168992911,0.10725145101760936,0.3084150354534564,0.10420758011488682,0.0021204809487508094,-0.08518677560105538,0.17464799899145192,0.04772138158638108,0.056706340816188174,1.7057849075216265,-53.012938772252085,-18.10603329422101,-0.6703606392769352,0.5106510878350387,0.22197430299863408
0.044989964037083184,-0.49874281418664673,0.6453856041823227,-0.7588064282169499,0.10734773021468472,0.3085294655171762,0.10461268184121544,0.0020860847261468087,-0.08582841787437696,0.17537038798053195,0.04813959853767879,0.057215031859891616,1.7033045651013823,-53.015593903792606,-18.10860182590081,-0.6705531856553777,0.5114636328236934,0.22286991516453203
0.045199998411756856,-0.4987387115796109,0.6452126605117712,-0.7584542437763881,0.10744484930874663,0.3086449172613921,0.10501718733683603,0.0020513035179153985,-0.08647183527574831,0.17609222028087176,0.048559547030959285,0.0577258721079573,1.700814756808686,-53.018245493908914,-18.11116211378232,-0.6707476090269788,0.512275186491458,0.22376463589333281
0.045410840600106694,-0.4987346793051166,0.6450384264750053,-0.7581006167914708,0.10754281175967145,0.30876139498022026,0.10542109417492003,0.0020161372471475046,-0.08711701838292114,0.17681349245865793,0.04898122546240937,0.058238859414092806,1.6983154965614093,-53.02089351741283,-18.1137141324446,-0.6709439170222953,0.5130857472676179,0.2246584616063006
0.04562248939997049,-0.4987307181334403,0.6448628985595148,-0.7577455483893086,0.10764162102411481,0.3088789029634671,0.10582439993189653,0.00198058583816795,-0.08776395774525346,0.17753420108110302,0.04940463222167869,0.05875399162341381,1.695806798295827,-53.02353794895409,-18.116257856437375,-0.6711421172515064,0.513895313580926,0.2255513887282787
0.04583494360434543,-0.4987268288350072,0.6446860732717471,-0.7573890397038757,0.10774128055549857,0.308997445496612,0.10622710218746993,0.0019446492165442586,-0.088412643883847,0.17825434271646945,0.04982976569188212,0.05927126657245271,1.6932886759663996,-53.026178763018876,-18.11879326028052,-0.6713422173042829,0.5147038838595892,0.2264434136877065
0.04604820200139471,-0.498723012180389,0.6445079471371638,-0.7570310918760076,0.10784179380399778,0.30911702686079034,0.10662919852463768,0.0019083273090954138,-0.08906306729168506,0.1789739139340935,0.05025662424960208,0.059790682089167324,1.690761143545561,-53.02881593392901,-18.121320318463564,-0.6715442247497192,0.515511456531256,0.22733453291662317
0.046262263374454125,-0.4987192689403012,0.6443285167002962,-0.7566717060533987,0.10794316421652755,0.30923765133277625,0.10703068652970794,0.0018716200439005618,-0.08971521843377084,0.17969291130440923,0.05068520626489101,0.06031223599294956,1.6882242150235047,-53.03144943584066,-18.123839005445184,-0.6717481471362539,0.5163180300230004,0.22822474285069855
0.04647712650203876,-0.4987155998856006,0.6441477785248017,-0.7563108833906008,0.1080453952367301,0.3093593231849655,0.10743156379231737,0.0018345273503076534,-0.09036908774726597,0.18041133139897245,0.0511155101012737,0.06083592609463418,1.685677904407977,-53.03407924274338,-18.126349295652762,-0.671953991991556,0.5171236027613102,0.22911403992923587
0.046692790157849655,-0.4987120057872827,0.6439657291935184,-0.7559486250490198,0.1081484903049616,0.3094820466853585,0.10783182790544875,0.001797049158942052,-0.09102466564162964,0.18112917079048463,0.05154753411574976,0.061361750196507574,1.6831222257240706,-53.03670532845912,-18.128851163481833,-0.6721617668224616,0.5179281731720718,0.2300024205951895
0.04690925311078055,-0.4987084874164793,0.6437823653085208,-0.7555849321969142,0.10825245285827918,0.3096058260975431,0.1082314764654487,0.0017591854017150763,-0.09168194249875798,0.18184642605281703,0.05198127665879602,0.06188970609231656,1.6805571930140195,-53.03932766664095,-18.131344583295657,-0.6723714791148756,0.518731739680556,0.2308898812951782
0.04712651412492464,-0.4987050455444556,0.6435976834911746,-0.7552198060093922,0.10835728633042792,0.30973066568067764,0.1086305070720454,0.001720936011832485,-0.09234090867312393,0.18256309376103463,0.052416736074368975,0.062419791567277234,1.6779828203370009,-53.0419462307722,-18.133829529424702,-0.6725831363336838,0.5195343007114055,0.2317764184795
0.047344571959581375,-0.49870168094260797,0.6434116803821908,-0.7548532476684093,0.10846299415182774,0.3098565696894738,0.10902891732836624,0.0016823009238029303,-0.0930015544919174,0.18327917049142017,0.05285391069990728,0.06295200439808384,1.6753991217689357,-53.04456099416525,-18.136305976166184,-0.6727967459226748,0.5203358546886196,0.2326620286021449
0.047563425369263286,-0.49869839438246105,0.6432243526416804,-0.7544852583627664,0.10856957974956041,0.30998354237417963,0.10942670484095551,0.0016432800734463356,-0.09366387025518587,0.1839946528214983,0.05329279886633419,0.06348634235291768,1.6728061114022936,-53.047171929960676,-18.138773897783608,-0.6730123153044408,0.5211364000355407,0.23354670812081574
0.04778307310370287,-0.49869518663566526,0.6430356969492085,-0.7541158392881062,0.10867704654735653,0.31011158798056254,0.1098238672197921,0.0016038733979022452,-0.0943278462359754,0.18470953733005951,0.05373339889806005,0.06402280319145608,1.6702038033459006,-53.04977901112597,-18.1412332685062,-0.6732298518802928,0.521935935174839,0.23443045349692637
0.04800351390785948,-0.498692058473994,0.6428457100038475,-0.7537449916469119,0.10878539796558251,0.3102407107498923,0.11022040207830718,0.0015640808356380954,-0.09499347268047197,0.1854238205971844,0.05417570911298483,0.06456138466488133,1.6675922117247504,-53.05238221045472,-18.143684062528564,-0.6734493630301825,0.5227344585285012,0.23531326119564167
0.048224746521926286,-0.49868901066934107,0.6426543885242312,-0.7533727166485034,0.10889463742122751,0.31037091491892405,0.11061630703340176,0.0015239023264574543,-0.09566073980814319,0.18613749920426764,0.05461972782250062,0.06510208451588975,1.6649713506798158,-53.05498150056539,-18.1461262540101,-0.6736708561125911,0.5235319685178125,0.23619512768586176
0.048446769681337216,-0.4986860439937181,0.6424617292486074,-0.7529990155090353,0.10900476832789051,0.31050220471988144,0.11101157970546452,0.0014833378115082017,-0.09632963781188049,0.18685056973404218,0.055065453331494166,0.0656449004787007,1.6623412343678672,-53.057576853900464,-18.148559817074613,-0.6738943384644744,0.5243284635633447,0.2370760494402634
0.048669582116773996,-0.4986831592192515,0.6422677289348911,-0.752623889451494,0.1091157940957672,0.31063458438043956,0.1114062177183893,0.0014423872332906585,-0.09700015685814155,0.18756302877060335,0.05551288393834941,0.06618983027906564,1.659701876961289,-53.06016824272528,-18.150984725809803,-0.6741198174011371,0.5251239420849431,0.23795602293528864
0.04889318255417318,-0.49868035711818015,0.642072384360717,-0.7522473397056952,0.1092277181316371,0.3107680581237081,0.11180021869959283,0.0014010505356656657,-0.0976722870870932,0.1882748728994331,0.055962017934950085,0.06673687163427731,1.6570532926479036,-53.06275563912714,-18.1534009542668,-0.6743473002161787,0.525918402501708,0.23883504465118655
0.049117569714733245,-0.4986776384628524,0.6418756923234915,-0.7518693675082804,0.10934054383885047,0.31090263016821446,0.11219358028003239,0.0013593276638625988,-0.09834601861275466,0.18898609870742408,0.05641285360668226,0.06728602225317885,1.6543954956307947,-53.06533901501424,-18.15580847645974,-0.6745767941813847,0.5267118432319858,0.23971311107199966
0.04934274231492169,-0.4986750040257234,0.6416776496404453,-0.7514899741027146,0.10945427461731534,0.3110383047278868,0.11258630009422332,0.0013172185644873492,-0.09902134152314111,0.1896967027829039,0.05686538923243694,0.06783727983617295,1.6517285001281354,-53.067918342114616,-18.15820726636527,-0.674808306546641,0.5275042626933504,0.24059021868559857
0.0495686990664822,-0.49867245457935233,0.6414782531486845,-0.7511091607392832,0.10956891386348457,0.31117508601203725,0.11297837578025677,0.0012747231855302524,-0.09969824588040777,0.1904066817156593,0.0573196230846127,0.0683906420752311,1.6490523203730192,-53.07049359197525,-18.160597297922106,-0.6750418445398596,0.5282956593025905,0.24146636398368704
0.04979543867644184,-0.4986699908963996,0.6412774997052425,-0.7507269286750893,0.1096844649703428,0.31131297822534504,0.1133698049798172,0.0012318414763739405,-0.10037672172099411,0.1911160320969604,0.05777555342911826,0.06894610665390284,1.646366970613293,-53.073064735961,-18.1629785450306,-0.6752774153668772,0.5290860314756944,0.24234154346181563
0.050022959847118235,-0.498667613749624,0.641075386187131,-0.7503432791740501,0.10980093132739355,0.3114519855678397,0.11376058533820008,0.0011885733878011751,-0.1010567590557687,0.19182475051958495,0.05823317852537519,0.06950367124732507,1.6436724651113939,-53.07563174525368,-18.16535098155225,-0.6755150262113542,0.5298753776278373,0.24321575361939962
0.0502512612761269,-0.49866532391187995,0.6408719094913906,-0.7499582135068944,0.10991831632064619,0.31159211223488414,0.11415071450432938,0.0011449188720026081,-0.1017383478701742,0.19253283357784254,0.05869249662632049,0.07006333352223128,1.6409688181441886,-53.07819459085106,-18.16771458130929,-0.6757546842347293,0.5306636961733655,0.24408899095972644
0.05048034165638845,-0.4986631221561148,0.6406670665351418,-0.7495717329511592,0.11003662333260301,0.31173336241715804,0.11454019013077524,0.001100877882584498,-0.10242147812437283,0.1932402778675989,0.05915350597840933,0.070625091136961,1.6382560440028153,-53.080753243565816,-18.170069318084224,-0.6759963965760705,0.531450985525781,0.24496125198998395
0.05071019967613599,-0.49866100925536566,0.640460854255635,-0.7491838387911866,0.11015585574224625,0.31187574030064097,0.11492900987377147,0.001056450374576374,-0.10310613975339215,0.19394707998630015,0.05961620482161767,0.07118894174146914,1.6355341569925312,-53.08330767402474,-18.172415165619423,-0.6762401703520483,0.5322372440977287,0.24583253322125678
0.05094083401892246,-0.49865898598275676,0.6402532696103005,-0.7487945323181205,0.11027601692502514,0.31201925006659564,0.11531717139323314,0.0010116363044386561,-0.10379232266727124,0.1946532365329971,0.06008059138944502,0.07175488297733543,1.632803171432559,-53.085857852667566,-18.174752097616608,-0.6764860126567969,0.5330224703009812,0.24670283116854516
0.05117224336362801,-0.4986570531114966,0.640044309576798,-0.7484038148299038,0.11039711025284298,0.3121638958915512,0.11570467235277411,0.0009664356300702016,-0.10448001675120717,0.19535874410836962,0.06054666390891712,0.07232291247777381,1.630063101655939,-53.088403749746234,-18.177080087736538,-0.6767339305618711,0.5338066625464252,0.24757214235079358
0.05140442638446746,-0.49865521141487495,0.6398339711530666,-0.7480116876312743,0.11051913909404415,0.3123096819472865,0.1160915104197246,0.0009208483108158395,-0.10516921186570191,0.19606359931475084,0.06101442060058869,0.07289302786764201,1.6273139620093848,-53.09094533532377,-18.179399109598464,-0.6769839311161119,0.534589819244044,0.24844046329087915
0.05163738175099776,-0.49865346166626,0.6396222513573732,-0.747618152033762,0.11064210681340124,0.3124566124008134,0.11647768326514867,0.0008748743074738102,-0.10585989784670952,0.1967677987561516,0.06148385967854615,0.07346522676345102,1.62455576685314,-53.09348257927349,-18.181709136779777,-0.6772360213455906,0.5353719388029056,0.24930779051565258
0.05187110812812548,-0.4986518046390954,0.6394091472283616,-0.7472232093556854,0.11076601677210206,0.31260469141436015,0.11686318856386173,0.0008285135823031847,-0.10655206450578368,0.1974713390382847,0.06195497935041044,0.07403950677337462,1.6217885305608397,-53.09601545127793,-18.184010142815527,-0.6774902082535113,0.5361530196311486,0.25017412055592897
0.05210560417611438,-0.4986502411068974,0.6391946558251012,-0.7468268609221482,0.11089087232773674,0.31275392314535466,0.11724802399444806,0.0007817660990312329,-0.1072457016302257,0.19817421676858932,0.062427777817339734,0.074615865497259,1.619012267519375,-53.09854392082805,-18.18630210119808,-0.6777464988201238,0.5369330601359636,0.25103944994651495
0.05234086855059294,-0.4986487718432516,0.6389787742271347,-0.7464291080650357,0.1110166768342848,0.3129043117464079,0.11763218723927828,0.0007346318228607193,-0.10794079898323268,0.1988764285562553,0.06290225327403229,0.0751943005266324,1.6162269921287589,-53.10106795722226,-18.188584985376647,-0.6780049000026249,0.5377120587235835,0.25190377522622176
0.052576899902561994,-0.49864739762181065,0.6387614995345265,-0.7460299521230113,0.11114343364210226,0.31305586136529734,0.11801567598452681,0.0006871107204771692,-0.10863734630404617,0.19957797101224764,0.06337840390872923,0.0757748094447147,1.613432718801998,-53.10358752956555,-18.190858768756833,-0.6782654187350788,0.5384900137992659,0.25276709293787053
0.05281369687840237,-0.49864611921629054,0.6385428288679104,-0.7456293944415125,0.1112711460979087,0.3132085761449502,0.11839848792018935,0.0006392027600560829,-0.10933533330810108,0.20027884074933075,0.06385622790321739,0.07635738982642716,1.610629461964965,-53.106102606768445,-18.193123424700364,-0.6785280619283436,0.5392669237672775,0.2536293996283174
0.05305125811988257,-0.498644937400468,0.638322759368536,-0.7452274363727484,0.11139981754477436,0.313362460223427,0.11878062074010029,0.0005909079112700923,-0.11003474968717498,0.2009790343820929,0.06433572343283214,0.07694203923840214,1.6078172360562757,-53.10861315754646,-18.19537892652456,-0.6787928364699505,0.5400427870308826,0.2544906918484626
0.053289582264166475,-0.4986438529481774,0.6381012881983169,-0.7448240792756944,0.11152945132210729,0.313517517733905,0.11916207214195013,0.0005422261452960706,-0.11073558510953777,0.20167854852697073,0.06481688866646028,0.07752875523899279,1.6049960555271703,-53.11111915041866,-18.197625247501936,-0.6790597492240303,0.5408176019923259,0.25535096615325886
0.05352866794382108,-0.49864286663330776,0.6378784125398766,-0.7444193245160898,0.11166005076564037,0.3136737528046616,0.1195428398273029,0.0004931574348221911,-0.11143782922010152,0.20237737980227347,0.06529972176654289,0.07811753537828293,1.6021659348413937,-53.11362055370741,-18.19986236085991,-0.6793288070312475,0.5415913670528184,0.2562102191017337
0.053768513786824304,-0.49864197922979964,0.6376541295965955,-0.7440131734664334,0.11179161920741852,0.31383116955905777,0.11992292150161359,0.0004437017540549536,-0.11214147164057091,0.2030755248282075,0.06578422088907825,0.0787083771980968,1.599326888475084,-53.11611733553707,-18.202090239780308,-0.6796000167086655,0.5423640806125214,0.2570684472569985
0.05400911841657279,-0.4986411915116422,0.6374284365926564,-0.7436056275059796,0.11192415997578577,0.31398977211552176,0.12030231487424543,0.0003938590787261331,-0.11284650196959373,0.20377298022690074,0.0662703841836247,0.07930127823200893,1.5964789309166623,-53.1186094638332,-18.20430885739901,-0.6798733850497075,0.5431357410705353,0.25792564718626354
0.054250480451889765,-0.49864050425287,0.6372013307730905,-0.7431966880207347,0.11205767639537237,0.31414956458753246,0.12068101765848735,0.0003436293860996963,-0.11355290978291192,0.2044697426224271,0.06675820979330366,0.07989623600535403,1.5936220766667233,-53.121096906321995,-18.206518186805596,-0.6801489188240488,0.543906346824881,0.2587818154608483
0.054492598507032905,-0.49863991822756004,0.6369728094038235,-0.742786356403453,0.11219217178708198,0.31431055108360295,0.12105902757157123,0.0002930126549786838,-0.11426068463351285,0.20516580864083084,0.06724769585480248,0.08049324803523693,1.590756340237934,-53.1235796305289,-18.208718201042892,-0.6804266247774938,0.5446758962724874,0.25963694865620596
0.05473547119170229,-0.4986394342098286,0.6367428697717199,-0.7423746340536327,0.11232764946807873,0.31447273570726403,0.1214363423346893,0.00024200886571200828,-0.11496981605178089,0.2058611749101512,0.06773884049837746,0.08109231183054247,1.5878817361549318,-53.12605760377845,-18.210908873106675,-0.6807065096319418,0.5454443878091744,0.2604910433519229
0.05497909714718194,-0.49863905141518094,0.6365115083331503,-0.7419615224341124,0.11246411276874814,0.3146361225569216,0.12181297773982552,0.00019139732381368276,-0.11568071928482439,0.2065558097601715,0.06823165033470771,0.08169342482878772,1.5849984259754986,-53.12853079936026,-18.21309017874519,-0.6809885828847095,0.546211820373244,0.2613440961309095
0.055223475297536934,-0.49863875666673885,0.6362787147951727,-0.7415470234642058,0.1126015651505543,0.3148007157249622,0.12218907517749943,0.00014737422103510816,-0.11639676898877212,0.20724948495331413,0.06872619090308045,0.08229658402031953,1.582107597506094,-53.13099925878622,-18.21526211120759,-0.68127287286553,0.5469781965039395,0.2621961035744242
