Joohwan-Seo/mujoco_sysID/UR5e/logs/square_PIH_1.csv
q1,q2,q3,q4,q5,q6,dq1,dq2,dq3,dq4,dq5,dq6,t1,t2,t3,t4,t5,t6
0.020000469092481408,-0.49999993163927925,0.6599999182782614,-0.7999984707343761,0.10000000146235473,0.2999999999700886,0.00023454624070435884,3.4180360362495095e-05,-4.086086931642316e-05,0.0007646328119660839,7.3117736033125e-07,-1.495569431178291e-08,0.999999983909957,-52.36684630568888,-17.34763254887053,-0.6582546870604276,0.30065356219047834,-2.3017143746528745e-12
0.020001407276861415,-0.4999997949184714,0.659999754833109,-0.7999954122064884,0.10000000410998122,0.29999999991593335,0.00046909219000257016,6.836040392949906e-05,-8.172257622864851e-05,0.0015292639438408409,1.3238132492731743e-06,-2.7077625544260864e-08,0.9999919356488082,-52.369844866771295,-17.3516281810725,-0.6582512074201552,0.30165233060438323,0.0009999993241239446
0.020002814576448397,-0.4999995904763363,0.6599995033341136,-0.7999908239804702,0.10000000810234957,0.30000000032235147,0.0007036497934905089,0.00010222106755233411,-0.00012574949768745945,0.0022941130091297672,1.9961841796066297e-06,2.0320906277667174e-07,0.9999678561776754,-52.37284275262581,-17.355621603124256,-0.6582474941069578,0.3026504811028464,0.0019999946459785967
0.02000469100689356,-0.4999993189518953,0.6599991574512825,-0.799984705626715,0.10000001356869938,0.3000000015822984,0.0009382152225809374,0.00013576222050040195,-0.00017294141558999958,0.0030591768776035344,2.733174901127694e-06,6.29973472412233e-07,0.9999277467163356,-52.37583995002572,-17.359612778150094,-0.6582435567502041,0.30364801232064925,0.002999981963315548
0.020007036576200222,-0.4999989809844247,0.6599987108552057,-0.7999770567218673,0.10000002061376634,0.30000000401427124,0.0011727846533312494,0.00016898373530656864,-0.00022329803839416965,0.0038244524238693293,3.5225334772661385e-06,1.215986429955281e-06,0.9998716087563798,-52.37883644576189,-17.363601669268864,-0.6582394049595405,0.30464492289292405,0.0039999572762178855
0.02000985128473133,-0.49999857721345164,0.6599981572171963,-0.7999678768488158,0.10000002932242384,0.30000000787641473,0.001407354265553687,0.00020188548652621256,-0.0002768190046787318,0.004589936525737536,4.354328753920595e-06,1.9310717409762275e-06,0.9997994440611602,-52.38183222664406,-17.367588239596007,-0.6582350483265683,0.3056412114549981,0.004999916584815362
0.02001313512521554,-0.4999981082787522,0.6599974902094243,-0.79995716559669,0.1000000397634451,0.3000000133779544,0.0016419202421052235,0.00023446734973351784,-0.0003335038860313183,0.005355626062900258,5.220510625311745e-06,2.750769837744843e-06,0.9997112546657217,-52.38482727950145,-17.371572452245523,-0.6582304964263272,0.3066368766422686,0.005999855889301731
0.020016888082752187,-0.4999975748203508,0.6599967035050456,-0.7999449225608583,0.10000005199255234,0.30000002068846365,0.0018764787683230699,0.00026672920071017054,-0.0003933521893919195,0.006121517915862601,6.114553619213614e-06,3.655254630238149e-06,0.9996070428767211,-52.38782159118382,-17.375554270331662,-0.658225758818423,0.30763191709010157,0.006999771189955184
0.020021110134815345,-0.49999697747852123,0.6599957907783277,-0.7999311473429281,0.10000006605488837,0.30000002994537484,0.0021110260315782177,0.0002986709147899722,-0.0004563633589551462,0.006887608965078835,7.0311680144817685e-06,4.628455585133086e-06,0.9994868112723309,-52.390815148561856,-17.37953365697033,-0.658220845047936,0.3086263314337547,0.007999658487145471
0.020025801257765524,-0.49999631688505547,0.6599947457297602,-0.7999158395380853,0.10000008570683717,0.30000004126006624,0.0023455614750886047,0.00033029673289027754,-0.0005225242837111679,0.007653902421404799,9.825974403126011e-06,5.657345694475558e-06,0.9993505627842637,-52.39380793908382,-17.383510576237956,-0.6582157660648613,0.3096201181767255,0.008999513781549291
0.020030961420501932,-0.49999559367178853,0.6599935620617919,-0.799898998747452,0.1000001147879587,0.30000005472279767,0.0025800813682046015,0.00036160663346783515,-0.000591833984162957,0.008420395316685102,1.4540560759838349e-05,6.731365703575161e-06,0.9991983005604154,-52.396799950906995,-17.387484992512228,-0.6582105328513143,0.31061327581959575,0.009999333073843443
0.020036590584316602,-0.4999948084708012,0.6599922334783788,-0.7998806245783784,0.10000015713755116,0.3000000704067099,0.002814581907334606,0.00039260049368307207,-0.0006642917065899198,0.00918708453676118,2.1174796225731948e-05,7.841956105540156e-06,0.9990300280179065,-52.39979117223203,-17.391456870186055,-0.6582051563792193,0.31160580286253065,0.01099911236484605
0.020042688702893007,-0.4999939619144557,0.6599907536849681,-0.799860716644724,0.10000021659463312,0.3000000906021308,0.0030490592882022978,0.0004232781727443054,-0.0007398967053710535,0.009953966827202534,2.9728540984340343e-05,1.0097710434824935e-05,0.9988457488443638,-52.402781591285404,-17.395426173662123,-0.6581996476105788,0.31259769780529784,0.011998847655531674
0.02004925572230618,-0.4999930546354065,0.6599891163885908,-0.7998392745669002,0.10000029699792956,0.3000001201100221,0.0032835097065856706,0.00045363952462473475,-0.0008186481885997988,0.010721038911905033,4.02016482202543e-05,1.4753945657777622e-05,0.9986454669978074,-52.40577119631959,-17.399392867353818,-0.6581940174975993,0.31358895914737933,0.012998534947060636
0.020056291581024895,-0.4999920872665736,0.6599873152981118,-0.7998162979715713,0.10000040218586345,0.30000016373110466,0.003517929359358581,0.00048368441643212236,-0.0009005452394973788,0.011488297664446341,5.2593966948590224e-05,2.1810541302697364e-05,0.9984291867065561,-52.40875997561316,-17.40335691568501,-0.6581882769820295,0.31457958538800124,0.013998170240776788
0.020063796209912232,-0.49999106044114966,0.6599853441243382,-0.7997917864916619,0.10000053599654242,0.3000002262658392,0.0037523144436690504,0.0005134127119854894,-0.000985586886806731,0.012255739954687674,6.690533948321858e-05,3.126736728994514e-05,0.9981969124690259,-52.411747917469945,-17.407318283090547,-0.658182436995102,0.3155695750259978,0.014997749538234195
0.020071769532226228,-0.499989974792606,0.6599831965801286,-0.7997657397663643,0.1000007022677453,0.30000031251440706,0.003986661156997825,0.0005428242718278787,-0.00107377210481038,0.013023362648787241,8.313560143764822e-05,4.312428393246244e-05,0.9979486490535654,-52.414735010218706,-17.411276934016836,-0.6581765084574838,0.3165589265598218,0.0159972688412171
0.020080211463620663,-0.4999888309546995,0.6599808663805019,-0.799738157441146,0.10000090483690875,0.30000042727669096,0.004220965697216954,0.000571918953239236,-0.0011650998133492484,0.013791162609213743,0.00010128458172591242,5.738114193632848e-05,0.9976844014982851,-52.41772124221312,-17.415232832922506,-0.6581705022793086,0.3175476384875521,0.016996724151745718
0.02008912191214596,-0.49998762956147896,0.6599783472427462,-0.7997090391677565,0.10000114754111387,0.30000057535225577,0.004455224262648371,0.000600696610249406,-0.0012595688778423522,0.014559136694759951,0.00012135210256345926,7.403778240135595e-05,0.9974041751108808,-52.42070660183114,-17.419185944279008,-0.6581644293601444,0.3185357093069024,0.01799611147209488
0.020098500778250206,-0.49998637124729167,0.6599756328865276,-0.7996783846042353,0.1000014342170728,0.3000007615403294,0.004689433052122498,0.0006291570936512527,-0.0013571781093074248,0.015327281760556349,0.00014333797946804421,9.30940368217254e-05,0.997107975468451,-52.42369107747515,-17.42313623257126,-0.6581583005889629,0.31952313751523154,0.018995426804819807
0.020108347954780278,-0.49998505664678966,0.6599727170339988,-0.7996461934149192,0.10000176870111532,0.3000009906397836,0.004923588265036852,0.000657300251013905,-0.0014579262643824422,0.016095594658084845,0.00016724202126062706,0.00011454972708665808,0.9967958084173085,-52.42667465757138,-17.42708366229825,-0.6581521268441386,0.3205099216095508,0.019994666152755674
0.020118663326983106,-0.4999836863949363,0.6599695934099081,-0.7996124652704488,0.10000215482917546,0.30000126744911454,0.005157686101414664,0.000685125926696099,-0.0015618120453480635,0.01686407223519256,0.00019306403006627085,0.0001384046654811275,0.9964676800727854,-52.4296573305697,-17.431028197973585,-0.6581459189934158,0.32149606008653075,0.020993825519047337
0.020129446772507033,-0.49998226112701255,0.6599662557417079,-0.7995771998477766,0.10000259643677809,0.3000015967664239,0.005391722761963504,0.0007126339618596582,-0.0016688341001509699,0.017632711336105677,0.00022080380131504426,0.00016465865468660927,0.9961235968190332,-52.432639084943204,-17.434969804126144,-0.6581396878939106,0.3224815514425138,0.02199290090715647
0.0201406981614033,-0.49998078147862357,0.659962697759663,-0.7995403968301737,0.10000309735902557,0.3000019833893995,0.005625694448133923,0.0007398241944830736,-0.0017789910224281246,0.018401508801443367,0.00025046112374292693,0.00019331148778186974,0.9957635653088152,-52.43561990918814,-17.4389084453006,-0.6581334443920821,0.32346639417351786,0.022991888320883756
0.020152417356127654,-0.4999792480857048,0.6599589131969599,-0.7995020559072373,0.10000366143058435,0.300002432115296,0.005859597362178092,0.0007666964593752095,-0.0018922813515319212,0.01917046146823178,0.0002820357793927187,0.0002243629482437927,0.9953875924632951,-52.438599791823364,-17.44284408605806,-0.6581271993237146,0.3244505867752458,0.02399078376438265
0.02016460421154207,-0.49997766158452844,0.6599548957898148,-0.7994621767748975,0.10000429248567158,0.3000029477409159,0.006093427707208454,0.0007932505881891169,-0.002008703572556274,0.019939566169918103,0.00031552754361494984,0.0002578128099482455,0.9949956854718178,-52.44157872139006,-17.446776690976545,-0.6581209635138827,0.3254341277430961,0.024989583242174027
0.020177258574916583,-0.4999760226117096,0.6599506392775821,-0.7994207591354248,0.10000499435804172,0.30000353506259025,0.006327181687256385,0.0008194864094359564,-0.0021282561163635597,0.020708819736384703,0.0003509361850687968,0.0002936608371709829,0.9945878517916853,-52.444556686451286,-17.450706224651597,-0.6581147477769708,0.32641701557216546,0.025988282759164847
0.020190380285931245,-0.4999743318042126,0.6599461374028629,-0.7993778026974369,0.10000577088097316,0.3000041988761594,0.00656085550733085,0.0008454037484990327,-0.002250937359612505,0.02147821899396332,0.0003882614657229986,0.00033190678458858944,0.9941640991479268,-52.447533675592,-17.45463265169686,-0.6581085629166195,0.3273992487572608,0.02698687832065745
0.0202039691766782,-0.49997258979935727,0.6599413839116133,-0.799333307175906,0.10000662588725488,0.300004943976954,0.006794445373477075,0.0008710024276479488,-0.0023767456247869604,0.02224776076544934,0.0004275031408567779,0.00037255039727946115,0.9937244355330614,-52.450509677418076,-17.458555936744485,-0.6581024197257002,0.328380825792905,0.027985365932376664
0.02021802507166387,-0.4999707972348252,0.6599363725532529,-0.7992872722921658,0.100007563209173,0.30000577515977545,0.007027947492835217,0.000896282266052859,-0.002505679180225589,0.02301744187011614,0.0004686609590607637,0.00041559141072482474,0.9932688692068576,-52.45348468055645,-17.46247604444583,-0.6580963289863413,0.3293617451733436,0.028983741600472873
0.020232547787811268,-0.4999689547486656,0.6599310970807726,-0.7992396977739183,0.10000858667849748,0.30000669721887707,0.0072613580736990355,0.0009212430797988396,-0.0026377362401524343,0.023787259123729483,0.0005117346622379182,0.00046102955080979606,0.9927974086960842,-52.45645867365445,-17.466392939471813,-0.6580903014698427,0.3303420053925542,0.02998200133155223
0.020247537134462416,-0.49996706297930177,0.6599255512508432,-0.7991905833552412,0.10000970012646869,0.3000077149479447,0.007494673325574574,0.0009458846819003553,-0.002772914964708406,0.024557209338562022,0.0005567239856044649,0.0005088645338244767,0.9923100627942568,-52.45943164537958,-17.470306586513576,-0.6580843479367118,0.33132160494425084,0.03098014113268108
0.020262992913380896,-0.49996512256553716,0.6599197288239232,-0.7991399287765943,0.10001090738378407,0.30000883314007765,0.0077278894592388335,0.0009702068823158417,-0.0029112134599836637,0.025327289323407835,0.0006036286576908217,0.0005590960664650893,0.9918068405613787,-52.46240358441888,-17.474216950282855,-0.6580784791366081,0.33230054232189243,0.031978157011401914
0.02027891491875449,-0.49996313414656124,0.6599136235643671,-0.7990877337848271,0.10001221228058475,0.3000100565877693,0.007961002686798455,0.0009942094879623856,-0.0030526297780508827,0.026097495883597034,0.0006524484003425341,0.000611723845835151,0.9912877513236747,-52.46537447947861,-17.478123995512558,-0.6580727058083131,0.3332788160186901,0.03297604497576268
0.020295302937197987,-0.4999610983619558,0.6599072292405331,-0.7990339981331851,0.10001361864644219,0.3000113900828882,0.008194009221748398,0.0010178923027305265,-0.003197161916999449,0.026867825821010473,0.0007031829287212142,0.000666747559446686,0.9907528046733208,-52.46834431928392,-17.48202768695723,-0.6580670386797575,0.33425642452761295,0.03397380103431455
0.02031215674775605,-0.49995901585170077,0.6599005396248911,-0.7989787215813169,0.1000151303103448,0.3000128384166586,0.008426905279030618,0.0010412551274991341,-0.003344807820970517,0.02763827593409449,0.0007558319513054801,0.000724166885221476,0.9902020104681665,-52.47131309257828,-17.485927989393492,-0.6580614884679301,0.3352333663413947,0.0349714211961425
0.020329476121906234,-0.4999568872561805,0.6598935484941307,-0.7989219038952812,0.10001675110068459,0.3000144063796416,0.008659687075092746,0.0010642977601504147,-0.0034955653801929765,0.028408843017875742,0.0008103951698918992,0.0007839814914923495,0.9896353788314521,-52.474280788123004,-17.489824867620552,-0.6580560658789003,0.33620963995253916,0.03596890147087246
0.020347260823562127,-0.49995471321618934,0.6598862496292687,-0.7988635448475532,0.10001848484524378,0.30001609876171564,0.00889235082794676,0.0010870199955849988,-0.003649432431020318,0.029179523863976098,0.0008668722795959342,0.0008461910370045094,0.9890529201515211,-52.477247394696974,-17.493718286460673,-0.6580507816077865,0.3371852438533291,0.03696623786869164
0.020365510609076584,-0.4999524943729379,0.6598786368157568,-0.7988036442170319,0.10002033537118149,0.3000179203520575,0.009124892757227662,0.0011094216257371444,-0.0038064067559683843,0.029950315260627594,0.0009252629688528918,0.000910795170916899,0.9884546450815246,-52.48021290109583,-17.497608210759548,-0.658045646338714,0.3381601765358303,0.03796342640036102
0.02038422522724509,-0.4999502313680587,0.6598707038435893,-0.7987422017890465,0.10002230650502032,0.3000198759391231,0.009357309084252143,0.0011315024395900336,-0.003966486083754018,0.030721213992687485,0.0009855669194188737,0.000977793532803607,0.9878405645391225,-52.483177296131856,-17.50149460538686,-0.658040670744815,0.33913443649189756,0.03896046307723611
0.020403404419309244,-0.49994792484361233,0.6598624445074106,-0.7986792173553632,0.10002440207263306,0.30002197031062844,0.00958959603207725,0.001153262223191164,-0.004129668089334595,0.031492216841653334,0.0010477838063717314,0.0010471857526553104,0.9872106897061776,-52.48614056863325,-17.505377435236582,-0.6580358654881717,0.34010802221318126,0.039957343911280294
0.020423047918960362,-0.499945575442093,0.6598538526066227,-0.7986146907141918,0.10002662589922928,0.3000242082535302,0.009821749825559039,0.001174700759667839,-0.004295950393948452,0.032263320585678185,0.0011119132981120216,0.0011189714508807558,0.9865650320284443,-52.48910270744361,-17.50925666522747,-0.6580312412198217,0.34108093219113167,0.040954064915075875
0.020443155452343185,-0.49994318380643454,0.6598449219454924,-0.7985486216701926,0.10002898180934201,0.3000265945540068,0.010053766691411234,0.0011958178292427667,-0.004465330565156205,0.03303452199958581,0.001177955056363967,0.0011931502383082796,0.9859036032152514,-52.492063701421635,-17.513132260303532,-0.6580268085797154,0.34205316491700744,0.041950622101851597
0.020463726738059712,-0.499940750580016,0.6598356463332586,-0.7984810100344828,0.10003147362681436,0.3000291339974392,0.010285642858263873,0.0012166132092497283,-0.004637806116882941,0.03380581785488601,0.0012459087361764176,0.0012697217161873665,0.98522641523918,-52.495023539440325,-17.517004185434324,-0.6580225781966842,0.3430247188818779,0.04294701148548656
0.020484761487173157,-0.4999382764066677,0.6598260195842397,-0.7984118556246432,0.10003410517478621,0.30003183136839157,0.01051737455672194,0.0012370866741493755,-0.004813374509461326,0.034577204919790015,0.0013157739859238162,0.0013486854761902462,0.9845334803357354,-52.49798221038667,-17.52087240561543,-0.6580185606884227,0.3439955925766307,0.04394322908053197
0.020506259403212004,-0.4999357619306766,0.6598160355179403,-0.7983411582647247,0.10003688027568082,0.3000346914505924,0.010748958019424004,0.0012572379955450854,-0.004992033149675554,0.035348679959225894,0.001387550447307165,0.001430041100413529,0.983824811003013,-52.50093970316091,-17.524736885868805,-0.6580147666614464,0.3449657844919729,0.04493927090223019
0.020528220182174206,-0.49993320779679223,0.6598056879591587,-0.798268917785255,0.10003980275119154,0.3000377190269152,0.010980389481100828,0.0012770669421989316,-0.005173779390806221,0.0361202397348541,0.0014612377553549964,0.0015137881613798791,0.9831004200013591,-52.50389600667616,-17.528597591243162,-0.658011206711094,0.345935293118441,0.04593513296652179
0.020550643512531473,-0.49993061465023214,0.6597949707380933,-0.7981951340232448,0.10004287642226839,0.30004091887935924,0.011211665178633992,0.0012965732800477477,-0.005358610532676062,0.03689188100508305,0.0015368355384243453,0.0015999262220397273,0.9823603203530266,-52.506851109857706,-17.5324544868144,-0.6580078914214663,0.3469041169464042,0.046930811290071685
0.0205735290752337,-0.4999279831366877,0.65978387769045,-0.7981198068221946,0.10004610510910479,0.3000442957890308,0.011442781351114487,0.0013157567722192611,-0.005546523821696575,0.03766360052508478,0.0016143434182017246,0.001688454835773021,0.981604525341824,-52.50980500164248,-17.536307537685897,-0.6580048313654028,0.3478722544660653,0.04792630189027664
0.020596876543713505,-0.4999253139023296,0.6597724026575481,-0.798042936032101,0.1000494926311242,0.3000478545361236,0.011673734239901304,0.0013346171790483373,-0.005737516450915517,0.03843539504681064,0.001693761009704103,0.0017793735463910133,0.9808330485127599,-52.512757670978566,-17.54015670898889,-0.6580020371044686,0.3488397041674707,0.048921600785283445
0.020620685583890866,-0.4999226075938134,0.659760539486428,-0.797964521509463,0.10005304280696675,0.3000515998998999,0.01190452008868001,0.0013531542580932946,-0.00593158556006529,0.03920726131900714,0.0017750879212798856,0.0018726818881380912,0.9800459036716815,-52.51570910682438,-17.544001965882824,-0.6579995191888983,0.34980646454051256,0.049916703994008355
0.02064495585417791,-0.4999198648582851,0.6597482820299567,-0.7978845631172885,0.10005675945447597,0.30005553665867124,0.012135135143521315,0.0013713677641523248,-0.006128728235612193,0.039979196087231744,0.0018583237546098972,0.0019683793856936404,0.9792431048849082,-52.51865929814823,-17.547843273555713,-0.6579972881575911,0.3507725340749301,0.05091160753615127
0.020669687005483786,-0.49991708634338655,0.6597356241469351,-0.7978030607251008,0.10006064639068538,0.3000596695897796,0.012365575652939617,0.0013892574492799879,-0.006328941510806571,0.04075119609386885,0.0019434681047083677,0.0020664655541739493,0.9784246664788591,-52.5216082339278,-17.551680597224426,-0.6579953545380616,0.3517379112603191,0.05190630743220764
0.020694878681219688,-0.49991427269726096,0.6597225597022036,-0.7977200142089445,0.10006470743180522,0.30006400346957784,0.012595837867951537,0.0014068230628037923,-0.0065322223657338085,0.041523258078145754,0.0020305205599239207,0.002166939899134153,0.9775906030396753,-52.52455590314921,-17.555513902135036,-0.6579937288464108,0.3527025945861301,0.05290079970349061
0.020720530517303958,-0.4999114245685583,0.6597090825667489,-0.7976354234513922,0.1000689463932091,0.30006854307341096,0.01282591804213444,0.0014240643513408623,-0.006738567727366226,0.04229537877614873,0.0021194807019405642,0.002269801916570213,0.9767409294128372,-52.527502294806645,-17.559343153563134,-0.657992421587289,0.35366658254167854,0.05389508037214384
0.020746642142167326,-0.4999085426064407,0.6596951866178097,-0.7975492883415505,0.10007336708942065,0.30007329317559683,0.013055812431684936,0.0014409810588146919,-0.0069479744696158375,0.04306755492083916,0.002210348105778684,0.002375051092920936,0.9758756607027762,-52.53044739790156,-17.563168316814124,-0.6579914432538883,0.3546298736161415,0.05488914546115694
0.02077321317675828,-0.49990562746058775,0.6596808657389829,-0.7974616087750663,0.10007797333410023,0.30007825854940695,0.013285517295477367,0.0014575729264719758,-0.0071604394133879725,0.04383978324206973,0.0023031223397960397,0.0024826869050700332,0.9749948122724807,-52.533391201442264,-17.566989357223537,-0.6579908043278752,0.35559246629856645,0.05588299099437652
0.020800243234548526,-0.49990267978120195,0.6596661138203296,-0.7973723846541332,0.10008276894003161,0.30008344396704767,0.013515028895122272,0.0014738396928995192,-0.007375959326635776,0.0446120604666007,0.002397802965688764,0.002592708820348215,0.9740983997430976,-52.53633369444293,-17.57080624015727,-0.6579905152793675,0.35655435907787114,0.05687661299653629
0.020827731921538577,-0.49989970021901386,0.6596509247584808,-0.7972816158874969,0.10008775771910859,0.30008885419964076,0.01374434349502484,0.0014897810940412365,-0.007594530924415576,0.04538438331811622,0.002494389538492362,0.002705116296535326,0.9731864389935275,-52.539274865923005,-17.574618931011933,-0.6579905865669111,0.35751555044284955,0.05787000749326366
0.020855678836263464,-0.4998966894252874,0.6596352924567429,-0.7971893023904624,0.10009294348232176,0.3000944940172045,0.013973457362443336,0.0015053968632152295,-0.007816150868943128,0.046156748517240796,0.002592881606582717,0.002819908781862516,0.9722589461600154,-52.54221470490689,-17.578427395215066,-0.6579910286374285,0.3584760388821725,0.05886317051108894
0.02088408356979856,-0.4998936480518252,0.6596192108252036,-0.7970954440848993,0.10009833003974511,0.30010036818863456,0.014202366767547513,0.0015206867311309195,-0.008040815769650692,0.04692915278155569,0.002693278711677095,0.0029370857150144538,0.9713159376357363,-52.54515320042257,-17.582231598225473,-0.6579918519262085,0.35943582288439235,0.05985609807747103
0.020912945705765514,-0.49989057675097337,0.6596026737808371,-0.797000040899248,0.10010392120052278,0.30010648148168484,0.014431067983476993,0.001535650425906305,-0.008268522183245025,0.04770159282561551,0.002795580388835156,0.003056646525131574,0.9703574300703746,-52.54809034150159,-17.586031505533345,-0.657993066856829,0.3603949009379435,0.060848786220816874
0.020942264820338313,-0.4998874761756272,0.6595856752476096,-0.7969030927685261,0.1001097207728557,0.30011283866294847,0.014659557286399642,0.0015502876730852354,-0.008499266613766182,0.04847406536096478,0.0028997861664599614,0.003178590631812367,0.9693834403696993,-52.55102611717788,-17.589827082660644,-0.6579946838411533,0.3613532715311469,0.061841230970481324
0.020972040482249453,-0.4998843469792359,0.6595682091565843,-0.7968045996343338,0.1001157325639883,0.30011944449783867,0.014887830955569906,0.0015645981956548191,-0.008733045512647229,0.04924656709615466,0.0030058955662989914,0.0033029174451157015,0.968393985695134,-52.55396051648723,-17.5936182951613,-0.6579967132792952,0.36231093315221186,0.06283342835680258
0.021002272252796227,-0.49988118981580776,0.6595502694460268,-0.7967045614448602,0.10012196038019519,0.3001263037505698,0.015115885273387133,0.0015785817140628532,-0.008969855278774776,0.05001909473675964,0.00311390810344516,0.003429626365563191,0.9673890834633211,-52.55689352846659,-17.59740510862137,-0.6579991655595485,0.3632678842892373,0.063825374411099
0.021032959685847136,-0.4998780053399153,0.6595318500615097,-0.7966029781548895,0.10012840802676787,0.3001334211841381,0.015343716525453866,0.0015922379462353629,-0.009209692258550386,0.05079164498539439,0.0032238232863378334,0.003558716784141597,0.9663687513456808,-52.559825142153194,-17.601187488659367,-0.658002051058377,0.36422412343021554,0.06481706516570224
0.021064102327848406,-0.4998747942067001,0.6595129449560179,-0.796499849725806,0.10013507930800139,0.3001408015603027,0.015571321000634115,0.00160556660759421,-0.009452552745952861,0.051564214541730616,0.0033356406167638526,0.0036901880823052673,0.9653330072679664,-52.56275534658382,-17.60496540092638,-0.6580053801403838,0.36517964906303246,0.06580849665395895
0.02109569971783063,-0.49987155707187797,0.6594935480900527,-0.796395176125601,0.10014197802718111,0.30014844963956666,0.015798694991111598,0.0016185674110747365,-0.009698432982601337,0.05233680010251402,0.0034493595898585573,0.003824039631978616,0.9642818694098136,-52.565684130794246,-17.608738811106356,-0.658009163158229,0.3661344596754701,0.06679966491025999
0.021127751387415527,-0.4998682945917437,0.659473653431737,-0.7962889573288778,0.10014910798656933,0.30015637018115776,0.016025834792447954,0.0016312400671435314,-0.009947329157819271,0.0531093983615813,0.0035649796941068126,0.0039602707955586425,0.9632153562042839,-52.56861148381827,-17.612507684916267,-0.658013410452629,0.36708855375520866,0.067790565970038
0.021160256860822808,-0.4998650074231761,0.6594532549569196,-0.7961811933168581,0.10015647298739201,0.3001645679430096,0.01625273670364094,0.0016435842838162201,-0.010199237408699276,0.053882006009877234,0.003682500411344037,0.0040988809259174825,0.9621334863374045,-52.571537394686814,-17.61627198810625,-0.6580181323523167,0.3680419297898267,0.06878119586980823
0.02119321565487717,-0.49986169622364274,0.6594323466492793,-0.7960718840773872,0.10016407682982553,0.3001730476817424,0.016479397027182586,0.001655599766675355,-0.010454153820168791,0.05465461973547183,0.003801921216757236,0.0042398693664050064,0.9610362787477031,-52.574461852427596,-17.620031686459875,-0.6580233391739653,0.3689945862668031,0.06977155064715988
0.021226627279015406,-0.49985836165120495,0.6594109225004292,-0.79596102960494,0.1001719233129833,0.3001818141526441,0.016705812069117316,0.001667286218888354,-0.010712074425056619,0.055427236223577536,0.0039232415788860355,0.004383235450851449,0.9599237526257366,-52.57738484606381,-17.62378674579427,-0.6580290412221781,0.36994652167351894,0.07076162634078757
0.021260491235293607,-0.4998550043645225,0.6593889765100209,-0.7958486299006269,0.10018001623490255,0.30019087210965123,0.016931978139100065,0.0016786433412255065,-0.010972995204160297,0.05619985215656652,0.004046460959623719,0.004528978503570079,0.958795927413616,-52.58030636461367,-17.627537131960267,-0.6580352487894463,0.3708977344972565,0.07175141899049735
0.021294807018394514,-0.49985162502285835,0.6593665026858483,-0.7957346849721989,0.10018835939253098,0.30020022630532994,0.01715789155045434,0.0016896708320780583,-0.01123691208631433,0.05697246421398802,0.004171578814218266,0.0046770978393599096,0.9576528228045255,-52.583226397089454,-17.63128281084262,-0.6580419721560801,0.3718482232252021,0.07274092463723457
0.021329574115634974,-0.4998482242860834,0.6593434950439514,-0.7956191948340537,0.10019695658171353,0.300209881490857,0.017383548620230248,0.001700368387476342,-0.011503820948459262,0.057745069072585774,0.004298594591273397,0.004827592763508441,0.9564944587422386,-52.58614493249675,-17.6350237483601,-0.6580492215902001,0.37279798634444566,0.07373013932308685
0.0213647920069735,-0.4998448028146812,0.6593199476087199,-0.7955021595072411,0.10020581159717903,0.3002198424160006,0.01760894566926251,0.0017107357011079815,-0.011773717615711578,0.058517663406315465,0.004427507732749614,0.0049804625717944475,0.9553208554206262,-52.589061959833494,-17.63875991046563,-0.6580570073476619,0.3737470223419811,0.07471905909130652
0.021400460165017957,-0.49984136126975254,0.6592958544129971,-0.7953835790194684,0.10021492823252696,0.3002301138291016,0.017834079022228434,0.0017207724643361533,-0.012046597861434472,0.059290243886362295,0.0045583176739652535,0.0051357065504908025,0.9541320332831635,-52.591977468089276,-17.642491263146503,-0.6580653396720444,0.3746953297047072,0.07570767998632827
0.021436578055033368,-0.4998379003130201,0.6592712094981825,-0.7952634534051061,0.10022431028021415,0.3002407004770543,0.018058945007705832,0.0017304783662179153,-0.012322457407309436,0.060062807181158605,0.004691023843597529,0.005293323976367335,0.9529280130224294,-52.59489144624447,-17.6462177724244,-0.6580742287945625,0.3756429069194265,0.07669599805377786
0.02147314513494983,-0.4998344206068331,0.6592460069143357,-0.7951417827051933,0.10023396153154152,0.3002516071052877,0.018283539958230944,0.001739853093522591,-0.0126012919234087,0.06083534995640154,0.004825625663683592,0.005453314116693732,0.9517088155796021,-52.59780388326925,-17.649939404355557,-0.6580836849340755,0.376589752472848,0.07768400934049859
0.021510160855370546,-0.4998309228141716,0.6592202407202791,-0.7950185669674432,0.10024388577664076,0.3002628384577462,0.018507860210356282,0.0017488963307502113,-0.012883097028268507,0.06160786887507078,0.0049621225496215785,0.005615676229242472,0.9504744621439507,-52.600714768122856,-17.65365612503088,-0.6580937182969848,0.3775358648515843,0.07867170989455154
0.02154762465957996,-0.4998274075986513,0.6591939049837011,-0.7948938062462483,0.1002540868044611,0.3002743992768708,0.018731902104708466,0.001757607760150008,-0.013167868288963214,0.06238036059744641,0.005100513910171675,0.005780409562291805,0.9492249741523211,-52.60362408975268,-17.657367900576055,-0.6581043390772288,0.3784812425421511,0.07965909576524698
0.021585535983552052,-0.4998238756245278,0.6591669937812588,-0.794767500602686,0.10026456840275602,0.30028629430358,0.018955661986046007,0.0017659870617389877,-0.01345560122118024,0.06315282178112673,0.005240799147457175,0.005947513354628764,0.9479603732886178,-52.606531837093335,-17.661074697151605,-0.6581155574562252,0.37942588403097,0.08064616300315525
0.021623894255958686,-0.49982032755670114,0.6591395011986801,-0.7946396501045239,0.10027533435806996,0.3002985282772511,0.01917913620331706,0.0017740339133205363,-0.013746291289295843,0.06392524908104624,0.005382977656965541,0.006116986835552213,0.9466806814832809,-52.609437999065904,-17.664776480953012,-0.6581273836028169,0.3803697878043646,0.08163290766011502
0.02166269889817812,-0.4998167640607201,0.6591114213308672,-0.7945102548262248,0.10028638845572506,0.3003111059357009,0.01940232110971714,0.0017817479905030864,-0.014039933906451713,0.06469763914949365,0.005527048827549472,0.006288829224875942,0.9453859209127581,-52.61234256457677,-17.668473218210792,-0.6581398276732247,0.3813129523485602,0.08261932578925976
0.021701949324303613,-0.49981318580278666,0.659082748281998,-0.7943793148489525,0.10029773447980792,0.3003240320151667,0.019625213062746765,0.0017891289667188435,-0.014336524434632424,0.06546998863612996,0.0056730120414279755,0.006463039732931792,0.9440761139989735,-52.61524552251699,-17.672164875190536,-0.6581528998110071,0.382255376149685,0.08360541344502635
0.02174164494115215,-0.49980959344976017,0.6590534761656285,-0.7942468302605765,0.10030937621315629,0.30033731125028784,0.01984780842426912,0.0017961765132425574,-0.014636058184743683,0.06624229418800656,0.005820866674187432,0.0066396175605728195,0.94275128340879,-52.61814686176128,-17.675851418193012,-0.6581666101470117,0.3831970576937669,0.08459116668317451
0.021781785148273284,-0.49980598766916173,0.6590235991047951,-0.7941128011556774,0.10032131743734586,0.3003509483740862,0.020070103560567615,0.001802890299210358,-0.014938530416691418,0.06701455244958349,0.005970612094782674,0.006818561899176503,0.9414114520534693,-52.62104657116695,-17.679532813554186,-0.6581809687992977,0.3841379954667324,0.08557658156080296
0.02182236933795809,-0.49980236912917847,0.6589931112321162,-0.7939772276355519,0.10033356193267694,0.3003649481179475,0.020292094842403435,0.0018092699916386257,-0.0152439363394617,0.06778676006274768,0.006122247665538062,0.0069998719306479835,0.9400566430881254,-52.62394463957322,-17.68320902764532,-0.6581959858731419,0.3850781879544053,0.08656165413635811
0.021863396895248237,-0.49979873849866757,0.6589620066898938,-0.7938401098082183,0.10034611347816123,0.3003793152116023,0.020513778645073037,0.001815315255442923,-0.015552271111201468,0.06855891366683134,0.006275772742148563,0.007183546827423342,0.9386868799111747,-52.62684105580002,-17.68688002687295,-0.6582116714609285,0.38601763364250574,0.08754638046966134
0.02190486719794517,-0.49979509644716064,0.6589302796302152,-0.793701447788421,0.10035897585150859,0.3003940543831073,0.0207351513484656,0.0018210257534569667,-0.01586352983930007,0.06933100989863028,0.0064311866736808335,0.007369585752472922,0.9373021861637824,-52.629735808647254,-17.690545777679002,-0.6582280356421265,0.3869563310166492,0.08853075662191866
0.021946779616619408,-0.4997914436448677,0.6588979242150543,-0.7935612416976362,0.10037215282911374,0.3004091703588259,0.02095620933712044,0.001826401146451662,-0.016177707580471674,0.07010304539242244,0.0065884888025743065,0.00755798785930468,0.9359025857293025,-52.63262888689371,-17.694206246540702,-0.6582450884832531,0.3878942785623416,0.08951477865573094
0.021989133514619976,-0.49978778076268143,0.6588649346163726,-0.7934194916640762,0.10038564818604302,0.3004246678634099,0.021176949000284356,0.0018314410931541678,-0.01649479934083841,0.07087501677998644,0.006747678464642276,0.007748752291967583,0.9344881027327164,-52.63552027929616,-17.69786139997074,-0.6582628400377919,0.3888314747649816,0.09049844263512093
0.022031928248083914,-0.4997841084721809,0.6588313050162206,-0.793276197822695,0.10039946569602116,0.30044055161978,0.021397366731968955,0.0018361452502670104,-0.01681480007601441,0.07164692069062009,0.0069087549890729915,0.007941878185055038,0.9330587615400638,-52.638409974588335,-17.701511204517157,-0.6582813003461472,0.38976791810985356,0.09148174462553693
0.02207516316594593,-0.49978042744563594,0.6587970296068382,-0.7931313603151927,0.10041360913141803,0.3004568263491074,0.021617458931007905,0.001840513272487262,-0.017137704691190615,0.07241875375115915,0.007071717698430748,0.008137364663708365,0.9316145867578722,-52.64129796147997,-17.705155626763407,-0.6583004794356084,0.3907036070821279,0.09246468069388102
0.022118837609948157,-0.4997767383560109,0.6587621025907557,-0.7929849792900208,0.10042808226323534,0.30047349677079466,0.021837222001114154,0.0018445448125257308,-0.017463508041220394,0.07319051258599601,0.007236565908656988,0.0083352108436203,0.9301556032325807,-52.644184228655845,-17.708794633328363,-0.6583203873202849,0.39163854016685984,0.09344724690851804
0.02216295091465003,-0.49977304187696864,0.6587265181808943,-0.7928370549023865,0.10044288886109348,0.30049056760245674,0.022056652350937095,0.001848239521126218,-0.017792204930706004,0.07396219381709851,0.007403298929071394,0.00853541583103854,0.9286818360499599,-52.647068764774694,-17.712428190866284,-0.6583410340010274,0.392572715848984,0.09442943933928923
0.022207502407438268,-0.4997693386828745,0.6586902706006662,-0.7926875873142585,0.10045803269321822,0.3005080435599023,0.02227574639411967,0.0018515970470848115,-0.01812379011408582,0.07473379406402873,0.007571916062372998,0.008737978722769333,0.9271933105345277,-52.64995155846829,-17.716056266066822,-0.6583624294654314,0.393506132613313,0.09541125405753359
0.022252491408536978,-0.49976562944879993,0.6586533540840748,-0.7925365766943706,0.10047351752642751,0.30052592935711464,0.02249450054935544,0.001854617037269213,-0.018458258295722403,0.07550530994396203,0.007742416604641283,0.008942898606181093,0.9256900522489612,-52.65283259834044,-17.71967882565494,-0.6583845836877116,0.39443878894453355,0.0963926871360948
0.02229791723101787,-0.4997619148505267,0.6586157628758148,-0.7923840232182272,0.10048934712611819,0.30054422970623307,0.022712911240445586,0.0018572991366381118,-0.01879560412999134,0.0762767380717059,0.007914799845337292,0.009150174559208062,0.9241720869935034,-52.65571187296582,-17.72329583639099,-0.6584075066287192,0.3953706833272057,0.09737373464935023
0.02234377918081058,-0.49975819556455015,0.6585774912313721,-0.7922299270681078,0.1005055252562528,0.3005629493175338,0.022930974896355857,0.001859642988260609,-0.01913582222137093,0.07704807505971913,0.00808906506730474,0.009359805650354006,0.9226394408053682,-52.65858937088922,-17.726907265070533,-0.6584312082358126,0.3963018142457545,0.09835439267321551
0.022390076556713125,-0.49975447226808345,0.658538533417123,-0.7920742884330715,0.10052205567934634,0.3005820928994112,0.023148687951273485,0.0018616482333356497,-0.01947890712453262,0.07781931751813083,0.00826521154677113,0.009571790938695948,0.9210921399581382,-52.661465080624104,-17.73051307852446,-0.6584556984428594,0.3972321801844735,0.0993346572851625
0.022436808650402453,-0.499750745639061,0.6584988837104341,-0.7919171075089619,0.10053894215645304,0.30060166515835895,0.023366046844664,0.001863314511211519,-0.01982485334443228,0.07859046205475968,0.008443238553348867,0.009786129473887944,0.9195302109611615,-52.66433899065203,-17.734113243618783,-0.6584809871701427,0.3981617796275139,0.10031452456423849
0.02248397474644511,-0.4997470163561422,0.6584585363997613,-0.7917583844984116,0.10055618844715311,0.3006216707989513,0.023583048021328046,0.0018646414594053714,-0.02017365533640226,0.07936150527513312,0.008623145350036382,0.010002820296164892,0.9179536805589422,-52.66721108942127,-17.73770772725468,-0.6585070843243226,0.39909061105888805,0.10129399059107967
0.022531574122308027,-0.49974328509871496,0.6584174857847488,-0.7915981196108466,0.10057379830953955,0.300642114523824,0.02379968793145808,0.001865628713622779,-0.02052530750624423,0.08013244378250668,0.008804931193219253,0.01022186243634638,0.9163625757305286,-52.6700813653459,-17.741296496368395,-0.6585339997983728,0.40001867296245885,0.10227305144792462
0.022579606048369418,-0.4997395525468994,0.6583757261763281,-0.7914363130624908,0.1005917755002049,0.3006630010336557,0.024015963030695066,0.0018662759077773326,-0.020879804210322848,0.08090327417788333,0.008988595332671335,0.010443254915840574,0.9147569236888967,-52.672949806804674,-17.74487951793116,-0.6585617434715029,0.4009459638219397,0.10325170321863616
0.022628069787929788,-0.49973581938155137,0.6583332518968168,-0.7912729650763708,0.10061012377422801,0.300684335027149,0.024231869780185062,0.001866582674010259,-0.021237139755660165,0.08167399306003292,0.00917413701155589,0.010666996746648137,0.9131367518803298,-52.675816402139894,-17.74845675894916,-0.6585903252091447,0.4018724821208894,0.10422994198870815
0.02267696459722306,-0.49973208628426596,0.6582900572800168,-0.7911080758823198,0.10062884688516087,0.3007061212010117,0.024447404646635786,0.001866548642710098,-0.021597308400030883,0.08244459702551171,0.009361555466426716,0.010893086931366196,0.9115020879837947,-52.67868113965652,-17.752028186463352,-0.6586197548628365,0.4027982263427069,0.10520776384528961
0.022726289725427805,-0.4997283539373809,0.6582461366713127,-0.7909416457169824,0.10064794858501533,0.3007283642499381,0.024662564102373098,0.001866173442532374,-0.021960304352058348,0.08321508266868184,0.009550849927229287,0.011121524463192334,0.9098529599103139,-52.681544007620985,-17.7555937675495,-0.6586500422702077,0.40372319497062853,0.10618516487719765
0.0227760444146786,-0.4997246230239801,0.65820148442777,-0.790773674823819,0.10066743262424993,0.30075106886659,0.02487734462539742,0.0018654567004193295,-0.022326121771311356,0.08398544658173106,0.009742019617301895,0.011352308325928638,0.9081893958023337,-52.6844049942601,-17.759153469317976,-0.6586811972548889,0.4046473864877211,0.10716214117492782
0.02282622790007748,-0.49972089422789684,0.6581560949182332,-0.7906041634531096,0.10068730275175669,0.30077423974157796,0.025091742699440114,0.0018643980416196673,-0.02269475476840173,0.0847556853546923,0.009935063753376789,0.011585437493985766,0.9065114240330898,-52.68726408775977,-17.76270725891372,-0.6587132296264637,0.4055707993768791,0.1081386888306751
0.02287683940970552,-0.4997171682337174,0.658109962523423,-0.7904331118619586,0.10070756271484785,0.3007978815634427,0.025305754814019758,0.0018629970897083398,-0.023066197405082693,0.0855257955754635,0.010129981545581323,0.011820910932387057,0.904819073205967,-52.69012127626433,-17.766255103516073,-0.6587461491804061,0.4064934321208184,0.10911480393835347
0.022927878164634517,-0.4997134457267842,0.6580630816360343,-0.7902605203142989,0.10072821625924272,0.30082199901863627,0.025519377464498397,0.0018612534666063555,-0.02344044369434802,0.0862957738298274,0.010326772197439105,0.012058727596772689,0.9031123721538578,-52.69297654787504,-17.76979697033872,-0.6587799656980233,0.4074152832020715,0.11009048259360317
0.022979343378938793,-0.499709727393199,0.6580154466608332,-0.790086389080896,0.10074926712905447,0.30084659679150305,0.02573260715213771,0.001859166792600599,-0.02381748760053191,0.08706561670147135,0.010525434905871153,0.01229888643340386,0.9013913499385153,-52.6958298906491,-17.77333282662951,-0.658814688946364,0.4083363511029824,0.11106572089380669
0.023031234259707104,-0.4997060139198263,0.6579670520147544,-0.789910718439352,0.10077071906677686,0.30087167956426136,0.025945440384155097,0.001856736686363707,-0.024197323039409753,0.08783532077200736,0.01072596886119705,0.012541386379167017,0.899656035849904,-52.69868129259861,-17.77686263967038,-0.6588503286782055,0.4092566343057019,0.11204051493811198
0.023083550007054664,-0.4997023059942963,0.6579178921269978,-0.7897335086741101,0.10079257581327113,0.30089725201698453,0.026157873673779725,0.0018539627649739507,-0.02457994387829955,0.08860488262099195,0.010928373247136103,0.01278622636157812,0.8979064594055457,-52.701530741689275,-17.780386376777162,-0.6588868946319256,0.41017613129217967,0.11301486082744315
0.02313628981413528,-0.49969860430500845,0.6578679614391255,-0.7895547600764582,0.10081484110775274,0.3009233188275821,0.026369903540308482,0.0018508446439351406,-0.02496534393616418,0.08937429882594632,0.011132647240808511,0.013033405298786934,0.8961426503498635,-52.704378225839385,-17.783904005299505,-0.658924396531503,0.41109484054416084,0.1139887546645143
0.023189452867153605,-0.49969490954113405,0.657817254405158,-0.7893744729445334,0.10083751868777821,0.3009498846717813,0.02658152650916188,0.001847381937196563,-0.025353516983714394,0.09014356596237641,0.011338790012736525,0.01328292209958138,0.8943646386535209,-52.70722373291866,-17.787415492620674,-0.6589628440864139,0.4120127605431795,0.11496219255384997
0.023243038345377484,-0.4996912223926197,0.657765765491671,-0.7891926475833259,0.1008606122892319,0.3009769542231081,0.026792739111939873,0.0018435742571729357,-0.025744456743512615,0.09091268060379311,0.011546800726845625,0.013534775663391903,0.8925724545127575,-52.71006725074714,-17.790920806157427,-0.6590022469915777,0.4129298897705527,0.11593517060179408
0.02329704542115044,-0.4996875435501902,0.6577134891778909,-0.7890092843046824,0.10088412564631284,0.3010045321528687,0.02700353788647761,0.001839421214764379,-0.026138156890077466,0.09168163932173246,0.011756678540465693,0.01378896488029588,0.8907661283487232,-52.712908767093836,-17.794419913359825,-0.6590426149272728,0.4138462267073734,0.11690768491653307
0.02335147325990424,-0.49968387370535144,0.6576604199557908,-0.7888243834273109,0.10090806249152151,0.30103262313013074,0.027213919376901114,0.0018349224193764213,-0.026534611049989085,0.09245043868577597,0.01196842260433219,0.014045488631022087,0.8889456908068061,-52.715748269675835,-17.797912781711112,-0.6590839575590997,0.41476176983450597,0.11787973160810566
0.023406321020171608,-0.49968021355039355,0.6576065523301868,-0.7886379452767838,0.10093242655564669,0.30106123182170463,0.027423880133682885,0.0018300774789400073,-0.026933812801995204,0.09321907526357102,0.012182032062587339,0.014304345786955169,0.8871111727559594,-52.71858574615696,-17.8013993787275,-0.6591262845378928,0.4156765176325768,0.11885130678841888
0.023461587853599003,-0.4996765637783937,0.6575518808188326,-0.7884499701855421,0.10095722156775225,0.30109036289212493,0.027633416713697442,0.0018248859999315387,-0.02733575567711796,0.09398754562085122,0.012397506052781311,0.014565535210140177,0.8852626052880243,-52.72142118414666,-17.804879671958027,-0.6591696054996812,0.41659046858197224,0.1198224065712716
0.023517272904959557,-0.4996729250832189,0.6574963999525151,-0.7882604584928992,0.10098245125516399,0.3011200210036315,0.027842525680276765,0.0018193475873929236,-0.027740433158761492,0.09475584632145692,0.012614843705873414,0.014829055753287131,0.883400019717049,-52.72425457119879,-17.808353628984303,-0.6592139300655715,0.4175036211628264,0.12079302707235769
0.02357337531216609,-0.49966929815952904,0.6574401042751494,-0.7880694105450444,0.10100811934345645,0.30115021081615106,0.028051203603265684,0.001813461844951652,-0.028147838682820295,0.09552397392735576,0.012834044146233283,0.015094906259775614,0.8815234475786049,-52.72708589481057,-17.811821217420444,-0.6592592678417073,0.4184159738550194,0.1217631644092881
0.02362989420628424,-0.49966568370277936,0.6573829883438739,-0.7878768266950471,0.10103422955643973,0.3011809369872784,0.028259447059077177,0.0018072283748408783,-0.02855796563778829,0.09629192499866326,0.013055106491642085,0.015363085563659416,0.8796329206291007,-52.72991514242116,-17.81528240491279,-0.6593056284192433,0.41932752513816607,0.12273281470160963
0.023686828711545736,-0.4996620824092235,0.6573250467291442,-0.7876827073028598,0.10106078561614631,0.30121220417225775,0.028467252630747595,0.0018006467779195254,-0.0289708073648687,0.09705969609366352,0.01327802985329371,0.015633592489671208,0.8777284708450911,-52.732742301410646,-17.818737159139673,-0.6593530213741872,0.4202382734916123,0.1237019740708115
0.023744177945361718,-0.49965849497591613,0.657266274014828,-0.7874870527353222,0.1010877912428179,0.3012440170239642,0.02867461690799181,0.0017937166536923998,-0.029386357158084627,0.09782728376882988,0.013502813335795985,0.015906425853227255,0.8758101304225843,-52.73556735909886,-17.822185447811297,-0.6594014562673975,0.42114821739442515,0.124670638640352
0.023801941018336235,-0.4996549221007155,0.6572066647982991,-0.7872898633661645,0.10111525015489224,0.30127638019288505,0.028881536487258278,0.001786437600330316,-0.029804608264390395,0.09859468457884575,0.01372945603717188,0.01618158446043216,0.8738779317763458,-52.73839030274398,-17.82562723866952,-0.6594509426444826,0.42205735532538685,0.12563880453566417
0.023860117034279805,-0.4996513644822861,0.6571462136905316,-0.7870911395760112,0.10114316606898996,0.30130929832710124,0.02908800797178402,0.001778809214690251,-0.030225553883783653,0.09936189507662546,0.013957957048860714,0.016459067108083668,0.8719319075391986,-52.741211119541596,-17.829062499487545,-0.6595014900357534,0.42296568576298604,0.12660646788417096
0.023918705090223105,-0.4996478228201014,0.6570849153161927,-0.7868908817523845,0.1011715426999014,0.3013427760722686,0.02929402797164952,0.0017708310923354894,-0.030649187169418182,0.10012891181333512,0.014188315455719388,0.016738872583677473,0.8699720905613213,-52.74402979662324,-17.832491198069807,-0.6595531079561257,0.42387320718541244,0.127573624815317
0.023977704276430773,-0.4996442978144463,0.6570227643137373,-0.7866890902897077,0.10120038376057346,0.30137681807159944,0.029499593103833557,0.0017625028275557882,-0.03107550122771749,0.10089573133841363,0.01442053033602359,0.01702099966541209,0.8679985139095424,-52.746846321055294,-17.83591330225168,-0.6596058059050707,0.4247799180705447,0.12854027146055894
0.024037113676415308,-0.49964079016641955,0.6569597553355003,-0.7864857655893085,0.1012296929620964,0.30141142896584383,0.029704699992267925,0.0017538240133875551,-0.031504489118489104,0.10166235019959366,0.014654600761469032,0.01730544712219375,0.8660112108666327,-52.74966067983786,-17.839328779899304,-0.6596595933665328,0.4256858168959485,0.1295064039534034
0.024096932366951093,-0.49963730057793626,0.6568958830477902,-0.7862809080594226,0.10125947401369075,0.3014466133932711,0.02990934526789209,0.0017447942416340336,-0.03193614385503962,0.10242876494292275,0.014890525797172675,0.017592213713641343,0.8640102149305932,-52.752472859903314,-17.84273759890924,-0.6597144798088554,0.42659090213886186,0.13047201842940667
0.02415715941808851,-0.4996338297517305,0.6568311421309817,-0.786074518115197,0.1012897306226941,0.3014823759896513,0.03011352556870775,0.0017354131028854984,-0.0323704584042905,0.10319497211278446,0.015128304501673961,0.01788129819009139,0.8619955598139419,-52.75528284811524,-17.846139727208374,-0.659770474684704,0.42749517227619094,0.13143711102620187
0.024217793893168176,-0.49963037839135743,0.6567655272796079,-0.7858665961786931,0.10132046649454797,0.3015187213882365,0.03031723753983331,0.0017256801865394513,-0.03280742568689456,0.10396096825191953,0.015367935926936058,0.01817269929260305,0.8599672794429968,-52.75809063126713,-17.84953513275352,-0.6598275874310169,0.42839862578450166,0.1324016778835031
0.024278834848835293,-0.49962694720119577,0.6566990332024532,-0.7856571426788902,0.10135168533278466,0.3015556542197424,0.03052047783355828,0.0017155950808208256,-0.03324703857735321,0.10472674990144719,0.015609419118347097,0.01846641575296317,0.8579254079571553,-52.76089619608112,-17.852923783531303,-0.6598858274688923,0.4293012611400091,0.13336571514313145
0.024340281335054087,-0.49962353688645017,0.6566316546226448,-0.7854461580516884,0.1013833908390141,0.3015931791123298,0.030723243109397558,0.0017051573728022109,-0.03368928990413445,0.1054923136008864,0.01585275311472142,0.018762446293691375,0.8558699797081734,-52.76369952920685,-17.856305647557804,-0.659945204203563,0.43020307681857006,0.13432921894902197
0.02440213239512238,-0.4996201481531533,0.6565633862777452,-0.785233642739912,0.1014155867129107,0.3016313006915859,0.030925530034145658,0.0016943666484240674,-0.03413417244979154,0.1062576558881773,0.01609793694830084,0.01906078962804519,0.8538010292594392,-52.76650061722016,-17.85968069287835,-0.6600057270242636,0.4311040712956743,0.13529218544724844
0.024464387065686242,-0.49961678170816826,0.656494222919843,-0.7850195971933126,0.10144827665220021,0.30167002358050593,0.031127335281930818,0.0016832224925149486,-0.034581678951082426,0.10702277329970258,0.01634496964475589,0.019361444460025197,0.8517185913852457,-52.7692994466217,-17.863048887567235,-0.6600674053042266,0.43200424304643603,0.1362546107860277
0.02452704437675478,-0.49961343825919063,0.6564241593156449,-0.784804021868572,0.10148146435264659,0.3017093523994747,0.03132865553426902,0.001671724488811723,-0.03503180209908988,0.107787662370309,0.016593850223187073,0.01966440948438023,0.8496227010700601,-52.77209600383593,-17.86641019972743,-0.6601302484005198,0.4329035905455828,0.13721649111573997
0.024590103351715017,-0.4996101185147507,0.6563531902465662,-0.7845869172293054,0.10151515350803884,0.30174929176624793,0.03152948748011795,0.0016598722199798127,-0.03548453453934236,0.1085523196333289,0.01684457769612616,0.019969683386612626,0.8475133935077906,-52.774890275209636,-17.869764597490324,-0.6601942656540478,0.4338021122674493,0.13817782258895434
0.02465356300734688,-0.4996068231842154,0.6562813105088223,-0.7843682837460642,0.10154934781017792,0.3017898462959339,0.03172982781593079,0.0016476652676334273,-0.03593986887193558,0.10931674162060184,0.017097151069537426,0.020277264842983467,0.8453907041010512,-52.777682247010816,-17.87311204901545,-0.6602594663894408,0.4346998066859652,0.13913860136042033
0.0247174223538383,-0.4996035529777907,0.6562085149135191,-0.7841481218963392,0.10158405094886357,0.30183102060097494,0.031929673245710034,0.0016351032123557863,-0.03639779765165479,0.11008092486249625,0.017351569342818944,0.020587152520517918,0.8432546684604224,-52.7804719054273,-17.8764525224902,-0.6603258599149826,0.43559667227464827,0.14009882358710893
0.024781680394800425,-0.49960030860652327,0.6561347982867428,-0.7839264321645634,0.10161926661188117,0.30187281929112897,0.032129020481061074,0.0016221856337193608,-0.0368583133880978,0.1108448658879311,0.017607831508803864,0.020899345077010557,0.8411053224037119,-52.78325923656555,-17.879785986129523,-0.6603934555225279,0.4364927075065922,0.14105848542821117
0.024846336127282917,-0.49959709078230263,0.6560601554696512,-0.7837032150421146,0.1016549984849887,0.301915246973451,0.03232786624124578,0.0016089121103061035,-0.037321408545798664,0.11160856122439775,0.017865936553761695,0.02121384116103076,0.83894270195521,-52.786044226449356,-17.883112408175627,-0.6604622624874307,0.43738791085445966,0.14201758304516182
0.024911388541789387,-0.49959390021786315,0.6559845813185625,-0.7834784710273186,0.1016912502519035,0.3019583082522749,0.03252620725323595,0.0015952822197276926,-0.03778707554435212,0.11237200739798167,0.01812588345739959,0.021530639411928117,0.8367668433449449,-52.78882686101868,-17.8864317568977,-0.6605322900684701,0.43828228079047005,0.14297611260165038
0.02497683662229292,-0.49959073762678585,0.6559080707050454,-0.7832522006254519,0.10172802559428923,0.30200200772919455,0.03272404025176667,0.0015812955386457401,-0.03825530675853869,0.11313520093338444,0.018387671192863653,0.021849738459837904,0.8345777830079338,-52.79160712612802,-17.889744000591588,-0.6606035475077703,0.43917581578639137,0.1439340702636347
0.0250426793462517,-0.49958760372350025,0.6558306185160085,-0.783024404348744,0.10176532819174271,0.3020463500030459,0.032921361979389586,0.0015669516427920453,-0.03872609451845053,0.11389813835394562,0.01865129872674023,0.02217113692568656,0.8323755575834334,-52.79438500754556,-17.89304910757951,-0.6606760440306976,0.4400685143135286,0.14489145219936683
0.025108915684624752,-0.4995844992232863,0.6557522196537893,-0.7827950827163807,0.10180316172178082,0.3020913396698883,0.03311816918652602,0.0015522501069888013,-0.03919943110961793,0.11466081618166475,0.01891676501905722,0.02249483342119722,0.8301602039141861,-52.79716049095161,-17.89634704620974,-0.6607497888458448,0.4409603748427149,0.1458482545793938
0.02517554460188779,-0.49958142484227597,0.655672869036243,-0.7825642362545062,0.10184152985982739,0.3021369813229861,0.033314458631520064,0.0015371905051688296,-0.03967530877313658,0.11542323093722341,0.019184069023285375,0.022820826548895296,0.8279317590456656,-52.79993356193741,-17.899637784856296,-0.6608247911448626,0.44185139584430055,0.14680447357658485
0.025242565056049174,-0.4995783812974552,0.6555925615968314,-0.7823318654962262,0.10188043627920007,0.30218327955279034,0.033510227080691506,0.0015217724103957864,-0.040153719705795454,0.11618537914000733,0.019453209686339634,0.02314911490211406,0.8256902602253194,-52.80270420600382,-17.902921291918588,-0.6609010601024575,0.44274157578814266,0.14776010536613757
0.02530997599866595,-0.4995753693066654,0.6555112922847111,-0.7820979709816099,0.10191988465109723,0.30223023894692036,0.03370547130838868,0.00150599539488438,-0.040634656060205436,0.11694725730812854,0.019724185948580424,0.0234796970650003,0.8234357449018092,-52.80547240856004,-17.90619753582115,-0.6609786048762724,0.44363091314359476,0.14871514612560366
0.025377776374860033,-0.4995723895886054,0.6554290560648212,-0.781862553257693,0.10195987864458486,0.3022778640901454,0.03390018809704125,0.0014898590300205703,-0.041118109944928635,0.11770886195844757,0.019996996743815006,0.02381257161252,0.8211682507242489,-52.808238154922186,-17.909466485013276,-0.6610574346068125,0.44451940637949605,0.14966959203489233
0.025445965123334458,-0.4995694428628326,0.6553458479179719,-0.7816256128784799,0.10200042192658346,0.3023261595643663,0.03409437423721277,0.001473362886381773,-0.041604073424608375,0.11847018960659578,0.02027164099929879,0.024147737110464047,0.8188878155414413,-52.81100143031223,-17.912728107968707,-0.6611375584173638,0.44540705396416014,0.15062343927629626
0.025514541176389766,-0.4995665298497651,0.6552616628409317,-0.7813871504049459,0.10204151816185493,0.3023751299485972,0.034288026527653274,0.0014565065337570466,-0.04209253852009988,0.11923123676699762,0.020548117635736683,0.024485192115453986,0.8165944774011111,-52.813762219856486,-17.91598237318529,-0.6612189854139225,0.44629385436536556,0.1515766840344997
0.025583503459940468,-0.49956365127068275,0.6551764958465145,-0.7811471664050401,0.1020831710129895,0.3024247798189471,0.0344811417753517,0.0014392895411672766,-0.04258349720860164,0.11999199995289303,0.02082642556728443,0.024824935174947806,0.8142882745491377,-52.8165205085844,-17.919229249184657,-0.6613017246850993,0.44717980605034247,0.15252932249659332
0.025652850893531646,-0.499560807847729,0.6550903419636669,-0.7809056614536874,0.1021253841403926,0.3024751137486016,0.03467371679558817,0.0014217114768853446,-0.04307694142378748,0.12075247567635987,0.021106563701549962,0.02516696482724577,0.8119692454287847,-52.8192762814272,-17.92246870451188,-0.6613857853020397,0.44806490748576444,0.1534813508520966
0.025722582390355617,-0.49955800030391206,0.655003196237555,-0.7806626361327907,0.10216816120227179,0.30252613630780456,0.034865748411986225,0.0014037719084562998,-0.04357286305593925,0.12151266044833642,0.02138853093959475,0.025511279601496267,0.8096374286799269,-52.822029523216585,-17.92570070773505,-0.661471176318347,0.44894915713773487,0.15443276529296993
0.025792696857268746,-0.49955522936310665,0.6549150537296509,-0.7804180910312335,0.10221150585462366,0.30257785206383997,0.03505723345656489,0.001385470402717496,-0.044071253952080267,0.1222725507786439,0.02167232617593516,0.025857878017701733,0.8072928631382779,-52.824780218683514,-17.928925227445124,-0.6615579067700069,0.4498325534717762,0.15538356201362002
0.02586319319480833,-0.499552495750055,0.6548259095178186,-0.7801720267448815,0.10225542175122075,0.3026302655810134,0.035248168769790686,0.001366806525818757,-0.0445721059161094,0.12303214317600905,0.02195794829854384,0.026206758586724558,0.8049355878346119,-52.82752835245666,-17.93214223225531,-0.6616459856752703,0.45071509495281914,0.15633373721093258
0.025934070297209587,-0.49954980019036854,0.6547357586964008,-0.7799244438765853,0.10229991254359845,0.302683381420634,0.035438551200629484,0.0013477798432424885,-0.045075410708935795,0.12379143414808684,0.022245396188851067,0.02655791981029308,0.8025656419939872,-52.83027390906143,-17.935351690800974,-0.6617354220346174,0.45159678004519077,0.15728328708427625
0.026005327052422783,-0.4995471434105289,0.6546445963763036,-0.7796753430361824,0.10234498188104195,0.30273720414099603,0.03562837760659826,0.0013283899198238038,-0.04558116004861434,0.12455042020148308,0.022534668721746136,0.02691136018100758,0.8001830650349653,-52.83301687291826,-17.938553571739106,-0.661826224830645,0.45247760721260233,0.15823220783551886
0.026076962342130416,-0.49954452613788936,0.6545524176850827,-0.7794247248404989,0.10239063341057311,0.3027917382973607,0.03581764485381674,0.0013086363197706322,-0.046089345610481725,0.1253090978417772,0.02282576476557875,0.027267078182346336,0.7977878965688299,-52.835757228341656,-17.941747843748026,-0.6619184030279851,0.45335757491813844,0.15918049566904388
0.026148975041764534,-0.499541949100676,0.6544592177670281,-0.7791725899133518,0.10243687077693743,0.3028469884419381,0.03600634981705892,0.0012885186066837987,-0.046599959027293233,0.12606746357354512,0.023118683182160402,0.0276250722886717,0.7953801763988027,-52.83849495953859,-17.94493447552701,-0.6620119655732148,0.4542366816242442,0.16012814679176512
0.026221364020524142,-0.4995394130279889,0.6543649917832494,-0.7789189388855511,0.10248369762259096,0.30290295912386855,0.03619448937980449,0.001268036343577117,-0.047112991889360155,0.126825513900382,0.023413422826765774,0.027985340965236225,0.7929599445192581,-52.841230050607415,-17.94811343579595,-0.6621069213947921,0.4551149257927135,0.16107515741314554
0.02629412814139272,-0.4995369186498031,0.65426973491176,-0.7786637723949013,0.10253111758768724,0.30295965488920495,0.0363820604342901,0.0012471890928974412,-0.04762843574468786,0.12758324532492518,0.02370998254813414,0.0283478826681888,0.7905272411149366,-52.843962485536274,-17.95128469329492,-0.662203279402952,0.4559923058846782,0.1620215237452061
0.02636726626115584,-0.49953446669697,0.6541734423475618,-0.7784070910862035,0.10257913431006419,0.30301708028089414,0.03656905988156055,0.0012259764165447127,-0.04814628209911454,0.1283406543488772,0.02400836118847078,0.02871269584458087,0.7880821065601553,-52.84669224820208,-17.954448216783902,-0.6623010484896323,0.4568688203605935,0.16296724200254586
0.02644077723041888,-0.4995320579012182,0.6540761093027289,-0.7781488956112574,0.10262775142523108,0.3030752398387589,0.03675548463151984,0.0012043978758919946,-0.04866652241645065,0.12909773747302875,0.024308557583448385,0.029079778932372638,0.7856245814180179,-52.849419322368874,-17.957603975042318,-0.6624002375283635,0.4577444676802285,0.16391230840235632
0.026514659893624844,-0.4995296929951546,0.6539777310064916,-0.7778891866288629,0.1026769725663555,0.30313413809947976,0.036941331602982116,0.0011824530318054881,-0.04918914811861891,0.12985449119728168,0.024610570562208497,0.029449130360439342,0.7831547064396223,-52.852143691686784,-17.96075193686872,-0.6625008553742463,0.45861924630265005,0.1648567191644301
0.02658891308907229,-0.49952737271226527,0.65387830270532,-0.7776279648048215,0.10272680136425022,0.3031937795965769,0.03712659772372243,0.0011601414446645241,-0.04971415058579504,0.13061091202067224,0.024914398947362918,0.02982074854857756,0.7806725225632669,-52.85486533969057,-17.963892071080355,-0.6626029108637628,0.45949315468621477,0.16580047051119093
0.026663535648933347,-0.4995250977869165,0.6537778196630069,-0.7773652308119388,0.10277724144736021,0.3032541688603919,0.03731127993052749,0.001137462674381544,-0.05024152115654912,0.1313669964413941,0.02522004155499516,0.030194631907511538,0.7781780709136554,-52.85758424979818,-17.967024346512854,-0.6627064128148072,0.4603661912885537,0.16674355866769042
0.02673852639927184,-0.49952286895435566,0.6536762771607508,-0.7771009853300251,0.10282829644174954,0.3033153104180697,0.03749537516924618,0.0011144162804220565,-0.05077125112798755,0.1321227409568217,0.025527497194661884,0.030570778838899568,0.7756713928010996,-52.860300405309694,-17.970148732019773,-0.6628113700264842,0.4612383545665583,0.16768597986163397
0.02681388416006152,-0.499520686950712,0.653573670497239,-0.7768352290458981,0.10287996997108832,0.30337720879354035,0.037678880394840006,0.0010910018218245829,-0.05130333175589574,0.13287814206353338,0.025836764669394344,0.0309491877353404,0.7731525297207216,-52.863013789405635,-17.973265196472255,-0.6629177912791134,0.46210964297637225,0.16862773032340186
0.026889607745204387,-0.49951855251299754,0.6534699949887293,-0.7765679626533835,0.10293226565663972,0.3034398685075011,0.03786179257143343,0.0010672188572205777,-0.051837754254881394,0.13363319625733477,0.02614784277569985,0.03132985698037968,0.7706215233516533,-52.86572438514606,-17.976373708758647,-0.6630256853340919,0.4629800549733736,0.1695688062860446
0.026965695962549115,-0.49951646637910785,0.6533652459691323,-0.7762991868533169,0.10298518711724686,0.3035032940773981,0.038044108672364026,0.0010430669448543263,-0.0523745097985184,0.13438790003328216,0.026460730303563225,0.031712784948516454,0.7680784155562356,-52.86843217546894,-17.979474237784064,-0.6631350609338382,0.463849589012165,0.17050920398531816
0.02704214761390958,-0.49951442928782264,0.6532594187900933,-0.7760289023535455,0.10303873796931975,0.3035674900174085,0.03822582568023257,0.0010185456426028273,-0.05291358951949142,0.1351422498857058,0.026775426036448283,0.03209797000520965,0.7655232483792153,-52.871137143188776,-17.982566752470028,-0.6632459268016526,0.4647182435465596,0.17144891965968856
0.027118961495083485,-0.4995124419788066,0.6531525088210738,-0.775757109868929,0.10309292182682235,0.30363246083842227,0.03840694058695294,0.0009936545079956513,-0.0534549845097411,0.1358962423082335,0.027091928751299305,0.032485410506884665,0.7629560640469414,-52.87383927099558,-17.985651221754065,-0.6633582916416869,0.46558601702956814,0.17238794955034772
0.02719613639587109,-0.49951050519261014,0.6530445114494325,-0.7754838101213414,0.10314774230125943,0.30369821104802414,0.038587450393801924,0.000968393098234781,-0.053998685820609876,0.13664987379381405,0.027410237218542514,0.032875104800939955,0.7603769049665592,-52.87653854145326,-17.988727614589347,-0.6634721641388273,0.4664529079133842,0.17332628990123305
0.027273671100094026,-0.49950861967066973,0.6529354220805066,-0.775209003839672,0.10320320300166361,0.30376474515047563,0.0387673521114689,0.0009427609702144173,-0.05454468446298843,0.13740314083474076,0.027730350202087584,0.03326705122575365,0.757785813725204,-52.879234936998394,-17.991795899944215,-0.6635875529586037,0.46731891464937414,0.17426393695903386
0.027351564385614237,-0.49950678615530864,0.6528252361376916,-0.7749326917598266,0.10325930753458226,0.303832067646697,0.03894664276010536,0.0009167576805407716,-0.05509297140746278,0.13815603992267517,0.02805226645932912,0.03366124811069022,0.755182833089193,-52.88192843993894,-17.994856046801832,-0.663704466747109,0.4681840356880598,0.17520088697321623
0.027429815024352985,-0.4995050053897375,0.6527139490625227,-0.7746548746247293,0.10331605950406456,0.3039001830342492,0.03912531936937431,0.0008903827855518445,-0.05564353758446203,0.13890856754867054,0.02837598474114818,0.03405769377610717,0.7525680060032154,-52.884619032452804,-17.9979080241598,-0.66382291413091,0.46904826947910816,0.17613713619603447
0.027508421782309982,-0.49950327811805484,0.6526015563147538,-0.7743755531843228,0.10337346251164839,0.3039690958073159,0.03930337897849955,0.000863635841337152,-0.056196373884406625,0.1396607202031957,0.028701503791913788,0.0344563865333618,0.749941375589523,-52.88730669658666,-18.000951801029696,-0.6639429037169458,0.46991161447131624,0.17707268088254083
0.027587383419582612,-0.4995016050852473,0.6524880533724381,-0.7740947281955705,0.10343152015634736,0.3040388104566855,0.03948081863631482,0.0008365164037574609,-0.05675147115785738,0.14041249437615871,0.029028822349484444,0.03485732468481795,0.7473029851471173,-52.88999141425447,-18.003987346436702,-0.6640644440924601,0.47077406911259756,0.17800751729060924
0.02766669869038524,-0.4994999870371904,0.6523734357320068,-0.7738124004224566,0.10349023603463778,0.30410933146973324,0.039657635401312764,0.0008090240284644681,-0.05730882021566499,0.14116388655693066,0.02935793914520967,0.03526050652385282,0.7446528781509376,-52.89267316723615,-18.007014629419224,-0.6641875438248868,0.47163563184996826,0.1789416416809406
0.027746366343068627,-0.49949842472064854,0.6522576989083485,-0.7735285706359878,0.10354961374044565,0.30418066333040295,0.039833826341693815,0.0007811582709204828,-0.057868411829120246,0.1419148932343695,0.02968885290393154,0.03566593033486382,0.7419910982510467,-52.89535193717657,-18.01003361902844,-0.6643122114617691,0.4724963011295345,0.17987505031709056
0.027826385120139456,-0.4994969188832757,0.6521408384348883,-0.7732432396141941,0.10360965686513363,0.3042528105191895,0.04000938853541493,0.0007529186864180595,-0.05843023673010483,0.14266551089684398,0.03002156234398622,0.036073594393275454,0.7393176892718153,-52.89802770558364,-18.013044284327883,-0.6644384555306799,0.4733560753964765,0.18080773946547166
0.02790675375827993,-0.49949547027361546,0.6520228498636659,-0.7729564081421295,0.10367036899748804,0.3043257775131206,0.04018431907023814,0.0007243048300996153,-0.058994285611242696,0.14341573603225752,0.03035606617720554,0.036483496965546196,0.7366326952111067,-52.90070045382757,-18.016046594393075,-0.6645662845391119,0.4742149530950355,0.18173970539537396
0.02798747098836749,-0.4994940796411015,0.6519037287654138,-0.7726680770118733,0.10373175372370587,0.304399568785739,0.04035861504377903,0.000695316256977014,-0.05956054912605212,0.1441655651280722,0.030692363108918534,0.0368956363091755,0.7339361602394594,-52.903370163139236,-18.019040518311105,-0.6646957069744073,0.4750729326684998,0.18267094437897738
0.0280685355354946,-0.49949274773605756,0.6517834707296356,-0.7723782470225307,0.10379381462738177,0.3044741888070844,0.04053227356355503,0.00066595252195114,-0.06012901788909827,0.1449149946713328,0.03103045183795303,0.037310010672710746,0.7312281286992683,-52.906036814608846,-18.022026025180196,-0.6648267313036353,0.47593001255919287,0.18360145269137448
0.028149946118988665,-0.4994914753096979,0.6516620713646833,-0.7720869189802333,0.10385655528949504,0.3045496420436759,0.040705291747033565,0.000636213179831422,-0.06069968247614647,0.14566402114869084,0.03137033105663721,0.03772661829575429,0.7285086451039664,-52.90870038918481,-18.025003084109283,-0.6649593659735611,0.476786191208454,0.1845312266105784
0.028231701452432024,-0.4994902631141272,0.6515395262978347,-0.7717940936981404,0.10391997928839665,0.30462593295849383,0.04087766672168009,0.000606097785355333,-0.06127253342431598,0.14641264104642873,0.03171199945080121,0.03814545740897051,0.7257777541372044,-52.91136086767228,-18.02797166421766,-0.6650936194104541,0.47764146705662736,0.18546026241753458
0.028313800243682036,-0.4994891119023408,0.6514158311753703,-0.7714997719964395,0.10398409019979621,0.30470306601096203,0.04104939562500596,0.0005756058932078774,-0.06184756123223444,0.14716085085048392,0.03205545569977872,0.0385665262340929,0.7230355006520289,-52.91401823073177,-18.03093173463447,-0.665229500020103,0.47849583854304834,0.18638855639614443
0.02839624119489127,-0.4994880224282247,0.6512909816626499,-0.7712039547023466,0.10404889159674903,0.30478104565692987,0.041220475604616155,0.0005447370580410311,-0.062424756360192867,0.14790864704647302,0.03240069847640855,0.03898982298393122,0.720281929670062,-52.91667245887805,-18.033883264498378,-0.6653670161876671,0.47934930410602694,0.1873161048332728
0.028479023002527783,-0.4994869954465557,0.6511649734441892,-0.7709066426501071,0.1041143870496431,0.30485987634865463,0.04139090381825687,0.000513490834493159,-0.06300410923030124,0.14865602611971618,0.03274772644703631,0.03941534586237864,0.7175170863806775,-52.91932353247865,-18.036826222957096,-0.6655061762775845,0.4802018621828342,0.1882429040187685
0.02856214435739551,-0.4994860317130013,0.651037802223736,-0.7706078366809966,0.10418058012618613,0.3049395625347835,0.04156067743386296,0.00048186677720840143,-0.06358561022664472,0.14940298455526124,0.03309653827151596,0.03984309306441895,0.7147410161401773,-52.92197143175269,-18.039760579167005,-0.6656469886334894,0.48105351120968853,0.18916895024547517
0.02864560394465472,-0.4994851319841196,0.6509094637243451,-0.7703075376433208,0.10424747439139255,0.30502010866033574,0.04172979362960519,0.0004498644408560323,-0.06416924969544041,0.15014951883790817,0.03344713260321149,0.040273062776133815,0.7119537644709678,-52.92461613676938,-18.042686302292697,-0.6657894615781254,0.48190424962173906,0.19009423980924658
0.028729400443842597,-0.4994842970173593,0.6507799536884548,-0.7700057463924164,0.10431507340757054,0.30510151916668515,0.04189824959393743,0.0004174833801497814,-0.06475501794519473,0.15089562545223337,0.03379950808899855,0.040705253174710035,0.7091553770607337,-52.92725762744703,-18.04560336150659,-0.6659336034132453,0.482754075853053,0.19101876900896542
0.028813532528893883,-0.49948352757105957,0.6506492678779611,-0.7697024637906511,0.10438338073430907,0.30518379849154204,0.04206604252564362,0.0003847231498671366,-0.06534290524686134,0.15164130088261416,0.03415366336926607,0.04113966242844685,0.706345899761613,-52.929895883551296,-18.048511725988472,-0.6660794224195017,0.483602988336599,0.1919425341465523
0.02889799886816165,-0.49948282440444985,0.6505174020742931,-0.7693976907074246,0.1044523999284649,0.3052669510689356,0.04223316963388457,0.0003515833048685895,-0.06593290183399968,0.15238654161325316,0.034509597077917946,0.0415762886967633,0.7035253785893698,-52.932530884694344,-18.051411364925155,-0.6662269268564103,0.48445098550423354,0.19286553152698194
0.02898279812443814,-0.4994821882776496,0.6503843520784872,-0.7690914280191682,0.10452213454414966,0.305350981329196,0.04239962813824473,0.00031806340011688206,-0.06652499790293404,0.15313134412820287,0.0348673078423747,0.04201513013020561,0.7006938597225675,-52.935162610333315,-18.05430224750999,-0.6663761249621801,0.48529806578668644,0.19378775745830412
0.0290679289549757,-0.49948161995166823,0.6502501137112614,-0.7687836766093454,0.10459258813271681,0.3054358936989369,0.04256541526877865,0.000284162990696195,-0.06711918361291327,0.1538757049113901,0.03522679428357515,0.04245618487045457,0.6978513895017402,-52.93779103976894,-18.05718434294242,-0.6665270249536754,0.4861442276135435,0.19470920825164692
0.029153390011507813,-0.49948112018840457,0.6501146828130888,-0.7684744373684521,0.10466376424274877,0.30552169260103756,0.04273052826605738,0.00024988163183131093,-0.06771544908627103,0.1546196204466407,0.0355880550159781,0.04289945105033304,0.6949980144285649,-52.94041615214451,-18.06005762042767,-0.6666796350263011,0.48698946941323445,0.19562988022124655
0.029239179940270244,-0.49948068975064674,0.6499780552442717,-0.7681637111940167,0.1047356664200439,0.3056083824546252,0.04289496438121472,0.00021521887890676213,-0.06831378440858653,0.1553630872177041,0.035951088647564036,0.04334492679381342,0.6921337811650317,-52.94303792644435,-18.062922049176215,-0.6668339633539039,0.4878337896130166,0.19654976968444354
0.02932529738202223,-0.49948032940207177,0.649840226885014,-0.7678514989906001,0.10480829820760357,0.30569596767505725,0.04305872087599325,0.00018017428748590272,-0.068914179628846,0.1561061017082779,0.03631589377983683,0.04379261021602513,0.6892587365326143,-52.94565634149268,-18.065777598403447,-0.6669900180887061,0.4886771866389581,0.1974688729617168
0.02941174097206781,-0.4994800399072451,0.6497011936354947,-0.767537801669796,0.10488166314561922,0.30578445267390375,0.04322179502279027,0.00014474741332999046,-0.06951662475960456,0.1568486604020328,0.03668246900782544,0.04424249942326225,0.6863729275114395,-52.948271375952245,-18.068624237329193,-0.6671478073611801,0.4895196589159264,0.19838718637668262
0.02949850958035778,-0.4994798116450197,0.649560945757835,-0.7672226205394973,0.10495576488924824,0.3058738418580867,0.04338430414498332,0.00011413111269106348,-0.07012393882988956,0.15759056514933487,0.03705087181450692,0.04469459209147139,0.6834767262607502,-52.95088311486787,-18.07146194795574,-0.6673073486971297,0.49036120685695295,0.19930470625387187
0.029585601950057064,-0.4994796402469323,0.6494194763949696,-0.7669059567175545,0.10503060703116122,0.30596413963113156,0.04354618484964225,8.569904368311567e-05,-0.07073468143271726,0.1583319109714256,0.03742107095649393,0.04514888652243482,0.6805700176807552,-52.953491661468334,-18.074290675854837,-0.6674686394368494,0.491201826214844,0.2002214289243264
0.029673016700248297,-0.49947952648033467,0.6492767815072787,-0.766587811136404,0.10510619310294719,0.3060553503931403,0.04370737509561615,5.688329881207184e-05,-0.07134744384542617,0.1590727905752817,0.03779303589298513,0.04560538100437758,0.6776526888977003,-52.95609703030768,-18.07711037523354,-0.6676316798963766,0.49204151356937703,0.2011373507222931
0.02976075244464456,-0.4994794711134658,0.6491328570754034,-0.7662681847355138,0.10518252663333313,0.30614747854035695,0.04386787219813033,2.7683434431354838e-05,-0.07196221593772077,0.159813200445066,0.03816676519296893,0.046064073608328815,0.6747247874784469,-52.95869919941765,-18.079921015381455,-0.6677964781195196,0.4928802673408275,0.2020524679841107
0.02984880779161116,-0.4994794749154514,0.648987699100316,-0.7659470784613838,0.10525961114817108,0.30624052846515,0.04402767348330135,-1.9009928056000552e-06,-0.0725789875436993,0.16055313706503613,0.03854225741896812,0.04652496239652059,0.6717863611443127,-52.961298146663424,-18.08272256559154,-0.6679630421279069,0.4937180859481929,0.2029667770493406
0.029937181344187522,-0.4994795386563033,0.6488413036033919,-0.7656244932675447,0.10533745017042516,0.30633450455599476,0.044186776288182024,-3.1870425926518154e-05,-0.07319774846201899,0.16129259691956946,0.038919511127041645,0.046988045422395694,0.6688374577702374,-52.963893849742384,-18.085514995159528,-0.6681313799208519,0.4945549678091714,0.20388027426076913
0.030025871700109136,-0.49947966310691855,0.6486936666264798,-0.7653004301145583,0.10541604722015874,0.306429411197456,0.04434517796080624,-6.222530762147217e-05,-0.07381848845606172,0.1620315764931881,0.03929852486678638,0.047453320730615436,0.6658781253839515,-52.96648628618306,-18.088298273383717,-0.668301499475275,0.49539091134015306,0.20479295596443842
0.030114877451829603,-0.499479849039079,0.6485447842319716,-0.7649748899700172,0.10549540581452141,0.3065252527701701,0.04450287586023361,-9.296608022411532e-05,-0.07444119725410044,0.16277007227058396,0.03967929718133893,0.047920786357067494,0.6629084121651421,-52.969075433343505,-18.091072369564376,-0.668473408745599,0.49622591495619695,0.2057048185096407
0.03020419718654279,-0.4994800972254504,0.6483946525028726,-0.7646478738085439,0.10557552946773617,0.30662203365082785,0.04465986735659398,-0.0001240931856929508,-0.07506586454946593,0.16350808073664364,0.040061826607377435,0.04839044032887378,0.6599283664446198,-52.97166126841041,-18.093837253003443,-0.6686471156636631,0.49705997707102395,0.20661585824895473
0.030293829486205053,-0.4994804084395816,0.6482432675428712,-0.764319382611791,0.10565642169108641,0.30671975821215663,0.04481614983113173,-0.00015560706559264223,-0.0756924800007142,0.1642455983764737,0.040446111675123374,0.048862280664398364,0.656938036703485,-52.97424376839772,-18.09659289300412,-0.6688226281386277,0.49789309609699195,0.2075260715382429
0.03038377292755755,-0.49948078345590374,0.6480906254764076,-0.7639894173684402,0.1057380859929031,0.30681843082290317,0.04497172067624995,-0.00018750816107534487,-0.0763210332317944,0.1649826216754258,0.04083215090834342,0.04933630537325541,0.6539374715722936,-52.97682291014546,-18.099339258870405,-0.6689999540568698,0.4987252704450893,0.20843545473667438
0.03047402608214866,-0.4994812230497295,0.6479367224487432,-0.763657979074202,0.1058205258785518,0.3069180558478158,0.045126577295554415,-0.0002197969128620998,-0.07695151383221725,0.16571914711912175,0.041219942824351236,0.04981251245631716,0.6509267198302228,-52.9793986703184,-18.10207631990674,-0.6691791012819128,0.49955649852491263,0.20934400420673788
0.030564587516356455,-0.49948172799725193,0.6477815546260288,-0.763325068731815,0.10590374485041981,0.3070186376476272,0.0452807171038974,-0.00025247376122425563,-0.077583911357224,0.1664551711934788,0.041609485934009365,0.05029089990572196,0.6479058304042362,-52.981971025405066,-18.1048040454176,-0.6693600776543003,0.5003867787446534,0.21025171631425887
0.0306554557914113,-0.49948229907554387,0.6476251181953729,-0.7629906873510456,0.10598774640790327,0.30712018057903695,0.045434137527421335,-0.0002855391459649073,-0.07821821532795598,0.16719069038473483,0.042000778741731054,0.050771465704882314,0.6448748523682496,-52.98453995171615,-18.10752240470704,-0.6695428909915202,0.5012161095110828,0.21115858742840557
0.030746629463418503,-0.49948293706255664,0.6474674093649097,-0.7626548359486867,0.10607253404739424,0.30722268899469396,0.04558683600360226,-0.0003189935064004145,-0.07885441523162451,0.16792570117947372,0.04239381974548216,0.051254207828492944,0.6418338349422956,-52.98710542538377,-18.110231367078367,-0.6697275490879062,0.5020444892295348,0.21206461392171388
0.03083810708338109,-0.4994836427371193,0.6473084243638663,-0.7623175155485573,0.1061581112622678,0.307326167243179,0.04573880998129315,-0.0003528372813419252,-0.07949250052168157,0.16866020006465055,0.042788607436783,0.05173912424253895,0.6387828274916884,-52.9896674223599,-18.112930901833707,-0.6699140597145368,0.5028719163038913,0.21296979217009507
0.030929887197222623,-0.49948441687893746,0.6471481594426303,-0.7619787271815021,0.10624448154286922,0.3074306196689876,0.04589005692076701,-0.00038707090907695205,-0.08013246061799077,0.16939418352761704,0.04318514030071026,0.05222621290430395,0.6357218795261884,-52.99222591841531,-18.115620978273594,-0.670102430619168,0.5036983891365647,0.21387411855285565
0.03102196834581014,-0.4994852602685922,0.6469866108728163,-0.7616384718853898,0.10633164837650103,0.3075360506125124,0.04604057429375985,-0.00042169482735098554,-0.08077428490699899,0.17012764805614686,0.04358341681589891,0.05271547176237826,0.6326510406991677,-52.99478088913838,-18.118301565696605,-0.6702926695260907,0.5045239061284827,0.21477758945270659
0.03111434906497717,-0.4994861736875389,0.6468237749473325,-0.7612967507051128,0.10641961524741012,0.30764246441002574,0.046190359583513446,-0.0004567094733491475,-0.0814179627419084,0.1708605901384611,0.043983435454544105,0.053206898756667134,0.6295703608067731,-52.99733230993397,-18.120972633398925,-0.6704847841360578,0.5053484656790759,0.21568020125577636
0.031207027885546804,-0.4994871579181063,0.6466596479804467,-0.7609535646925863,0.10650838563677492,0.30774986539366256,0.04633941028481793,-0.000492115283677881,-0.08206348344284914,0.17159300626325372,0.04438519468240311,0.05370049181839904,0.6264798897870918,-52.999880156022,-18.123634150673976,-0.6706787821262143,0.5061720661862548,0.21658195035164007
0.03130000333335491,-0.49948821374349495,0.6464942263078526,-0.7606089149067469,0.10659796302269252,0.3078582578914028,0.046487723904054236,-0.0005279126943466835,-0.08271083629705234,0.17232489291971695,0.04478869295879727,0.05419624887013392,0.6233796777193147,-53.002424402436624,-18.12628608681204,-0.6708746711499753,0.5069947060463997,0.21748283313331043
0.03139327392927339,-0.49948934194777644,0.6463275062867345,-0.7602628024135517,0.10668835088016575,0.30796764622705436,0.04663529795923631,-0.0005641021407498759,-0.08336001055902383,0.17305624659756694,0.04519392873661393,0.05469416782577155,0.6202697748229018,-53.00496502402476,-18.128928411099857,-0.671072458836925,0.5078163836543425,0.21838284599727031
0.03148683818923349,-0.49949054331589177,0.646159484295833,-0.7599152282859776,0.10677955268109036,0.3080780347202355,0.046782129980053176,-0.0006006840576484175,-0.08401099545071818,0.17378706378706918,0.04560090046230843,0.05519424659055991,0.6171502314567451,-53.00750199544511,-18.13156109282022,-0.6712721527927343,0.5086370974033494,0.21928198534348053
0.03158069462424931,-0.49949181863365005,0.6459901567355096,-0.7595661936040194,0.10687157189424218,0.3081894276863577,0.04692821750791084,-0.0006376588791517523,-0.08466378016171335,0.17451734097906418,0.04600960657590605,0.05569648306110355,0.6140210981183344,-53.01003529116698,-18.13418410125162,-0.6714737605990697,0.5094568456851079,0.22018024757539917
0.03167484174044126,-0.4994931686877275,0.6458195200278108,-0.7592156994546895,0.10696441198526419,0.30830182943660844,0.047073558095973946,-0.0006750270386997074,-0.08531835384938581,0.17524707466499304,0.04642004551100403,0.056200875125372064,0.6108824254429202,-53.01256488546893,-18.13679740566784,-0.6716772898134881,0.5102756268897082,0.22107762909998302
0.03176927803905968,-0.49949459426566556,0.6456475706165327,-0.7588637469320156,0.10705807641665373,0.3084152442779339,0.04721814930920733,-0.0007127889690444192,-0.08597470563908613,0.17597626133692304,0.04683221569477356,0.056707420662708535,0.607734264202679,-53.01509075243798,-18.139400975337576,-0.6718827479693428,0.5110934394056279,0.22197412632772107
0.03186400201650851,-0.49949609615587004,0.6454743049672841,-0.7585103371370405,0.10715256864774965,0.30852967651302154,0.04736198872441731,-0.0007509451022323078,-0.0866328246243151,0.17670489748757345,0.0472461155479618,0.057216117543838055,0.6045766653058773,-53.0176128659681,-18.14199477952407,-0.6720901425756964,0.5119102816197161,0.22286973567263024
0.0319590121643691,-0.49949767514760923,0.6452997195675503,-0.7581554711778199,0.10724789213471944,0.3086451304402833,0.04750507393029288,-0.0007894958695860874,-0.0872926998669003,0.1774329796103411,0.04766174348489389,0.05772696363087625,0.6014096797960362,-53.02013119975945,-18.14457878748473,-0.6722994811172145,0.5127261519171763,0.22376445355228433
0.03205430696942399,-0.4994993320310126,0.645123810926756,-0.7577991501694212,0.10734405033054639,0.308761610353838,0.04764740252744662,-0.000828441701686827,-0.08795432039717321,0.17816050419932616,0.04807909791347502,0.05823995677733787,0.598233358851096,-53.022645727316885,-18.147152968470763,-0.6725107710540832,0.5135410486815513,0.22465827638781827
0.0321498849136809,-0.4995010675970693,0.6449465755763277,-0.7574413752339225,0.10744104668501678,0.30887912054349426,0.04778897212845551,-0.0008677830283560384,-0.08861767521414673,0.178887467749358,0.048498177235192466,0.05875509482814538,0.5950477537825803,-53.02515642194917,-18.149717291726777,-0.6727240198218927,0.5143549702947063,0.22555120060394748
0.0322457444743967,-0.4995028826376266,0.6447680100697564,-0.7570821475004105,0.10753888464470701,0.30899766529473355,0.047929780357901484,-0.0009075202786378135,-0.08928275328569325,0.17961386675602076,0.04891897984511766,0.05927237561963761,0.5918529160347623,-53.02766325676763,-18.152271726490447,-0.672939234831573,0.515167915136814,0.22644322262898345
0.03234188412410153,-0.49950477794538817,0.6445881109826589,-0.7567214681049791,0.10763756765297083,0.3091172488886927,0.04806982485241186,-0.000947653880780999,-0.08994954354872317,0.18033969771567948,0.04934150413190826,0.05979179697957843,0.5886488971838281,-53.030166204685116,-18.154816241992105,-0.6731564234692717,0.5159798815863355,0.22733433889484098
0.03243830233062293,-0.4995067543139126,0.6444068749128402,-0.7563593381907281,0.10773709914992645,0.309237875602147,0.048209103260699514,-0.0009881842622214234,-0.09061803490936389,0.1810649571255057,0.04976574847781029,0.06031335672716547,0.5854357489370428,-53.032665238415014,-18.15735080745445,-0.6733755930962757,0.5167908680200068,0.2282245458370607
0.03253499755711013,-0.49950881253761176,0.6442242984803539,-0.755995758907761,0.10783748257244377,0.3093595497074931,0.04834761324360292,-0.0010291118495641385,-0.09128821624313929,0.1817896414835034,0.05019171125866017,0.06083705267303886,0.5822135231319158,-53.03516033046994,-18.159875392092086,-0.6735967510488907,0.5176008728128212,0.22911383989482195
0.032631968262058386,-0.4995109534117489,0.6440403783275636,-0.7556307314131839,0.10793872135413154,0.30948227547273166,0.04848535247412598,-0.0010704370685657347,-0.09196007639514965,0.18251374728853503,0.05061939084388691,0.06136288261929,0.578982271735366,-53.03765145316095,-18.162389965111263,-0.6738199046383989,0.518409894338013,0.2300022175109463
0.032729212899333344,-0.49951317773243714,0.643855111119203,-0.7552642568711032,0.10804081892532458,0.3096060571614506,0.04862231863747763,-0.0011121603441166786,-0.09263360418025207,0.18323727104034732,0.05104878559651421,0.06189084435947039,0.5757420468428882,-53.04013857859616,-18.16489449570948,-0.6740450611509077,0.5192179309670432,0.23088967513193084
0.03282672991819557,-0.4995154862966376,0.6436684935424365,-0.754896336452624,0.1081437787130709,0.3097308990328078,0.04875850943111132,-0.0011542821002236837,-0.09330878838324136,0.18396020923959724,0.051479893873162604,0.062420935678600464,0.5724929006777181,-53.04262167867986,-18.167388953075093,-0.674272227847267,0.5200249810695794,0.23177620920794126
0.0329245177633251,-0.49951787990215757,0.6434805223069184,-0.7545269713358482,0.108247604141119,0.30985680534151416,0.04889392256476423,-0.0011968027599921498,-0.09398561775903136,0.18468255838787812,0.051912714024051634,0.06295315435317848,0.5692348855899999,-53.04510072511146,-18.169873306387068,-0.6745014119630107,0.5208310430134824,0.23266181619284898
0.03302257487484609,-0.49952035934764877,0.6432911941448528,-0.7541561627058727,0.108352298629905,0.30998378033781654,0.04902855576049633,-0.0012397227456086206,-0.09466408103283674,0.18540431498774548,0.052347244393002035,0.06348749815118944,0.5659680540559516,-53.04757568938432,-18.17234752481451,-0.6747326207082219,0.5216361151647895,0.2335464925442196
0.03312089968835155,-0.4995229254326054,0.643100505811052,-0.7537839117547872,0.10845786559653987,0.3101118282674808,0.049162406752729246,-0.0012830424783232882,-0.09534416690035526,0.18612547554274328,0.05278348331743791,0.06402396483211403,0.5626924586770325,-53.05004654278482,-18.174811577516433,-0.6749658612674534,0.522440195887697,0.23443023472334845
0.03321949063492812,-0.49952557895736227,0.6429084540829961,-0.7534102196816723,0.10856430845479666,0.31024095337177465,0.04929547328828492,-0.0013267623784325457,-0.09602586402795044,0.18684603655742982,0.05322142912838893,0.06456255214693764,0.5594081521791104,-53.05251325639133,-18.17726543364136,-0.6752011407996195,0.5232432835445457,0.23531303919527247
0.03331834614118097,-0.4995283207230928,0.6427150357608905,-0.7530350876925975,0.10867163061509764,0.31037115988745095,0.049427753126424064,-0.0013708828652615717,-0.09670916105283477,0.18756599453740394,0.05366108015049259,0.0651032578381593,0.5561151874116286,-53.05497580107304,-18.179709062326992,-0.6754384664379486,0.5240453764958004,0.2361949024287639
0.033417464629258736,-0.49953115153180705,0.642520247667724,-0.7526585170006188,0.10877983548450164,0.31050245204673055,0.049559244038884405,-0.001415404357146965,-0.0973940465832533,0.18828534598933105,0.054102434701996396,0.06564607963980085,0.5528136173467739,-53.05743414748909,-18.18214243269993,-0.675677845289822,0.5248464731000415,0.23707582089636936
0.03351684451687857,-0.4995340721863499,0.6423240866493266,-0.7522805088257769,0.10888892646669115,0.31063483407728537,0.04968994380991879,-0.0014603272714194127,-0.09808050919866769,0.18900408742096936,0.05454549109476015,0.06619101527741592,0.5495034950786452,-53.05988826608759,-18.18456551387525,-0.6759192844367101,0.5256465717139398,0.23795579107441236
0.033616484217351236,-0.49953708349039866,0.6421265495744267,-0.7519010643950945,0.10899890696195967,0.31076831020222156,0.04981985023633303,-0.001505652024386405,-0.09876853744994069,0.18972221534119602,0.054990247634258194,0.06673806246809912,0.5461848738224209,-53.06233812710434,-18.186978274956257,-0.6761627909341078,0.526445670692244,0.23883480944300917
0.03371638213960628,-0.4995401862484613,0.6419276333347077,-0.7515201849425744,0.10910978036719883,0.31090288464006255,0.04994896112752355,-0.001551379031314988,-0.09945811985952109,0.19043972626003325,0.055436702619581696,0.06728721892049515,0.542857806913529,-53.064783700562224,-18.189380685034177,-0.6764083718113794,0.5272437683877673,0.2397128724860793
0.03381653668821731,-0.4995433812658741,0.6417273348448644,-0.7511378717091971,0.10922155007588571,0.31103856160473214,0.05007727430551486,-0.001597508706414561,-0.10014924492162912,0.19115661668867465,0.05588485434344094,0.06783848233480802,0.5395223478068154,-53.06722495627001,-18.191772713187763,-0.676656034071728,0.528040863151366,0.2405899766913628
0.033916946263427304,-0.49954666934879977,0.6415256510426596,-0.7507541259429181,0.10933421947807005,0.31117534530553775,0.05020478760499683,-0.0016440414628197135,-0.10084190110244222,0.1918728831395114,0.05633470109216765,0.06839185040281028,0.536178550075714,-53.06966186382129,-18.19415432848303,-0.6769057846920417,0.5288369533319252,0.24146611855044087
0.03401760926117403,-0.4995500513042249,0.641322578888979,-0.7503689488986658,0.10944779196036149,0.31131323994715343,0.05033149887336171,-0.0016909777125731049,-0.10153607684028132,0.19258852212615848,0.056786241145717294,0.06894732080785221,0.5328264674114168,-53.0720943925937,-18.196525499972964,-0.6771576306228448,0.529632037276343,0.2423412945587357
0.03411852407311551,-0.4995535279399581,0.6411181153678874,-0.7499823418383388,0.10956227090591683,0.31145224972960317,0.050457405970741005,-0.0017383178666083767,-0.1022317605457975,0.19330353016348104,0.05723947277767144,0.0695048912248712,0.5294661536220442,-53.07452251174793,-18.19888619669719,-0.677411578788185,0.5304261133295141,0.24321550121553737
0.0342196890866556,-0.49955710006462756,0.6409122574866831,-0.7495943060308036,0.10967765969442732,0.311592378848244,0.0505825067700421,-0.00178606233473312,-0.10292894060215906,0.19401790376762057,0.05769439425524011,0.07006455932040104,0.5260976626318157,-53.07694619022672,-18.201236387681654,-0.6776676360855345,0.531219179834312,0.24408873502400982
0.034321102684969566,-0.4995607684876788,0.6407050022759526,-0.7492048427518915,0.10979396170210584,0.31173363149374916,0.05070679915698471,-0.0018342115256118783,-0.10362760536523907,0.19473163945602137,0.05815100383926413,0.07062632275258121,0.5227210484802219,-53.079365396753786,-18.203576041938376,-0.677925809385733,0.5320112351315751,0.24496099249121125
0.03442276324702984,-0.4995645340193723,0.640496346789625,-0.7488139532843966,0.10991118030167428,0.3118760118520915,0.0508302810301371,-0.001882765846749179,-0.10432774316380335,0.1954447337474568,0.058609299784217556,0.07119017917116639,0.5193363653211961,-53.08178009983332,-18.205905128465133,-0.6781861055328248,0.5328022775600875,0.2458322701280962
0.03452466914763175,-0.49956839747078124,0.6402862881050255,-0.7484216389180725,0.1100293188623507,0.3120195241045266,0.05095295030095212,-0.0019317257044726298,-0.10502934229969874,0.1961571831620557,0.05906928033821004,0.0717561262175358,0.5159436674222863,-53.08419026774852,-18.208223616245157,-0.678448531344024,0.533592305456565,0.24670256444954894
0.03462681875741935,-0.4995723596537891,0.6400748233229294,-0.7480279009496298,0.11014838074983668,0.312164172427576,0.051074804893803005,-0.0019810915039160304,-0.10573239104804198,0.19686898422132867,0.05953094374298927,0.07232416152470267,0.512543009163828,-53.0865958685611,-18.210531474246878,-0.6787130936096175,0.5343813171556376,0.24757187197437722
0.03472921044291139,-0.4995764213810871,0.6398619495676146,-0.7476327406827334,0.11026836932630457,0.3123099609930106,0.051195842746018974,-0.0020308636490025474,-0.10643687765740886,0.19758013344819467,0.05999428823394341,0.07289428271732377,0.509134445038118,-53.08899687011026,-18.212828671423622,-0.678979799092845,0.5351693109898337,0.24844018922534267
0.03483184256652723,-0.49958058346617196,0.6396476639869145,-0.7472361594279995,0.11038928795038477,0.31245689396783405,0.05131606180792063,-0.002081042542427909,-0.1071427903500238,0.19829062736700723,0.06045931204010354,0.0734664874117089,0.5057180296485877,-53.091393240011676,-18.215115176713365,-0.6792486545298162,0.535956285289564,0.24930751272916143
0.03493471348661294,-0.49958484672334325,0.6394319637522706,-0.7468381585029923,0.11051113997715306,0.3126049755142657,0.05143546004285514,-0.0021316285856436555,-0.1078501173219499,0.19900046250358103,0.060926013384146126,0.07404077321583045,0.5022938177089777,-53.09378494565682,-18.217390959038422,-0.6795196666294265,0.5367422383831036,0.2501738390165283
0.0350378215574674,-0.49958921196770095,0.6392148460587841,-0.7464387392322218,0.11063392875811785,0.31275420978972435,0.051554035427231186,-0.002182622178840435,-0.10855884674327934,0.19970963538521833,0.061394390482395506,0.07461713772933301,0.4988618640425126,-53.09617195421192,-18.21965598730526,-0.6797928420732617,0.5375271685965777,0.2510391646221184
0.03514116512936851,-0.4995936800151428,0.6389963081252674,-0.7460379029471403,0.1107576576412075,0.31290460094681144,0.05167178595055375,-0.00223402372093131,-0.10926896675832418,0.20041814254073542,0.061864441544826405,0.07519557854354299,0.49542222358107585,-53.0985542326172,-18.221910230404127,-0.6800681875155075,0.5383110742539456,0.2519034860846209
0.035244742548599425,-0.4995982516823619,0.6387763471942958,-0.7456356509861394,0.11088232997075763,0.3130561531332944,0.05178870961545863,-0.002285833609535131,-0.10998046548580762,0.20112598050048916,0.06233616477506644,0.07577609324147824,0.49197495136438635,-53.100931747586,-18.2241536572089,-0.6803457095828455,0.539093953676983,0.25276679994673207
0.03534855215747492,-0.4996029277868438,0.6385549605322577,-0.7452319846945465,0.11100794908749842,0.3132088704920901,0.05190480443774676,-0.0023380522409599453,-0.11069333101905557,0.20183314579640343,0.06280955837039866,0.07635867939785784,0.4885201025391746,-53.10330446560397,-18.226386236576737,-0.6806254148743618,0.5398758051852648,0.2536291027551811
0.03545259229436776,-0.49960770914686414,0.6383321454294053,-0.7448269054246226,0.11113451832854195,0.31336275716124834,0.05202006844641835,-0.002390680010186446,-0.11140755142618869,0.2025396349619957,0.06328462052176409,0.0769433345791117,0.48505773235835964,-53.1056723529282,-18.228607937347984,-0.6809073099614797,0.5406566270961528,0.25449039106074034
0.03555686129373517,-0.4996125965814858,0.6381078991999046,-0.7444204145355577,0.11126204102736947,0.31351781727393513,0.05213449968370674,-0.0024437173108514446,-0.11212311475031476,0.2032454445324036,0.06376134941376434,0.07753005634339043,0.4815878961802267,-53.108035375586354,-18.230818728345728,-0.6811914013878416,0.5414364177247752,0.2553506614182403
0.03566135748614539,-0.4996175909105563,0.6378822191818851,-0.744012513393469,0.1113905205138188,0.31367405495841627,0.0522480962051121,-0.0024971645352314057,-0.11284000900972152,0.2039505710444114,0.06423974322466414,0.07811884224057503,0.47811064946760545,-53.11039349937596,-18.233018578375727,-0.6814776956692232,0.5422151753840132,0.25620991038658025
0.03576607919830426,-0.49962269295470474,0.637655102737489,-0.743603203371396,0.11151996011407159,0.3138314743380408,0.05236085607943489,-0.0025510220742260043,-0.11355822219806976,0.20465501103647665,0.06471980012639396,0.0787096898122868,0.4746260477870484,-53.11274668986362,-18.235207456226153,-0.681766199293458,0.5429928983844852,0.25706813452874544
0.035871024753081876,-0.4996279035353394,0.6374265472529199,-0.7431924858492984,0.1116503631506407,0.3139900795312246,0.05247277738880909,-0.002605290317341737,-0.11427774228458693,0.20535876104875683,0.06520151828455269,0.07930259659189719,0.4711341468080107,-53.115094912384144,-18.23738533066727,-0.6820569187203197,0.5437695850345268,0.25792533041182
0.03597619246953935,-0.4996332234746448,0.6371965501384914,-0.7427803622140522,0.11178173294235752,0.3141498746514337,0.05258385822873519,-0.002659969652675546,-0.11499855721426108,0.2060618176231358,0.0656848958584102,0.0798975601045376,0.46763500230202965,-53.11743813203979,-18.239552170451347,-0.6823498603814482,0.5445452336401804,0.25878149460700434
0.036081580662955574,-0.4996386535955786,0.6369651088286753,-0.7423668338594457,0.11191407280435935,0.3143108638071679,0.05269409670811304,-0.002715060466898523,-0.11572065490803518,0.2067641773032505,0.06616993100091005,0.08049457786710941,0.46412867014190545,-53.11977631369958,-18.24170794431235,-0.6826450306802693,0.5453198425051741,0.2596366236896172
0.036187187644854124,-0.49964419472186905,0.6367322207821493,-0.7419519021861767,0.1120473860480767,0.31447305110194446,0.05280349094927442,-0.0027705631452396074,-0.11644402326300174,0.20746583663451762,0.06665662185867215,0.08109364738829392,0.46061520630088226,-53.12210942199839,-18.24385262096578,-0.6829424359918699,0.5460934099309086,0.260490714239125
0.03629301172303016,-0.499649847678012,0.6364978834818441,-0.7415355686018483,0.11218167598122068,0.3146364406342816,0.052912039088015325,-0.0028264780714693572,-0.11716865015259793,0.20816679216416017,0.06714496657199545,0.08169476616856226,0.4570946668518298,-53.12443742133643,-18.245986169108445,-0.6832420826629475,0.5468659342164406,0.2613437628391402
