Joohwan-Seo/mujoco_sysID/UR5e/logs/square_PIH_3.csv
q1,q2,q3,q4,q5,q6,dq1,dq2,dq3,dq4,dq5,dq6,t1,t2,t3,t4,t5,t6
0.02000095236425515,-0.49999985661945484,0.6599997505546472,-0.8000000012877634,0.10000000123267352,0.3000004320974296,0.00047618212757483765,7.169027258158577e-05,-0.00012472267640692279,-6.438816903917548e-07,6.163367624916379e-07,0.00021604871480060043,2.0000000859987743,-52.36685041215096,-17.447635092166575,-1.1582570532221474,0.3006542121768241,0.10000000000036105
0.020002857091383178,-0.4999995698614201,0.659999251655869,-0.8000000036193206,0.10000000346456267,0.3000012962912065,0.0009523635640134257,0.00014337901739255415,-0.0002494493891069541,-1.1657785588005832e-06,1.1159445760681306e-06,0.0004320968884322765,1.9999945839614013,-52.36985722289679,-17.443835743714196,-1.1578572840688275,0.3011542752928933,0.10039999983076466
0.02000571404657949,-0.4999991436659678,0.6599985117761047,-0.8000000066951798,0.10000000671268501,0.30000259449974775,0.0014284775981558918,0.0002130977261410208,-0.00036993988216813055,-1.5379296415807213e-06,1.6240611695074434e-06,0.0006491042706430235,1.999977725739345,-52.37286739324342,-17.440036714640033,-1.1574576097970704,0.301654362330902,0.10079999863783418
0.02000952308966531,-0.4999985819727928,0.6599975393894637,-0.8000000102725981,0.10000001099080022,0.30000432864147175,0.0019045215429098167,0.0002808465875269257,-0.0004861933204848402,-1.7887091656261704e-06,2.139057607493232e-06,0.0008670708620010848,1.9999495032732544,-52.37588080165858,-17.436238041434134,-1.1570580245347093,0.3021544694015751,0.10119999539752979
0.02001428407506096,-0.4999978887212712,0.6599963429713166,-0.8000000141548259,0.10000001631003112,0.300006500634791,0.0023804926978255115,0.00034662576078531195,-0.0005982090735282849,-1.941113892357684e-06,2.6596154519462376e-06,0.0010859966596203786,1.9999099085958727,-52.378897326673,-17.43243976063679,-1.1566585224716963,0.30265459263307803,0.1015999890858165
0.020019996851764813,-0.4999970678505003,0.6599949309979416,-0.8000000181823904,0.10000002267936611,0.3000091123981057,0.002856388351926783,0.0004104353854650633,-0.0007059866875030888,-2.0137822438931668e-06,3.1846674919359677e-06,0.00130588165735063,1.9998589338299608,-52.38191684686883,-17.42864190882681,-1.15625909784805,0.303154728167643,0.1019999786786685
0.02002666126333683,-0.4999961232993216,0.659993311946216,-0.800000022226031,0.10000003010606569,0.30001216584979756,0.003332205786007923,0.00047227558935517987,-0.0008095258627823602,-2.021820286574274e-06,3.713349786950366e-06,0.0015267258459314796,1.9997965711867738,-52.38493924087047,-17.424844522611714,-1.1558597449440815,0.3036548721588442,0.10239996315206827
0.020034277147885825,-0.4999950590063318,0.6599914942933448,-0.8000000261809733,0.10000003859599142,0.3000156629082238,0.003807942274498052,0.0005321464949095956,-0.0009088264356208053,-1.977471175841536e-06,4.244962864165273e-06,0.0017485292131173976,1.9997228129649636,-52.38796438733757,-17.421047638619797,-1.1554604580725791,0.30415502076939427,0.10279994148201402
0.020042844338059775,-0.4999938789098829,0.6599894865166182,-0.8000000299622888,0.10000004815387206,0.30001960549171136,0.004283595086974772,0.0005900482244549996,-0.0010038883633350405,-1.8906577293374923e-06,4.778940322486984e-06,0.0019712917437789356,1.9996376515498206,-52.39099216495958,-17.41725129349355,-1.1550612315724151,0.3046551701693677,0.10319991264452105
0.02005236266103856,-0.4999925869480741,0.6599872970931936,-0.8000000335011331,0.10000005878351892,0.30002399551855136,0.004759161489393566,0.0006459809044122583,-0.001094711712293953,-1.7694221727102315e-06,5.314823429617135e-06,0.002195013419984804,1.9995410794127662,-52.39402245245173,-17.413455523884338,-1.1546620598033792,0.3051553165347646,0.1035998756156168
0.020062831938528734,-0.49999118705873663,0.6599849344998973,-0.8000000367416982,0.10000007048800005,0.3000288349069935,0.005234638745086783,0.0006999446687182872,-0.0011812966481864293,-1.6202825457318634e-06,5.852240568222104e-06,0.0024196942210684075,1.9994330891110452,-52.39705512855203,-17.40966036644782,-1.154262937142093,0.3056554560463562,0.10399982937135631
0.020074251986759887,-0.49998968317941345,0.659982407213041,-0.8000000396387413,0.10000008326978127,0.30003412557524084,0.005710024115575865,0.0007519396615998744,-0.0012636434281347714,-1.4485215630938838e-06,6.3908906056225885e-06,0.0026453341236817893,1.9993136732875714,-52.40009007201906,-17.405865857840414,-1.1538638579786171,0.30615558488875744,0.10439977288781689
0.02008662261648235,-0.4999880792473338,0.6599797237082524,-0.8000000421555828,0.10000009713084014,0.3000398694414445,0.006185314861232176,0.0008019660398221708,-0.0013417523943038687,-1.258420730926021e-06,6.930529438083001e-06,0.0028719331018393656,1.9991828246708865,-52.403127161630614,-17.402072034716003,-1.1534648167137918,0.30665569924967767,0.10479970514109943
0.02009994363296598,-0.49998637919938477,0.659976892460315,-0.8000000442624831,0.10000011207275834,0.3000460684236984,0.006660508241815121,0.0008500239745113724,-0.0014156239687225403,-1.0534500940583264e-06,7.4709591037266294e-06,0.0030994911269533938,1.9990405360752093,-52.40616627618271,-17.39827893372348,-1.153065807757081,0.3071557953193251,0.10519962510733495
0.020114214835999802,-0.4999845869720795,0.6599739219430169,-0.8000000459353271,0.10000012809679629,0.3000527244400341,0.007135601516910782,0.0008961136526322296,-0.001485258649087185,-8.364220227939646e-07,8.01201897376589e-06,0.0033280081678627336,1.9988868004005513,-52.40920729448944,-17.39448659150445,-1.152666825524804,0.3076558692899276,0.10559953176268772
0.020129436020518296,-0.49998270650067667,0.6599708206314276,-0.800000047154438,0.10000014555991901,0.3000598394084152,0.007610592259246698,0.0009402357014212317,-0.0015506557946077507,-6.095553879498594e-07,8.731561362432736e-06,0.0035574841905242874,1.9987216107222805,-52.412250095535846,-17.39069504482286,-1.152267864576252,0.3081559173430945,0.10599942408348617
0.020145606978972167,-0.49998074171593937,0.6599675970109282,-0.8000000479032771,0.10000016652255694,0.3000674152467294,0.008085479226935302,0.0009823923686462178,-0.0016118102496929735,-3.7441957586489495e-07,1.0481318963737325e-05,0.003787919157109362,1.998544960583349,-52.41529455905289,-17.38690433105949,-1.1518689201335979,0.3086559356031824,0.1063993010466626
0.020162727498334282,-0.499978696548148,0.6599642595654891,-0.8000000481684288,0.10000019304490403,0.30007545387278717,0.008560259681057005,0.0010225838956779063,-0.0016687227195546636,-1.325759143707262e-07,1.32611735398893e-05,0.004019313028871749,1.9983568432377918,-52.41834056475997,-17.38311448757705,-1.151469987428109,0.3091559201963348,0.10679916162862681
0.02018079736010134,-0.4999765749270617,0.6599608167775384,-0.8000000479390085,0.10000022718691119,0.3000839572043163,0.009034930883529484,0.001060810543155639,-0.0017213939753414193,1.1471019937858522e-07,1.7071003584013528e-05,0.004251665764559614,1.9981572520257351,-52.421387992394955,-17.37932555172449,-1.1510710616939879,0.3096558672496534,0.10719900480583984
0.020199816340295905,-0.49997438078187867,0.6599572771278331,-0.800000047206182,0.10000027100827935,0.30009292715895713,0.009509490097281142,0.0010970725915332078,-0.0017698248525893964,3.6641321537257154e-07,2.1910684080653938e-05,0.004484977320426061,1.997946180373656,-52.424436721714955,-17.37553756083594,-1.1506721381677578,0.3101557728910485,0.10759882955480288
0.020219784209468693,-0.4999721180411956,0.6599536490953332,-0.8000000459627781,0.10000032656845198,0.30010236565425763,0.00998393458639413,0.0011313703415211237,-0.0018140162499666742,6.217019758449365e-07,2.7780086312015435e-05,0.004719247650237716,1.997723621794653,-52.42748663249744,-17.371750552229717,-1.1502732120878336,0.3106556332491245,0.10799863485206165
0.02024070073270114,-0.49996979063296676,0.6599499411570766,-0.8000000442029723,0.10000039592660738,0.3001122746076682,0.010458261616222686,0.0011637041144448809,-0.0018539691282554516,8.799028747298926e-07,3.4679077701282384e-05,0.004954476705281725,1.9974895698887205,-52.430537604541016,-17.367964563207245,-1.1498742786941738,0.3111554444530933,0.1083984196742143
0.020262565669608122,-0.4999674024844617,0.6599461617880575,-0.8000000419220323,0.10000048114165075,0.300122655936537,0.010932468453491466,0.0011940742525351148,-0.0018896845095268601,1.1404699989298778e-06,4.260752168598697e-05,0.0051906644343714375,1.9972440183430311,-52.433589517666675,-17.364179631052448,-1.149475333227991,0.3116552026327131,0.10879818299791275
0.020285378774340876,-0.49996495752222336,0.6599423194611046,-0.8000000391161105,0.10000058427220598,0.3001335115581047,0.011406552366377637,0.0012224811191624714,-0.0019211634764716768,1.402960928240172e-06,5.15652776157412e-05,0.005427810783851059,1.9969869609322173,-52.43664225171897,-17.360395793030694,-1.149076370931614,0.3121549039182444,0.10919792379985951
0.020309139795590035,-0.4999624596720253,0.6599384226467608,-0.8000000357820762,0.10000070737660732,0.30014484338949987,0.011880510624579807,0.0012489250990276517,-0.0019484071718572904,1.6670171215345564e-06,6.155220066971604e-05,0.005665915697599439,1.9967183915186548,-52.43969568656704,-17.356613086388236,-1.148677387048272,0.31265454444042085,0.10959764105681433
0.020333848476588787,-0.4999599128588287,0.6599344798131647,-0.8000000319173802,0.1000008525128909,0.30015665334773395,0.012354340499376275,0.0012734065983150418,-0.001971416798086811,1.932348020048753e-06,7.256814179012962e-05,0.005904979117033186,1.9964383040527458,-52.44274970210615,-17.352831548351443,-1.148278376822081,0.3131541203304338,0.10999733374560297
0.020359504555116138,-0.49995732100673906,0.659930499425931,-0.8000000275199439,0.10000102173878615,0.3001689433496962,0.012828039263674621,0.0012959260448168052,-0.0019901936168408023,2.198718163318243e-06,8.461294762871548e-05,0.006145000981109218,1.996146692573198,-52.44580417825869,-17.34905121612615,-1.1478793354979338,0.3136536277199268,0.11039700084310657
0.020386107763500246,-0.499954688038963,0.6599264899480334,-0.8000000225880705,0.10000121711170716,0.3001817153121488,0.013301604192054256,0.0013164838880329447,-0.0020047389487858214,2.465936746829458e-06,9.768646050371417e-05,0.006385981226326863,1.995843551207306,-52.44885899497576,-17.345272126896962,-1.1474802583214836,0.31415306274099525,0.11079664132627444
0.020413657828621853,-0.4999520178777645,0.6599224598396867,-0.8000000171203722,0.10000144068874389,0.3001949711517223,0.013775032560803258,0.0013350805992518868,-0.0020150541733369707,2.733849158644098e-06,0.00011178851836539753,0.006627919786729609,1.9955288741712276,-52.45191403223824,-17.341494317826694,-1.1470811405391348,0.3146524215261988,0.11119625417212584
0.020442154471917755,-0.49994931444442126,0.6599184175582298,-0.800000011115712,0.10000169452665343,0.30020871278491007,0.014248321647950582,0.00135171667161518,-0.0020211407284640294,3.002330119953061e-06,0.00012691895476851244,0.006870816593906542,1.9952026557702556,-52.454969170058185,-17.337717826055744,-1.146681977398109,0.31515170020857236,0.11159583835774806
0.020471597409384343,-0.49994658165918093,0.6599143715580087,-0.8000000045731557,0.10000198068185114,0.30022294212806405,0.014721468733294494,0.0013663926201692945,-0.002023000110532775,3.2712781255918885e-06,0.0001430775988503378,0.007114671576993566,1.9948648903990913,-52.458024288480246,-17.333942688701427,-1.1462827641463824,0.3156508949216457,0.11199539286030093
0.020501986351581198,-0.49994382344121713,0.6599103302902604,-0.7999999974919338,0.10000230121040177,0.3002376610973894,0.01519447109842794,0.0013791089819068937,-0.0020206338741746337,3.5406109381566284e-06,0.00016026427531329202,0.007359484662674422,1.9945155725421118,-52.46107926758297,-17.33016894285752,-1.1458834960328177,0.316150001799465,0.11239491665702246
0.02053332100363472,-0.49994104370858555,0.659906302202996,-0.79999998987141,0.10000265816801059,0.30025287160893976,0.015667326026761425,0.0013898663157995424,-0.002014043632179194,3.8102619360477123e-06,0.00017847880441123522,0.007605255775181554,1.9941546967736334,-52.464133987480096,-17.326396625593528,-1.1454841683071728,0.3166490169766171,0.1127944087252253
0.020565601065241808,-0.4999382463781799,0.6599022957408851,-0.7999999817110557,0.10000305361001446,0.30026857557861236,0.016140030803543863,0.0013986652028234044,-0.002003231055405013,4.080177153609865e-06,0.00019772100193876774,0.007851984836296863,1.993782257758174,-52.46718832832197,-17.322625773954215,-1.1450847762201823,0.3171479365882571,0.11319386804230776
0.02059882623067357,-0.49993543536568796,0.6598983193451397,-0.7999999730104299,0.10000348959137291,0.30028477492214306,0.016612582715881764,0.0014055062459792063,-0.001988197872705135,4.350312882206397e-06,0.00021799067922296245,0.008099671765352345,1.993398250250711,-52.47024217029679,-17.318856424958987,-1.1446853150236174,0.31764675677013615,0.11359329358574757
0.020632996188779087,-0.49993261458554733,0.659894381453398,-0.7999999637691625,0.10000396816665914,0.3003014715551015,0.017084979052757087,0.001410390070307517,-0.001968945870864386,4.620633725922231e-06,0.00023928764311707183,0.008348316479230667,1.993002669096936,-52.473295393632064,-17.31508861560131,-1.1442857799703443,0.31814547365863316,0.11399268433311113
0.020668110622989174,-0.49992978795090154,0.6598904904996089,-0.7999999539869405,0.10000449139005113,0.30031866739288626,0.017557217105043967,0.0014133173229001522,-0.0019454768945459985,4.89111102573759e-06,0.0002616116959958396,0.008597918892365669,1.9925955092335053,-52.47634787859583,-17.311322382848214,-1.1438861663144664,0.3186440833907853,0.11439203926205128
0.020704169211320223,-0.49992695937355575,0.6598866549139164,-0.7999999436634972,0.10000506131532264,0.30033636435071975,0.01802929416552455,0.0014142886729084042,-0.00191779284624569,5.161721582341324e-06,0.000284962635752118,0.008848478916742826,1.9921767656882892,-52.47939950549808,-17.30755776363961,-1.1434864693113116,0.3191425821043204,0.1147913573503161
0.020741171626378032,-0.49992413276393266,0.659882883122544,-0.799999932798604,0.10000567999583422,0.30035456434364355,0.018501207528904093,0.0014133048115486338,-0.001885895686251597,5.432446620987825e-06,0.00030934025579454415,0.00909999646189966,1.9917464335806165,-52.48245015469195,-17.303794794887814,-1.1430866842176173,0.31964096593769,0.11519063757574088
0.020779117535361682,-0.49992131203102846,0.6598791835476787,-0.7999999213920621,0.10000634948452432,0.3003732692865134,0.018972954491825438,0.0014103664521056998,-0.0018497874326088143,5.7032709525264545e-06,0.0003347443450460818,0.009352471434926134,1.9913045081215153,-52.48549970657521,-17.30003351347698,-1.1426868062915596,0.3201392310301054,0.11558987891626632
0.020818006600067447,-0.49991850108236857,0.6598755646073565,-0.7999999094436975,0.1000070718339002,0.30039248109399436,0.019444532352882987,0.0014054743299345186,-0.0018094701610874549,5.974182293426329e-06,0.0003611746879432652,0.009605903740465011,1.9908509846139508,-52.48854804159134,-17.29627395626242,-1.1422868307928364,0.32063737352156907,0.11598908034992463
0.02085783847689272,-0.49991570382396366,0.6598720347153462,-0.799999896953356,0.10000784909602907,0.30041220168055577,0.01991593841263626,0.0013986292024601322,-0.0017649460051534817,6.245170714664338e-06,0.00038863106443601643,0.009860293280712203,1.9903858584530623,-52.49159504023107,-17.29251616007018,-1.1418867529828074,0.3211353895529107,0.11638824085485555
0.020898612816839968,-0.49991292416026534,0.6598686022810343,-0.7999998839208997,0.10000868332252905,0.3004324329604666,0.02038716997362311,0.001389831849176456,-0.0017162171559415463,6.516228195055025e-06,0.000417113249987933,0.010115639955417102,1.9899091251263914,-52.49464058303349,-17.288760161696413,-1.14148656812455,0.32163327526582447,0.1167873594092987
0.020940329265520714,-0.499910165994122,0.6598652757093099,-0.7999998703462032,0.10000957656456021,0.3004531768477904,0.020858224340372634,0.0013790830716439296,-0.0016632858622293552,6.787348259229368e-06,0.000446621015576957,0.010371943661882908,1.989420780214114,-52.49768455058746,-17.28500599790677,-1.141086271482969,0.3221310268029003,0.1171864349916047
0.02098298746315955,-0.49990743322673503,0.6598620634004491,-0.7999998562291518,0.1000105308728156,0.3004744352563803,0.02132909881941786,0.0013663836934862225,-0.0016061544304130592,7.058525684219771e-06,0.00047715412769635954,0.010629204294966938,1.9889208193892622,-52.50072682353267,-17.281253705435827,-1.140685858324875,0.3226286403076635,0.11758546658023056
0.021026587043933936,-0.49990472975987227,0.6598589737435647,-0.7999998413373345,0.10001154829851149,0.30049621009983113,0.021799790387192593,0.0013517334313692534,-0.001544828442152912,7.445908681601801e-06,0.0005087128479449972,0.010887421725424968,1.9884092378024782,-52.5037672821953,-17.277503320683238,-1.1402853235924735,0.32312611183329903,0.11798445315371492
0.021071127634358967,-0.49990205950132904,0.6598560151008029,-0.7999998246397164,0.10001263089581422,0.3005185032913687,0.02227029521251508,0.001335129271609045,-0.0014793213808756023,8.348809043242765e-06,0.0005412986513641445,0.011146595768773443,1.987886029112982,-52.50680580571861,-17.273754878974515,-1.1398846611055333,0.3236234371209356,0.118383393690633
0.02111660885557462,-0.4998994263571225,0.6598531958293478,-0.79999980510513,0.10001378071839681,0.30054131674399376,0.0227406106078274,0.0013165721032807032,-0.0014096357275741448,9.767293188849963e-06,0.0005749112912970353,0.011406726312521287,1.9873511890992273,-52.509842273364676,-17.270008415598085,-1.139483864679735,0.3241206119159175,0.11878228716977518
0.0211630303233499,-0.4998968342314475,0.6598505242813062,-0.7999997817022745,0.10001499981943003,0.30056465237047725,0.023210733887639053,0.0012960628375084616,-0.0013357740207609024,1.170142776554377e-05,0.0006095505166104259,0.011667813241732859,1.9868047136337432,-52.51287656445274,-17.266263965809472,-1.139082928132841,0.32461763196461035,0.1191811325700585
0.021210391648086975,-0.4998942870266326,0.6598480088035933,-0.7999997533997152,0.10001629025157342,0.3005885120833553,0.023680662368538524,0.0012736024074585183,-0.0012577388564468108,1.4151279643019294e-05,0.0006452160716969564,0.011929856439028235,1.9862465986833484,-52.515908558360564,-17.26252156483071,-1.1386818452848397,0.32511449301443823,0.1195799288705169
0.021258692434825383,-0.4998917886430959,0.659845657737817,-0.7999997191658834,0.10001765406696637,0.30061289779492445,0.024150393369204784,0.0012491917683315706,-0.0011755328881196934,1.711691590868868e-05,0.0006819076964775307,0.012192855784583526,1.9856768403093574,-52.51893813452546,-17.258781247849736,-1.138280609958036,0.32561119081391837,0.11997867505031223
0.02130793228324622,-0.4998893429793012,0.6598434794201635,-0.7999996779690757,0.10001909331721918,0.3006378114172367,0.024619924210418753,0.0012228318973550646,-0.0010891588267217566,2.0598403862812928e-05,0.0007196251264037155,0.01245681115613117,1.9850954346677876,-52.5219651724458,-17.255043050019843,-1.1378792159771285,0.32610772111269676,0.12037737008873467
0.021358110787676368,-0.4998869539317137,0.6598414821812822,-0.7999996287774537,0.10002061005340411,0.30066325486209466,0.025089252215074714,0.0011945237937751733,-0.0009986194406262283,2.4595811013617372e-05,0.0007583680924601556,0.01272172242896025,1.984502378009561,-52.52498955168185,-17.251307006459026,-1.1374776571693268,0.32660407966158655,0.1207760129652031
0.02140922753709275,-0.499884625394756,0.659839674346171,-0.7999995705590436,0.10002220632604644,0.3006892300410465,0.02555837470819167,0.0011642684788484765,-0.0009039175556131236,2.9109205072392697e-05,0.0007981363211670089,0.012987589475916815,1.9838976666807033,-52.528011151857214,-17.24757315224949,-1.137075927364444,0.32710026221259997,0.12117460265927175
0.0214612821151266,-0.4998823612607643,0.6598380642340613,-0.7999995022817357,0.10002388418511561,0.3007157388653813,0.02602728901692467,0.001132066995833367,-0.0008050560548441782,3.4138653948583426e-05,0.0008389295345823998,0.013254412167404197,1.9832812971225398,-52.531029852659906,-17.243841522436956,-1.136674020394989,0.3275962645189887,0.12157313815063009
0.021514274100067753,-0.49988016541994434,0.6598366601583037,-0.7999994229132842,0.10002564568001622,0.300742783246124,0.026495992470576064,0.0010979204099811543,-0.000702037878836894,3.968422574486116e-05,0.000880747450304889,0.01352219037138335,1.9826532658718885,-52.534045533843646,-17.24011215203011,-1.1362719300962412,0.32809208233527465,0.12197161841910457
0.021568203064868965,-0.4998780417603273,0.6598354704262528,-0.7999993314213066,0.10002749285957917,0.30077036509403077,0.02696448240060675,0.0010618298085269056,-0.0005948660254377596,4.57459887521864e-05,0.0009235897814759617,0.01379092395337318,1.9820135695612493,-52.53705807522877,-17.236385076000012,-1.1358696503063939,0.32858771141729015,0.12237004244466486
0.02162306857715026,-0.49987599416772593,0.6598345033391532,-0.7999992267732837,0.10002942777205273,0.30079848631958367,0.027432756140647326,0.0010237963006799744,-0.0004835435497945852,5.2324011444856045e-05,0.0009674562367825348,0.014060612776450898,1.9813622049189903,-52.54006735670364,-17.232660329279458,-1.1354671748666054,0.3290831475222109,0.12276840920741922
0.021678870479148474,-0.49987402064089426,0.6598337407245356,-0.7999991067223391,0.1000314520930521,0.3008271488367351,0.027900950999105837,0.0009867634158455616,-0.0003813073088017825,6.002547231833491e-05,0.0010121604996875882,0.01433125857572553,1.9806995112356993,-52.54307344955161,-17.22893802363286,-1.135064525181936,0.3295783938497126,0.12316671769081333
0.021735608449821853,-0.49987212249662294,0.6598331793371809,-0.7999989697065519,0.1000335677075076,0.30085635455703863,0.028368985336690487,0.0009490721356540852,-0.0002806936773712628,6.850789357242605e-05,0.0010578072277466566,0.014602860151764369,1.9800253052182637,-52.54607631959198,-17.22521823288393,-1.1346617080774997,0.3300734498386486,0.1235649668735971
0.021793282040811504,-0.4998703036138169,0.659832827459358,-0.7999988146929934,0.10003577666186755,0.30088610539012556,0.028836795494824513,0.0009094414030226761,-0.00017593891143770574,7.750677928501758e-05,0.0011044771799778592,0.014875416543465969,1.97933943690723,-52.54907584823213,-17.22150099420236,-1.1342587177904455,0.3305683114325512,0.12396315573497063
0.02185189079843969,-0.49986856786898826,0.6598326933667722,-0.7999986406485955,0.1000380810019618,0.30091640324533386,0.029304378814094482,0.0008678724143218981,-6.704629289548684e-05,8.702219893755291e-05,0.0011521700471240153,0.015148927604143748,1.9786419033430482,-52.55207191557051,-17.21778634239298,-1.133855548188959,0.33106297439829446,0.12436128325564655
0.02191143426371434,-0.4998669191362126,0.6598327853284508,-0.7999984465401512,0.10004048277299277,0.3009472500317032,0.029771732637323495,0.000824366387819648,4.598083927698109e-05,9.705422218276956e-05,0.0012008855154820477,0.015423393184671223,1.9779327016629336,-52.555064401779646,-17.214074312219847,-1.133452193144694,0.33155743450427844,0.12475934841649003
0.021971911972333502,-0.49986536128708525,0.6598331116066289,-0.7999982313343135,0.10004298401952658,0.30097864765797017,0.030238854309582137,0.0007789245636700413,0.0001631390890499172,0.00010760291883965188,0.0012506232669056033,0.015698813133482387,1.9772118291010414,-52.55805318710757,-17.210364938405665,-1.1330486465328842,0.33205168752046205,0.1251573501985339
0.0220333234546899,-0.49986389819067745,0.6598336804566357,-0.7999979939975957,0.1000455867854842,0.3010105980325633,0.030705741178199377,0.0007315482039019662,0.0002844250033757395,0.00011866835888837119,0.0013013829788076896,0.01597518729657209,1.9764792829886373,-52.561038151878954,-17.206658255631307,-1.132644902232416,0.33254572921840336,0.12555528758296888
0.022095668235875447,-0.49986253371349265,0.6598345001267801,-0.7999977334963708,0.10004829311413252,0.30104310306359827,0.03117239059277344,0.0006822385924073994,0.0004098350722234273,0.00013025061246521718,0.001353164324163331,0.01625251551749645,1.9757350607542636,-52.564019176495954,-17.202954298535058,-1.1322409541259506,0.3330395553712908,0.1259531595511496
0.02215894583568581,-0.4998612717194228,0.6598355788582374,-0.7999974487968711,0.10005110504807554,0.301076164658873,0.031638799905182625,0.0006309970349293981,0.000539365728613809,0.00014234974985751465,0.00140596697151224,0.016530797637373227,1.9749791599239055,-52.566996141439546,-17.1992531017121,-1.131836796099982,0.3335331617539809,0.1263509650845955
0.022223155768625005,-0.4998601160697047,0.6598369248849347,-0.7999971388651881,0.10005402462924547,0.30110978472586275,0.03210496646959607,0.000577824859049812,0.0006730133486556717,0.00015496584149853445,0.0014597905849615064,0.016810033494882245,1.9742115781211496,-52.569968927270565,-17.19555469971394,-1.1314324220449918,0.33402654414303473,0.12674870316500284
0.022288297543909975,-0.4998590706228764,0.6598385464334379,-0.7999968026672721,0.10005705389889384,0.30114396517171527,0.03257088764248449,0.0005227234141767223,0.0008107742515827475,0.00016809895796238822,0.0015146348241883033,0.0170902229262658,1.973432313067344,-52.57293741463073,-17.19185912704774,-1.1310278258554742,0.3345196983167501,0.12714637277423202
0.022354370665475236,-0.4998581392347333,0.6598404517228375,-0.7999964391689323,0.10006019489758272,0.3011787079032459,0.03303656078263087,0.00046569407153156876,0.0009526446997915563,0.00018174916995891802,0.0015704993444426094,0.01737136576532907,1.972641362581752,-52.575901484243744,-17.188166418175754,-1.1306230014300853,0.3350126200552007,0.12754397289432332
0.022421374631977516,-0.49985732575828506,0.6598426489646352,-0.7999960473358356,0.10006344966517582,0.3012140148269328,0.033501983251141086,0.00040673822413600844,0.0010986208988801168,0.00019591654832857265,0.0016273837965499502,0.01765346184344055,1.9718387245817033,-52.57886101691633,-17.1844766075147,-1.1302179426717236,0.3355053051402683,0.12794150250749173
0.022489308936800425,-0.49985663404371145,0.6598451463626306,-0.7999956261335075,0.10006682024082965,0.3012498878489118,0.03396715241145452,0.00034585728679848154,0.0012486989976875065,0.00021060116403727572,0.0016852878269141525,0.017936510989532466,1.9710243970827437,-52.5818158935394,-17.180789729435183,-1.1298126434876021,0.3359977493556793,0.12833896059613673
0.022558173068059136,-0.49985606793831927,0.6598479521128072,-0.7999951745273312,0.10007030866298469,0.30128632887497203,0.03443206562935461,0.00028305269610047067,0.0014028750883343006,0.00022580308817128563,0.0017442110775201186,0.01822051303010123,1.9701983781987782,-52.58476599508885,-17.177105818261044,-1.129407097789377,0.3364899484870418,0.1287363461428334
0.022627966739774883,-0.49985562125941846,0.6598510689470204,-0.7999946918775825,0.10007391708995515,0.3013233398097388,0.034896835857873995,0.00022333945039362097,0.0015584171065705537,0.00024132487432587874,0.0018042134852303284,0.01850546738337976,1.9693609616644434,-52.58771138499254,-17.173424886373567,-1.129001291807314,0.3369818958398335,0.12913365812955793
0.022698689556346636,-0.49985529234803366,0.6598545020522707,-0.7999941773660562,0.10007764762487671,0.3013609225578472,0.03536140828587696,0.00016445569239018459,0.001716552625163606,0.0002572557632180082,0.0018652674607791543,0.018791374054202788,1.968512021853411,-52.59065203790757,-17.169746960571732,-1.1285952168734936,0.3374735866309343,0.12953089553958932
0.02277034099010685,-0.49985508504259674,0.6598582596004353,-0.7999936299577044,0.10008150230398732,0.30139907902401597,0.03582571688010689,0.0001036527184595998,0.0018787740823359704,0.0002737041758920348,0.0019273395553029706,0.019078233084381432,1.967651397069467,-52.59358783102248,-17.16607207734373,-1.128188867798109,0.33796501708668253,0.12992805735649712
0.022842920508135755,-0.49985500317849346,0.6598623497551243,-0.7999930486173363,0.10008548316277348,0.3014378111125973,0.036289759014452826,4.093205163301665e-05,0.002045077344451635,0.0002906701840358921,0.0019904293930790083,0.01936604429067327,1.966779085781942,-52.59651864572856,-17.16240027086368,-1.127782238516107,0.33845618300178704,0.13032514256361488
0.022916427572266168,-0.49985505058802016,0.659866780671567,-0.7999924323096175,0.10008959223596144,0.3014771207275721,0.03675353206520683,-2.37047633546714e-05,0.0022154582213934184,0.00030815385943767503,0.002054536593977626,0.019654807487402316,1.965895086559123,-52.59944436350751,-17.158731575255707,-1.127375322967334,0.33894708017300834,0.13072215014447772
0.02299086163908832,-0.4998552311003403,0.6598715604965002,-0.7999917799990696,0.10009383155750837,0.30151700977254503,0.03721703341107435,-9.025616008026108e-05,0.00238991246660856,0.00032615527398043774,0.002119660773465182,0.019944522486459497,1.96499939806838,-52.6023648659322,-17.155066024593193,-1.1269681150965924,0.33943770439919285,0.1311190790828105
0.023066222159954686,-0.4998555485414412,0.6598766973680545,-0.7999910906500702,0.10009820316059358,0.30155748015073963,0.03768026043318452,-0.00015872055044796994,0.0025684357771551484,0.0003446744996369876,0.0021858015426069253,0.02023518909730313,1.964092019076293,-52.605280034667864,-17.15140365289826,-1.126560608853766,0.33992805148130756,0.1315159283625475
0.023142508580984888,-0.49985600673409064,0.6598821994156421,-0.7999903632268534,0.10010270907760972,0.30159853376499357,0.038143210515100424,-0.00022909632470545374,0.002751023793749438,0.00036371160846466923,0.0022529585080698993,0.02052680712695941,1.963172948448773,-52.608189751473155,-17.147744494141108,-1.1261527981939226,0.34041811722247706,0.1319126969678207
0.023219720343070547,-0.49985660949779354,0.6598880747598437,-0.7999895966935081,0.10010735134015397,0.3016401725177536,0.03860588104282932,-0.00030138185146011854,0.0029376721008140317,0.00038326667260014333,0.0023211312721258637,0.02081937638002289,1.9622421851511818,-52.611093898200764,-17.144088582239313,-1.1257446770773551,0.3409078974280141,0.13230938388297042
0.023297856881880213,-0.4998573606487489,0.6598943315122967,-0.7999887900139796,0.10011213197901928,0.3016823983110709,0.039068269404832816,-0.0003755754776957094,0.0031283762265268953,0.0004033397642541575,0.0023903194326542307,0.021112896658656993,1.9612997282484455,-52.613992356798924,-17.14043595105729,-1.125336239469731,0.3413973879054569,0.13270598809254341
0.02337691762786429,-0.4998582639998065,0.6599009777755824,-0.7999879421520681,0.10011705302418557,0.3017252130465961,0.039530372992037016,-0.0004516755287892172,0.00332313164287128,0.000423930955706312,0.002460522583145019,0.02140736776259451,1.9603455769051692,-52.61688500931184,-17.136786634405645,-1.1249274793421595,0.3418865844646045,0.13310250858130218
0.023456902006259973,-0.49985932336042355,0.6599080216431138,-0.7999870520714295,0.10012211650481097,0.30176861862557436,0.039992189197842615,-0.0005296803085280443,0.0035219337656864865,0.000445040319299817,0.002531740312701821,0.021702789489138098,1.9593797303857463,-52.619771737880896,-17.133140666040443,-1.1245183906712755,0.34237548291754893,0.13349894433421647
0.023537809437096244,-0.4998605425366218,0.6599154711990233,-0.7999861187355747,0.10012732444922305,0.3018126169488407,0.04045371541813496,-0.000609588099127487,0.0037247779547194887,0.00046666792743624573,0.002603972206044786,0.02199916163316082,1.9584021880544642,-52.62265242474565,-17.129498079662707,-1.1241089674393583,0.34286407907871164,0.13389529433648145
0.023619639335198832,-0.4998619253309443,0.6599233345180506,-0.7999851411078696,0.10013267888491008,0.3018572099168149,0.04091494905129407,-0.000691397161248489,0.003931659513677439,0.0004888138525702808,0.00267721784351362,0.022296483987106635,1.9574129493756078,-52.62552695224457,-17.12585890891767,-1.123699203634405,0.3433523687648763,0.13429155757349887
0.02370239111019524,-0.49986347554241234,0.6599316196654312,-0.7999841181515351,0.10013818183851222,0.3019023994294969,0.04137588749820464,-0.0007751057340157079,0.0041425736902810295,0.0005114781672044555,0.002751476801070602,0.022594756340990955,1.9564120139135601,-52.62839520281613,-17.12222318739417,-1.123289093250222,0.3438403477952243,0.13468773303090556
0.023786064166519773,-0.4998651969664824,0.6599403346967839,-0.7999830488296473,0.10014383533581284,0.30194818738646173,0.041836528162265935,-0.0008607120350358507,0.004357515676318719,0.0005346609438838902,0.0028267486503036105,0.022893978482401156,1.9553993813329,-52.63125705899956,-17.11859094862403,-1.1228786302865297,0.34432801199136914,0.1350838196945546
0.023870657903418576,-0.49986709339500324,0.6599494876579993,-0.7999819321051369,0.10014964140172969,0.3019945756868547,0.042296868449401746,-0.0009482142604163164,0.00457648060770183,0.0005583622551910217,0.0029030329584291714,0.023194150196497135,1.9543750513984954,-52.63411240343591,-17.114962226081385,-1.122467808749048,0.34481535717739026,0.135479816550526
0.023956171714954715,-0.4998691686161728,0.6599590865851284,-0.7999807669407895,0.10015560206030628,0.30204156622938677,0.04275690576807021,-0.001037610584784129,0.00479946356452051,0.0005825821737403316,0.002980329288295517,0.023495271266011843,1.9533390239755954,-52.63696111886883,-17.11133705318204,-1.1220566226495785,0.345302379179867,0.1358757225851323
0.02404260499001326,-0.49987142641449545,0.6599691395042706,-0.7999795522992451,0.10016171933470305,0.3020891609123293,0.04321663752927367,-0.0011288991613051446,0.005026459571100542,0.0006073207721730665,0.0030586371983856624,0.023797341471251846,1.9522912990299173,-52.639803088145534,-17.107715463282812,-1.1216450660061137,0.3457890738279136,0.1362715367849173
0.024129957112306397,-0.49987387057073884,0.6599796544314628,-0.7999782871429988,0.1001679952471887,0.30213736163350946,0.04367606114656845,-0.0012220781217035833,0.005257463596061054,0.0006325781231519571,0.0031379562428204932,0.02410036059009788,1.951231876627733,-52.64263819421751,-17.104097489680925,-1.1212331328429233,0.3462754369532115,0.13666725813665628
0.024218227460378546,-0.4998765048618914,0.6599906393725675,-0.7999769704344001,0.10017443181913142,0.3021861702903055,0.044135174036074594,-0.0013171455762818177,0.005492470552373061,0.0006583542993559294,0.0032182859713618737,0.02440432839800542,1.9501607569359505,-52.64546632014169,-17.10048316561333,-1.1208208171906398,0.3467614643900477,0.1370628856273672
0.024307415407611516,-0.49987933306111926,0.6600021023231624,-0.7999756011356531,0.10018103107099026,0.30223558877964146,0.04459397361648561,-0.0014140996139404732,0.005731475297418883,0.0006846493734748169,0.0032996259294157644,0.024709244668005236,1.9490779402221932,-52.64828734908095,-17.096872524256014,-1.1204081130863488,0.3472471519753426,0.13745841824430027
0.024397520322229672,-0.49988235893772365,0.6600140512684285,-0.7999741782088168,0.10018779502230633,0.3022856189979829,0.04505245730907811,-0.001512938302198818,0.005974472633052434,0.0007114634182040663,0.003381975658035358,0.02501510917070399,1.9479834268548755,-52.651101164305224,-17.09326559872342,-1.1199950145736917,0.34773249554868896,0.13785385497495484
0.024488541567305115,-0.49988558625709806,0.6600264941830398,-0.7999727006158043,0.10019472569169419,0.30233626284133147,0.04551062253772148,-0.0016136596872154435,0.0062214573056603795,0.0007387965062394403,0.0034653346939242293,0.0253219216742848,1.9468772173032765,-52.6539076491923,-17.089662422067775,-1.1195815157029467,0.3482174909523827,0.1382491948070735
0.02458047850076289,-0.4998890187806857,0.6600394390310522,-0.7999711673183837,0.10020182509683306,0.30238752220522047,0.04596846672888746,-0.0017162617938092423,0.006472424006224139,0.0007666487102717198,0.003549702569439496,0.02562968194450784,1.9457593121376102,-52.656706687228485,-17.086063027278364,-1.1191676105311192,0.3487021340314602,0.1386444367286443
0.02467333047538621,-0.49989266026593665,0.660052893765793,-0.7999695772781777,0.10020909525445826,0.3024393989847099,0.04642598731165971,-0.0018207426254806633,0.006727367370382776,0.0007950201029813988,0.003635078812595,0.025938389744710938,1.9446297120290925,-52.659498162009626,-17.082467447280976,-1.1187532931220416,0.3491864206337275,0.13903957972790854
0.024767096838821695,-0.49989651446626554,0.66006686632975,-0.7999679294566637,0.1002165381803524,0.3024918950743815,0.04688318171774336,-0.0019271001644332666,0.006986281978496728,0.0008239107570333825,0.003721462947064499,0.026248044835810162,1.943488417750005,-52.662281957241866,-17.078875714937183,-1.118338557546458,0.3496703466097982,0.139434622793356
0.024861776933584642,-0.4999005851310087,0.6600813646544614,-0.7999662228151736,0.10022415588933677,0.3025450123683341,0.047340047381474494,-0.0020353323715955897,0.007249162355712432,0.000853320745071679,0.0038088544921848736,0.02655864697630044,1.9423354301737576,-52.6650579567424,-17.075287863043688,-1.1179233978821048,0.35015390781312383,0.1398295649137349
0.0249573700970643,-0.499904876005382,0.6600963966604055,-0.7999644563148942,0.10023195039526268,0.3025987527601786,0.0477965817398296,-0.0021454371866432703,0.007516002972027787,0.0008832501397140907,0.003897252962959348,0.026870195922256177,1.9411707502749451,-52.66782604444029,-17.07170392433168,-1.117507808213828,0.3506371001000307,0.1402244050780515
0.02505387566152917,-0.49990939083043806,0.6601119702568903,-0.7999626289168671,0.1002399237110028,0.30265311814303325,0.04825278223243498,-0.0022574125280214897,0.007786798242358493,0.0009136990135469045,0.003986657870060726,0.027182691427331856,1.9399943791294045,-52.670586104377314,-17.068123931466168,-1.1170917826336488,0.3511199193297513,0.14061914227556993
0.025151292954132324,-0.499914133343024,0.6601280933419434,-0.7999607395819889,0.10024807784844247,0.3027081104095188,0.04870864630157618,-0.002371256292967695,0.008061542526605252,0.0009446674391195785,0.004077068719834641,0.02749613324276268,1.938806317914266,-52.67333802070869,-17.06454791704532,-1.1166753152408575,0.351602361364457,0.14101377549581978
0.025249621296916738,-0.49991910727573907,0.6601447738022029,-0.799958787271011,0.10025641481847108,0.3027637314517535,0.04916417139220731,-0.002486966357534622,0.008340230129721831,0.0009761554889394311,0.004168485014302817,0.0278105211173652,1.937606567908004,-52.67608167770383,-17.060975913599787,-1.1162584001421105,0.3520844220692946,0.1414083037285963
0.02534886000682066,-0.4999243163568923,0.6601620195128065,-0.7999567709445401,0.10026493663097341,0.30281998316134856,0.049619354951960355,-0.002604540576613603,0.00862285530178399,0.001008163235466326,0.00426090625116635,0.028125854797537944,1.9363951304904825,-52.678816959747124,-17.057407953592033,-1.1158410314515128,0.35256609731241695,0.14180272596396185
0.025449008395682968,-0.4999297643104602,0.6601798383372827,-0.7999546895630378,0.10027364529482102,0.30287686742940306,0.05007419443115449,-0.0027239767839581683,0.008909412238059269,0.0010406907511073566,0.004354331923808994,0.02844213402726208,1.935172007143,-52.681543751338786,-17.05384406941574,-1.1154232032907199,0.35304738296501714,0.14219704119224963
0.025550065770248577,-0.4999354548560446,0.6601982381274408,-0.7999525420868214,0.10028254281786363,0.30293438614649926,0.050528687282805296,-0.002845272792207941,0.009199895079077642,0.0010737381082115333,0.004448761521300472,0.02875935854810204,1.93393719944833,-52.68426193709548,-17.050284293394995,-1.1150049097890014,0.3535282749013636,0.142591248404066
0.025652031432173844,-0.49994139170883045,0.6602172267232622,-0.7999503274760633,0.10029163120692043,0.3029925412026977,0.05098283096263401,-0.002968426392912833,0.009494297910703038,0.0011073053790644665,0.00454419452839979,0.029077528099206204,1.9326907090907604,-52.686971401751066,-17.046728657783778,-1.1145861450833754,0.3540087689988291,0.14298534659029427
0.025754904678031997,-0.4999475785795436,0.6602368119527906,-0.7999480446907915,0.10030091246777155,0.3030513344875323,0.051436622929076664,-0.003093435356557511,0.009792614764205704,0.0011413926358830517,0.004640630425558569,0.029396642417307533,1.9314325378561263,-52.68967203015735,-17.043177194765217,-1.114166903318644,0.35448886113792794,0.14337933474209505
0.025858684799318583,-0.49995401917440874,0.6602570016320233,-0.7999456926908899,0.1003103886051494,0.30311076789000574,0.05189006064329328,-0.003220297432586184,0.010094839616335458,0.0011759999508101555,0.0047380686889243965,0.02971670123672426,1.9301626876318454,-52.69236370728496,-17.039629936450936,-1.1137471786475202,0.3549685472023478,0.14377321185091027
0.025963371082456936,-0.4999607171951076,0.660277803564802,-0.799943270436098,0.10032006162273009,0.30317084329858446,0.05234314156917696,-0.0033490103494276512,0.010400966389395775,0.0012111273959093003,0.004836508790344179,0.030037704289360558,1.9288811604069462,-52.69504631822372,-17.036086914880347,-1.1133269652306959,0.35544782307898165,0.14416697690846617
0.02606896280880366,-0.4999676763387366,0.6602992255427047,-0.7999407768860117,0.10032993352312483,0.3032315626011939,0.052795863173362954,-0.003479571814520673,0.010710988951318761,0.0012467750431593512,0.004935950197367519,0.030359651304707216,1.927587958272095,-52.6977197481837,-17.032548162020007,-1.112906257236943,0.3559266846579625,0.14456062890677754
0.026175459254654136,-0.4999749002977653,0.6603212753449362,-0.7999382110000828,0.10034000630787134,0.30329292768521354,0.05324822292523775,-0.0036119795143396143,0.011024901115740962,0.0012829429644492037,0.005036392373250098,0.030682542009842325,1.92628308341962,-52.700383882495814,-17.02901370976302,-1.1124850488432068,0.35640512783269507,0.14495416683814252
0.026282859691248033,-0.4999823927599942,0.6603439607382204,-0.7999355717376196,0.10035028197742525,0.3033549404374724,0.053700218296948064,-0.0037462311144203842,0.011342696642080052,0.0013196312315724723,0.005137834776957079,0.031006376129431978,1.9249665381435335,-52.70303860661229,-17.025483589928182,-1.112063334234665,0.3568831484998897,0.14534758969515654
0.026391163384774853,-0.49999015740851294,0.6603672894766917,-0.7999328580577872,0.10036076253115159,0.3034176027442439,0.054151846763409825,-0.0038823242593866714,0.011664369235612369,0.00135683991622218,0.005240276863166516,0.03133115338573096,1.9236383248395494,-52.70568380610769,-17.021957834259542,-1.1116411076048498,0.3573607425595927,0.14574089647070257
0.026500369596379487,-0.4999981979216589,0.6603912693017867,-0.7999300689196073,0.10037144996731613,0.30348091649124104,0.05460310580231715,-0.004020256572976464,0.01198991254755131,0.001394569089985452,0.0053437180822727805,0.03165687349858347,1.9222984460051007,-52.70831936667932,-17.018436474425503,-1.111218363155722,0.35783790591522374,0.14613408615796653
0.02661047758216779,-0.500006517972975,0.660415907942137,-0.7999272032819585,0.1003823462830769,0.30354488356361187,0.055053992894151235,-0.004160025658068867,0.012319320175126597,0.001432818824338207,0.00544815788039,0.031983536185423794,1.9209469042393503,-52.71094517414812,-17.014919542018298,-1.11079509509774,0.3583146344736038,0.14652715775042832
0.02672148659321217,-0.5000151212311684,0.6604412131134604,-0.7999242601035773,0.10039345347447562,0.30360950584593444,0.05550450552218928,-0.004301629096711221,0.012652585661664389,0.001471589190639856,0.00555359569935551,0.03231114116127707,1.9195837022432036,-52.713561114459075,-17.01140706855327,-1.1103712976499944,0.3587909241449904,0.1469201102418742
0.026833395875557196,-0.5000240113600687,0.6604671925184538,-0.7999212383430571,0.10040477353642908,0.303674785222212,0.055954641172513336,-0.004445064450146489,0.012989702496668249,0.0015108802601279986,0.005660030976733316,0.032639688138759976,1.9182088428193156,-52.716167073682094,-17.00789908546818,-1.1099469650402476,0.35926677084310965,0.1473129426263918
0.026946204670225234,-0.5000331920185863,0.6604938538466856,-0.7999181369588493,0.10041630846272072,0.3037407235758681,0.05640439733401912,-0.0045903292588409545,0.013330664115900975,0.0015506921039131266,0.005767463145817574,0.03296917682808147,1.9168223288720956,-52.71876293801252,-17.004395624122523,-1.1095220915050341,0.3597421704851884,0.1477056538983749
0.027059912213222084,-0.5000426668606713,0.6605212047744885,-0.7999149549092633,0.10042806024599199,0.3038073227897422,0.05685377149842483,-0.0047374210425122016,0.013675463901467295,0.0015910247929733252,0.005875891635636077,0.03329960693704353,1.9154241634077096,-52.721348593771765,-17.00089671579691,-1.1090966712897687,0.3602171189919874,0.14809824305253044
0.027174517735542643,-0.5000524395352717,0.6605492529648523,-0.7999116911524671,0.1004400308777339,0.3038745847460843,0.05730276116027991,-0.004886337300157398,0.014024095181897402,0.0016318783981489821,0.005985315870953759,0.03363097817104189,1.9140143495340816,-52.723923927408045,-16.99740239169232,-1.1086706986488197,0.36069161228783353,0.14849070908387055
0.02729002046317659,-0.5000625136862918,0.6605780060673168,-0.7999083446464867,0.10045222234827846,0.3039425113265504,0.0577513638169738,-0.0050370755100818485,0.01437655123223134,0.0016732529901374975,0.006095735272276212,0.03396329023306678,1.9125928904608878,-52.72648882549692,-16.99391268292948,-1.108244167845581,0.36116564630065096,0.14888305098772997
0.02740641961711408,-0.5000728929525518,0.6606074717178649,-0.7999049143492077,0.10046463664679016,0.3040111044121978,0.05819957696874463,-0.0051896331299278635,0.014732825274104277,0.0017151486394879983,0.006207149255853206,0.03429654282370371,1.9111597894995545,-52.72904317474182,-16.990427620548118,-1.107817073152573,0.36163921696199497,0.14927526775975605
0.027523714413351455,-0.5000835809677452,0.6606376575388166,-0.7999013992183746,0.10047727576125752,0.3040803658834801,0.05864739811868789,-0.0053440075967038985,0.015092910475832583,0.0017575654165960558,0.00631955723368224,0.034630735641134176,1.909715050063247,-52.73158686197487,-16.986947235506356,-1.1073894088515357,0.36211232020708317,0.14966735839591505
0.027641904062896985,-0.5000945813603989,0.6606685711387217,-0.7998977982115911,0.10049014167848454,0.30415029762024237,0.05909482477276511,-0.005500196326813995,0.01545679995250081,0.0018005033916984072,0.006432958613512086,0.034965868381136474,1.908258675666862,-52.73411977415729,-16.983471558680005,-1.1069611692335002,0.3625849519748291,0.15005932189250068
0.02776098777177661,-0.5001058977538311,0.6607002201122538,-0.7998941102863214,0.10050323638408223,0.30422090150171655,0.05954185443981247,-0.005658196716087522,0.015824486766049497,0.0018439626348676823,0.006547352798846355,0.03530194073708645,1.9067906699270112,-52.736641798380106,-16.98000062086187,-1.1065323485988816,0.36305710820787285,0.15045115724612235
0.027880964741039706,-0.5001175337661107,0.6607326120401046,-0.7998903343998894,0.10051656186246012,0.3042921794065165,0.05998848463154936,-0.005818006139809178,0.016195963925363824,0.0018879432160071334,0.006662739188947076,0.03563895239995828,1.9053110365620083,-52.73915282186469,-16.976534452761086,-1.1061029412575796,0.3635287848526125,0.15084286345372772
0.02800183416676488,-0.5001294930100162,0.6607657544888773,-0.7998864695094797,0.1005301200968178,0.3043641332126331,0.06043471286258701,-0.005979621952749311,0.016571224386363125,0.0019324452048453712,0.006779117178838284,0.035976903058325266,1.9038197793918483,-52.74165273196324,-16.97307308500242,-1.1056729415290163,0.36399997785923804,0.15123443951258586
0.028123595240065753,-0.5001417790929946,0.6607996550109815,-0.7998825145721379,0.10054391306913642,0.3044367647974298,0.06088053665043695,-0.006143041489194524,0.016950261052091256,0.001977468670931105,0.006896486159309621,0.03631579239836059,1.902316902338189,-52.744141416159536,-16.969616548125583,-1.1052423437422911,0.3644706831817628,0.15162588442030067
0.02824624714709679,-0.5001543956171206,0.6608343211445271,-0.7998784685447706,0.10055794276017026,0.30451007603763747,0.06132595351551959,-0.006308262062978564,0.017333066772807812,0.0020230136836278862,0.00701484551691995,0.036655620103838146,1.9008024094243254,-52.74661876206937,-16.966164872584635,-1.1048111422362032,0.3649408967780538,0.152017197174816
0.028369789069059136,-0.5001673461790557,0.6608697604132193,-0.7998743303841465,0.10057221114943826,0.30458406880934974,0.06177096098117263,-0.0064752809675134955,0.01771963434608018,0.002069080312108862,0.007134194634000977,0.03699638585613334,1.8992763047751666,-52.7490846574412,-16.96271808874718,-1.1043793313593768,0.36541061460986596,0.15240837677440497
0.028494220182206455,-0.5001806343700073,0.660905980326253,-0.7998700990468958,0.10058672021521559,0.3046587449880182,0.062215556573659576,-0.006644095475821185,0.018109956516876444,0.0021156686253515277,0.00725453288866089,0.03733808933422387,1.8977385926172041,-52.75153899015649,-16.959276226893763,-1.103946905470323,0.36587983264287083,0.1527994222176879
0.02861953965785081,-0.5001942637756884,0.6609429883782083,-0.7998657734895115,0.10060147193452516,0.30473410644844756,0.06265973782217812,-0.006814702840565048,0.01850402597765915,0.0021627786921324917,0.0073758596547880105,0.03768073021469057,1.8961892772784847,-52.75398164823055,-16.955839317217166,-1.1035138589375426,0.3663485468466918,0.1531903325036229
0.028745746662368548,-0.5002082379762766,0.6609807920489452,-0.7998613526683495,0.10061646828312927,0.304810155064791,0.06310350225886856,-0.006987100294082116,0.01890183536847991,0.0022104105810222415,0.007498174302054449,0.03802430817171822,1.894628363188574,-52.75641251981282,-16.952407389821722,-1.1030801861395962,0.3668167531949326,0.153581106631517
0.028872840357206192,-0.5002225605463734,0.6610193988034994,-0.7998568355396287,0.10063171123552112,0.30488689271054514,0.06354684741882215,-0.007161285048415362,0.019303377277074842,0.0022585643603799175,0.007621476195919781,0.03836882287709636,1.8930558548785243,-52.75883149318748,-16.94898047472266,-1.1026458814651943,0.36728444766521023,0.15397174360102422
0.029000819898886372,-0.5002372350549641,0.6610588160919773,-0.799852221059432,0.10064720276491639,0.30496432125854556,0.06398977084008947,-0.007337254295346331,0.019708644238960862,0.0023072400983480948,0.007745764697634727,0.038714274000220116,1.8914717569808328,-52.76123845677404,-16.945558601845388,-1.102210939313292,0.3677516262391865,0.15436224241214697
0.02912968443901375,-0.5002522650653769,0.6610990513494523,-0.7998475081837063,0.10066294484324488,0.30504244258096175,0.06443227006368875,-0.007515005206428065,0.020117628737532832,0.0023564378628475676,0.007871039164244854,0.03906066120809108,1.889876074229405,-52.76363329912777,-16.942141801024857,-1.1017753540931436,0.3682182849025989,0.15475260206524588
0.029259433124280976,-0.500267654135243,0.6611401119958606,-0.7998426958682632,0.10067893944114208,0.3051212585492924,0.06487434263361411,-0.007694534933018301,0.020530323204161514,0.002406157721572146,0.007997298948594276,0.03940798416531813,1.888268811459509,-52.7660159089402,-16.938730102004815,-1.1013391202244154,0.3686844196452935,0.15514282156102754
0.029390065096474665,-0.5002834058164556,0.6611820054358972,-0.7998377830687792,0.10069518852794074,0.3052007710343606,0.06531598609684389,-0.007875840606312974,0.020946720018292415,0.002456399741983455,0.008124543399329377,0.03975624253411824,1.8866499736077327,-52.76838617503967,-16.93532353443718,-1.10090223213727,0.3691500264612533,0.15553289990056635
0.029521579492481364,-0.5002995236551303,0.6612247390589123,-0.7998327687407966,0.10071169407166254,0.30528098190630926,0.06575719800334882,-0.008058919337379991,0.02136681150754544,0.0025071639913057417,0.008252771860902534,0.04010543597431741,1.8850195657119349,-52.77074398639179,-16.93192212788135,-1.1004646842724264,0.36961510134863196,0.15592283608529273
0.029653975444293566,-0.5003160111915647,0.661268320238808,-0.7998276518397235,0.10072845803900969,0.30536189303459593,0.06619797590610033,-0.00824376821719331,0.021790589947815384,0.002558450536520692,0.00838198367357587,0.04045556414335148,1.8833775929111969,-52.77308923209989,-16.928525911803487,-1.1000264710812586,0.3700796403097852,0.1563126291169996
0.029787252079015725,-0.500332871960198,0.6613127563339347,-0.7998224313208347,0.10074548239535654,0.30544350628798844,0.06663831736107863,-0.00843038431666729,0.022218047563373283,0.002610259444362252,0.008512178173424994,0.04080662669626701,1.8817240604457697,-52.77542180140562,-16.925134915575892,-1.0995875870258773,0.37054363935129914,0.15670227799785014
0.029921408518870287,-0.5003501094895715,0.6613580546869886,-0.7998171061392721,0.10076276910474122,0.30552582353455987,0.06707821992728094,-0.008618764686691337,0.022649176526968587,0.0026625907813114602,0.00864335469234277,0.041158623285722146,1.88005897365702,-52.77774158368926,-16.921749168476307,-1.099148026579223,0.3710070944840248,0.15709178173036886
0.030056443881203748,-0.5003677273022878,0.6614042226249085,-0.7998116752500449,0.1007803201298573,0.30560884664168386,0.06751768116672965,-0.008808906358164843,0.023083968959932165,0.002715444613591285,0.008775512558043095,0.04151155356198751,1.8783823379873734,-52.78004846847036,-16.918368699687186,-1.0987077842251178,0.3714700017231064,0.15748113931745722
0.030192357278492708,-0.5003857289149719,0.661451267458773,-0.7998061376080307,0.10079813743204542,0.30569257747602974,0.06795669864448037,-0.009000806342032411,0.023522416932280174,0.0027688210071614722,0.008908651094064676,0.0418654171729471,1.8766941589802573,-52.78234234540803,-16.914993538295086,-1.098266854458387,0.37193235708801337,0.1578703497623874
0.03032914781834997,-0.5004041178382306,0.6614991964836987,-0.7998004921679752,0.10081622297128497,0.30577701790355793,0.06839526992863004,-0.00919446162931934,0.02396451246281873,0.0028227200277134,0.009042769619774833,0.04222021376409915,1.8749944422800382,-52.78462310430146,-16.91162371328993,-1.097825231784906,0.37239415660257186,0.15825941206880728
0.03046681460353062,-0.500422897576613,0.6615480169787372,-0.7997947378844938,0.10083457870618572,0.305862169789515,0.06883339259032505,-0.009389869191167442,0.024410247519249438,0.0028771417406649423,0.009177867450373306,0.042575942978557046,1.8732831936319596,-52.78689063509049,-16.90825925356437,-1.0973829107217203,0.37285539629499387,0.15864832524074712
0.03060535673193816,-0.5004420716285707,0.6615977362067738,-0.7997888737120715,0.1008532065939795,0.30594803499842915,0.0692710642037692,-0.0095870259788711,0.024859614018275716,0.002932086211155342,0.009313943896896071,0.04293260445705024,1.8715604188820767,-52.78914482785576,-16.904900187913103,-1.0969398857970831,0.3733160721979091,0.15903708828261195
0.030744773296630622,-0.5004616434864185,0.6616483614144252,-0.7997828986050635,0.10087210859051195,0.306034615394105,0.0697082823462318,-0.009785928923913646,0.025312603825710014,0.002987553504040092,0.009450998266219174,0.04329019783792513,1.8698261239771885,-52.79138557281955,-16.901546545032172,-1.0964961515505895,0.3737761803483967,0.15942570019919156
0.030885063385826732,-0.5004816166362945,0.6616998998319383,-0.7997768115176956,0.10089128665023407,0.30612191283961926,0.07014504459805558,-0.009986574938004013,0.0257692087565818,0.0030435436838858274,0.009589029861062562,0.043648722757146007,1.8680803149647698,-52.7936127603458,-16.8981983535183,-1.0960517025332004,0.3742357167880126,0.1598141599956675
0.031026226082912063,-0.5005019945581207,0.6617523586730888,-0.7997706114040657,0.10091074272619406,0.3062099291973159,0.07058134854266473,-0.010188960913113658,0.026229420575246413,0.0031000568149652224,0.009728037979993946,0.04400817884829598,1.8663229979928975,-52.79582628094078,-16.894855641868194,-1.0956065333073772,0.3746946775628234,0.16020246667760196
0.03116826046644521,-0.5005227807255638,0.6618057451350797,-0.7997642972181432,0.10093047877002892,0.30629866632880104,0.07101719176657284,-0.010393083721513789,0.026693230995494727,0.003157092961251903,0.009868021917432652,0.044368565742577866,1.8645541793101783,-52.7980260252534,-16.891518438477892,-1.0951606384471169,0.37515305872343535,0.16059061925095885
0.03131116561016399,-0.5005439786059954,0.6618600663984411,-0.7997578679137705,0.10095049673195623,0.30638812609493865,0.07145257185939077,-0.010598940215812872,0.02716063168066365,0.0032146521864153637,0.0100089809636535,0.04472988306881516,1.8627738652656731,-52.80021188407575,-16.888186771642157,-1.0947140125380828,0.37561085632502467,0.16097861672208105
0.03145494058299166,-0.5005655916604534,0.6619153296269286,-0.7997513224446628,0.10097079856076581,0.30647831035584555,0.07188748641383463,-0.010806527228994414,0.027631614243747455,0.0032727345538158988,0.010150914404790682,0.045092130453452964,1.8609820623088185,-52.802383748343296,-16.884860669553607,-1.0942666501776324,0.3760680664273685,0.16136645809772193
0.03159958444904313,-0.5005876233436024,0.6619715419674236,-0.7997446597644099,0.1009913862038115,0.3065692209708867,0.07232193302573363,-0.011015841574455038,0.028106170247509905,0.00333134012649954,0.010293821522841657,0.04545530752055894,1.8591787769893473,-52.80454150913549,-16.88154016030223,-1.0938185459749405,0.3765246850948741,0.161754142385026
0.0317450962676312,-0.5006100771036945,0.6620287105498328,-0.7997378788264755,0.10101226160700284,0.3066608597986703,0.07275590929403788,-0.011226880046042843,0.028584291204597243,0.003390468967193006,0.010437701595671057,0.045819413891824236,1.857364015957207,-52.80668505767606,-16.878225271874648,-1.0933696945510611,0.3769807083966109,0.16214166859154128
0.03189147509327286,-0.5006329563825307,0.6620868424869881,-0.799730978584199,0.10103342671479687,0.3067532286970434,0.07318941282082635,-0.011439639418096038,0.02906596857765197,0.003450121138298663,0.010582553897014594,0.04618444918656448,1.8555377859624755,-52.808814285333405,-16.87491603215342,-1.0929200905390084,0.3774361324063386,0.16252903572522004
0.03203871997569548,-0.5006562646154217,0.662145944874547,-0.7997239579907952,0.10105488347018983,0.3068463295230869,0.07362244121131455,-0.011654116445481873,0.02955119377942746,0.003510296701889494,0.010728377696482992,0.04655041302172073,1.8537000938552755,-52.81092908362089,-16.87161246891639,-1.0924697285838345,0.377890953202539,0.1629162427944174
0.032186829959843205,-0.500680005231149,0.6622060247908929,-0.7997168159993558,0.10107663381470897,0.3069401641331106,0.07405499207386243,-0.011870307863635826,0.030039958172903395,0.003570995719704082,0.010875172259565916,0.04691730501186043,1.8518509465856872,-52.81302934419746,-16.868314609836002,-1.0920186033427126,0.3783451668684449,0.1633032888079036
0.03233580408588317,-0.5007041816519262,0.6622670892970357,-0.7997095515628495,0.10109867968840423,0.30703473438264894,0.07448706301998212,-0.012088210388601119,0.03053225307140202,0.0036322182531415993,0.011022936847635922,0.047285124769178406,1.8499903512036586,-52.815114958867724,-16.865022482478672,-1.0915667094850512,0.3787987694920704,0.16369017277485315
0.03248564138921186,-0.5007287972933604,0.6623291454365131,-0.7997021636341229,0.10112102302984013,0.30713004212645595,0.07491865166434562,-0.012307820717068452,0.03102806973870518,0.003693964363256813,0.011171670717952407,0.047653871903497846,1.848118314858913,-52.81718581958258,-16.861736114304044,-1.0911140416924892,0.3792517571662406,0.16407689370486211
0.03263634090046145,-0.5007538555644132,0.6623922002352914,-0.7996946511659014,0.10114366577608747,0.3072260892185005,0.07534975562479264,-0.012529135526416083,0.031527399389172234,0.0037562341107550993,0.011321373123665575,0.04802354602227127,1.8462348448008576,-52.81924181843938,-16.858455532664433,-1.090660594659065,0.37970412598862335,0.16446345060793782
0.03278790164550612,-0.5007793598673627,0.6624562607016672,-0.7996870131107895,0.10116660986271511,0.30732287751196163,0.07578037252233819,-0.012752151474750142,0.032030233187858734,0.003819027555987467,0.011472043313820414,0.048394146730581546,1.8443399483784855,-52.821282847682326,-16.855180764804025,-1.0902063630912366,0.38015587206175494,0.16484984249450962
0.032940322645468485,-0.5008053135977646,0.6625213338261685,-0.7996792484212716,0.10118985722378183,0.3074204088592239,0.07621049998118036,-0.012976865200945245,0.03253656225063593,0.003882344758945599,0.011623680533360678,0.04876567363114288,1.8424336330402822,-52.82330879970285,-16.851911837858275,-1.0897513417079963,0.38060699149307414,0.16523606837542543
0.0330936029167259,-0.5008317201444139,0.6625874265814571,-0.7996713560497131,0.1012134097918281,0.30751868511187247,0.07664013562870796,-0.013203273324685403,0.033046377644311085,0.003946185779256897,0.011776284023132886,0.04913812632430184,1.8405159063341232,-52.82531956704015,-16.848648778853335,-1.0892955252409333,0.3810574803949494,0.16562212726195857
0.03324774147091692,-0.500858582889307,0.6626545459222306,-0.7996633349483607,0.10123726949786788,0.30761770812068856,0.07706927709550813,-0.013431372446505163,0.033559670386748626,0.004010550676179549,0.011929853019890326,0.049511504408038316,1.8385867759071755,-52.8273150423811,-16.845391614705196,-1.0888389084343073,0.3815073348847082,0.16600801816580946
0.03340273731494767,-0.5008859052076026,0.6627226987851246,-0.7996551840693435,0.10126143827138047,0.3077174797356445,0.07749792201537403,-0.013661159147831092,0.034076431446992045,0.004075439508597595,0.012084386756297067,0.04988580747796661,1.8366462495057947,-52.82929511856093,-16.842140372219166,-1.0883814860451435,0.3819565510846688,0.16639374009910987
0.033558589450998294,-0.5009136904675846,0.6627918920886153,-0.7996469023646735,0.10128591804030233,0.3078180018058992,0.07792606802531239,-0.013892629991023482,0.03459665174538667,0.004140852335016019,0.012239884460931988,0.0502610351273364,1.8346943349754206,-52.831259688563364,-16.838895078089184,-1.0879232528432978,0.38240512512216757,0.16677929207441847
0.033715296876529396,-0.5009419420306235,0.6628621327329227,-0.7996384887862464,0.10131071073101892,0.30791927617979326,0.07835371276555116,-0.01412578151941837,0.03512032215370319,0.004206789213555843,0.012396345358292806,0.05063718694703381,1.832731040260471,-52.83320864552116,-16.835655758897122,-1.0874642036115445,0.38285305312958917,0.1671646731047312
0.03387285858428849,-0.5009706632511383,0.6629334275999132,-0.7996299422858425,0.10133581826835653,0.3080213047048444,0.07878085387954699,-0.014360610257369833,0.03564743349526204,0.004273250201949241,0.01255376866880013,0.05101426252558242,1.830756373404235,-52.835141882716144,-16.832422441112133,-1.0870043331456276,0.38330033124439555,0.16754988220348477
0.03403127356231648,-0.5009998574765588,0.6630057835530033,-0.7996212618151274,0.10136124257557413,0.3081240892277427,0.07920748901399287,-0.014597112710292537,0.03617797654505851,0.004340235357534661,0.012712153608801503,0.05139226144914433,1.8287703425487627,-52.837059293579856,-16.829195151090087,-1.0865436362543859,0.38374695560915617,0.16793491838454186
0.03419054079395413,-0.5010295280472883,0.6630792074370631,-0.7996124463256529,0.10138698557435528,0.30822763159434574,0.0796336158188256,-0.014835285364704591,0.036711942029888735,0.004407744737251958,0.012871499390575476,0.05177118330152118,1.8267729559347547,-52.83896077169345,-16.82597391507275,-1.086082107759805,0.3841929223715761,0.16831978066222247
0.034350659257848595,-0.5010596782966649,0.66315370607832,-0.7996034947688576,0.10141304918479996,0.30833193364967404,0.08005923194723333,-0.01507512468827066,0.037249320628476426,0.004475778397637549,0.013031805222335676,0.05215102766415523,1.82476422190145,-52.84084621078844,-16.822758759187273,-1.0856197424970748,0.38463822768452616,0.16870446805128125
0.03451162792795992,-0.5010903115509245,0.6632292862842633,-0.799594406096068,0.10143943532541642,0.3084369972379063,0.08048433505566303,-0.01531662712984536,0.037790102971600445,0.004544336394819571,0.01319307030823489,0.05253179411613042,1.8227441488865108,-52.84271550474658,-16.819549709445436,-1.0851565353146932,0.3850828677060711,0.16908897956692398
0.034673445773567575,-0.5011214311291635,0.6633059548435477,-0.799585179258499,0.10146614591311316,0.30854282420237467,0.080908922803828,-0.015559789119516935,0.03833427964222313,0.004613418784513058,0.013355293848369153,0.0529134822341734,1.8207127454259073,-52.844568547600595,-16.816346791743083,-1.0846924810745535,0.3855268385994979,0.1694733142248024
0.034836111759277005,-0.5011530403433008,0.663383718525899,-0.799575813207255,0.10149318286319073,0.30864941638556,0.08133299285471528,-0.0158046070686512,0.038881841175619436,0.0046830256220151325,0.013518475038781858,0.05329609159265465,1.8186700201538002,-52.846405233534014,-16.8131500318594,-1.084227574651978,0.38597013653334766,0.16985747104102544
0.034999624845026195,-0.5011851424980407,0.663462584082018,-0.7995663068933306,0.10152054808933367,0.30875677562908715,0.0817565428745931,-0.01605107736993577,0.0394327780595069,0.004753156962200204,0.01368261307146786,0.05367962176358953,1.8166159818024221,-52.848225456881856,-16.809959455456312,-1.0837618109358471,0.38641275768144123,0.17024144903214933
0.03516398398609223,-0.5012177408908356,0.6635425582434863,-0.7995566592676117,0.10154824350360242,0.30886490377372045,0.08217957053301832,-0.016299196397424543,0.03998708073417633,0.004823812859515189,0.0138477071343776,0.05406407231663936,1.8145506392019561,-52.850029112130606,-16.806775088077796,-1.0832951848286276,0.3868546982229111,0.17062524721519384
0.03532918813309792,-0.5012508388118487,0.6636236477226716,-0.7995468692808757,0.10157627101642526,0.30897380265935864,0.08260207350284382,-0.016548960506582475,0.040544739592623336,0.004894993367974741,0.014013756411421231,0.05444944281911252,1.8124740012804148,-52.85181609391881,-16.803596955149292,-1.0828276912464925,0.38729595434222663,0.17100886460763337
0.03549523623201837,-0.5012844395439174,0.6637058592126329,-0.7995369358837934,0.1016046325365902,0.30908347412503057,0.08302404946022586,-0.016800366034330633,0.04110574498068063,0.004966698541156494,0.01418076008247276,0.05483573283596556,1.8103860770635167,-52.85358629703694,-16.80042508197702,-1.0823593251193486,0.3877365222292252,0.1713923002274038
0.035662127224187636,-0.5013185463625156,0.6637891993870272,-0.799526858026929,0.10163332997123695,0.3091939200088902,0.08344549608463148,-0.01705340929909151,0.041670087197151116,0.005038928432196322,0.0143487173233742,0.055222941929804266,1.8082868756745607,-52.855339616428054,-16.797259493747312,-1.0818900813909669,0.3881763980791417,0.17177555309291437
0.035829860046305326,-0.5013531625357173,0.663873674900015,-0.7995166346607414,0.10166236522584883,0.3093051421482119,0.08386641105884582,-0.017308086600834605,0.042237756493941785,0.00511168309378361,0.014517627305939718,0.0556110696608848,1.8061764063343002,-52.85707594718782,-16.794100215526033,-1.0814199550190178,0.3886155780926338,0.1721586222230289
0.035998433630443284,-0.5013882913241595,0.6639592923861675,-0.7995062647355851,0.10169174020424475,0.30941714237938617,0.08428679206897947,-0.017564394221122288,0.042808743076198315,0.0051849625781565465,0.01468748919795981,0.056000115587114783,1.8040546783608156,-52.85879518456493,-16.790947272257885,-1.0809489409751538,0.3890540584758131,0.17254150663708645
0.03616784690405223,-0.5014239359810059,0.6640460584603723,-0.7994957472017109,0.10172145680857116,0.3095299225379143,0.08470663680447577,-0.017822328423155936,0.04338303710244057,0.005258766937097419,0.014858302163205472,0.056390079264054455,1.8019217011693844,-52.8604972239612,-16.78780068876583,-1.0804770342451084,0.3894918354402729,0.17292420535489855
0.03633809878996847,-0.5014600997519095,0.6641339797177418,-0.7994850810092671,0.10175151693929402,0.3096434844584041,0.0851259429581181,-0.018081885451822335,0.043960628684698765,0.005333096221927938,0.015030065361432388,0.05678096024491776,1.7997774842723517,-52.862181960931885,-16.784660489750372,-1.0800042298287396,0.3899289052031171,0.17330671739675169
0.036509188206420545,-0.501496785874977,0.664223062733519,-0.7994742651083001,0.10178192249519079,0.30975782997456525,0.08554470822603719,-0.018343061533740372,0.04454150788865051,0.005407950483504558,0.015202777948385123,0.057172758080573496,1.797622037278997,-52.86384929118609,-16.781526699789037,-1.0795305227401262,0.39036526398698684,0.17368904178340802
0.03668111406703598,-0.5015339975807317,0.6643133140629865,-0.7994632984487556,0.10181267537334239,0.30987296091920435,0.08596293030771836,-0.01860585287730794,0.04512566473375853,0.0054833297722138375,0.015376439075801326,0.05756547231954645,1.7954553698954023,-52.86549911058671,-16.778399343335618,-1.0790559080076356,0.3908009080200907,0.17407117753610665
0.036853875280848,-0.5015717380920772,0.6644047402413734,-0.7994521799804797,0.10184377746912522,0.3099888791242204,0.08638060690600875,-0.018870255672749192,0.04571308919340925,0.005559234137967789,0.015551047891415938,0.05795910250801854,1.7932774919243164,-52.86713131515099,-16.77527844471964,-1.078580380673996,0.3912358335362321,0.1744531236765722
0.03702747075230225,-0.5016100106242616,0.6644973477837636,-0.7994409086532193,0.10187523067620315,0.31010558642060004,0.0867977357271246,-0.019136266092162003,0.046303771195052086,0.0056356636301992625,0.015726603538965423,0.05835364818982997,1.7910884132650207,-52.86874580105042,-16.772164028145685,-1.0781039357963635,0.3916700367748365,0.1748348792270143
0.037201899381263566,-0.5016488183848408,0.6645911431850042,-0.7994294834166236,0.10190703688651953,0.310223084638413,0.0872143144806584,-0.019403880289565724,0.04689770062033952,0.005712618297857336,0.015903105158191985,0.05874910890648037,1.7888881439131896,-52.87034246461141,-16.76905611769279,-1.0776265684464263,0.392103513980982,0.1752164432101252
0.03737716006302274,-0.5016881645736426,0.6646861329196148,-0.7994179032202448,0.10193919799028922,0.3103413756068073,0.08763034087958615,-0.019673094400949203,0.047494867305267995,0.0057900981894027205,0.01608055188484782,0.05914548419712996,1.7866766939607552,-52.87192120231506,-16.765954737313812,-1.0771482737104503,0.39253626140542464,0.1755978146490907
0.037553251688303285,-0.5017280523827312,0.6647823234416954,-0.7994061670135392,0.10197171587599062,0.3104604611540045,0.08804581264027452,-0.01994390454431907,0.048095261040319484,0.005868103352803187,0.016258942850699346,0.059542773598600746,1.784454073595766,-52.873481910797686,-16.76285991083477,-1.0766690466893558,0.39296827530462747,0.17597899256758504
0.037730173143268264,-0.5017684849963707,0.6648797211848366,-0.7993942737458681,0.10200459243035769,0.31058034310729526,0.08846072748248794,-0.020216306819748293,0.048698871570603916,0.005946633835529003,0.016438277183531486,0.05994097664537763,1.7822202931022455,-52.875024486850975,-16.759771661954336,-1.0761888824987964,0.39339955194078874,0.1763599759897837
0.03790792330952705,-0.5018094655909896,0.6649783325620287,-0.799382222366499,0.10203782953837198,0.3107010232930345,0.0888750831293959,-0.020490297309424987,0.0493056885960023,0.006025689684548389,0.016618554007151905,0.060340092869609674,1.7799753628600528,-52.87654882742222,-16.756690014243116,-1.0757077762692486,0.3938300875818703,0.1767407639403482
0.038086501064142214,-0.501850997335145,0.6650781639655713,-0.7993700118246064,0.10207142908325477,0.3108225035366367,0.08928887730757998,-0.02076587207770151,0.049915701771310654,0.0061052709463229856,0.0167997724413953,0.06074012180111119,1.777719293344737,-52.878054829614356,-16.75361499114302,-1.0752257231460398,0.3942598785016227,0.17712135544444924
0.038265905279636296,-0.5018930833894873,0.6651792217669841,-0.7993576410692729,0.10210539294645903,0.31094478566257144,0.08970210774704097,-0.0210430271711438,0.050528900706384626,0.006185377666803342,0.016981931602127683,0.06114106296736301,1.775452095127395,-52.879542390686524,-16.750546615966787,-1.0747427182894738,0.3946889209796165,0.17750174952775294
0.03844613482399871,-0.5019357269067245,0.6652815123169167,-0.7993451090494901,0.10213972300766153,0.3110678714943585,0.09011477218120602,-0.021321758618581,0.05114527496628498,0.006266009891424422,0.01716503060125066,0.061542915893513635,1.7731737788745254,-52.88101140805401,-16.747484911897235,-1.0742587568748814,0.3951172113012661,0.177881945216438
0.03862718856069258,-0.5019789310315869,0.6653850419450595,-0.7993324147141598,0.10217442114475493,0.31119176285456324,0.0905268683469357,-0.02160206243115532,0.05176481407142373,0.006347167665101114,0.017349068546705752,0.06194568010238045,1.7708843553478817,-52.88246177928847,-16.7444299019867,-1.073773834092673,0.39554474575786225,0.17826194153717806
0.038809065348661645,-0.5020226989007917,0.6654898169600549,-0.7993195570120953,0.10220948923383989,0.31131646156479215,0.09093839398453107,-0.021883934602372195,0.052387507497711074,0.006428851032223777,0.01753404454247868,0.06234935511445094,1.7685838354043248,-52.883893402118304,-16.74138160915645,-1.0732879451484552,0.395971520646594,0.17864173751716567
0.038991764042337125,-0.502067033643008,0.6655958436494084,-0.7993065348920221,0.1022449291492171,0.3114419694456879,0.09134934683774079,-0.022167371108150667,0.053013344676703114,0.006511060036653783,0.017719957688603696,0.06275394044788388,1.7662722299956772,-52.88530617442871,-16.73834005619608,-1.072801085263053,0.3963975322705803,0.17902133218410052
0.03917528349164466,-0.5021119383788217,0.6657031282793999,-0.7992933473025786,0.10228074276337944,0.31156828831692496,0.09175972465376807,-0.02245236790687406,0.053642314995750236,0.0065937947217190925,0.01790680708116791,0.06315943561851059,1.7639495501685694,-52.886699994262,-16.735305265762904,-1.0723132496726244,0.3968227769388948,0.17940072456620118
0.03935962254201122,-0.5021574162207006,0.6658116770949962,-0.7992799931923182,0.10231693194700407,0.3116954199972046,0.0921695251832778,-0.022738920939440906,0.05427440779814631,0.006677055130209833,0.018094591812315618,0.06356584013983614,1.7616158070642924,-52.88807475981757,-16.73227726038133,-1.0718244336287122,0.39724725096659635,0.1797799136921966
0.03954478003437203,-0.5022034702729593,0.6659214963197628,-0.7992664715097095,0.10235349856894457,0.3118233663042507,0.09257874618040349,-0.023027026129316126,0.05490961238327862,0.006760841304373904,0.01828331097025265,0.06397315352304056,1.7592710119186457,-52.889430369452384,-16.72925606244231,-1.0713346323983113,0.3976709506747519,0.1801588985913422
0.039730754805177536,-0.5022501036317245,0.6660325921557764,-0.7992527812031377,0.10239044449622307,0.3119521290548047,0.09298738540275432,-0.023316679382582473,0.05554791800677852,0.0068451532859125945,0.018472963639250717,0.06438137527698012,1.7569151760617847,-52.890766721681,-16.726241694202763,-1.0708438412639503,0.3980938723904675,0.18053767829341022
0.03991754568640038,-0.5022973193849005,0.6661449707835377,-0.7992389212209058,0.10242777159402237,0.31208171006462104,0.09339544061142212,-0.023607876587992245,0.05618931388067284,0.006929991115976219,0.018663548899651775,0.06479050490818855,1.7545483109180664,-52.892083715175886,-16.723234177784875,-1.0703520555237724,0.39851601244691326,0.18091625182869672
0.04010515150554236,-0.5023451206121345,0.6662586383618848,-0.7992248905112355,0.10246548172567811,0.3122121111484628,0.0938029095709883,-0.02390061361701924,0.05683378917353603,0.007015354835159768,0.01885506582787239,0.06520054192087828,1.7521704280058972,-52.89338124876731,-16.72023353517566,-1.0698592704915708,0.39893736718335243,0.1812946182280265
0.04029357108564142,-0.5023935103847824,0.6663736010279061,-0.7992106880222685,0.10250357675267092,0.3123433341200967,0.09420979004953088,-0.024194886323910977,0.05748133301064304,0.007101244483498579,0.019047513496408118,0.0656114858169417,1.7497815389375764,-52.894659221443995,-16.717239788226305,-1.0693654814969022,0.3993579329451656,0.18167277652275607
0.040482803245278684,-0.5024424917658739,0.6664898648968544,-0.7991963127020676,0.1025420585346186,0.3124753807922886,0.09461607981863136,-0.02449069054574118,0.05813193447412293,0.007187660100464022,0.019240890973837885,0.06602333609595247,1.747381655419141,-52.895917532352826,-16.714252958651535,-1.068870683885128,0.39977770608388097,0.1820507257447675
0.040672846798585446,-0.5024920678100788,0.6666074360620606,-0.7991817634986177,0.10258092892926826,0.31260825297679895,0.09502177665338173,-0.024788022102462507,0.05878558260311323,0.007274601724959203,0.019435197324828388,0.0664360922551667,1.7449707892502078,-52.897156080799405,-16.711273068029183,-1.0683748730175096,0.4001966829571976,0.18242846492648124
0.04086370055525023,-0.5025422415636728,0.6667263205948485,-0.799167039359827,0.10262018979248853,0.31274195248437797,0.09542687833239129,-0.025086876796959538,0.05944226639391499,0.007362069395314687,0.01963043161013849,0.06684975378952426,1.7425489523238173,-52.898374766248,-16.708300137799434,-1.0678780442712454,0.400614859929017,0.18280599310085688
0.04105536332052582,-0.502593016064503,0.6668465245444488,-0.7991521392335285,0.10265984297826178,0.3128764811247613,0.09583138263779366,-0.025387250415102033,0.06010197480014863,0.007450063149284233,0.019826592886623633,0.06726432019165011,1.7401161566262742,-52.89957348832179,-16.705334189264406,-1.0673801930395699,0.4010322333694643,0.1831833093013852
0.04124783389523633,-0.5026443943419546,0.6669680539379146,-0.7991370620674804,0.10269989033867626,0.313011840706665,0.0962352873552536,-0.025689138725798415,0.06076469673291041,0.007538583024040554,0.020023680207240258,0.06767979095185549,1.7376724142369886,-52.900752146803114,-16.702375243587475,-1.0668813147318077,0.40144879965491953,0.1835604125621047
0.04144111107578428,-0.5026963794169167,0.6670909147800365,-0.7991218068093681,0.10274033372391836,0.31314803303778127,0.09663859027397391,-0.025992537481049537,0.06143042106092973,0.007627629056171089,0.02022169262105023,0.06809616555813927,1.7352177373283164,-52.901910641633485,-16.69942332179279,-1.0663814047734566,0.4018645551680428,0.18393730191759666
0.04163519365415768,-0.5027489743017487,0.6672151130532579,-0.7991063724068047,0.10278117498226481,0.3132850599247736,0.0970412891867023,-0.026297442416002684,0.06209913661072708,0.007717201281673792,0.02042062917322528,0.06851344349618925,1.7327521381653974,-52.90304887291394,-16.69647844476468,-1.065880458606263,0.4022794962977993,0.1843139764029878
0.041830080417937156,-0.5028021820002467,0.6673406547175914,-0.7990907578073329,0.10282241596007492,0.3134229231732724,0.09744338188973822,-0.026603849249005832,0.06277083216677273,0.0078072997359529455,0.020620488905051432,0.06893162424938341,1.7302756291059957,-52.90416674090504,-16.69354063324702,-1.065378471688237,0.40269361943948945,0.18469043505395677
0.04202577015030304,-0.50285600550761,0.6674675457105347,-0.7990749619584252,0.10286405850178279,0.31356162458787,0.09784486618293974,-0.02691175368166216,0.06344549647164617,0.007897924453814984,0.020821270853933472,0.0693507072987913,1.7277882226003363,-52.90526414602725,-16.69060990784282,-1.0648754394938165,0.4031069209947713,0.185066676906728
0.0422222616300425,-0.5029104478104077,0.667595791946987,-0.7990589838074863,0.10290610444988958,0.3137011659721164,0.09824573986973031,-0.027221151398884813,0.06412311822619618,0.00798907546946434,0.021022974053399392,0.06977069212317526,1.7252899311909426,-52.90634098886081,-16.68768628901354,-1.0643713575138356,0.4035193973716898,0.18544270099808383
0.042419553631556715,-0.5029655118865456,0.6677253993191664,-0.7990428223018533,0.1029485556449558,0.31384154912851436,0.09864600075710564,-0.02753203806895191,0.06480368608970172,0.008080752816499307,0.02122559753310488,0.0701915781989918,1.7227807675124738,-52.90739717014621,-16.684769797078634,-1.0638662212556615,0.40393104498470245,0.18581850636536518
0.042617644924868,-0.5030212007052327,0.6678563736965265,-0.7990264763887975,0.10299141392559347,0.31398277585851514,0.09904564665564046,-0.027844409343561805,0.06548718868003343,0.008172956527907917,0.021429140318837768,0.0706133650003929,1.7202607442915592,-52.908432590784166,-16.681860452214924,-1.0633600262432505,0.4043418602547053,0.18619409204646678
0.04281653427562699,-0.5030775172269485,0.6679887209256742,-0.7990099450155254,0.10303468112845851,0.3141248479625136,0.0994446753794953,-0.028158260857888605,0.06617361457381593,0.008265686636063845,0.021633601432522548,0.07103605199922738,1.7177298743466363,-52.909447151835764,-16.678958274456104,-1.0628527680171898,0.40475183960905964,0.18656945707984718
0.04301622044511984,-0.5031344644034098,0.6681224468302873,-0.7989932271291799,0.10307835908824296,0.3142677672398437,0.09984308474642332,-0.028473588230637926,0.06686295230659071,0.008358943172722323,0.021838979892224834,0.07145963866504217,1.7151881705877827,-52.91044075452277,-16.6760632836922,-1.0623444421348032,0.4051609794816179,0.18694460050452805
0.04321670219027539,-0.503192045177538,0.6682575572110333,-0.7989763216768418,0.10312244963766727,0.3144115354887738,0.10024087257777699,-0.02879038706410289,0.06755519037297986,0.008452726169016073,0.02204527471215588,0.07188412446508369,1.7126356460165515,-52.91141330022765,-16.67317549966903,-1.0618350441701776,0.40556927631274853,0.18731952136009822
0.04341797826367242,-0.5032502624834264,0.668394057845487,-0.798959227605531,0.10316695460747262,0.31455615450650243,0.1006380366985149,-0.029108652944220388,0.06825031722685038,0.008547035655451262,0.02225248490267709,0.07230950886429921,1.7100723137258058,-52.91236469049383,-16.670294941987635,-1.0613245697142806,0.40597672654936606,0.1876942186867148
0.04362004741354684,-0.5033091192463077,0.6685319544880499,-0.7989419438622072,0.10321187582641322,0.3147016260891531,0.1010345749372085,-0.029428381440627573,0.06894832128147925,0.008641871661903477,0.022460609470304524,0.07273579132533818,1.7074981868995507,-52.91329482702569,-16.66742163010379,-1.0608130143749699,0.40638332664495225,0.18806869152510292
0.04382290838379894,-0.5033686183825211,0.6686712528698694,-0.7989244693937719,0.10325721512124865,0.3148479520317702,0.10143048512604877,-0.029749568106718603,0.0696491909097192,0.00873723421761371,0.022669647417713438,0.0731629713085536,1.7049132788127663,-52.91420361168898,-16.664555583327456,-1.0603003737771155,0.40678907305958556,0.18844293891656613
0.044026559914000646,-0.5034287627994806,0.6688119586987578,-0.7989068031470695,0.10330297431673613,0.3149951341283142,0.10182576510085299,-0.030072208479701622,0.07035291444416514,0.008833123351184368,0.0228795977437428,0.07359104827200341,1.7023176028312406,-52.9150909465108,-16.66169682082228,-1.0597866435626373,0.4071939622599647,0.18881695990298242
0.04423100073940279,-0.5034895553956419,0.6689540776591124,-0.7988889440688883,0.10334915523562292,0.3151431741716571,0.10222041270107142,-0.030396298080656,0.07105948017732129,0.008929539090575303,0.02309045944339985,0.07402002167145179,1.6997111724113994,-52.91595673367962,-16.65884536160506,-1.0592718193905786,0.40759799071943725,0.18919075352680723
0.04443622959094238,-0.5035509990604711,0.669097615411836,-0.7988708911059621,0.10339575969863865,0.31529207395357783,0.10261442576979397,-0.03072183241458981,0.07176887636176904,0.009026481463099853,0.02330223150786462,0.07444989096037061,1.6970940011001399,-52.91680087554583,-16.656001224545207,-1.0587558969371609,0.40800115491802225,0.18956431883107622
0.04464224519524989,-0.5036130966744121,0.6692425775942566,-0.7988526432049713,0.10344278952448764,0.3154418352647577,0.10300780215375692,-0.031048806970497524,0.07248109121033541,0.00912395049542091,0.02351491292449454,0.07488065558994078,1.6944661025346597,-52.91762327462151,-16.653164428364263,-1.0582388718958822,0.40840345134243894,0.1899376548594091
0.044849046274656586,-0.5036758511088549,0.6693889698200491,-0.7988341993125442,0.1034902465298413,0.3155924598947758,0.10340053970334953,-0.03137721722141799,0.0731961128962623,0.009221946213547,0.023728502676828946,0.07531231500905364,1.6918274904422879,-52.918423833580746,-16.6503349916354,-1.0577207399775557,0.4088048764861294,0.19031076065601493
0.045056631547201825,-0.5037392652261039,0.6695367976791559,-0.7988155583752585,0.10353813252933049,0.31574394963210445,0.10379263627262074,-0.03170705862449259,0.07391392955337628,0.009320468642828386,0.023942999744593695,0.07574486866431236,1.6891781786403155,-52.91920245525983,-16.647512932782895,-1.057201496910375,0.40920542684928674,0.1906836352656845
0.045264999726640394,-0.503803341879346,0.6696860667377084,-0.7987967193396426,0.1035864493355379,0.31589630626410453,0.1041840897192858,-0.03203832662102375,0.07463452927625924,0.009419517807953188,0.024158403103705733,0.07617831600003336,1.6865181810358245,-52.919959042657226,-16.6446982700816,-1.0566811384399912,0.4096050989388803,0.19105627773380446
0.04547414952244986,-0.5038680839126191,0.6698367825379492,-0.7987776811521767,0.10363519875899045,0.31604953157702104,0.10457489790473289,-0.03237101663653353,0.07535790012041957,0.00951909373294352,0.024374711726277684,0.07661265645824765,1.6838475116255176,-52.92069349893398,-16.641891021656505,-1.0561596603295977,0.41000388926868014,0.1914286871063518
0.04568407963983792,-0.5039334941607807,0.6699889505981541,-0.7987584427592944,0.1036843826081517,0.31620362735597846,0.10496505869402974,-0.03270512408082258,0.07608403010246405,0.009619196441151648,0.024591924580622444,0.07704788947870232,1.6811661844955468,-52.92140572741366,-16.63909120548222,-1.0556370583599601,0.41040179435928137,0.19180086242990071
0.045894788779749784,-0.5039995754494767,0.6701425764125547,-0.7987390031073839,0.10373400268941421,0.3163585953849762,0.10535456995593023,-0.033040644348029294,0.07681290720027042,0.00971982595525617,0.024810040631257795,0.07748401449886191,1.6784742138213429,-52.92209563158255,-16.636298839382466,-1.0551133283294734,0.41079881073813374,0.192172802751621
0.046106275638875545,-0.5040663305951101,0.670297665451261,-0.7987193611427894,0.10378406080709203,0.316514437446884,0.10574342956288102,-0.03337757281668917,0.0775445193531607,0.009820982297258208,0.02502905883891101,0.07792103095390987,1.6757716138674432,-52.92276311508981,-16.633513941029623,-1.0545884660543052,0.4111949349395635,0.1925445071192876
0.0463185389096576,-0.5041337624048097,0.6704542231601852,-0.7986995158118124,0.10383455876341308,0.31667115532343754,0.10613163539102809,-0.03371590484979444,0.07827885446207497,0.009922665488477622,0.025248978160523485,0.07835893827674993,1.6730583989873198,-52.92340808174775,-16.630736527944205,-1.054062467368361,0.41159016350479893,0.19291597458127122
0.046531577280298046,-0.5042018736763993,0.6706122549609647,-0.7986794660607133,0.10388549835851159,0.31682875079523354,0.10651918532022334,-0.03405563579485395,0.07901590038974603,0.010024875549549244,0.02546979754925536,0.07879773589800759,1.670334583623208,-52.924030435531776,-16.627966617494426,-1.0535353281234079,0.4119844929819971,0.19328720418655465
0.04674538943476611,-0.5042706671983672,0.6707717662508864,-0.7986592108357125,0.10393688139042057,0.3169872256417256,0.10690607723403114,-0.034396760983953195,0.0797556449608746,0.010127612500419129,0.02569151595449015,0.07923742324603154,1.667600182305933,-52.924630080580656,-16.625204226895697,-1.0530070441891244,0.4123779199262676,0.19365819498472486
0.04695997405280558,-0.5043401457498349,0.6709327624028111,-0.7986387490829918,0.10398870965506425,0.3171465816412194,0.10729230901973491,-0.034739275733814697,0.08049807596230521,0.01023087636034083,0.025914132321839416,0.0796779997468951,1.664855209654738,-52.9252069211966,-16.62244937321018,-1.0524776114531922,0.41277044089969844,0.19402894602597967
0.04717532980994227,-0.5044103121005266,0.6710952487650975,-0.798618079748696,0.10404098494625055,0.3173068205708682,0.10767787856834359,-0.03508317534585851,0.08124318114320271,0.010334667147871682,0.026137645593147386,0.08011946482439769,1.6620996803771118,-52.92576086184548,-16.619702073346303,-1.0519470258213004,0.4131620524713811,0.19439945636112943
0.04739145537749147,-0.5044811690107391,0.6712592306615279,-0.7985972017789343,0.10409370905566355,0.3174679442066683,0.10806278377459823,-0.03542845510626303,0.08199094821522952,0.010438984880869116,0.026362054706495646,0.08056181790006627,1.6593336092686155,-52.926291807157035,-16.616962344058305,-1.0514152832172525,0.41355275121743584,0.19476972504160026
0.04760834942256542,-0.5045527192313112,0.6714247133912333,-0.7985761141197814,0.10414688377285597,0.3176299543234546,0.10844702253697851,-0.035775110286026014,0.08274136485272345,0.010543829576486983,0.026587358596207786,0.0810050583931568,1.6565570112127088,-52.92679966192474,-16.614230201945773,-1.0508823795830373,0.41394253372103573,0.19513975111943282
0.04782601060808084,-0.5046249655035933,0.6715917022286191,-0.798554815717279,0.10420051088524168,0.3177928526948959,0.10883059275770919,-0.03612313614102581,0.08349441869287615,0.010649201251171905,0.026813556192854096,0.08144918572065575,1.6537699011805782,-52.927284331106364,-16.61150566345316,-1.0503483108788572,0.4143313965724315,0.19550953364729348
0.04804443759276637,-0.5046979105594174,0.6717602024232909,-0.7985333055174377,0.10425459217808819,0.3179566410934904,0.10921349234276667,-0.03647252791208282,0.08425009733591231,0.010755099920659641,0.027040646423256237,0.08189419929728152,1.650972294230962,-52.92774571982377,-16.608788744869454,-1.0498130730832362,0.4147193363689783,0.19587907167846488
0.048263629031170145,-0.5047715571210674,0.6719302191999814,-0.7985115824662378,0.10430912943450918,0.3181213212905614,0.10959571920188542,-0.03682328082502121,0.0850083883452694,0.010861525599971467,0.027268628210491943,0.08234009853548596,1.6481642055099783,-52.92818373336326,-16.606079462327582,-1.0492766621930512,0.4151063497151584,0.19624836426685255
0.04848358357366728,-0.5048459079012488,0.672101757758477,-0.798489645509631,0.10436412443545698,0.31828689505625235,0.10997727124856448,-0.03717539009073085,0.0857692792477781,0.010968478303410585,0.027497500473899723,0.08278688284545582,1.6453456502509511,-52.92859827717562,-16.60337783180406,-1.0487390742235871,0.4154924332226066,0.19661741046700137
0.048704299866467425,-0.5049209656030593,0.6722748232735447,-0.7984674935935419,0.10441957895971514,0.3184533641595226,0.11035814640007391,-0.037528850905229436,0.0865327575338433,0.011075958044558546,0.027727262129083562,0.0832345516351143,1.6425166437742353,-52.92898925687639,-16.60068386911853,-1.0482003052086375,0.4158775835101348,0.1969862093340734
0.04892577655162235,-0.5049967329199587,0.6724494208948599,-0.7984451256638693,0.10447549478389097,0.3186207303681428,0.11073834257746129,-0.03788365844972489,0.0872988106576259,0.011183964836271694,0.02795791208791765,0.08368310431012246,1.6396772014870458,-52.92935657824591,-16.59799758993334,-1.0476603512005325,0.41626179720375805,0.19735475992386547
0.04914801226703346,-0.5050732125357401,0.6726255557469344,-0.7984225406664879,0.10453187368240807,0.31878899544869055,0.11111785770555807,-0.03823980789067794,0.08806742603722499,0.01129249869067762,0.0281894492585511,0.08413254027388083,1.6368273388832812,-52.92970014722948,-16.595319009753084,-1.0471192082702352,0.4166450709367173,0.19772306129281197
0.04937100564645944,-0.5051504071244999,0.6728032329290441,-0.7983997375472496,0.1045887174274989,0.31895816116654563,0.11149668971298608,-0.03859729437986498,0.0888385910548609,0.011401559619171657,0.02842187254541268,0.08458285892753083,1.633967071543351,-52.93001986993753,-16.592648143924237,-1.0465768725073614,0.4170274013495033,0.19809111249798386
0.049594755319523766,-0.5052283193506087,0.6729824575151582,-0.7983767152519847,0.10464602778919732,0.3191282292858855,0.11187483653216393,-0.03895611305444105,0.0896122930570587,0.011511147632413364,0.028655180849215568,0.08503405966995632,1.6310964151340028,-52.93031565264591,-16.58998500763467,-1.0460333400202728,0.4174087850898851,0.19845891259708726
0.04981925991172239,-0.5053069518686828,0.6731632345538678,-0.798353472726504,0.10470380653533125,0.3192992015696811,0.11225229609931336,-0.039316259037003164,0.09038851935483243,0.011621262740323057,0.028889373066962085,0.08548614189778515,1.6282153854081471,-52.93058740179584,-16.587329615913333,-1.0454886069361327,0.4177892188129291,0.19882646064847248
0.05004451804443132,-0.505386307323554,0.6733455690683156,-0.7983300089165999,0.10476205543151515,0.3194710797796919,0.11262906635446575,-0.039677727435653766,0.09116725722386988,0.011731904952078343,0.029124448091948453,0.08593910500539063,1.6253239982046843,-52.93083502399402,-16.584681983629725,-1.0449426694009771,0.4181686991810284,0.1991937557111341
0.05027052833491426,-0.5054663883502422,0.673529466056125,-0.7983063227680477,0.1048207762411427,0.3196438656764617,0.11300514524146839,-0.04004051334406444,0.09194849390471807,0.011843074276110676,0.02936040481376958,0.0863929483848931,1.6224222694483315,-52.93105842601319,-16.582042125493555,-1.0443955235797429,0.418547222863922,0.19956079684471362
0.05049728939633024,-0.5055471975739252,0.6737149304893308,-0.7982824132266075,0.10487997072537934,0.319817561019314,0.11338053070799092,-0.04040461184153984,0.09273221660296921,0.011954770720101936,0.02959724211832381,0.08684767142616144,1.619510215149448,-52.931257514791774,-16.57941005605436,-1.0438471656563717,0.4189247865387249,0.1999275831094977
0.0507247998377413,-0.5056287376099113,0.6739019673143097,-0.7982582792380256,0.10493964064315497,0.31999216756634763,0.11375522070553172,-0.04077001799308182,0.09351841248944744,0.012066994290981025,0.02983495888781772,0.08730327351681466,1.6165878514038627,-52.931432197434404,-16.576785789701074,-1.0432975918338423,0.41930138688994695,0.20029411356643118
0.05095305826412015,-0.5057110110636103,0.6740905814517105,-0.7982339197480358,0.10499978775115652,0.32016768707443205,0.11412921318942419,-0.04113672684945379,0.09430706870039601,0.012179744994920477,0.030073554000770907,0.08775975404222339,1.6136551943926993,-52.931582381211975,-16.574169340661665,-1.042746798334246,0.41967702060952117,0.20066038727710137
0.05118206327635784,-0.5057940205305048,0.6742807777963858,-0.7982093337023611,0.10506041380382057,0.3203441212992031,0.11450250611884315,-0.04150473344724532,0.09509817233766521,0.0122930228373331,0.03031302633202078,0.08821711238551148,1.6107122603822057,-52.93170797356168,-16.571560723002673,-1.0421947813988337,0.4200516843968245,0.2010264033037649
0.05141181347127146,-0.5058777685961227,0.6744725612173237,-0.7981845200467154,0.10512152055332602,0.3205214719950582,0.11487509745681117,-0.041874032808936874,0.09589171046890078,0.01240682782286862,0.03055337475272737,0.08867534792755755,1.607759065723577,-52.931808882087346,-16.568959950629,-1.041641537288097,0.420425374958704,0.20139216070932564
0.05164230744161187,-0.5059622578360086,0.6746659365575791,-0.7981594777268045,0.10518310974958678,0.3206997409151522,0.11524698517020487,-0.042244619942964856,0.09668767012773304,0.01252115995541036,0.03079459813037815,0.08913446004699653,1.6047956268527852,-52.93188501455958,-16.56636703728331,-1.0410870622818067,0.42079808900950055,0.2017576585573566
0.051873543776071396,-0.5060474908156961,0.674860908634207,-0.7981342056883284,0.10524518314024436,0.32087892981139265,0.11561816722976126,-0.0426164898437868,0.09748603831396649,0.012636019238071932,0.03103669532879284,0.08959444812022127,1.6018219602904067,-52.93193627891587,-16.563781996545845,-1.0405313526790907,0.4211698232710729,0.2021228959120892
0.05210552105929157,-0.50613347009068,0.6750574822381945,-0.798108702876982,0.10530774247066062,0.32105904043443545,0.11598864161008403,-0.0429896374919468,0.09828680199377011,0.012751405673193937,0.031279665208128256,0.0900553115213841,1.5988380826414468,-52.93196258326073,-16.561204841833963,-1.0399744047984902,0.4215405744728199,0.20248787183841974
0.05233823787187086,-0.5062201982063883,0.6752556621343943,-0.7980829682384573,0.10537078948391039,0.32124007453368025,0.11635840628964982,-0.04336405785414115,0.09908994809986821,0.012867319262340703,0.03152350662488314,0.09051704962239843,1.5958440105951697,-52.93196383586597,-16.558635586401792,-1.039416214978008,0.42191033935170696,0.20285258540191572
0.05257169279037249,-0.5063076776981549,0.6754554530614577,-0.7980570007184447,0.1054343259207742,0.32142203385726614,0.11672745925081456,-0.043739745883284185,0.0998954635317318,0.012983760006297036,0.03176821843190301,0.09097966179294027,1.5928397609249247,-52.93193994517079,-16.556074243339886,-1.038856779575171,0.4222791146522874,0.20321703566881452
0.05280588438733213,-0.506395911091192,0.6756568597317693,-0.7980307992626345,0.10549835351973097,0.32160492015206704,0.11709579847981967,-0.044116696518574326,0.10070333515577072,0.013100727905064977,0.032013799478385,0.09144314740044993,1.5898253504879745,-52.93189081978199,-16.553520825574868,-1.0382960949671287,0.4226468971267291,0.20358122170602305
0.05304081123126573,-0.5064849009005631,0.6758598868313803,-0.7980043628167188,0.10556287401695073,0.32178873516368733,0.1174634219667984,-0.04449490468556035,0.10151354980552613,0.013218222957860598,0.032260248609882754,0.09190750581013353,1.5868007962253239,-52.931816368474145,-16.55097534586909,-1.037734157550631,0.4230136835348338,0.20394514258112656
0.05327647188667729,-0.5065746496311555,0.676064539019944,-0.7979776903263927,0.10562788914628736,0.32197348063645725,0.11783032770578201,-0.04487436529620787,0.10232609428186376,0.0133362451631108,0.032507564668311256,0.09237273638496468,1.5837661151615468,-52.93171650018973,-16.548437816820268,-1.0371709637421755,0.4233794706440668,0.2043087973623881
0.053512864914066705,-0.5066651597776535,0.6762708209306504,-0.7979507807373557,0.10569340063927127,0.3221591583134286,0.11819651369470605,-0.04525507324896597,0.10314095535316767,0.01345479451845014,0.032755746491951745,0.09283883848568604,1.5807213244046152,-52.93159112403943,-16.545908250861185,-1.0366065099780053,0.4237442552295745,0.20467218511874935
0.05374998886993754,-0.5067564338245112,0.6764787371701615,-0.7979236329953142,0.10575941022510219,0.32234576993637026,0.11856197793541655,-0.04563702342883412,0.10395811975553451,0.013573871020717674,0.033004792915456584,0.09330581147081093,1.577666441145729,-52.93144014930214,-16.543386660259333,-1.036040792714196,0.42410803407421105,0.20503530491982985
0.05398784230680489,-0.506848474245926,0.6766882923185474,-0.7978962460459823,0.10582591963064189,0.3225333172457635,0.1189267184336763,-0.04602021070742923,0.10477757419296849,0.01369347466595382,0.03325470276985416,0.093773654696625,1.5746014826591435,-52.93126348542531,-16.540873057116563,-1.0354738084267026,0.42447080396856274,0.20539815583594348
0.05422642377320323,-0.5069412835058121,0.6768994909292226,-0.7978686188350835,0.105892930580407,0.32272180198079786,0.11929073319917105,-0.04640462994305296,0.10559930533757679,0.01381360544939724,0.03350547488255378,0.09424236751718784,1.5715264663019992,-52.93106104202504,-16.538367453368846,-1.03490555361144,0.4248325617109695,0.20576073693808583
0.05446573181369427,-0.5070348640577736,0.6771123375288821,-0.7978407503083526,0.10596044479656169,0.32291122587936655,0.11965402024551562,-0.046790275980759174,0.10642329982976564,0.013934263365481727,0.033757108077350606,0.09471194928433457,1.5684414095141523,-52.930832728886294,-16.535869860785848,-1.0343360247843092,0.4251933041075483,0.20612304729794018
0.05470576496887479,-0.5071292183450785,0.677326836617439,-0.7978126394115369,0.10602846399891055,0.3231015906780619,0.12001657759026021,-0.04717714365242165,0.1072495442784369,0.014055448407833142,0.034009601174430554,0.09518239934767755,1.5653463298180037,-52.93057845596315,-16.533380290970705,-1.0337652184812574,0.4255530279722189,0.20648508598788323
