Joohwan-Seo/mujoco_sysID/Fanuc/Dataset/square_PIH_fanuc_new_real_0.csv
q1,q2,q3,q4,q5,q6,dq1,dq2,dq3,dq4,dq5,dq6,t1,t2,t3,t4,t5,t6
8.459516555419263e-06,0.4617806510384987,-0.3926965061053546,-1.6037957741477562e-05,-0.19999127707964998,4.978300292901492e-05,0.0042297582777096315,-0.009368380325363225,0.001287796684751828,-0.008018978870738781,0.004361460175013903,0.02489150146450746,-0.043082010273509545,20.44487609213035,-32.71201970267229,-31.694729695006696,-10.033371623232611,23.003052424207965
2.5291270010915826e-05,0.4617432493231995,-0.3926913178993925,-4.8300883194879815e-05,-0.1999738728725209,0.0001469596677746113,0.008415876727748281,-0.018700857649591,0.0025941029810650548,-0.01613146272670113,0.008702103564527643,0.04858833242279818,0.06698687296687392,20.483818629666935,-32.67581519866188,-31.613475993206343,-10.169552729835805,22.052103361519055
5.0499812431533823e-05,0.46168721549079117,-0.39268345200169125,-9.700149599348209e-05,-0.199947954949419,0.0002892586689168719,0.012604271210308996,-0.028016916204173563,0.003932948850617802,-0.024350306399301136,0.012958961550958586,0.0711495005711303,0.17614481528366543,20.524396613420755,-32.63938814517529,-31.531089646019947,-10.306666235195411,21.14514842670943
8.409068695253148e-05,0.4616125831749903,-0.39267284326130547,-0.0001623396042268422,-0.19991368996979303,0.0004745147294584063,0.01679543726049883,-0.03731615790041537,0.005304370192888906,-0.03266905411668006,0.017132489812985676,0.09262803027076723,0.2843838890816277,20.566553351537692,-32.602735302216644,-31.44761488011125,-10.444615984490287,20.280143523548485
0.0001260703469163443,0.46151938681528787,-0.39265942644801494,-0.0002445026554867968,-0.1998712437231322,0.0007006636776202402,0.020989829981906412,-0.04659817985121239,0.00670840664526288,-0.041081525629977286,0.021223123330409516,0.11307447408091695,0.39169644467079984,20.610236765325162,-32.565854957854,-31.36309445635638,-10.583313975972155,19.455139813117103
0.00017644607895431254,0.46140766166434344,-0.3926431362467392,-0.0003436662623902587,-0.19982078116431737,0.0009657377338475468,0.02518786601898412,-0.05586257547221504,0.008145100637883963,-0.049581803451730924,0.025231279407408005,0.13253702811365328,0.49807511044691194,20.655398952058754,-32.528746797213486,-31.277569753082343,-10.722679636709035,18.668279268371016
0.00023522592983432327,0.4612774437934202,-0.39262390725362667,-0.00045999470378866203,-0.19976246644357848,0.0012678610178292497,0.029389925440005366,-0.06510893546159921,0.009614496556249161,-0.058164220699201664,0.02915736036945121,0.1510616419908515,0.6035127900815844,20.701995788156495,-32.49141178378965,-31.19108084624698,-10.862639163902706,17.91779043693711
0.0003024186369038458,0.4611287700960793,-0.3926016739736258,-0.0005936414028161484,-0.19969646293164506,0.0016052452651434544,0.033596353534761245,-0.0743368486704835,0.011116640000445988,-0.06682334951374316,0.03300175596671619,0.16869212365710237,0.7080026573643032,20.749986569000242,-32.453852051821244,-31.103666586528313,-11.003124925761215,17.201984402327238
0.00037803356196571057,0.46096167829032947,-0.39257637081936375,-0.000744749382873589,-0.19962293324061778,0.0019761857437243556,0.0378074625309324,-0.08354590287489982,0.0126515771310256,-0.07555399002872032,0.03676484551364658,0.1854702392904506,0.8115381492392946,20.799333682022557,-32.41607080860899,-31.01536467331611,-11.14407491646316,16.519250934223166
0.00046208062843143495,0.46077620691941107,-0.3925479321111788,-0.0009134517025931686,-0.19954203924103495,0.002379057360806935,0.0420235332328622,-0.0927356854591962,0.014219354092484116,-0.08435115985978979,0.04044699979141,0.20143580854128967,0.9141129574953533,20.85000230998579,-32.378072245763235,-30.926211725619236,-11.285432260256288,15.868054818931933
0.0005545702616039616,0.46057239535137146,-0.39251629207816635,-0.0010998718707783874,-0.19945394207556016,0.002812310951444529,0.04624481658626332,-0.1019057840198168,0.015820016506214073,-0.09321008409260945,0.044048582737390325,0.21662679531879683,1.0157210194935378,20.90196016166427,-32.339861458476314,-30.836243349918877,-11.427144760189753,15.246932361534686
0.0006555133319483832,0.46035028377757636,-0.3924813848601152,-0.0013041242422668607,-0.1993588021696732,0.0032744697401122947,0.050471535172210806,-0.11105578689755595,0.017453609025592065,-0.10212618574423662,0.04756995294348586,0.231079394333883,1.1163565082548472,20.955177227393882,-32.30144437200158,-30.74549420501189,-11.569164487394989,14.654488051654925
0.0007649211012155988,0.46010991321028516,-0.392443144510222,-0.0015263143956180851,-0.1992567792397075,0.0037641259673077596,0.054703884633607834,-0.12018528364561153,0.0191201749465965,-0.11109507667561222,0.05101146498284427,0.24482811359773238,1.2160138221761647,21.00962555718729,-32.26282767460853,-30.653998063899113,-11.711447407208018,14.089391385155338
0.0008828051712899092,0.45985132547940505,-0.392401504998486,-0.0017665394934853064,-0.19914803229854203,0.0042799376734389315,0.058942035037155165,-0.129293865440064,0.020819755868007227,-0.12011254893361056,0.05437347058273019,0.25790585306558605,1.3146875745966675,21.06527905932427,-32.22401875635374,-30.561787872782357,-11.85395303876624,13.55037383443719
0.0010091774356373298,0.4595745632285275,-0.3923564002156943,-0.0020248886264896404,-0.1990327196592231,0.004820625632651857,0.06318613217371027,-0.13838112543877143,0.022552391395833878,-0.12917456650216713,0.057656319659472086,0.2703439796064628,1.4123725833975005,21.122113317517993,-32.18502565307679,-30.468895807240656,-11.996644145025156,13.036225960362863
0.0011440500332369015,0.45927966991033936,-0.39230776397792,-0.002301443141375598,-0.1989109989367634,0.005384970429593815,0.06743629879978581,-0.14744665909409405,0.024318118887157483,-0.13827725744297883,0.060860361229853215,0.28217239847097886,1.5090638607839364,21.180105424934112,-32.14585699508915,-30.375353325661187,-12.139486450419593,12.545794659152667
0.0012874353048825202,0.4589666897814907,-0.3922555300314619,-0.002596276954190012,-0.19878302704833964,0.005971809672436437,0.07169263582280933,-0.15649006442433877,0.026116973229055807,-0.147416906407207,0.06398594421188297,0.2934196214213113,1.6047566033705962,21.23923383349623,-32.10652196007756,-30.281191220004356,-12.282448383651506,12.077980537920936
0.0014393457517478112,0.458635667896994,-0.39219963205816444,-0.0029094568491910217,-0.19864896021208645,0.006580035335795672,0.0759552234326455,-0.1655109422483387,0.027948986648721825,-0.15658994750050492,0.06703341812659291,0.3041128316796175,1.6994461826660328,21.299478217057924,-32.0670302297935,-30.186439663984654,-12.42550084331667,11.631735412815972
0.0015997939961113485,0.4582866501042197,-0.3921400036810619,-0.003241042764160101,-0.19850895394466378,0.007208591227483405,0.08022412218176866,-0.174508896387152,0.029814188551281127,-0.16579295748453976,0.07000313371133576,0.3142779458438663,1.7931281360323417,21.360819347149828,-32.02739195014182,-30.091128258750853,-12.56861698429337,11.206059924012852
0.0017687927441440788,0.45791968303654673,-0.39207657847029753,-0.0035910880627580744,-0.19836316305775575,0.007856470573309456,0.0844993740163651,-0.1834835338364738,0.0317126053821719,-0.17502264929898662,0.07289544345401178,0.323939672913026,1.8857981581780976,21.423238980130712,-31.98761769432223,-29.995286076149572,-12.711772023006917,10.800001262079622
0.0019463547506651656,0.45753481410672076,-0.392009289949275,-0.003959639794535556,-0.19821174165364236,0.00852271371442322,0.08878100326054343,-0.1924344649130003,0.03364426051127398,-0.18427586588874106,0.07571070205669576,0.33312157055688135,1.9774520932281776,21.486719754679626,-31.94771842871103,-29.898941699656426,-12.854943059856913,10.412651000495421
0.0021324927857766327,0.4571320914999654,-0.39193807160100247,-0.004346738943179215,-0.1980548431199698,0.00920640591194201,0.09306901755573353,-0.20136130337766336,0.035609174136264986,-0.19354957432182912,0.07844926683627904,0.3418460987593957,2.0680859274017616,21.55124509866335,-31.90770548120397,-29.802123263058405,-12.99810891725072,10.043143029345167
0.002327219603291159,0.4567115641668887,-0.3918628568745966,-0.004752420663547594,-0.19789262012383185,0.009906675253858965,0.09736340875726318,-0.2102636665383626,0.03760736320294412,-0.20284086018418956,0.08111149806896586,0.3501346709584773,2.1576957823194607,21.616799144503375,-31.8675905117679,-29.704858486970302,-13.141249991830284,9.690651585449597
0.0025305479108711855,0.45627328181621957,-0.3917835791919156,-0.005176714508023928,-0.19772522460526232,0.010622690659457453,0.10166415379001334,-0.21914117533455874,0.03963884134050094,-0.2121469222381674,0.08369775928476444,0.3580077027992435,2.246277908951954,21.68336665224666,-31.82738548497432,-29.6071747132665,-13.284348119607197,9.354389374412664
0.002742490341801125,0.45581729490740786,-0.39170017195429574,-0.0056196446426883045,-0.19755280777022735,0.011353659976682213,0.10597121546496978,-0.22799345440585278,0.04170361880992029,-0.221465067332188,0.08620841751748194,0.36548465861238005,2.3338286822153598,21.75093293961943,-31.787102644312903,-29.509098937507922,-13.42738645283963,9.033605780280585
0.002963059428317943,0.45534365464311494,-0.39161256854936793,-0.006081230053787669,-0.19737552008319703,0.01209882816813013,0.11028454325840885,-0.23682013214645975,0.04380170246390603,-0.23079270554968223,0.08864384351516445,0.37258409572395873,2.4203445962127685,21.8194838184073,-31.746754488100017,-29.410657839442134,-13.570349347590797,8.727585158709694
0.0031922675764287016,0.4548524129616204,-0.3915207023579342,-0.006561484744959479,-0.1971935112593662,0.012857475581526306,0.11460407405537928,-0.24562084074729007,0.0459330957168802,-0.24012734558590526,0.09100441191540998,0.37932370669808824,2.5058222601165,21.88900553656954,-31.706353746820355,-29.311877811652394,-13.713222261005294,8.435645209732591
0.0034301270421468397,0.45434362252916605,-0.39142450676088664,-0.007060417925643149,-0.19700693025658716,0.013628916300744351,0.11892973285906898,-0.25439521622717465,0.048097798523769095,-0.249466590341835,0.09329050138952084,0.38572035960902185,2.5902583946818103,21.959484725546055,-31.665913361752203,-29.21278498642945,-13.855991657427237,8.157135426396318
0.003676649909081993,0.4538173367322568,-0.3913239151461538,-0.007578034191092859,-0.19681592526706906,0.014412496573613983,0.12326143346757665,-0.26314289845460953,0.050295807366428434,-0.25880813272485503,0.09550249475904578,0.391790136434816,2.6736498293796154,22.030908352269215,-31.62544646474459,-29.113405260937668,-13.998644922564553,7.891435615720969
0.003931848067321076,0.4532736096699343,-0.3912188609156604,-0.008114333694385698,-0.1966206437088933,0.015207593312934623,0.12759907911954127,-0.271863531161252,0.05252711524668554,-0.2681497516464192,0.09764077908788746,0.39754836966032014,2.7559935001333637,22.103263675435286,-31.584966359026666,-29.01376432074441,-14.141170284975402,7.637954488594195
0.004195733193541115,0.45271249614603776,-0.3911092774922902,-0.008669312310800427,-0.19642123221738766,0.016013612667280953,0.13194256311001926,-0.2805567619482681,0.054791711685089464,-0.27748930820736434,0.09970574575281381,0.40300967717316544,2.8372864476431867,22.17653820563376,-31.544486500942867,-28.91388766177976,-14.283556744218957,7.396128315375758
0.00446831673229699,0.45213405166146475,-0.39099509832684104,-0.009242961794924396,-0.19621783663639786,0.016829988658345958,0.1362917693779379,-0.2892222422865147,0.05708958272456189,-0.2868247420619846,0.10169779049490851,0.4081879955325025,2.9175258162790865,22.250719668968642,-31.50402048251719,-28.81380061079095,-14.425794005072143,7.1654196441379
0.004749609878429782,0.45153833240644187,-0.3908762569049646,-0.009835269930829206,-0.19601060200948942,0.017656181881718965,0.14064657306639594,-0.297859627511432,0.05942071093823258,-0.29615406795240473,0.10361731345422286,0.4130966116865035,2.996708853523722,22.325795973839966,-31.463582014760178,-28.713528344353463,-14.56787241726828,6.945316078611428
0.005039623560543834,0.450925395252815,-0.3907526867540829,-0.010446220675639597,-0.1957996725711101,0.018491678268141135,0.14500684105702585,-0.3064685768134263,0.06178507544082509,-0.3054753724051954,0.10546471918964632,0.41774819321108575,3.0748329099446496,22.401755180586022,-31.42318491164164,-28.613095906498927,-14.7097829202629,6.735329113044948
0.005338368425502993,0.4502952977463661,-0.39062432145027687,-0.011075794296804713,-0.19558519173773853,0.01933598790241898,0.1493724324795796,-0.31504875322443643,0.06418265190303182,-0.31478681058255786,0.1072404166857928,0.4221548171389222,3.1518954396753127,22.478585473712442,-31.38284307465905,-28.512528225016915,-14.851516992576851,6.53499302131574
0.0056458548238986885,0.4496480980991635,-0.3904910946251401,-0.011723967503366257,-0.19536730209904152,0.020188643897308123,0.15374319919784796,-0.3235998236012986,0.0666134125683829,-0.3240866032807717,0.10894481934850139,0.42632799744457267,3.227894001383835,22.556275136462858,-31.342570477939468,-28.411850126486197,-14.993066605306717,6.343863797755521
0.005962092796444639,0.4489838551819506,-0.39035293997259574,-0.012390713571504154,-0.19514614540906078,0.0210492013198051,0.15811898627297505,-0.33212145860645464,0.0690773262721725,-0.3333730340689486,0.11057834499037378,0.430278711248488,3.302826259708453,22.634812527504877,-31.302381153819063,-28.31108635008826,-15.13442417943112,6.161518147273293
0.006287092061255004,0.44830262851657765,-0.3902097912556716,-0.013076002464627087,-0.19492186257744556,0.02191723616740451,0.16249963240518245,-0.3406133326864852,0.0715743584620586,-0.34264444656146614,0.11214141580761017,0.434017423799705,3.376689987138539,22.714186059530924,-31.262289178850054,-28.21026156025423,-15.2755825465727,5.987552522471004
0.006620862001964749,0.4476044782684799,-0.3900615823132316,-0.013779800948262632,-0.19469459366074704,0.02279234439199301,0.16688497035487254,-0.34907512404889124,0.07410447121999895,-0.3518992418177729,0.11363445834926385,0.43755411229425,3.449483066320225,22.79438417958829,-31.222308660190414,-28.109400358193774,-15.416534912909137,5.821582205555534
0.006963411656652824,0.44688946523920486,-0.38990824706666116,-0.014502072699989743,-0.19446447785378723,0.023674140969160217,0.17127482734403796,-0.35750651463749883,0.07666762328522839,-0.36113587586355533,0.11505790347990605,0.4408982885836039,3.5212034927658635,22.875395350972333,-31.18245372233578,-28.00852729235305,-15.557274825950943,5.663240432953704
0.007314749707530549,0.44615765085899123,-0.3897497195265051,-0.01524277841464483,-0.19423165348111407,0.024562259010810293,0.17566902543886223,-0.3659071901068127,0.07926377007801967,-0.37035285732754447,0.1164121863365786,0.4440590208250374,3.5918493779468776,22.957208036532926,-31.142738494159055,-27.90766686784646,-15.697796143932006,5.512177560635005
0.007674884471359265,0.4454090971794,-0.3895859337990571,-0.016001875905021855,-0.19399625798855244,0.025456348919056702,0.18006738191435817,-0.37427683979560605,0.08189286372400342,-0.3795487451885123,0.11769774628080952,0.4470449541232045,3.661418952749857,23.03981068325575,-31.103177096223284,-27.806843554905214,-15.83809300757991,5.368060268240243
0.00804382389056297,0.44464386686600005,-0.3894168240928994,-0.01677932019827639,-0.1937584279348597,0.026356077579476847,0.18446970960185194,-0.38261515669999463,0.08455485307885258,-0.38872214662726684,0.11891502684637503,0.4498643302100716,3.729910571276112,23.1231917079972,-31.063783628342108,-27.70608179638417,-15.978159814054584,5.230570800203454
0.00842157552500314,0.4438620231911076,-0.3892423247253931,-0.017575063628233797,-0.19351829898349288,0.027261127591892965,0.18887581722008534,-0.39092183744621184,0.08724968375316275,-0.39787171497870333,0.12006447568341008,0.4525250062080592,3.797322714965326,23.207339484259187,-31.02457215736088,-27.605406014366075,-16.117991192863204,5.0994062421394215
0.008808146544384488,0.44306363002658106,-0.3890623701291183,-0.0183890559237922,-0.1932760058944941,0.028171196536931314,0.19328550969067385,-0.39919658226327104,0.08997729813738374,-0.40699614777920146,0.12114654449939619,0.45503447251917467,3.8636539970243495,23.292242329904333,-30.98555670513641,-27.50484061590157,-16.25758198357543,4.974277830849884
0.009203543721261738,0.44224875183666973,-0.388876894858265,-0.01922124429360197,-0.1930316825164991,0.029085996276693147,0.197698588438625,-0.4074390949556748,0.09273763542667793,-0.41609418490488503,0.12216168899749089,0.45739986988091647,3.928903167142567,23.377888495719162,-30.94675123669549,-27.40440999792073,-16.396927215180334,4.85491029637895
0.009607773424618918,0.4414174536709171,-0.3886858335949738,-0.020071573507194913,-0.1927854617788739,0.03000525228794879,0.20211485167859025,-0.4156490828763085,0.09553063164559951,-0.4251646067964717,0.12311036881260477,0.4596280056278216,3.9930691164757066,23.46426615474394,-30.908169648554527,-27.30413855135137,-16.536022086939173,4.7410412346214255
0.010020841613993903,0.44056980115711786,-0.3884891211556288,-0.0209399859727282,-0.19253747568398275,0.030928703026340217,0.20653409468749256,-0.4238262568996321,0.09835621967250531,-0.4342062327666443,0.12399304744558098,0.461725369195714,4.056150882880398,23.551363392294185,-30.86982575718598,-27.204050664477254,-16.674861950602633,4.632420509058146
0.010442753834122192,0.4397058604943273,-0.3882866924971015,-0.021826421811500334,-0.19228785529959116,0.03185609932014817,0.21095611006414408,-0.431970331395269,0.10121432926362157,-0.44321791938606697,0.12481019219578611,0.4636981469039784,4.1181476563821136,23.63916819660649,-30.83173328761638,-27.104170725568185,-16.81344229387145,4.528809680258933
0.01087351521007507,0.4388256984459232,-0.3880784827229481,-0.022730818929389045,-0.1920367307514064,0.03278720379224724,0.21538068797643922,-0.4400810242020706,0.10410488707670423,-0.45219855894435607,0.125562274092381,0.4655522360495336,4.179058784859617,23.727668450049904,-30.79390586214585,-27.004523124812653,-16.95175872499164,4.429981461857631
0.011313130442868437,0.4379293823327177,-0.3878644270895596,-0.02365311308535402,-0.19178423121575738,0.033721790308936454,0.21980761639668328,-0.4481580566027227,0.10702781669424122,-0.46114707798248644,0.12624976782450387,0.46729325834460644,4.238883779929334,23.81685192084649,-30.75635698917874,-26.90513225558262,-17.089806958384763,4.335719201764248
0.011761603805519619,0.43701698002611983,-0.3876444610122673,-0.02459323795714059,-0.19153048491241625,0.03465964345439427,0.22423668132559044,-0.45620115329894656,0.10998303864615458,-0.47006243589328506,0.12687315167056662,0.46892657272890786,4.297622323013482,23.906706255253567,-30.71910005215623,-26.80602251505843,-17.22758280122224,4.245816387436988
0.012218939139530541,0.43608855994134516,-0.38741852007140337,-0.02555112520431423,-0.19127561909756258,0.035600558029565035,0.22866766700546134,-0.46421004238733604,0.1129704704319696,-0.4789436235868194,0.12743290742683674,0.47045728758538236,4.355274271576095,23.997218970163686,-30.68214829858423,-26.707218304241223,-17.36508214086148,4.160076174092332
0.012685139851776595,0.4351441910306734,-0.38718654001831854,-0.02652670452874951,-0.19101976005689167,0.03654433857433972,0.233100356123027,-0.472184455335861,0.1159900265424247,-0.4877896622176405,0.1279295203354528,0.4718902723873403,4.4118396655114624,24.088377446082845,-30.645514829149995,-26.608744027378712,-17.502300933069236,4.0783109347834205
0.013160208911781443,0.4341839427767513,-0.38694845678135753,-0.02751990373269148,-0.19076303309886766,0.037490798911946684,0.23753453000242408,-0.4801241269610604,0.11904161848050286,-0.49659960197098396,0.12836347901199946,0.47323016880348356,4.46731873366975,24.180168920451806,-30.609212586924052,-26.510624090829463,-17.63923519096329,4.000341831327471
0.013644148849358932,0.43320788518593945,-0.38670420647179377,-0.02853064877450182,-0.19050556254812218,0.03843976171451888,0.2419699687887448,-0.48802879540593896,0.1221251547818707,-0.5053725209051704,0.128735275372749,0.47448140128609606,4.521711900504896,24.272580481279164,-30.573254346640923,-26.41288290138978,-17.775880974611255,3.925998405110544
0.014136961752604104,0.4322160887817023,-0.38645372538972433,-0.029558863822196968,-0.19024747173899886,0.03939105808885186,0.24640645162258556,-0.49589820211857594,0.12524054103471632,-0.514107523847575,0.12904540456165947,0.47564818716649226,4.575019792830138,24.365599061058745,-30.537652704058154,-26.31554486410633,-17.91223438122984,3.855118186843126
0.0146386492662161,0.43120862459803944,-0.3861969500299264,-0.030604471304880296,-0.18998888300924446,0.040344527181413244,0.2508437568059979,-0.5037320918314475,0.12838767989898106,-0.5228037413416631,0.1292943648772047,0.4767345462806899,4.627243246666822,24.459211430946013,-30.50242006539051,-26.218634379596793,-18.048291535933238,3.7875463243840284
0.015149212590136556,0.4301855641729565,-0.38593381708767643,-0.031667391962165704,-0.18972991769384626,0.04130001580170765,0.255281661960228,-0.5115302125414605,0.13156647112498399,-0.531460328642704,0.12948265769909914,0.47774431014720203,4.678383314172295,24.55340419517143,-30.467568636817568,-26.122175840900077,-18.18404858298493,3.7231352277907073
0.015668652478487782,0.4291469795419751,-0.38566426346453353,-0.032747544891685486,-0.18947069611901632,0.04225737806314329,0.25971994417561306,-0.5192923154906895,0.134776811571441,-0.5400764647598912,0.12961078741496906,0.4786811307178214,4.728441270633013,24.64816378567179,-30.433110414064885,-26.026193629876897,-18.31950167750935,3.66174423079395
0.016196969238795753,0.4280929432316795,-0.38538822627408775,-0.03384484759477089,-0.1892113375963223,0.04321647504058588,0.26415838015398563,-0.527018155147808,0.13801859522288287,-0.548651351542701,0.1296792613470118,0.4795484887212951,4.777418621509114,24.74347645692267,-30.39905717205874,-25.930712113180487,-18.454646977627394,3.6032392679322824
0.016734162731483596,0.42702352825329914,-0.3851056428476748,-0.03495921602038974,-0.18895196041696494,0.044177174443823596,0.2685967463439221,-0.5347074891901974,0.14129171320647887,-0.5571842128094264,0.1296885896786771,0.4803497016188585,4.825317109516963,24.839328280955996,-30.365420454653915,-25.835755637817073,-18.58948063697838,3.5474925666170725
0.017280232369621906,0.4259388080963257,-0.3848164507400582,-0.036090564607421584,-0.18869268184620214,0.04513935030620302,0.2730348190691548,-0.5423600784867196,0.14459605380827434,-0.5656742935159211,0.12963928538139682,0.48108793118971366,4.872138721736332,24.93570514255135,-30.332211564438204,-25.741348526314425,-18.72399879759965,3.4943823534337937
0.017835177118922813,0.4248388567221635,-0.3845205877350805,-0.037238806325346936,-0.18843361811791937,0.046102882687730405,0.27747237465045377,-0.5499756870811339,0.14793150248885192,-0.5741208589626762,0.12953186414138373,0.4817661907636916,4.9178856967290505,25.032592734588718,-30.299441552612045,-25.647515071516835,-18.858197583133773,3.443792574016852
0.018398995497965354,0.4237237485578112,-0.3842179918512837,-0.03840385271342383,-0.18817488442934632,0.04706765739196547,0.28190918952127025,-0.5575540821761362,0.15129794189842793,-0.5825231940384477,0.1293668442865146,0.48238735211753364,4.9625605316561,25.129976553553213,-30.267121208948495,-25.554279531023703,-18.992073092338234,3.3956126258670714
0.018971685578640193,0.4225935584895752,-0.3839086013475009,-0.039585613918421296,-0.1879165949359197,0.0480335656960664,0.28634504033741953,-0.5650950341180027,0.1546952518913955,-0.5908806024987319,0.12914474671330856,0.48295415205046166,5.006165989380323,25.227841895184426,-30.235261051834613,-25.461666121288907,-19.125621392874216,3.3497371035096783
0.01955324498680233,0.42144836185681156,-0.38359235472842024,-0.04078399873097623,-0.18765886274629168,0.04900050409337435,0.29077970408106973,-0.5725983163818104,0.15812330954032738,-0.5991924062774674,0.1288660948140082,0.48346919865397386,5.048705105542,25.326173850262688,-30.203871318397304,-25.36969901139711,-19.258838515354164,3.306065555419533
0.02014367090312091,0.42028823444569713,-0.38326919075012134,-0.04199891462063707,-0.18740179991748415,0.04996837404795457,0.29521295815929005,-0.5800637055572156,0.16158198914945218,-0.6074579448304187,0.1285314144037679,0.48393497729010715,5.090181195594729,25.424957300527385,-30.172961954717728,-25.278402316533008,-19.391720447628202,3.2645022521665688
0.02074296006411571,0.4191132524830276,-0.3829390484255861,-0.04323026776965461,-0.18714551745018826,0.05093708176053805,0.29964458049740045,-0.5874909813347633,0.16507116226761728,-0.6156765745087704,0.12814123364795085,0.4843538562917424,5.130597861789146,25.524176914722624,-30.142542606137283,-25.187800091159062,-19.524263129293733,3.224955965260463
0.02135110876337042,0.4179234926300422,-0.3826018670301846,-0.04447796310557766,-0.18689012528420917,0.05190653794533384,0.30407434962735447,-0.594879926492704,0.16859069770075305,-0.623847667961528,0.1276960829895355,0.48472809239789605,5.169959000092078,25.623817144766434,-30.112622607659695,-25.097916321916525,-19.656462446411787,3.1873397561974883
0.021968112852913172,0.4167190319762736,-0.3822575861071369,-0.04574190433270844,-0.18663573229405592,0.052876657617206516,0.30850204477137577,-0.6022303268842943,0.17214046152385232,-0.6319706135653884,0.127196495076629,0.4850598359363369,5.208268807029024,25.72386222204206,-30.08321097445345,-25.008774920264486,-19.788314226417228,3.1515707752362085
0.02259396774475529,0.4154999480334225,-0.38190614547295193,-0.04702199396247005,-0.18638244628467573,0.0538473598887371,0.3129274459210591,-0.6095419714255556,0.17572031709247965,-0.6400448148808077,0.12664300469008563,0.4853511357652924,5.245531786437694,25.824296153808277,-30.054316392459164,-24.92039971487109,-19.91981423321099,3.1175700694503954
0.023228668412579565,0.41426631872925557,-0.38154748522284426,-0.04831813334273615,-0.1861303739873333,0.05481856777670802,0.3173503339121374,-0.6168146520834674,0.17933012505382476,-0.6480696901330499,0.126036148671226,0.48560394398545964,5.281752756120728,25.925102719728677,-30.025947209106135,-24.83281444377082,-20.050958162421882,3.0852623996289834
0.02387220939356978,0.4130182224015264,-0.3811815457361296,-0.049630222686170275,-0.185879621055634,0.05579020801757405,0.32177049049510686,-0.6240481638645716,0.18296974335731442,-0.6560446717170617,0.1253764658496534,0.48582012043301354,5.316936854385583,26.026265468519483,-29.99811142414474,-24.746042746301335,-20.181741636830317,3.0545760656127765
0.024524584790373567,0.4117557377919185,-0.38080826768160003,-0.050958161097620414,-0.18563029206169165,0.05676221089150166,0.32618769840189393,-0.6312423048039624,0.18663902726479692,-0.6639692057250687,0.1246644969711622,0.48600143696380554,5.351089546459852,26.127767714715926,-29.970816680598205,-24.660108154832944,-20.3121602019442,3.025442739677035
0.025185788273191047,0.41047894404000923,-0.3804275920228794,-0.0523018466006121,-0.18538249049244018,0.0577345100545786,0.3306017414087397,-0.6383968759546413,0.1903378293603133,-0.671842751495844,0.12390078462573402,0.4861495815384723,5.384216630770276,26.22959253555829,-29.94407025583962,-24.57503408630376,-20.44220932171919,2.9977973075870437
0.025855813081981985,0.4091879206772548,-0.3800394600237605,-0.0536611761629814,-0.18513631874608896,0.05870704237881404,0.3350124043954689,-0.6455116813772134,0.19406599955946907,-0.6796647811846466,0.12308587317561666,0.4862661621177187,5.416324245073899,26.331722767999242,-29.9178790528009,-24.49084383357291,-20.5718843744179,2.9715777169715607
0.02653465202878459,0.40788274762099497,-0.37964381325352364,-0.055036045721687146,-0.184891878128722,0.05967974779956726,0.3394194734013038,-0.6525865281299016,0.1978233851184201,-0.6874347793528746,0.12222030868348155,0.4863527103766097,5.447418872429837,26.43414100583369,-29.892249591318475,-24.407560556604295,-20.701180648601166,2.9467248326753386
0.027222297500139346,0.4065635051684772,-0.37924059359223866,-0.0564263502068402,-0.1846492688510407,0.060652569170059845,0.34382273567737637,-0.6596212262588611,0.20160983064248586,-0.6951522425765249,0.12130463884065527,0.48641068524629244,5.477507347000263,26.53682959695392,-29.867187999620825,-24.32520727349287,-20.830093339246442,2.923182298768
0.027918741459611516,0.40523027399089967,-0.37882974323604984,-0.05783198356498538,-0.18440859002524984,0.0616254521226422,0.34822197973608426,-0.6666155887887703,0.20542517809440342,-0.7028166790725915,0.12033941289542145,0.486441476291178,5.506596859669491,26.63977064073231,-29.842700005966186,-24.243806851345113,-20.958617543989725,2.900896406901423
0.02862397545040638,0.4038831351274723,-0.3784112047024454,-0.059252838781670536,-0.18416993966208706,0.06259834493650067,0.3526169953974311,-0.6735694317136797,0.20926926680223482,-0.7104276083425757,0.11932518158138941,0.4864464069292379,5.534694963469767,26.74294598553483,-29.818790930434368,-24.16338199702553,-21.086748259486416,2.8798159707223623
0.029337990598071347,0.40252216997949614,-0.3779849208355115,-0.060688807903335175,-0.1839334146679952,0.0635711984115061,0.35700757383248394,-0.6804825739881004,0.2131419334669404,-0.7179845608323209,0.11826249704592696,0.48642673750271403,5.561809578802964,26.846337226368327,-29.795465676879836,-24.083955247780363,-21.21448037788855,2.859892206060673
0.0300607776132795,0.4011474603044595,-0.37755083481117224,-0.06213978205855002,-0.1836991108424379,0.0645439657479185,0.3613935076040766,-0.6873548375183128,0.2170430121696305,-0.7254870776074216,0.11715191277865493,0.4863836682062,5.587948998447175,26.949925702664963,-29.77272872505217,-24.005548961749625,-21.341808683435506,2.8410786166265725
0.03079232679468926,0.39975908821015177,-0.3771088901424152,-0.063605651478637,-0.18346712287535788,0.06551660243167595,0.36577459070488033,-0.6941860471538788,0.22097233437850733,-0.7329347100434904,0.11599398354000164,0.4863183418787282,5.613121892337402,27.05369249620749,-29.750584122890338,-23.928185308378538,-21.46872784915601,2.82333088496285
0.031532628031875176,0.3983571361487931,-0.3766590306845042,-0.0650863055176982,-0.18323754434477824,0.06648906612500832,0.3701506185929588,-0.7009760306793402,0.22492972895550906,-0.7403270195306011,0.11478926528981652,0.4862318466661882,5.637337312109828,27.157618429199523,-29.729035478996938,-23.851886258739054,-21.59523243368013,2.8066067684097558
0.032281670808325016,0.3969416869111809,-0.37620120064017887,-0.06658163267208071,-0.18301046771454615,0.06746131656212853,0.3745213882249198,-0.7077246188060893,0.2289150221626675,-0.7476635771912579,0.11353831511604237,0.4861252185601058,5.6606046953990425,27.2616840624848,-29.70808595529937,-23.776673575772016,-21.721316878159293,2.7908659998518677
0.03303944420449856,0.39551282362085216,-0.3757353445648425,-0.06809152059930325,-0.18278598433221926,0.0684333154497656,0.3788866980867705,-0.7144316451643938,0.23292803766819048,-0.7549439636112708,0.11224169116344652,0.4859994438185338,5.682933869877992,27.365869693918896,-29.687738259902975,-23.702568804460512,-21.846975503294,2.776070193026605
0.03380593690094372,0.394070629728261,-0.3752614073717379,-0.06961585613646915,-0.18256418442709443,0.06940502637231466,0.3832463482225781,-0.7210969462955645,0.23696859655228042,-0.7621677685829469,0.11089995256241202,0.4858554612745347,5.704335057030443,27.470155356898474,-29.66799464014509,-23.629593261944475,-21.9722025064681,2.7621827521847493
0.034581137181465785,0.3926151890049725,-0.3747793343371125,-0.07115452531818921,-0.18234515710837884,0.07037641470138963,0.3876001402610349,-0.7277203616442507,0.24103651731269918,-0.7693345908600334,0.10951365935779031,0.48569416453748326,5.724818875645926,27.574520819052395,-29.648856875853454,-23.557768027586796,-22.096991958989456,2.749168785902955
0.035365032936345825,0.3911465855378708,-0.37428907110537235,-0.07270741339403697,-0.18212899036350322,0.07134744750957396,0.3919478774400216,-0.7343017335508513,0.2451316158700907,-0.7764440379238773,0.10808337243781804,0.4855164040921711,5.744396345027379,27.678945581098276,-29.630326272818074,-23.487113933000767,-22.22133780343702,2.736995024857494
0.03615761166560434,0.38966490372338275,-0.3737905636942262,-0.07427440484555754,-0.18191577105657702,0.07231809348817489,0.3962893646292579,-0.7408409072440297,0.24925370557307097,-0.7834957257602878,0.1066096534631006,0.4853229893004652,5.763078887901808,27.783408875870055,-29.612403656481074,-23.417651552048785,-22.345233851114,2.725629743377656
0.0369588604823066,0.3881702282617161,-0.37328375849982,-0.07585538340285078,-0.18170558492698569,0.07328832286879498,0.40062440835112834,-0.7473377308333214,0.25340259720309644,-0.7904892786466159,0.10509306479566626,0.485114690310049,5.780878333024537,27.8878896675202,-29.595089365852065,-23.349401190821837,-22.468673779607926,2.7150426846054625
0.03776876611590613,0.38666264415111246,-0.37276860230186176,-0.07745023206074794,-0.1814985165881295,0.07425810734854411,0.4049528167997646,-0.7537920553018231,0.2575780989791201,-0.7974243289485844,0.10353416942809518,0.484892239874567,5.797806917467785,27.99236665090234,-29.578383247655044,-23.28238287760948,-22.59165113045784,2.7052049890964827
0.038587314915623054,0.38514223668211456,-0.37224504226873767,-0.0790588330946008,-0.18129464952630403,0.0752274200187227,0.4092743998584641,-0.7602037344989548,0.26178001656204586,-0.8043005169264262,0.10193353091272798,0.48465633508928874,5.81387728858458,28.09681825113637,-29.56228465071267,-23.216616352869472,-22.714159306929307,2.696089126704513
0.039414492853854094,0.383609091431848,-0.3717130259626197,-0.08068106807570061,-0.18109406609972212,0.07619623529681513,0.41358896911552145,-0.7665726251332852,0.26600815305899084,-0.8111174905499072,0.10029171329095952,0.4844076390462203,5.829102505639174,28.201222623364135,-29.546792420574757,-23.152121059206614,-22.83619157189808,2.6876688315998325
0.040250285529611185,0.3820632942583172,-0.371172501344565,-0.08231681788634428,-0.18089684753767687,0.07716452886163994,0.41789633787854474,-0.7728985867654115,0.27026230902736503,-0.8178749053218315,0.09860928102262366,0.48414678241240566,5.843496041095384,28.305557652696482,-29.531904894397226,-23.088916131369693,-22.957741045843104,2.6799190402780635
0.04109467817198584,0.3805049312947154,-0.3706234167796074,-0.08396596273456357,-0.18070307393984592,0.07813227759150991,0.42219632118732736,-0.7791814818008874,0.2745422824787785,-0.8245724241096447,0.09688679891547576,0.4838743649349878,5.857071781554619,28.409800954358815,-29.5176198960766,-23.027020386275716,-23.078800704950403,2.6728158324232196
0.041947655643636526,0.378934088943749,-0.3700657210418418,-0.08562838216853311,-0.18051282427573637,0.07909945950526277,0.42648873582534264,-0.7854211754831909,0.278847868882785,-0.8312097169847689,0.09512483205477994,0.4835909568764329,5.869844028335405,28.513929874038453,-29.50393473164734,-22.9664523130704,-23.199363379328457,2.6663363744949544
0.042809202444296375,0.3773508538719756,-0.3694993633195009,-0.08730395509067175,-0.18032617638427034,0.0800660537060291,0.43077340032992534,-0.7916175358867255,0.2831788611704723,-0.8377864610693195,0.09332394573300845,0.48329710038316215,5.881827497686749,28.61792148843761,-29.490846184946875,-22.907230063233424,-23.319421751336154,2.6604588659160218
0.04367930271429878,0.3757553130041559,-0.36892429322002507,-0.0889925597714515,-0.18014320697351102,0.08103204032761047,0.43505013500120265,-0.7977704339098491,0.2875350497379077,-0.8443023403898726,0.09148470537966145,0.4829933107906859,5.8930373206277675,28.72175260603729,-29.478350513554876,-22.84937144073757,-23.438968354025462,2.6551624877417392
0.04455794023811845,0.37414755351762,-0.36834046077512617,-0.09069407386292742,-0.1799639916205286,0.08199740048334685,0.4393187619098339,-0.8038797432679268,0.29191622244944904,-0.8507570457379628,0.08960767649121539,0.4826800778681893,5.903489042406338,28.825399768075712,-29.46644344501157,-22.792893892269895,-23.557995569698726,2.6504273536988547
0.045445098447925686,0.37252766283664723,-0.3677478164458443,-0.09240837441200145,-0.17978860477140618,0.0829621162173576,0.4435791049036164,-0.8099453404863988,0.2963221646409298,-0.8571502745370112,0.08769342456120902,0.48235786700538247,5.913198621569942,28.928839249744918,-29.455120173321337,-22.737814497523715,-23.67649562858304,2.646234463486439
0.04634076042715171,0.3708957286268595,-0.3671463111275989,-0.09413533787343223,-0.17961711974138522,0.0839261704580462,0.447830989613013,-0.8159671048938638,0.3007526591227287,-0.8634817307153934,0.08574251501047622,0.4820271203442983,5.922182428642003,29.032047061610054,-29.444375355746967,-22.684149959569478,-23.794460607622607,2.642565658236263
0.047244908914063015,0.36925183878962914,-0.3665358961552334,-0.09587484012260297,-0.17944960871515014,0.0848895469737634,0.45207424345565334,-0.821944918615171,0.3052074861827318,-0.8697511245853721,0.08375551311753515,0.4816882578585934,5.9304572443975365,29.13499895125477,-29.43420310989894,-22.631916595313115,-23.911882429390392,2.6394035780352287
0.048157526305342736,0.3675960814565001,-0.365916523308055,-0.09762675646805824,-0.17928614274725185,0.08585223033052898,0.45630869563986126,-0.8278786665645179,0.30968642358919785,-0.8759581727276329,0.08173298394914387,0.4813416783827922,5.9380402577321325,29.237670405156358,-29.424597011126316,-22.581130326049493,-24.028752861120388,2.6367316214165797
0.04907859465967725,0.365928544983623,-0.36528814481486793,-0.09939096166382058,-0.1791267917626698,0.08681420585171658,0.4605341771672565,-0.8337682364385518,0.3141892465935352,-0.8821025978811711,0.07967549229103248,0.4809877605937976,5.944949063118672,29.340036650794307,-29.415550090212424,-22.531806668119565,-24.145063513862258,2.634533906731303
0.050008095701346206,0.364249317946204,-0.36465071335900195,-0.10116732992149717,-0.17897162455751214,0.08777545957961035,0.4647505208344783,-0.8396135187094718,0.31871572793300074,-0.8881841288382921,0.07758360257882246,0.48062686394688714,5.951201657646564,29.442072658995645,-29.40705483138167,-22.483960723678585,-24.260805841759137,2.6327952353149957
0.05094601082381436,0.3625584891329678,-0.3640041820833353,-0.10295573492218617,-0.17882070879985384,0.08873597823874696,0.4689575612340772,-0.8454144066181294,0.3232656378333297,-0.8942025003444972,0.07545787882914402,0.4802593295683064,5.956816437638724,29.543753146519407,-29.399103170620677,-22.43760717158355,-24.375971141450325,2.6315010563695824
0.05189232109332359,0.36085614754063355,-0.3633485045953127,-0.10475604982819224,-0.17867411103071193,0.0896957492009599,0.47315513475461785,-0.8511707961671264,0.327838744011306,-0.9001574530030366,0.07329888457096238,0.4798854811064769,5.961812194841674,29.64505257888443,-29.391686494319703,-22.39276025840735,-24.490550551600016,2.6306374334829137
0.05284700725248366,0.35914238236840573,-0.36268363497195816,-0.10656814729456009,-0.17853189666515767,0.09065476045204739,0.47734307958003636,-0.8568825861139077,0.33243481167728345,-0.9060487331839231,0.07110718277712448,0.4795056255437395,5.9662081121847885,29.745945173442806,-29.384795638236685,-22.349433789587188,-24.60453505255323,2.630191012712933
0.05381004972386025,0.35741728301247805,-0.3620095277648828,-0.1083918994804345,-0.1783941299935654,0.09161300055998832,0.4815212356882926,-0.862549677963849,0.33705360353766617,-0.9118760929372088,0.06888333579613748,0.47912005397046653,5.970023759105078,29.846404902701025,-29.378420886789687,-22.30764112071487,-24.717915466120544,2.6301489921663364
0.05478142861355896,0.35568093906055137,-0.3613261380052881,-0.11022717806025517,-0.17826087418299702,0.0925704586446349,0.4856894448493572,-0.8681719759633385,0.34169487979735974,-0.9176392899103358,0.06662790528419076,0.4787290423232898,5.973279086434021,29.946405497891863,-29.372551972679986,-22.26739514897599,-24.8306824554923,2.6304990930052243
0.0557611237148041,0.35393344028636564,-0.36063342120896374,-0.11207385423479393,-0.17813219127872215,0.09352712434881312,0.4898475506225714,-0.8737493870928523,0.34635839816220193,-0.9233380872693799,0.06434145213743325,0.4783328520891107,5.975994420843916,30.0459204527994,-29.36717807685083,-22.22870830474558,-24.94282652528364,2.6312295318179104
0.056749114511510934,0.35217487664424557,-0.35993133338128097,-0.11393179874204197,-0.1780081422058731,0.09448298781076608,0.493995398353416,-0.8792818210600224,0.35104391384138295,-0.9289722536240174,0.062024536424518224,0.47793173097648217,5.97819045885108,30.14492302783833,-29.36228782878399,-22.191592543346975,-25.054338021711875,2.6323289942933603
0.05774538018185039,0.35040533826366016,-0.35921983102218125,-0.11580088186795406,-0.17788878677123424,0.09543803963787784,0.49813283516972634,-0.8847691902926991,0.35575117954986624,-0.9345415629560488,0.05967771731942747,0.4775259135558762,5.979888260374114,30.243386254390458,-29.35786930713821,-22.156059336980967,-25.165207132906247,2.6337866101413394
0.05874989960180516,0.34862491544379615,-0.35849887113115964,-0.11768097345705672,-0.17777418366516506,0.0963922708816184,0.5022597099773864,-0.8902114099320071,0.360479945510819,-0.9400457945513254,0.05730155303458732,0.47711562187028306,5.981109241845682,30.34128293939868,-29.353910040731183,-22.122119666832177,-25.275423889352062,2.635591929203038
0.059762651348716236,0.34683369864814534,-0.3577684112122435,-0.11957194292292657,-0.17766439046365648,0.09734567301365345,0.5063758734555363,-0.8956083978253964,0.36522995945806386,-0.9454847329349259,0.05489660075428875,0.4767010660175192,5.981875168876737,30.438585670221123,-29.35039700986971,-22.089784015359154,-25.384978164469164,2.6377348986996236
0.060783613704818884,0.345031778499106,-0.3570284092789664,-0.12147365925854546,-0.17755946363051964,0.09829823790306456,0.510481178051324,-0.9009600745196882,0.37000096663856097,-0.950858167809444,0.05246341656842411,0.47628244470555753,5.982208148472695,30.53526681974539,-29.347316648028226,-22.059062358774874,-25.493859675326497,2.640205841568407
0.06181276466076736,0.34321924577259777,-0.3562788238593365,-0.12338599104653795,-0.17745945851970654,0.09924995779462883,0.5145754779742348,-0.9062663632541184,0.37479270981493246,-0.9561658939962485,0.05000255540655288,0.4758599457821332,5.982130620801415,30.631298551764583,-29.344654843879617,-22.029964159724116,-25.60205798349246,2.642995435838764
0.06285008191914741,0.341396191392691,-0.35551961400080045,-0.12530880646929712,-0.17736442937776192,0.10020082528810847,0.5186586291900259,-0.911527189953378,0.37960492926803907,-0.9614077113795858,0.047514570972309184,0.47543374673981903,5.981665350513396,30.72665282661525,-29.34239694367886,-22.002498360163784,-25.709562496022794,2.64609469500208
0.06389554289797601,0.3395627064262497,-0.35475073927520123,-0.12724197331900391,-0.17727442934640558,0.1011508333185039,0.5227304894142976,-0.9167424832206533,0.3844373627996201,-0.966583424853402,0.045000015678163606,0.4750040151977103,5.980835417615109,30.821301407078003,-29.340527754002732,-21.97667337445266,-25.816362466585375,2.649494949332102
0.06494912473418747,0.3377188820775884,-0.3539721597837312,-0.12918535900754544,-0.17718951046524448,0.1020999751372255,0.5267909181057272,-0.921912174330667,0.38928974573500774,-0.9716928442707645,0.04245944058055205,0.47457090936080454,5.979664207896916,30.915215864540247,-29.339031544844982,-21.95249708265624,-25.922446996723824,2.6531878281141195
0.06601080428710546,0.3358648096831429,-0.35318383616187937,-0.131138830576337,-0.1771097236746137,0.10304824429414174,0.5308397764589954,-0.9270361972227211,0.39416181092592706,-0.9767357843957704,0.03989339531538429,0.4741345784581129,5.978175402917303,31.008367585422228,-29.337892053069975,-21.929976824072867,-26.027805037258833,2.6571652427432517
0.06708055814190031,0.3340005807061554,-0.3523857295843726,-0.13310225470605266,-0.1770351188185458,0.10399563462046271,0.5348769273974294,-0.9321144884937458,0.3990532887533925,-0.9817120648578324,0.037302428033945,0.4736951631604905,5.97639296954608,31.100727777864027,-29.33709248622432,-21.909119390986532,-26.132425389828853,2.661419370653848
0.06815836261303108,0.3321262867313727,-0.35157780177011116,-0.13507549772626914,-0.1769657446478674,0.10494214021242097,0.53890223556539,-0.9371469873913528,0.403963907130713,-0.9866215101082405,0.034687085339199945,0.4732527959791278,5.97434114906936,31.192267478674786,-29.33661552670791,-21.88993102265222,-26.236296708569306,2.6659426400440447
0.06924419374767193,0.3302420194597589,-0.3507600149870979,-0.13705842562502693,-0.17690164882342235,0.10588775541571217,0.5429155673204262,-0.942133635806899,0.4088933915066165,-0.9914639493788984,0.03204791222252014,0.47280760164560204,5.972044445859767,31.28295756054235,-29.33644333630398,-21.87241739951896,-26.33940750193118,2.6707277153606688
0.07033802732912238,0.3283478707032218,-0.3499323320573609,-0.13905090405831322,-0.1768428779194207,0.10683247481066087,0.5469167907252231,-0.9470743782685592,0.41384146486850637,-0.9962392166431402,0.029385452000836604,0.4723596974743443,5.969527615615935,31.372768739501634,-29.336557561068645,-21.856583637696037,-26.441746134638926,2.675767483511769
0.07143983888020111,0.326443932379353,-0.3490947163618692,-0.1410527983594703,-0.1767894774269122,0.10777629319807755,0.5509057755393646,-0.9519691619344126,0.4188078477458607,-1.0009471505785386,0.026700246254238526,0.47190919370834034,5.96681565317585,31.461671582661214,-29.336939336579523,-21.842434283667192,-26.543300829787025,2.6810550407751625
0.07254960366662298,0.32453029650618187,-0.3482471318454416,-0.14306397354853354,-0.17674149175738416,0.10871920558577523,0.5548823932109345,-0.956817936585544,0.4237922582137875,-1.005587594531615,0.02399283476402744,0.4714561938488434,5.963933779908961,31.549636516186183,-29.3375692935427,-21.829973309258136,-26.64405967107592,2.686583680372966
0.07366729670035894,0.32260705519694355,-0.3473895430216481,-0.14508429434150227,-0.17669896424648168,0.10966120717571493,0.5588465168679785,-0.9616206546191628,0.4287944118967468,-1.010160396484372,0.02126375545124012,0.47100079496984276,5.960907430692888,31.63663383353434,-29.338427563757314,-21.81920410686172,-26.744010605186197,2.6923468806834396
0.07479289274297864,0.3206743006548601,-0.3465219149777032,-0.1471136251595474,-0.1766619371578504,0.11060229335175092,0.5627980213098466,-0.9663772710417413,0.43381402197245256,-1.014665409022564,0.01851354431565278,0.47054308801799616,5.957762240480577,31.722633703945064,-29.339493786436602,-21.810129484925618,-26.84314144429174,2.6983382940626646
0.07592636630897551,0.31873212516793575,-0.34564421337935125,-0.14915183013815866,-0.17663045168709984,0.11154245966794833,0.5667367829984382,-0.9710877434621761,0.4388507991759672,-1.019102489305636,0.01574273537527919,0.47008315809870194,5.954524030464905,31.807606181176542,-29.340747114883854,-21.802751663706843,-26.94143986871008,2.7045517362499867
0.07706769166907425,0.3167806211037658,-0.34475640447574324,-0.15119877313623517,-0.1766045479658871,0.11248170183744624,0.5706626800493689,-0.9757520320849733,0.44390445180399973,-1.023471499038252,0.01295186060637515,0.46962108474895575,5.951218793847719,31.89152121248979,-29.342166223521595,-21.797072271297363,-27.038893429690503,2.710981176332003
0.0782168428535204,0.31481988090435886,-0.3438584551043044,-0.15325431774512185,-0.17658426506611916,0.11342001572184145,0.5745755922230782,-0.9803700997034619,0.44897468571942184,-1.0277723044433469,0.010141449883961894,0.46915694219760573,5.947872681221171,31.97434864787588,-29.343729315271943,-21.793092339924954,-27.135489552338598,2.717620727241348
0.0793737936553522,0.3128499970809728,-0.3429503326955924,-0.15531832729759512,-0.1765696410042734,0.11435739732106863,0.5784754009158973,-0.9849419116930359,0.45406120435601355,-1.0320047762366313,0.00731203092288074,0.46869079961359306,5.9445119855697275,32.056058249522565,-29.34541412928544,-21.79081230253291,-27.231215538676768,2.724464636767383
0.0805385176336544,0.31087106220896393,-0.3420320052781455,-0.1573906648768001,-0.1765607127458346,0.11529384276375411,0.5823619891510952,-0.9894674360044294,0.4591637087234517,-1.036168789602491,0.0044641292193913825,0.46822272134273646,5.941163126901517,32.1366197015176,-29.347197949016234,-21.790231989642763,-27.32605857083975,2.7315072790568387
0.08171098811679424,0.3088831689226499,-0.3411034414833204,-0.1594711933251425,-0.17655751620984794,0.1162293482980213,0.5862352415699194,-0.993946643157026,0.4642818974125541,-1.0402642241712106,0.0015982679933260364,0.46775276713359404,5.937852636518588,32.21600261978342,-29.349057610640386,-21.791350626503057,-27.420005714404095,2.7387431465836265
0.08289117820563954,0.30688640991018545,-0.3401646105501188,-0.16155977525313744,-0.17656008627358633,0.11716391028272712,0.5900950444226495,-0.9983795062322045,0.4694154666007928,-1.044290963997472,-0.0012850318691883058,0.46728099235291076,5.93460714093589,32.29417656224069,-29.350969511814004,-21.794166830527836,-27.513043921850887,2.746166842567813
0.0840790607767589,0.304880877908452,-0.33921548233000265,-0.16365627304821756,-0.17656845677733118,0.11809752517910939,0.593941285559679,-1.0027660008667256,0.47456411005808885,-1.0482488975400621,-0.00418525187242743,0.4668074481911366,5.931453345459463,32.371111039194,-29.352909620767313,-21.79867860902769,-27.605160036159795,2.753773073824571
0.08527460848560418,0.30286666569795967,-0.33825602729169685,-0.16576054888350303,-0.17658266052926552,0.11903018954282635,0.5977738544226417,-1.0071061052461592,0.4797275191529025,-1.0521379176427403,-0.007101875967175248,0.46633218185847813,5.928418017434786,32.44677552393716,-29.354853485731482,-21.804883357236726,-27.696340794534038,2.761556644024918
0.08647779376967538,0.300843866097763,-0.33728621652597957,-0.16787246472653544,-0.17660272931047796,0.1199619000163702,0.6015926420355979,-1.011399800098356,0.4849053828586321,-1.0559579215162114,-0.010034390606224977,0.4658552367719239,5.925527969176781,32.521139463571416,-29.356776244693705,-21.812777856637666,-27.7865728322541,2.7695124473506465
0.08768858885166797,0.2988125719603891,-0.3363060217504589,-0.16999188234797774,-0.1766286938800765,0.12089265332183752,0.6053975409962938,-1.015647068686966,0.49009738776033457,-1.0597088107211532,-0.012982284799264287,0.46537665273366563,5.9228100405935065,32.594172290031636,-29.35865263547542,-21.82235827358796,-27.875842686659478,2.7776354625267548
0.088906965742603,0.29677287616677905,-0.3353154153143353,-0.17211866333028225,-0.17666058398041076,0.12182244625404015,0.6091884454675103,-1.0198478968050053,0.4953032180617817,-1.0633904911522514,-0.015945050167132685,0.4648964661013148,5.9202910815159955,32.66584343131557,-29.360457006130396,-21.833620158249325,-27.96413680125587,2.7859207472153082
0.09013289624494003,0.2947248716212421,-0.3343143702031496,-0.17425266907632864,-0.17669842834240165,0.12275127567394074,0.6129652511685132,-1.0240022727684732,0.500522555592865,-1.0670028730231924,-0.018922180995439478,0.464414709950299,5.917997933747331,32.73612232290887,-29.36216332565559,-21.84655844382237,-28.051441529947347,2.7943634327553304
0.09136635195567326,0.29266865124642205,-0.33330286004351484,-0.1763937608180338,-0.1767422546909767,0.12367913850239835,0.6167278553666184,-1.0281101874100236,0.5057550798173636,-1.0705458708525708,-0.021913174287530732,0.4639314142288019,5.9159574128443495,32.80497841940143,-29.36374519501159,-21.8611674460889,-28.137743141390267,2.80295871923407
0.09260730426941104,0.2906043079782767,-0.33228085910783267,-0.17854179962493513,-0.17679208975061028,0.12460603171420954,0.6204761568688846,-1.0321716340726899,0.511000467841088,-1.0740194034506672,-0.0249175298167938,0.4634466059055955,5.914196289646046,32.8723812062871,-29.365175858445042,-21.877440863263015,-28.22302782346848,2.811701870875503
0.09385572438143892,0.28853193476106936,-0.33124834231899186,-0.18069664641274924,-0.17684795925096686,0.12553195233243175,0.6242100560139447,-1.0361866086036673,0.5162583944204139,-1.0774233939070532,-0.027934750178288066,0.4629603091110965,5.912741271563139,32.93830021194083,-29.366428215108073,-21.895371776152835,-28.307281687886586,2.82058821173249
0.0951115832907669,0.28645162454237305,-0.33020528525504944,-0.1828581619519072,-0.17690988793264623,0.12645689742297567,0.6279294546639896,-1.0401551093481534,0.5215285319712192,-1.0807577695789852,-0.030964340839690675,0.4624725452719635,5.911618983643539,33.00270501976682,-29.367474830969275,-21.91495264863415,-28.39049077488009,2.829613121669758
0.09637485180316072,0.28436347026808656,-0.32915166415389296,-0.1850262068760683,-0.1769778995530293,0.12738086408945473,0.6316342561969118,-1.0440771371432496,0.5268105505782388,-1.084022462080545,-0.03400581019154615,0.4619833332395378,5.910855949429407,33.06556528050892,-29.36828795100729,-21.93617532843683,-28.4726410580394,2.8387720326250503
0.09764550053415796,0.2822675648774627,-0.32808745591788324,-0.1872006416906133,-0.17705201689222294,0.12830384946827955,0.6353243654986231,-1.0479526953119243,0.5321041180048502,-1.0872174072724896,-0.037058669596808876,0.46149268941241395,5.910478571621208,33.126850724717784,-29.368839511682815,-21.959031048245254,-28.553718449246137,2.8480604251367736
0.09892349991206907,0.2801640012981486,-0.32701263811847664,-0.18938132678111885,-0.17713226175910227,0.12922585072398637,0.6389996889555531,-1.0517817896570394,0.537408899703304,-1.0903425452527755,-0.04012243343966758,0.4610006278534177,5.910513112565292,33.18653117536562,-29.369101153680603,-21.983510427112943,-28.633708803718797,2.857473825126473
0.10020882018096375,0.2780528724412377,-0.3259271890008258,-0.19156812242181429,-0.17721865499744954,0.13014686504478887,0.6426601344473398,-1.0555644284554422,0.5427245588254118,-1.0933978203477182,-0.0431966191736411,0.4605071604012509,5.910985674581502,33.244576560601715,-29.369044234914057,-22.009603472192275,-28.712597925165504,2.8670078009251916
0.10150143140364319,0.27593427119633346,-0.32483108748835837,-0.19376088878402178,-0.17731121649218742,0.13106688963834298,0.6463056113397202,-1.0593006224521229,0.5480507562337081,-1.0963831811037534,-0.04628074736893473,0.46001229677705435,5.91192218014775,33.30095692663936,-29.368639843785303,-22.037299580779084,-28.79037157104117,2.876657960533206
0.10280130346459845,0.2738082904266246,-0.3237243131873322,-0.19595948594458132,-0.1774099651757055,0.13198592172771523,0.6499360304776297,-1.0629903848544402,0.553387150513096,-1.0992985802797695,-0.04937434175904679,0.45951604468612767,5.9133483519592085,33.355642450767746,-29.367858812692937,-22.066587542672558,-28.86701545790663,2.8864199491029434
0.10410840607295549,0.2716750229639717,-0.3226068463913662,-0.19816377389426126,-0.17751491903427874,0.1329039585475453,0.6535513041785184,-1.0666337313264147,0.558733397982993,-1.1021439748399715,-0.05247692928661497,0.45901840991503223,5.915289692879533,33.40860345447804,-29.366671731778503,-22.097455542849744,-28.942515266886353,2.8962894466352527
0.10542270876540727,0.2695345616040055,-0.3214786680859462,-0.20037361254615577,-0.17762609511457572,0.1338209973403939,0.6571513462258903,-1.0702306799830923,0.56408915270999,-1.1049193259472518,-0.055588040148492224,0.45851939642429523,5.917771465802588,33.45981041669651,-29.365048962904,-22.129891164454634,-29.016856649222685,2.906262165879792
0.10674418090913342,0.2673869991012356,-0.32033975995290415,-0.20258886174406981,-0.1777435095302558,0.13473703535326775,0.6607360718630738,-1.0737812513849776,0.5694540665210357,-1.1076245989570312,-0.05870720784004227,0.45801900643692095,5.920818673442828,33.50923398711539,-29.36296065385213,-22.1638813921009,-29.09002523192295,2.916333850430358
0.10807279170470788,0.26523242816417053,-0.31919010437486983,-0.2048093812708929,-0.1778671774686531,0.13565206983431358,0.6643053977872285,-1.0772854685325375,0.5748277890171607,-1.1102597634115439,-0.06183396919864465,0.45751724052290715,5.92445603807322,33.55684499961161,-29.36037675273913,-22.19941261548741,-29.16200662349676,2.9265002730065417
0.10940851018899507,0.26307094145044896,-0.3180296844396943,-0.20703503085696198,-0.1779971131975459,0.13656609802967348,0.6678592421435948,-1.080743356860777,0.5802099675877551,-1.112824793034533,-0.0649678644463997,0.4570140976799542,5.928707981229742,33.60261448574533,-29.357267022632854,-22.236470633325514,-29.23278641978016,2.936757233913372
0.11075130523803506,0.2609026315619812,-0.3168584839448435,-0.20926567018841466,-0.17813333007200996,0.13747911718049458,0.6713975245199911,-1.0841549442338858,0.5856002474254114,-1.115319665726332,-0.06810843723202363,0.4565095754105471,5.933598603401674,33.646513688327076,-29.35360105636468,-22.27504065757663,-29.302350209843755,2.947100559670764
0.11210114556991818,0.2587275910401013,-0.3156764874017608,-0.21150115891553325,-0.1782758405413538,0.13839112452008573,0.6749201659415633,-1.0875202609399581,0.5909982715413463,-1.1177443635593003,-0.07125523467192466,0.45600366979558077,5.939151663727355,33.68851407504582,-29.34934829152833,-22.315107317998713,-29.370683581981037,2.957526101805171
0.11345799974764977,0.2565459123607297,-0.31448368004019794,-0.21374135666108043,-0.1784246561561347,0.1393021172712151,0.678427088865791,-1.0908393396857825,0.5964036807814146,-1.1200988727735868,-0.07440780739045036,0.4554963755646926,5.945390559715149,33.72858735214594,-29.34447802565277,-22.35665466699961,-29.43777212977388,2.968029735795879
0.11482183618200527,0.25435768792954633,-0.3132800478125125,-0.21598612302862683,-0.1785797875752533,0.14021209264354204,0.6819182171777528,-1.0941122155917047,0.6018161138427273,-1.1223831837731946,-0.07756570955929767,0.4549876861634573,5.952338307009544,33.76670547814523,-29.338959431542158,-22.3996661847956,-29.5036014582316,2.978607360168629
0.11619262313437659,0.2521630100771732,-0.3120655773979307,-0.21823531761087148,-0.17874124457312546,0.1411210478311772,0.6853934761856567,-1.0973389261865616,0.6072352072908866,-1.1245972911223212,-0.08072849893607628,0.45447759381759334,5.9600175192226565,33.802840677582275,-29.33276157277091,-22.44412478487248,-29.56815719000013,2.989254895729876
0.11757032871960986,0.2499619710543678,-0.310840256206775,-0.22048879999795537,-0.17890903604692948,0.14202898001036585,0.6888527926166339,-1.1005195114026867,0.612660595577851,-1.1267411935419451,-0.08389573690201674,0.4539660895943216,5.968450387851522,33.83696545478301,-29.325853419323742,-22.49001281974715,-29.631424971637593,2.9999682849345986
0.11895492090883546,0.24775466302722582,-0.30960407238465415,-0.22274642978576864,-0.17908317002392712,0.14293588633728788,0.6922960946128016,-1.103654013570985,0.6180919110604401,-1.1288148939066374,-0.08706698849881478,0.45345316346101217,5.9776586623015024,33.86905260763738,-29.318203863371103,-22.537312087026788,-29.69339047995288,3.0107434913815556
0.12034636753229065,0.24554117807239367,-0.30835701481661515,-0.2250080665842518,-0.17926365366885633,0.14384176394597037,0.6957233117275946,-1.1067424774160783,0.6235287840194949,-1.1308183992415708,-0.09024182246460342,0.4529388043412473,5.987663630036546,33.89907524137369,-29.309781735168073,-22.586003835762767,-29.75403942840278,3.021576499429403
0.12174463628213539,0.24332160817229062,-0.30709907313125573,-0.2272735700256912,-0.17945049329139443,0.14474660994630723,0.6991343749223662,-1.1097849500515193,0.628970842679701,-1.132751720719702,-0.09341981126904468,0.4524230001684239,5.998486096876986,33.92700678232183,-29.300555819067352,-22.636068773096326,-29.8133575735451,3.0324633139278303
0.12314969471526191,0.24109604521034048,-0.30583023770479556,-0.22954279977300943,-0.1796436943536895,0.14565042142218126,0.7025292165632604,-1.112781480975072,0.6344177132300901,-1.134614873659104,-0.09660053114753295,0.45190573793701266,6.01014636746559,33.95282099165282,-29.290494869633072,-22.687487071192514,-29.87133072154239,3.043399960057733
0.12456151025609861,0.23886458096621235,-0.3045504996651051,-0.23181561552805027,-0.17984326147795848,0.14655319542968442,0.7059077704183532,-1.1157321220640593,0.6398690198452273,-1.1364078775204232,-0.09978356213450223,0.4513870037515844,6.022664225922641,33.97649197908598,-29.279567627847726,-22.740238374458883,-29.927944734713577,3.0543824832749196
0.12598005019940875,0.2366273071110708,-0.3032598508956909,-0.23409187703985915,-0.18004919845415016,0.14745492899543186,0.7092699716550637,-1.1186369275707748,0.6453243847070983,-1.1381307559044394,-0.10296848809582979,0.4508667828737119,6.036058916711002,33.997994216550694,-29.267742837397346,-22.79430180704552,-29.98318553812909,3.065406949351674
0.1274052817130844,0.2343843152028349,-0.3019582840396355,-0.23637144411295855,-0.18026150824767082,0.14835561911496556,0.7126157568378333,-1.121495954117958,0.6507834280277047,-1.1397835365497049,-0.10615489676032866,0.4503450597668467,6.050349125731911,34.017302551793286,-29.254989261025614,-22.849655980621897,-30.037039126245013,3.0764694445110354
0.12883717184093654,0.23213569668144624,-0.3006457925034907,-0.23865417661561902,-0.18048019300717147,0.1492552627512441,0.7159450639260705,-1.1243092606943295,0.6562457680723789,-1.14136625133024,-0.1093423797503223,0.4498218181392693,6.065552961672167,34.03439222191747,-29.241275696945543,-22.906279002426892,-30.089491569572825,3.08756607564865
0.13027568750548127,0.22988154286414586,-0.29932237046112303,-0.24093993448812556,-0.18070525407239404,0.1501538568332145,0.7192578322723601,-1.1270769086501853,0.6617110211838281,-1.1428789362532625,-0.11253053261129409,0.44929704098520395,6.08168793762373,34.049238866847396,-29.226570995295795,-22.9641484835873,-30.140529021380345,3.098692970637148
0.13172079551072313,0.22762194494075977,-0.2979880128575092,-0.24322857775103943,-0.18093669198207527,0.15105139825446287,0.7225540026209325,-1.1297989616930488,0.6671788018069172,-1.1443216314569284,-0.11571895484060539,0.44877071062418616,6.098770952996002,34.06181854270232,-29.21084407463111,-23.023241547700472,-30.190137724419476,3.1098462787083383
0.13317246254493592,0.22535699396899303,-0.2966427154124808,-0.24551996651345556,-0.1811745064819058,0.15194788387194041,0.725833517106391,-1.1324754858833752,0.6726487225141997,-1.1456943812080638,-0.11890724991527565,0.4482428087387669,6.116818275741657,34.0721077350713,-29.194063938434713,-23.08353483967627,-30.238304017676928,3.1210221709084918
0.1346306551834413,0.2230867808697324,-0.2952864746244164,-0.2478139609812553,-0.18141869653254344,0.1528433105047617,0.7290963192526916,-1.135106549630308,0.6781203940322051,-1.146997233899865,-0.12209502531881843,0.44771331641063294,6.135845524916213,34.08008337217776,-29.17619969164054,-23.145004534833173,-30.28501434314307,3.1322168406222746
0.13609533989138606,0.22081139642235745,-0.2939192877738794,-0.2501104214653544,-0.1816692603176777,0.15373767493307214,0.7323423539723719,-1.1376922236874842,0.6835934252684923,-1.1482302420495458,-0.12528189256712755,0.44718221415522036,6.155867653591546,34.08572283792189,-29.15722055715402,-23.207626348243856,-30.330255252595347,3.14342650416084
0.1375664830265181,0.21853093126005968,-0.29254115292720045,-0.25240920838994624,-0.1819261952521445,0.1546309738969819,0.7355715675660232,-1.140232581148884,0.6890674233394755,-1.14939346229591,-0.12846746723340782,0.446649481954892,6.176898932143525,34.08900398479037,-29.13709589235875,-23.271375544324265,-30.37401341439128,3.1546474014099566
0.1390440508419621,0.21624547586517023,-0.2911520689400024,-0.2547101823007399,-0.1821894979900888,0.15552320409556342,0.7387839077220004,-1.1427276974447238,0.6945419935990315,-1.1504869553968318,-0.13165136897214494,0.44611509929075005,6.198952931933421,34.089905146622016,-29.115795205597788,-23.336226946661412,-30.416275620266934,3.1658757965340527
0.14052800948899485,0.21395512056449545,-0.2897520354606666,-0.2570132038731931,-0.182459164433173,0.1564143621859097,0.7419793235163638,-1.1451776503373856,0.7000167396678956,-1.1515107862266178,-0.1348332215421096,0.4455790451731476,6.222042509402781,34.08840515121863,-29.093288172616738,-23.402154948073424,-30.45702879213654,3.1771079787319936
0.14201832501982095,0.2116599555246607,-0.28834105293373885,-0.25931813392073955,-0.1827351897388298,0.15730444478225164,0.7451577654130445,-1.1475825199173835,0.7054912634638512,-1.1524650237732375,-0.13801265282839117,0.4450412981709634,6.246179790600891,34.08448333278987,-29.06954465295772,-23.46913352089667,-30.49625998888863,3.1883402630410815
0.14351496339034941,0.20936007074746196,-0.2869191226032734,-0.26162483340301035,-0.1830175683285567,0.15819344845513103,0.7483191852642289,-1.1499423885993585,0.7109651652327214,-1.1533497411353946,-0.14118929486345635,0.4445018364396982,6.271376156163983,34.07811954422148,-29.04453470629116,-23.53713622749335,-30.533956413174597,3.19956899118511
0.1450178904629713,0.20705555606522577,-0.28548624651611304,-0.2639331634340492,-0.18330629389625117,0.15908136973062792,0.7514635363109514,-1.152257341118102,0.7164380435801672,-1.1541650155194265,-0.14436278384722892,0.4439606377484508,6.297642226764758,34.06929416915533,-29.018228608673358,-23.606136230973693,-30.57010541818457,3.2107905324631982
0.1465270720093391,0.20474650113617657,-0.28404242752510445,-0.2662429852905212,-0.18360135941658354,0.15996820508963958,0.7545907731838888,-1.1545274645246004,0.7219094955042976,-1.1549109282360068,-0.14753276016618658,0.4434176795058267,6.324987849050485,34.05798813387193,-28.990596868719088,-23.676106306126215,-30.604694514406976,3.2220012846755637
0.1480424737131478,0.20243299543981239,-0.28258766929224627,-0.2685541604199145,-0.18390275715340648,0.16085395096720925,0.7577008519043471,-1.156752848182097,0.727379116429097,-1.155587564696635,-0.15069886841147162,0.4428729387848318,6.3534220820876905,34.04418291896311,-28.96161024367601,-23.74701885054961,-30.6377113763668,3.233197675083085
0.14956406117291865,0.20011512827228806,-0.28112197629176894,-0.27086655044873426,-0.1842104786681985,0.16173860375190285,0.7607937298854313,-1.1589335837621673,0.7328465002386727,-1.156195014409892,-0.15386075739601213,0.44232639234679955,6.382953184330907,34.027860570785336,-28.93123975538891,-23.81884589597928,-30.66914384933768,3.2443761613969784
0.1510917999047854,0.19779298874180645,-0.27964535381314426,-0.27318001719068913,-0.18452451482853982,0.16262215978523165,0.7638693659333876,-1.1610697652408024,0.738311239312328,-1.156733370977446,-0.15701808017065108,0.44177801666439853,6.4135886011325685,34.009003712683636,-28.899456706143365,-23.89155911980241,-30.698979956024747,3.2555332327958126
0.15262565534528363,0.19546666576401747,-0.27815780796402334,-0.2754944226548687,-0.1848448558166184,0.16350461536111918,0.7669277202491093,-1.1631614888944934,0.7437729245604627,-1.1572027320897855,-0.16017049403928071,0.44122778794376477,6.445334952810626,33.98759555597417,-28.86623269437503,-23.965129856753336,-30.727207903211678,3.2666654109662376
0.15416559285414322,0.19313624805742485,-0.27665934567310074,-0.277809629053912,-0.18517149113776435,0.16438596672541078,0.769968754429793,-1.1652088532963147,0.7492311454613039,-1.1576031995216647,-0.16331766057298042,0.44067568214580105,6.478198023290198,33.96361991067731,-28.831539630234445,-24.039529110783562,-30.75381608836953,3.2777692511647487
0.1557115777170847,0.19080182413880087,-0.2751499746929038,-0.2801254988121665,-0.18550440962901066,0.16526621007542414,0.7729924314707365,-1.1672119593119974,0.7546854900984685,-1.1579348791272424,-0.16645924562315606,0.4401216750066831,6.512182749334636,33.93706119598994,-28.795349750994696,-24.114727567097997,-30.778793106221336,3.288841343297383
0.15726357514861922,0.1884634823186089,-0.2736297036025051,-0.2824418945738363,-0.185843599467678,0.16614534155953936,0.7759987157672642,-1.1691709100959884,0.7601355451993607,-1.1581978808348963,-0.1695949193336797,0.4395657420576112,6.547293210381357,33.907904450487486,-28.757635636291248,-24.19069560435058,-30.80212775525901,3.2998783130144407
0.15882155029485276,0.18612131069643392,-0.2720985418101563,-0.2847586792111197,-0.18618904817998205,0.16702335727682704,0.7789875731167691,-1.1710858110874895,0.7655808961744015,-1.1583923186416951,-0.17272435615202866,0.4390078586438431,6.583532618996831,33.87613534204639,-28.718370223181537,-24.267403306991728,-30.823809044207312,3.3108768228176144
0.1603854682362945,0.183775397156421,-0.2705564995558421,-0.2870757158323347,-0.1865407426496609,0.16790025327671312,0.781958970720858,-1.1729567700064694,0.7710211271570949,-1.158518310607512,-0.17584723483942336,0.4384479999430432,6.620903311964774,33.841740177477156,-28.67752682101381,-24.34482047775996,-30.843826198431245,3.321833573176658
0.16195529399066966,0.18142582936272172,-0.26900358791375223,-0.28939286779003226,-0.18689866912662081,0.16877602555867907,0.7849128771875868,-1.1747838968496414,0.7764558210449262,-1.1585759788487617,-0.17896323847996373,0.4378861409829797,6.6594067420209,33.804705911858804,-28.635079126094137,-24.422916650309848,-30.862168666281725,3.3327453036531205
0.16353099251573722,0.1790726947549489,-0.26743981879467005,-0.29170999868909575,-0.18726281323559835,0.16965067007199627,0.787849262533773,-1.1765673038864024,0.7818845595410935,-1.158565449531745,-0.1820720544887647,0.43732225665860247,6.699043470246968,33.76502015756614,-28.591001236139505,-24.501661101968658,-30.878826125376044,3.343608794028496
0.16511252871211196,0.17671608054363946,-0.2658652049482759,-0.29402697239482695,-0.18763315998483654,0.17052418271549333,0.7907680981873693,-1.1783071056547243,0.7873069231970703,-1.1584868528655847,-0.18517337461909106,0.4367563217485296,6.739813159136368,33.72267119298022,-28.545267664507435,-24.581022866613704,-30.89378848880754,3.354420865434501
0.16669986742609175,0.17435607370572548,-0.26427975996536396,-0.2963436530410164,-0.18800969377477353,0.17139655933735526,0.793669356989887,-1.1800034189569906,0.7927224914559957,-1.1583403230947376,-0.188266894968493,0.4361883109309708,6.781714566342395,33.67764797087442,-28.4978533541909,-24.66097074766224,-30.907045911281497,3.3651783814829184
0.16829297345248945,0.17199276098001393,-0.2626834982799702,-0.29865990503799855,-0.1883923984067414,0.1722677957349535,0.7965530131988515,-1.1816563628557724,0.7981308426968902,-1.1581259984910643,-0.19135231598394398,0.4356181987991156,6.824745539120354,33.62994012646712,-28.448733691567597,-24.74147333116608,-30.918588795172077,3.3758782493928834
0.16989181153747,0.16962622886267487,-0.26107643517141077,-0.30097559308068944,-0.18878125709167337,0.1731378876547055,0.7994190424902756,-1.1832660586695354,0.8035315542796924,-1.1578440213454462,-0.19442934246598245,0.43504595987600964,6.868903009473293,33.57953798513314,-28.39788451989417,-24.822498999002484,-30.928407796496533,3.3865174211132825
0.17149634638139227,0.16725656360273833,-0.25945858676622857,-0.3032905821566073,-0.18917625245881708,0.17400683079196338,0.8022674219611364,-1.1848326299682697,0.8089242025911125,-1.1574945379589299,-0.1974976835718603,0.434471568628944,6.914182990010826,33.52643256976607,-28.345282152534324,-24.904015942153258,-30.9364938308021,3.3970928944381855
0.17310654264165595,0.16488385119760027,-0.257829970040046,-0.3056047375538741,-0.18957736656445248,0.17487462079093014,0.805098130131838,-1.186356202569035,0.8143083630912975,-1.1570776986333886,-0.2005570528177004,0.43389499948338,6.960580570529696,33.470615607784275,-28.290903385911836,-24.98599217406375,-30.942838078962225,3.407601714113219
0.17472236493555324,0.16250817738853743,-0.2561906028193234,-0.30791792486919745,-0.18998458090061182,0.175741253244603,0.8079111469486445,-1.1878369045314143,0.819683610361301,-1.1565936576616842,-0.20360716807966714,0.433316226836431,7.008089915323806,33.41207953777279,-28.234725512178183,-25.068395544073237,-30.947431992876897,3.41804097293082
0.17634377784312538,0.1601296276562317,-0.2545405037830207,-0.31023001001583206,-0.19039787640380013,0.17660672369474284,0.8107064537860679,-1.1892748661528652,0.8250495181513526,-1.1560425733173172,-0.206647751594153,0.4327352250699206,7.056704261231003,33.35081751575499,-28.176726331585243,-25.15119375090845,-30.950267301074074,3.4284078128126243
0.17797074591002376,0.15774828721630377,-0.25287969246416087,-0.31254085923151914,-0.1908172334637141,0.17747102763186892,0.8134840334491915,-1.1906702199639625,0.830405659429919,-1.155424607843551,-0.20967852995698583,0.4321519685630377,7.106415916422775,33.2868234210865,-28.116884164554882,-25.23435435623191,-30.951336014207936,3.4386994258769423
0.1796032336503756,0.1553642410148567,-0.2512081892512938,-0.31485033908640314,-0.19124263193195742,0.17833416049527814,0.816243870175915,-1.1920231007235236,0.835751606433547,-1.1547399274419992,-0.21269923412166158,0.4315664317046055,7.157216259942554,33.22009186196558,-28.055177863434693,-25.317844798236003,-30.950630430449728,3.4489130554895713
0.18124120554965378,0.1529775737240295,-0.24952601538985883,-0.31715831649092446,-0.19167405113075064,0.1791961176730881,0.8189859496391019,-1.193333645413606,0.841086930717483,-1.1539887022606605,-0.21570959939660725,0.43097858890498186,7.209095741997168,33.150618180553906,-27.991586823933332,-25.401632405275205,-30.948143140767748,3.459045997296365
0.18288462606755101,0.15058836973756076,-0.24783319298344472,-0.31946465870368723,-0.1921114698616336,0.1800568945023033,0.8217102589486113,-1.1946019932343708,0.8464112032070563,-1.1531711063813943,-0.21870936544147995,0.43038841460760735,7.26204388500554,33.07839845770198,-27.926090996225366,-25.48568440952704,-30.943867034092868,3.46909560023572
0.1845334596408574,0.14819671316636315,-0.24612974499494508,-0.32176923333930085,-0.19255486641415862,0.18091648626890375,0.8244167866531993,-1.1958282855987992,0.8517239942498176,-1.15228731780682,-0.2216982762625083,0.42979588330021584,7.316049285407608,33.00342951727393,-27.858670895718095,-25.56996796067392,-30.93779530236522,3.4790592675296104
0.18618767068634196,0.14580268783410863,-0.24441569524760823,-0.32407190837619415,-0.19300421857457237,0.1817748882079552,0.8271055227422683,-1.197012666127258,0.8570248736684213,-1.151337518446635,-0.22467608020688243,0.42920096952572256,7.37109961623573,32.9257089300668,-27.78930761347305,-25.654450139596932,-30.929921445459282,3.4889344576513945
0.18784722360363684,0.14340637727282482,-0.24269106842597973,-0.3263725521644008,-0.19345950363448478,0.18263209550374082,0.8297764586474496,-1.1981552806418998,0.8623134108142404,-1.150321894103336,-0.22764252995620002,0.4286036478928026,7.4271816304500735,32.84523501731901,-27.717982826273357,-25.739097972072905,-30.92023927598316,3.4987186852691368
0.18951208277812484,0.14100786471850305,-0.24095589007673635,-0.3286710334333155,-0.19392069839952272,0.18348810328991316,0.8324295872439985,-1.199256277160892,0.8675891746217007,-1.1492406344573387,-0.2305973825189756,0.4280038930861726,7.484281165038497,32.76200685380514,-27.644678806331335,-25.82387844246707,-30.908742923949223,3.508409522163112
0.1911822125838288,0.13860723310671813,-0.2392101866094097,-0.33096722129941847,-0.19438777919796715,0.18434290664966635,0.8350649028519859,-1.2003158058924626,0.8728517336633226,-1.148093933051483,-0.23354039922222153,0.42740167987658845,7.54238314588062,32.67602427051124,-27.56937843062778,-25.90875850741149,-30.895426841312172,3.518004598115919
0.19285757738630335,0.13620456506826062,-0.2374539852969988,-0.3332609852739683,-0.19486072188937137,0.1851965006159275,0.8376824012372661,-1.201334019228755,0.8781006562054547,-1.146881987274917,-0.23647134570210884,0.4267969831305691,7.601471593375045,32.58728785688909,-27.492065189877593,-25.99370510946204,-30.88028580637164,3.5275016017741523
0.19453814154552776,0.13379994292478165,-0.2356873142764694,-0.335552195270661,-0.1953395018731588,0.1860488801715672,0.840282079612205,-1.2023110717394803,0.8833355102646877,-1.1456049983463525,-0.2393899918937174,0.4261897778198578,7.661529628827614,32.495798962684475,-27.412723197115046,-26.07868519072474,-30.86331492803624,3.5368982814805223
0.19622386941880005,0.13139344868445094,-0.23391020254913955,-0.33784072161325435,-0.19582409409719856,0.18690004024962847,0.8428639366361466,-1.2032471201653592,0.8885558636649293,-1.144263171296683,-0.24229611201988444,0.4255800390306307,7.722539481598051,32.401559699337895,-27.331337195892345,-26.163665706443208,-30.844509649945685,3.546192446074916
0.19791472536363125,0.12898516403762825,-0.2321226799809493,-0.34012643504315626,-0.19631447306635688,0.1877499757335734,0.8454279724156034,-1.2041423234113415,0.8937612840951291,-1.142856714950959,-0.2451894845791619,0.42496774197246184,7.7844824970010045,32.30457294095435,-27.247892568086527,-26.248613638538988,-30.823865754448175,3.555381965663776
0.19961067374063954,0.12657517035254906,-0.23032477730261403,-0.34240920672697567,-0.19681061285102266,0.18859868145754752,0.8479741885041502,-1.2049968425395945,0.8989513391676324,-1.1413858419097134,-0.24806989233289284,0.42435286198705324,7.847339144957221,32.20484232484179,-27.16237534130933,-26.333496009096493,-30.80137936643022,3.564464772356568
0.20131167891644355,0.12416354867102457,-0.22851652610965972,-0.3446889082640349,-0.1973124870956055,0.189446152206661,0.8505025879020024,-1.2058108407622492,0.9041255964771485,-1.1398507685296333,-0.25093712229141796,0.4237353745567387,7.911089029389229,32.10237225161376,-27.074772195914313,-26.41827989378392,-30.777046956996365,3.573438860968327
0.20301770526655408,0.12175037970415678,-0.2266979588623391,-0.34696541169384204,-0.19782006902700436,0.19029238271728655,0.853013175055263,-1.2065844834338963,0.9092836236603155,-1.1382517149035718,-0.2537909656994238,0.4231152553127684,7.975710898355346,31.99716788485829,-26.985070471598352,-26.502932435202567,-30.75086534699547,3.5823022896875996
0.2047287171782637,0.11933574382806915,-0.2248691088854274,-0.3492385895035218,-0.19833333146304524,0.1911373676773733,0.8555059558548178,-1.2073179380438186,0.9144249884558409,-1.1365889048398972,-0.25663121802044425,0.4224924800433817,8.041182654914905,31.889235150369693,-26.89325817359151,-26.587420856156008,-30.72283171039181,3.5910531807088137
0.20644467905353345,0.11691972107965325,-0.22303001036789702,-0.35150831463520416,-0.19885224682088629,0.19198110172677665,0.8579809376348626,-1.2080113742079521,0.9195492587652019,-1.134862565841175,-0.2594576789205284,0.421867024701675,8.107481368716751,31.778580734943976,-26.79932397843274,-26.67171247283147,-30.69294357747831,3.599689720828388
0.20816555531187553,0.11450239115233211,-0.22118069836246926,-0.3537744604933685,-0.19937678712538845,0.1928235794576032,0.8604381291710433,-1.208664963660565,0.9246560027138833,-1.1330729290821817,-0.2622701522510868,0.4212388654132702,8.17458328830216,31.665212084737632,-26.70325723932733,-26.755774707885028,-30.661198837929074,3.6082101620037337
0.20989131039323192,0.11208383339184083,-0.219321208785043,-0.356036900952143,-0.1999069240174503,0.1936647954145708,0.8628775406781926,-1.2092788802456436,0.929744788713133,-1.1312202293872469,-0.2650684460309301,0.4206079784837905,8.24246385411273,31.54913740318965,-26.605047991083428,-26.839575103423382,-30.62759574369015,3.6166128218747975
0.21162190876084722,0.10966412679202488,-0.21745157841399856,-0.35829551036255686,-0.20044262876230534,0.1945047440953831,0.8652991838076441,-1.2098532999079756,0.9348151855222159,-1.1293047052069243,-0.2678523724275138,0.4199743404061477,8.311097712192566,31.430365648508534,-26.504686954624738,-26.923081333874098,-30.59213291170529,3.624896084247217
0.21335731490413543,0.10724334999065703,-0.21557184488937628,-0.36055016355974484,-0.20098387225778014,0.1953434199511184,0.8677030716441096,-1.210388400683921,0.9398667623111417,-1.12732659859399,-0.27062174773740294,0.4193379278676471,8.380458728573956,31.30890653072437,-26.402165541076858,-27.006261218736984,-30.55480932647561,3.633058399536777
0.21509749334153963,0.10482158126527331,-0.21368204671192859,-0.36280073587010236,-0.2015306250425121,0.19618081738663223,0.8700892187020995,-1.2108843626918586,0.9448990887238475,-1.1252861551787692,-0.2733763923659719,0.41869871775691436,8.450520004333974,31.184770508308027,-26.297475855425844,-27.089082735208795,-30.515624342450746,3.6410982851745555
0.2168424086233834,0.10239889852902871,-0.21178222324204496,-0.36504710311838995,-0.2020828573041248,0.19701693076097354,0.8724576409218723,-1.2113413681223013,0.9499117349418101,-1.1231836241437918,-0.27611613080635405,0.4180566871706475,8.521253891309842,31.057968784359673,-26.190610699747516,-27.171514030674576,-30.47457768625034,3.649014325972624
0.21859202533471317,0.09997537932657338,-0.20987241469854884,-0.3672891416347855,-0.20264053888736014,0.19785175438781394,0.8748083556648951,-1.2117596012276655,0.9549042717480666,-1.1210192581977794,-0.27884079161765735,0.4174118134201999,8.592632008459033,30.92851330236816,-26.08156357600508,-27.253523435057442,-30.431669458713923,3.656805174449371
0.22034630809813077,0.09755110082995,-0.2079526621573656,-0.36952672826188343,-0.20320363930216506,0.19868528253588993,0.8771413817088018,-1.21213924831169,0.9598762705916182,-1.1187933135489663,-0.28155020740246084,0.4167640740379964,8.664625258850052,30.796416741544874,-25.970328688416245,-27.335079473020873,-30.386900136777793,3.6644695511148164
0.22210522157661444,0.09512613983451303,-0.2060230075500612,-0.37175974036163895,-0.20377212773173228,0.1995175094294575,0.8794567392418302,-1.2124804977184893,0.964827303652195,-1.1165060498777588,-0.28424421478360945,0.41611344678378664,8.737203847268898,30.66169251173461,-25.856900945387867,-27.416150876015564,-30.340270575177936,3.6720062447151136
0.22386873047632788,0.09270057275487055,-0.20408349366225048,-0.3739880558222564,-0.20434597304049293,0.20034842924875898,0.8817544498567259,-1.2127835398212363,0.9697569439053548,-1.114157730308735,-0.28692265438032327,0.41545990965073837,8.810337298425395,30.52435474790724,-25.741275961018776,-27.49670659416479,-30.29178200797714,3.679414112436353
0.22563679954941607,0.09027447562084963,-0.20213416413187468,-0.3762115530650204,-0.2049251437820602,0.20117803613050173,0.8840345365440972,-1.2130485670104605,0.9746647651878926,-1.1117486213819927,-0.2895853707836383,0.41480344087137405,8.883994475743103,30.3844183042341,-25.623450056171478,-27.5767158079815,-30.24143604991616,3.686692080067375
0.22740939359678647,0.08784792407348573,-0.20017506344734762,-0.3784301110510681,-0.20550960820712258,0.20200632416834843,0.8862970236852071,-1.2132757736819546,0.9795503422635349,-1.109278993023849,-0.2922322125311965,0.4141440189233531,8.958143600715612,30.241898747752952,-25.503420259112424,-27.65614793991017,-30.189234697587214,3.6938391421214885
0.22918647747087484,0.08542099336103716,-0.19820623694556982,-0.3806436092881019,-0.20609933427128538,0.20283328741341863,0.8885419370441882,-1.213465356224281,0.9844132508888929,-1.1067491185168998,-0.2948630320814029,0.41348162253510207,9.03275227281156,30.096812351626998,-25.38118430572319,-27.734972665688105,-30.135180330429414,3.7008543619171146
0.23096801607839418,0.08299375833502542,-0.19622773080981054,-0.3828519278370408,-0.20669428964285932,0.20365891987480123,0.8907693037596683,-1.2136175130058653,0.9892530678796486,-1.1041592744694475,-0.2974776857869674,0.41281623069129536,9.1077874899102,29.949176088002204,-25.256740639283695,-27.81315992551925,-30.07927571154564,3.7077368716172803
0.23275397438306578,0.08056629344630208,-0.19423959206745664,-0.3850549473186094,-0.20729444171059502,0.20448321552007762,0.8929791523357946,-1.2137324443616722,0.9940693711769469,-1.101509740784302,-0.30007603386785053,0.41214782263818844,9.183215669248181,29.7990076204688,-25.130088409828524,-27.890679935054816,-30.021523988340054,3.7144858722280105
0.23454431740833107,0.07813867274114318,-0.1922418685876287,-0.3872525489198633,-0.20789975759136228,0.20530616827585524,0.8951715126326424,-1.2138103525794506,0.9988617399139671,-1.098800800626967,-0.3026579403836311,0.4114763778888052,9.259002668858507,29.64632529613226,-25.001227473080135,-27.967503196175237,-29.961928692976073,3.721100633555781
0.23633901024004306,0.07571096985737209,-0.1902346090786634,-0.38944461440064976,-0.2085102041377729,0.2061277720283112,0.8973464158559992,-1.213851441885544,1.0036297544826471,-1.0960327403932202,-0.3052232732053154,0.4108018762279817,9.335113809481182,29.49114813730075,-24.870158388960554,-28.043600507567696,-29.900493742654458,3.727580494123993
0.2381380180291361,0.07328325802051158,-0.18821786308546234,-0.39163102610000194,-0.20912574794574612,0.20694802062374573,0.8995038945465124,-1.2138559184302526,1.0083729966005321,-1.0932058496760992,-0.30777190398660714,0.4101242977172672,9.411513896925287,29.33349583279445,-24.736882419684704,-28.118942975093773,-29.83722343971164,3.733924861048944
0.23994130599427246,0.0708556100399661,-0.1861916809867069,-0.39381166694246655,-0.20974635536201544,0.2077669078691451,0.9016439825681907,-1.2138239902727435,1.0130910493777217,-1.0903204212323019,-0.31030370813465713,0.4094436226996849,9.4881672448612,29.17338872888436,-24.601401527439087,-28.19350202194225,-29.77212247153815,3.740133209875143
0.24174883942446496,0.06842809830523511,-0.18415611399193915,-0.3959864204443626,-0.21037199249157607,0.2085844275327538,0.9037667150962495,-1.2137558673654973,1.0177834973838848,-1.0873767509480163,-0.31281856478031334,0.40875983180435277,9.565037698021435,29.010847819867124,-24.46371837164935,-28.267249398561823,-29.70519591031725,3.7462050843705867
0.24356058368167355,0.06600079478215853,-0.1821112141385085,-0.398155170719971,-0.21100262520507185,0.20940057334465573,0.9058721286042919,-1.2136517615382871,1.0224499267153184,-1.084375137804192,-0.31531635674789055,0.40807290595096685,9.642088655788214,28.845894738284194,-24.32383630584066,-28.340157192369524,-29.63644921258434,3.752140096282039
0.24537650420337517,0.06357377100919517,-0.18005703428838446,-0.40031780248765353,-0.2116382191461208,0.21021533899736403,0.9079602608508169,-1.2135118864816785,1.027089925062018,-1.0813158838412653,-0.3177969705244804,0.40738282635414685,9.719283096145224,28.678551744791854,-24.181759374095847,-28.4121978372295,-29.56588821860772,3.757937925050843
0.24719656650510527,0.06114709809373508,-0.177993628124835,-0.40247420107590026,-0.21227873973857844,0.21102871814641933,0.910031150865048,-1.2133364577300467,1.031703081774735,-1.0781992941233556,-0.3202602962288217,0.40668957452764665,9.796583599970885,28.508841717691794,-24.03749230711557,-28.48334412269872,-29.49351915159062,3.7635983174895973
0.2490207361829694,0.05872084670844687,-0.175921050148971,-0.40462425242930417,-0.21292415219373795,0.21184070441099617,0.9120848389320745,-1.213125692644103,1.03628898793199,-1.075025676701944,-0.3227062275797516,0.40599313228842965,9.873952375649827,28.336788142128807,-23.8910405178858,-28.553569203034414,-29.419348616695864,3.7691210874200323
0.250848978916124,0.056295087087661025,-0.17383935567615696,-0.4067678431144623,-0.21357442151746647,0.21265129137451738,0.9141213665773006,-1.2128798103929221,1.040847236407016,-1.071795342579054,-0.3251346618642587,0.4052934817606106,9.951351283979406,28.162415098966207,-23.74241009695822,-28.622846605960678,-29.343383599894036,3.7745061152726826
0.2526812604692244,0.053869889023790085,-0.17174860083228777,-0.4089048603258022,-0.2142295125172768,0.21346047258527592,0.9161407765501973,-1.212599031935468,1.0453774219346008,-1.068508605669949,-0.327545499905158,0.40459060537926445,10.028741863347147,27.985747253345842,-23.59160780734892,-28.69115024118904,-29.26563146663564,3.7797533476488088
0.2545175466948391,0.05144532186378687,-0.16964884254993215,-0.4110351918913329,-0.21488938980933361,0.21426824155706414,0.9181431128073515,-1.2122835800016087,1.049879141177803,-1.065165782765363,-0.32993864602840933,0.4038844858941036,10.106085355155281,27.806809842944297,-23.4386410790622,-28.758454408690913,-29.186099960348688,3.784862796845065
0.2563578035358287,0.04902145450564164,-0.16754013856434313,-0.4131587262783195,-0.21555401782539382,0.2150745917698102,0.9201284204948101,-1.2119336790726172,1.0543519927945104,-1.0617671934932824,-0.3323140080300994,0.40317510637302384,10.183342729468244,27.625628665932425,-23.283518003244822,-28.824733806717663,-29.1047972007633,3.789834540341541
0.25820199702768815,0.046598355394919334,-0.1654225474093355,-0.4152753525988801,-0.21622336081968005,0.21587951667022123,0.9220967459297161,-1.2115495553611513,1.0587955775038147,-1.0583131602803018,-0.3346714971431093,0.4024624502055208,10.260474710858496,27.442230068649742,-23.126247325978568,-28.88996353956615,-29.021731682063812,3.794668720253741
0.2600500933008506,0.04417609252133792,-0.16329612841303118,-0.41738496061550523,-0.21689738287568702,0.21668300967243317,0.9240481365812335,-1.21113143679071,1.0632094981521742,-1.0548040083125652,-0.3370110280034872,0.4017465011059766,10.337441804426136,27.256640933002473,-22.96683844171687,-28.954119125085782,-28.93691227087091,3.7993655427490935
0.2619020585829521,0.041754733415388795,-0.1611609416934725,-0.41948744074649785,-0.21757604791292012,0.2174850641586668,0.9259826410507621,-1.2106795529745598,1.0675933597793346,-1.0512400654963192,-0.33933251861654834,0.40102724311681864,10.414204321967617,27.068888663596212,-22.805301386373795,-29.01717650192599,-28.85034820405457,3.80392527742881
0.263757859201055,0.03933434514500054,-0.15901704815410453,-0.42158268407133404,-0.21825931969356557,0.21828567347988992,0.9279003090514399,-1.2101941351941279,1.0719467696839824,-1.047621662418094,-0.3416358903227225,0.4003046606115507,10.490722408268718,26.87900117461316,-22.64164683007231,-29.07911203652059,-28.76204908638014,3.808348256675554
0.2656174615838289,0.03691499431224682,-0.15686450947912634,-0.4236705823359431,-0.2189471618290919,0.21908483095648523,0.9298011913869348,-1.2096754163768604,1.0762693374891024,-1.0439491323045365,-0.34392106776317005,0.39957873829765767,10.566956067496832,26.687006876444514,-22.475886069559827,-29.139902529807365,-28.672024887989135,3.812634874967868
0.2674808322636879,0.03449674705009974,-0.15470338812871232,-0.4257510279579069,-0.21963953778678227,0.219882529878924,0.9316853399295265,-1.2091236310735383,1.0805606752070105,-1.040222810981912,-0.34618797884518704,0.39884946121938464,10.64286518966765,26.492934662089265,-22.30803102029897,-29.199525223681203,-28.58028594171682,3.8167855881619044
0.2693479378788829,0.03207966901922963,-0.15253374733410424,-0.42782391403157755,-0.22033641089619713,0.2206787635084448,0.9335528075974813,-1.208539015435054,1.0848203973040373,-1.036443036835304,-0.3484365547074209,0.3981168147603913,10.718409577161424,26.29681389332967,-22.138094208241814,-29.257957807178737,-28.486842940248494,3.8208009127413387
0.27121874517554634,0.029663825404852347,-0.15035565109257457,-0.4298891343331126,-0.22103774435556697,0.22147352507773735,0.9354036483317218,-1.2079218071886413,1.0890481207648333,-1.0326101507675245,-0.3506667296849162,0.3973807846462824,10.79354897126373,26.098674386695198,-21.966088761296355,-29.31517842239339,-28.39170693311713,3.8246814250363173
0.2730932210096899,0.02724928091362523,-0.14816916416226203,-0.4319465833254281,-0.221743501238115,0.22226680779163138,0.9372379170717978,-1.20727224561356,1.0932434651562697,-1.028724496157767,-0.3528784412740115,0.396641356947016,10.868243078706033,25.898546399225626,-21.792028400493503,-29.371165670119456,-28.294889323544226,3.828427760412053
0.2749713323491522,0.024836099770592764,-0.1459743520568802,-0.43399615616306814,-0.22245364449830923,0.22305860482778977,0.9390556697311596,-1.206590571516233,1.0974060526909093,-1.0247864188200189,-0.35507163009710785,0.3958985180791896,10.94245159818123,25.696460614045158,-21.61592743086376,-29.425898615224177,-28.196401865126553,3.8320406124280915
0.27685304627549573,0.022424345716183094,-0.14377128104030015,-0.43603774869699063,-0.22316813697804389,0.2238489093374062,0.9408569631717428,-1.2058770272048345,1.10153550829002,-1.0207962669612587,-0.3572462398673278,0.39515225480820565,11.016134246809592,25.49244812575889,-21.43780073203284,-29.479356791747392,-28.09625665837126,3.835520731969038
0.27873832998585146,0.020014082003256436,-0.14156001812100794,-0.43807125747926956,-0.22388694141275006,0.22463771444590683,0.9426418551778689,-1.2051318564633295,1.1056314596461074,-1.0167543911394639,-0.35940221735308664,0.39440255425031817,11.089250786530723,25.286540425683164,-21.257663748545557,-29.53152020772825,-27.994466147081873,3.83886892634761
0.2806271507947104,0.017605371394206502,-0.13934063104643807,-0.44009657976771244,-0.22461002043743525,0.22542501325365594,0.9444104044294699,-1.2043553045249662,1.109693537284939,-1.01266114422145,-0.36153951234259374,0.3936494038745604,11.161761050397054,25.07876938692165,-21.075532479926697,-29.582369349757766,-27.891043114598187,3.84208605838088
0.2825194761356597,0.015198276158116067,-0.137113188297184,-0.4421136135303936,-0.22533733659265184,0.22621079883666506,0.946162670474645,-1.2035476180452176,1.1137213746270371,-1.008516881340568,-0.36365807760830426,0.39289279150455586,11.233624968745074,24.869167249299142,-20.891423470489713,-29.63188518725871,-27.786000679892602,3.8451730454406814
0.2844152735630628,0.01279285806796771,-0.13487775908108676,-0.44412225745010214,-0.22606885233039453,0.22699506424730548,0.9478987137015576,-1.2027090450741782,1.1177146080486158,-1.004321959854284,-0.36575786887134043,0.3921327053202135,11.304802595220348,24.657766604164706,-20.705353798902376,-29.680049176491835,-27.679352293525948,3.848130858479081
0.28631451075368214,0.01038917839791088,-0.13263441332720288,-0.44612241092870547,-0.22680453001992634,0.2277778025150241,0.9496185953096842,-1.201839835028415,1.1216728769419368,-1.0000767393016652,-0.3678388447659006,0.3913691338593085,11.375254132632813,24.44460037907582,-20.517341067519016,-29.72684326428897,-27.57111173346563,3.850960521029741
0.288217155508243,0.00798729792058633,-0.13038322167965274,-0.44811397409142706,-0.22754433195353369,0.228559006647062,0.9513223772804226,-1.2009402386622747,1.125595823775063,-0.9957815813607978,-0.36990096680367535,0.3906020660189501,11.444939958619152,24.22970182237671,-20.327403391490396,-29.77224989151401,-27.461293100769662,3.8536631081863177
0.29012317575293717,0.005587276904509029,-0.12812425549135079,-0.45009684779103937,-0.22828822035221025,0.22933866962917587,0.9530101223470749,-1.2000105080386505,1.129483094150985,-0.9914368498061631,-0.3719441993382879,0.3898314910569379,11.513820651089478,24.013104487681144,-20.135559387660255,-29.81625199625229,-27.349910815139097,3.856239745558672
0.2920325395408656,0.0031891751115106066,-0.12585758681761858,-0.45207093361197137,-0.2290361573712698,0.23011678442636188,0.954681893964214,-1.199050896499211,1.1333343368661002,-0.9870429104659951,-0.37396850952977756,0.38905739859300814,11.581857013435538,23.79484221827292,-19.941828163259547,-29.858833016729015,-27.23697961034251,3.858691608207911
0.29394521505341853,0.0007930517942424135,-0.12358328840968254,-0.45403613387433067,-0.2297881051058881,0.23089334398358183,0.956337756276448,-1.1980616586340964,1.13714920396802,-0.9826001311796461,-0.37597386730914306,0.38827977860997187,11.649010099478552,23.574949131436224,-19.74622930440873,-29.899976893958787,-27.12251452951584,3.8610199195613486
0.2958611706015917,-0.0016010343062597514,-0.12130143370805715,-0.45599235163784063,-0.23054402559657403,0.23166834122649133,0.9579777740865968,-1.1970430502510825,1.1409273508126883,-0.9781088817549849,-0.37796024534296274,0.387498621454746,11.715241238134904,23.353459602726698,-19.54878286443822,-29.939668074126978,-27.00653092034095,3.8632259503081183
0.29778037462723833,-0.003993024962948193,-0.11901209683581558,-0.45793949070569234,-0.23130388083457024,0.23244176906216987,0.9596020128232937,-1.195995328344221,1.1446684361207853,-0.973569533925855,-0.37992761899810884,0.3867139178392797,11.780512057778363,23.130408250196325,-19.349509352037494,-29.977891510704506,-26.889044430105926,3.8653110172766816
0.2997027957042544,-0.006382862465072112,-0.11671535259174878,-0.45987745562831156,-0.23206763276718337,0.23321362037985263,0.9612105385080288,-1.1949187510619597,1.1483721220334018,-0.9689824613096145,-0.3818759663065713,0.3859256588413776,11.844784510278087,22.905829918583578,-19.14842971924399,-30.014632666298454,-26.770071000651633,3.8672764822950487
0.3016284025396977,-0.008770489620421606,-0.11441127644341487,-0.46180615170704115,-0.23283524330304417,0.23398388805166348,0.962803417721649,-1.193813577674747,1.1520380741669614,-0.9643480393647869,-0.38380526793040753,0.38513383590542144,11.90802089469186,22.67975966348103,-18.94556534928173,-30.049877514239572,-26.64962686320702,3.869123751034784
0.30355716397483834,-0.011155849757505863,-0.11209994452008012,-0.46372548499773886,-0.23360667431729784,0.23475256493334948,0.9643807175703316,-1.1926800685421284,1.1556659616673728,-0.9596666453488444,-0.3857155071268331,0.3843384408429926,11.970183880595316,22.452232735491684,-18.740938044260567,-30.08361253990993,-26.527728533117237,3.870854271839762
0.30548904898614043,-0.013538886727664547,-0.10978143360555334,-0.46563536231429115,-0.23438188765672477,0.23551964386501628,0.9659425056510489,-1.1915184850793417,1.1592554572633949,-0.9549386582761517,-0.387606669713468,0.38353946583339704,12.031236531026956,22.22328456438668,-18.53457001274723,-30.115824741812165,-26.40439280446865,3.8724695345406914
0.3074240266861735,-0.01591954490711138,-0.10745582113091495,-0.4675356912320433,-0.23516084514479227,0.23628511767186447,0.967488850016541,-1.190329089723416,1.1628062373191956,-0.9501644588760921,-0.38947874403375354,0.38273690342409483,12.091142325031173,21.99295074327513,-18.326483857217635,-30.14650163238305,-26.2796367446137,3.873971069256335
0.3093620663244532,-0.01829776919890895,-0.10512318516714277,-0.4694263800911461,-0.23594350858663737,0.23704897916492654,0.9690198191398159,-1.1891121458987854,1.1663179818860907,-0.9453444295514033,-0.3913317209225526,0.38193074653103654,12.1498651797805,21.76126701279847,-18.116702561402555,-30.175631238554747,-26.15347768859996,3.875360445182567
0.3113031372882096,-0.020673505034873793,-0.10278360441763588,-0.4713073379998196,-0.23672983977398127,0.23781122114180436,0.9705354818781968,-1.1878679179824214,1.1697903747534424,-0.9404789543367447,-0.39316559367194776,0.38112098843890835,12.207369472259586,21.528269245360043,-17.905249477535982,-30.203202102065458,-26.025933233506972,3.8766392693700515
0.31324720910308346,-0.023046698377410788,-0.10043715821063848,-0.47317847483753467,-0.23751980048997576,0.23857183638740695,0.9720359074369337,-1.1865966712684963,1.1732231034987064,-0.9355684188575215,-0.39498035799724934,0.38030762280128844,12.263620060494159,21.29399342940205,-17.692148313517812,-30.229203279523375,-25.897021232694634,3.8778091854917482
0.31519425143374824,-0.025417295721275955,-0.09808392649156526,-0.4750397012581126,-0.2383133525139822,0.2393308176746884,0.9735211653324022,-1.1852986719325844,1.1766158595366099,-0.9306132102889894,-0.3967760120032259,0.37949064364071644,12.318582304308528,21.058475653740413,-17.477423120001006,-30.253624342227322,-25.7667597899672,3.8788718726010387
0.3171442340844581,-0.027785244095266778,-0.09572398981523036,-0.47689092869274397,-0.23911045762628333,0.24008815776538575,0.9749913253549096,-1.1839741869954108,1.1799683381674484,-0.9256137173156619,-0.3985525561505688,0.3786700453486787,12.372222085595602,20.82175209196885,-17.261098277413453,-30.27645537574589,-25.635167253656494,3.879829043881598
