Joohwan-Seo/mujoco_sysID/Fanuc/Dataset/square_PIH_fanuc_1.csv
q1,q2,q3,q4,q5,q6,dq1,dq2,dq3,dq4,dq5,dq6,t1,t2,t3,t4,t5,t6
5.664057490116886e-05,0.26197578783217296,-0.2616290875021558,-0.00010794911801986304,-1.0471887330226952,1.8721473021420386e-05,0.02832028745058443,0.0882000165117743,0.08515014849679267,-0.05397455900993152,0.004409086951215914,0.009360736510710193,-0.003666489413415578,141.4917949897092,356.4861148016485,-499.7164182368503,-23.65209559636187,0.3035716494896235
0.0001104165328887301,0.2622071318577958,-0.2613824950046094,-0.00027602835111484634,-1.0471891387815615,3.5223783773252244e-05,0.02688797899378062,0.11567201281141613,0.12329624877319342,-0.08403961654749165,-0.00020287943314092807,0.00825115537591593,0.9954577882361472,142.92355618284,356.4860862910978,-499.7263253004182,-24.846283282817303,0.305009425266441
0.000152628356322496,0.2624536855443546,-0.26109596202066954,-0.0004832179546932601,-1.0471985599398699,4.701744063182934e-05,0.02110591171688296,0.12327684327939839,0.14326649196994773,-0.10359480178920685,-0.004710579154165127,0.005896828429288548,1.996764982209997,144.35562456070463,356.4840484187952,-499.73085833727185,-26.044317279885163,0.3053650918828375
0.00018497872146034752,0.2627022352308145,-0.26078533897518513,-0.0007175443468748655,-1.047213741844174,5.524452514836552e-05,0.01617518256892576,0.12427484322993414,0.15531152274219726,-0.11716319609080272,-0.007590952152040736,0.004113542258268094,2.9983277639144146,145.78744489918807,356.4787991109102,-499.733077151273,-27.244225120706876,0.3060432236300808
0.00021055376699405699,0.2629487073961092,-0.26045837879313516,-0.000971144092493355,-1.0472320973517173,6.141076508328634e-05,0.012787522766854728,0.1232360826473482,0.16348009102499492,-0.12679987280924473,-0.009177753771645964,0.003083119967460406,3.9995119988324626,147.21875777411185,356.469751357796,-499.7341121555982,-28.444951175187455,0.3073051584480679
0.0002319204691711039,0.2631922192703305,-0.2601193721448886,-0.0012385228665454816,-1.0472521157814993,6.672515721113157e-05,0.010683351088523453,0.12175593711064389,0.16950332412327299,-0.1336893870260633,-0.01000921489099216,0.002657196063922619,5.000252661897608,148.64946067993168,356.45671880182636,-499.73413613949015,-29.646041113391618,0.3090409089472604
0.00025094106843335194,0.26343298781200003,-0.2597709880586119,-0.0015157611010398289,-1.0472730744920702,7.206129199612411e-05,0.00951029963112402,0.12038427083477404,0.17419204313838454,-0.13861911724717363,-0.01047935528538966,0.0026680673924962682,6.000636960732255,150.07951837545713,356.4396739400647,-499.733025160291,-30.84729265025651,0.31109169151007665
0.0002689146420676973,0.26367150275749757,-0.25941508975628846,-0.0018000472840128956,-1.0472947391186491,7.803104187458928e-05,0.00898678681717266,0.11925747274877356,0.17794915116171242,-0.1421430914865334,-0.010832313289515163,0.0029848749392325856,7.000765531483364,151.5089418228856,356.41862711906526,-499.7305976085543,-32.048614409123935,0.31333026661401114
0.0002866503346087755,0.26390711582930115,-0.25905359812023687,-0.0020893429687779395,-1.0473173985266457,8.502762155136024e-05,0.008867846270539093,0.11780653590177972,0.18074581802578402,-0.14464784238252193,-0.011329703998298362,0.0034982898383854755,8.000749347058994,152.9379365585707,356.3934977847118,-499.72664712802987,-33.25011108642376,0.315624810055894
0.00030480952883610865,0.2641399002894628,-0.2586876816203594,-0.0023822178354650026,-1.0473412057785145,9.336229980882005e-05,0.0090795971136666,0.11639223008084162,0.1829582499387397,-0.14643743334353143,-0.011903625934432277,0.004167339128729906,9.000595848193907,154.3664392242479,356.3643700231849,-499.7211020622437,-34.45165038833771,0.31796928274063135
0.0003238689309571052,0.26437014454451707,-0.25831815025605237,-0.0026776495600445605,-1.047366293454998,0.0001032586464710858,0.009529701060498266,0.11512212752711834,0.18476568215350833,-0.14771586228977898,-0.012543838241752965,0.004948173331132874,10.000331878958027,155.7944302451748,356.33129741265486,-499.71386693119337,-35.653170528512135,0.32034544665294734
0.000344161573467692,0.26459817840654914,-0.25794561626865325,-0.0029749045943443615,-1.0473927927447864,0.00011487325216371302,0.010146321255293423,0.11401693101602729,0.1862669936995596,-0.14862751714990044,-0.013249644894142171,0.005807302846313607,10.999979729192317,157.22191152155574,356.29430472064035,-499.70486206514596,-36.854638018046714,0.32273830779837503
0.0003659190884975585,0.26482431510489496,-0.25757056649285215,-0.003273456835536982,-1.0474208306221833,0.0001283153255516171,0.01087875751493324,0.1130683491729203,0.18752488790055377,-0.1492761205963104,-0.014018938698409342,0.006721036693952045,11.999554030609021,158.64889348836397,356.25339840567705,-499.69402758672055,-38.05603152300605,0.3251380570481092
0.00038930299911621116,0.2650488341790798,-0.2571933990924407,-0.0035729294381745542,-1.0474505249793684,0.00014366110244039566,0.011691955309326329,0.11225953709242996,0.1885837002057204,-0.149736301318786,-0.01484717859253961,0.007672888444389282,12.999063222685413,160.0753885629615,356.20857468188717,-499.6813198334074,-39.257335437993206,0.32753894892734436
0.00041442629566765525,0.26527197883280385,-0.2568144447838982,-0.003873052756047752,-1.047481981765506,0.0001609638551657891,0.01256164827572206,0.11157232686201995,0.18947715427125933,-0.15006165893659873,-0.015728393068805312,0.008651376362696713,13.998511412150462,161.50140808170408,356.15982448584697,-499.66670724704096,-40.458537159336046,0.3299379244191512
0.00044136816855952976,0.2654939582294733,-0.25643398063635536,-0.004173633978950464,-1.0475152941145893,0.00018026079212608764,0.013470936445937264,0.1109896983347332,0.19023207377141654,-0.15029061145135597,-0.016656174541566402,0.009648468480149271,14.997899798008143,162.92696099034853,356.10713636082306,-499.6501670946308,-41.65962582560523,0.33233357227084426
0.00047018413952302867,0.26571495124583067,-0.2560522399160515,-0.004474535285848147,-1.0475505427314775,0.00020157784053992907,0.014407985481749467,0.11049650817868262,0.19087036015190875,-0.15045065344884184,-0.017624308444145104,0.010658524206920714,15.99722764678446,164.35205338686853,356.05049811116623,-499.631683049688,-42.860591675403725,0.3347254451320668
0.0005009130955220249,0.2659351104080301,-0.25566941957659484,-0.004775658171384627,-1.0475877969174907,0.00022493298662204058,0.015364477999498116,0.1100795810997187,0.1914101697283528,-0.15056144276824002,-0.018627093006553436,0.011677573041055763,16.996492941246597,165.77668847280148,355.98989774474796,-499.6112434366185,-44.06142568592226,0.33711363445898107
0.0005335822099353914,0.2661545655602459,-0.25528568619953007,-0.00507693222396984,-1.0476271158425199,0.00025033862195980073,0.016334557206683274,0.10972757610790977,0.19186668853237482,-0.15063702629260656,-0.019659462514565434,0.01270281766888008,17.995692811753155,167.20086669676465,355.92532399560866,-499.5888399562658,-45.262119351648735,0.3394985140475999
0.0005682104032029458,0.2663734271299325,-0.25490118082845237,-0.005378307101298738,-1.0476685498457725,0.00027780319793872473,0.017314096633777174,0.10943078484329935,0.192252685538847,-0.15068743866444895,-0.020717001626269792,0.013732287989461989,18.994823825399195,168.62458598305088,355.8567665928328,-499.5644667583225,-46.46266454007049,0.34188058841366803
0.0006048107835588619,0.2665917889735169,-0.2545160229648962,-0.005679746796557774,-1.0477121416575006,0.000307332394574116,0.018300190177958014,0.109180921792183,0.19257893177807758,-0.15071984762951798,-0.021795905864016307,0.014764598317695629,19.993882181481986,170.04784199088294,355.78421637373646,-499.53811976520484,-47.6630533933876,0.3442604049857629
0.000643392370805198,0.2668097308303346,-0.2541303139030949,-0.0059812255431057814,-1.0477579274968032,0.00033892994682356635,0.01929079362316804,0.1089709284088722,0.19285453090068616,-0.15073937327400355,-0.022892919651262913,0.01579877612472517,20.9928638443644,171.47062837607209,355.70766530185915,-499.50979617924287,-48.863278259551066,0.3466385047470103
0.0006839613140850391,0.2670273204266593,-0.2537441395294183,-0.0062827248900150295,-1.0478059380338212,0.00037259822857918805,0.02028447163992055,0.10879479816233573,0.19308718683828507,-0.15074967345462395,-0.024005268509030574,0.016834140877810856,21.99176463390035,172.89293704044326,355.6271064282675,-499.47949412390284,-50.06333164285023,0.34901539590422825
0.0007265217517771302,0.26724461527375665,-0.2533575726810431,-0.006584231613864125,-1.0478561992209532,0.00040833866496675403,0.02128021884604553,0.10864742354867246,0.19328342418762257,-0.15075336192454752,-0.02513059356600832,0.01787021819378298,22.990580286763805,174.3147583618149,355.54253382106543,-499.4472123830719,-51.263206167928246,0.35139154125714606
0.0007710764180375364,0.2674616642013376,-0.2529706751378452,-0.006885736227623811,-1.0479087330048225,0.00044615202292892553,0.02227733313020315,0.1085244637904808,0.19344877159893362,-0.15075230687984328,-0.026266891934668316,0.01890667898108574,23.98930649767937,175.73608140152706,355.4539424792058,-499.4129502120292,-52.46289455321295,0.35376735362381995
0.0008176270699604173,0.26767850866362064,-0.2525834993070374,-0.007187231915811954,-1.047963557933057,0.00048603861553497666,0.023275325961440385,0.10842223114152814,0.19358791540392073,-0.15074784409407124,-0.027412464117338966,0.019943296303025576,24.987938946719815,177.1568940889283,355.3613282408622,-499.37670720074505,-53.6623895910503,0.35614319589876176
0.000866174787785059,0.2678951838507169,-0.25219608964931306,-0.007488713773949653,-1.0480206896699262,0.0005279984451795248,0.024273858912320867,0.10833759354813925,0.19370482886214893,-0.15074092906884956,-0.028565868434570863,0.020979914822274064,25.986473316944927,178.57718338360363,355.2646876927189,-499.3384831753068,-54.86168413266894,0.35851938366333386
0.0009167201853290789,0.2681117196337445,-0.25180848388692695,-0.007790178265251457,-1.048080141433813,0.0005720313035417409,0.025272698772009945,0.10826789151381533,0.1938028811930478,-0.150732245650902,-0.029725881943389123,0.022016429181108056,26.984905305368493,179.99693541687066,355.16401808392516,-499.2982781270721,-56.06077107666661,0.36089618908572546
0.0009692635570158205,0.2683281413681614,-0.2514207140274898,-0.008091622832403356,-1.048141924368054,0.0006181368409972706,0.0262716858433708,0.10821086720844518,0.19388492971858345,-0.15072228357594977,-0.030891467120586543,0.023052768727764857,27.983230629349528,181.41613561442122,355.0593172467365,-499.25609216195113,-57.259643360093165,0.36327384534966856
0.0010238049801895072,0.26854447057633435,-0.25103280723184196,-0.008393045620071945,-1.048206047855168,0.0006663146144930757,0.027270711586843355,0.10816460408647566,0.1939533978239152,-0.15071139383429435,-0.03206174355697767,0.024088886747902556,28.981445029881133,182.83476880210605,354.9505835247413,-499.21192546427113,-58.458293951468875,0.36565255116124484
0.0010803443859621553,0.26876072552733066,-0.2506447865499011,-0.008694445276485415,-1.0482725197830756,0.0007165641202769961,0.028269702886324057,0.10812747549814532,0.19401034097044895,-0.150699828206735,-0.03323596395377068,0.025124752891960218,29.979544272811545,184.25281929682882,354.8378157088658,-499.1657782711891,-59.65671584526302,0.3680324750758483
0.0011388816079666165,0.2689769217292931,-0.25025667154465703,-0.00899582081148892,-1.0483413467706488,0.0007688848160118258,0.02926861100223059,0.10809810098122227,0.1940575026220191,-0.15068776750175214,-0.0344134937866057,0.026160347867414845,30.977524148721177,185.67027098440968,354.72101298091303,-499.11765085471313,-60.854902057485695,0.37041375950724065
0.0011994164156431853,0.269193072347499,-0.24986847882137114,-0.009297171494943902,-1.0484125343588169,0.0008232761354799243,0.03026740383828437,0.1080753091029628,0.19409636164294067,-0.15067534172749128,-0.03559379408407452,0.027195659734049256,31.975380471959216,187.0871073861253,354.6001748641501,-499.0675435092047,-62.052845622139586,0.37279652435484056
0.001261948536738255,0.26940918855926405,-0.24948022247641352,-0.009598496783956224,-1.0484860871725077,0.0008797374981436936,0.03126606054753486,0.10805810588251108,0.19412817247881037,-0.15066264450616168,-0.03677640684538034,0.02823068133188462,32.97310907918693,188.5033117154627,354.47530118033274,-499.01545654281114,-63.25053958834252,0.3751808702307348
0.0013264776723117175,0.2696252798551916,-0.24909191447796278,-0.009899796270711636,-1.0485620090578918,0.0009382683151592093,0.03226456778673134,0.10804564796377414,0.1941539992253659,-0.15064974337770543,-0.037960942692020584,0.029265408507757832,33.97070582766418,189.91886692645352,354.3463920125075,-498.9613902717112,-64.44797701797971,0.37756688129486493
0.0013930035065710233,0.26984135429485107,-0.24870356498892474,-0.01020106964504779,-1.0486403031987113,0.0009988679929662852,0.03326291712965285,0.10803721982975323,0.1941747445190185,-0.15063668716807635,-0.03914707040978264,0.030299838903537973,34.96816659343722,191.33375575478684,354.21344767294283,-498.90534501636034,-65.64515098377777,0.379954627722083
0.0014615257131572886,0.270057418723758,-0.24831518264084754,-0.01050231666756979,-1.0487209722148916,0.001061535935242274,0.03426110329313271,0.10803221445345335,0.19419117403859773,-0.15062351126100068,-0.040334508090129825,0.0313339711379944,35.965487269531245,192.74796075274787,354.07646867556065,-498.8473210991524,-66.84205456771815,0.38234416783257874
0.0015320439590195236,0.27027347895749776,-0.24792677476627442,-0.010803537150313777,-1.0488040182461416,0.001126271543769094,0.03525912293111749,0.1080301168698702,0.19420393728656424,-0.15061024137199377,-0.04152301562500761,0.03236780426341006,36.96266376421249,194.16146431888902,353.9354557122984,-498.78731884307143,-68.03868085972607,0.38473554992028425
0.0016045579066678755,0.27048953993795793,-0.24753834759584317,-0.011104730942817925,-1.048889443022836,0.0011930742185949285,0.03625697382417591,0.10803049023007798,0.19421358521562995,-0.15059689625207398,-0.042712388347184556,0.03340133741291726,37.95969199935837,195.57424872321332,353.79040963287855,-498.7253385710319,-69.23502295658403,0.387128813814091
0.001679067215353794,0.27070560586588566,-0.24714990642548262,-0.011405897922070623,-1.0489772479261168,0.0012619433577535475,0.03725465434295927,0.10803296396384725,0.19422058518027843,-0.1505834896263491,-0.043902451640424466,0.03443456957930951,38.956567908955826,196.98629612854253,353.6413314275214,-498.6613806056875,-70.4310739610302,0.3895239922052257
0.001755571541554364,0.27092168031335173,-0.2467614557582435,-0.011707037985241413,-1.0490674340388586,0.0013328783567208753,0.038252163100284946,0.10803722373304664,0.19422533361956507,-0.15057003158539484,-0.045093056370950645,0.03546749948366388,39.95328743773617,198.3975886086441,353.4882222121926,-498.59544526955153,-71.6268269810094,0.3919211117716988
0.0018340705390185483,0.2711377663191631,-0.2463729994246121,-0.012008151044411554,-1.0491600021888878,0.001405878607730018,0.03924949873209216,0.10804300290568006,0.19422816681569324,-0.15055652958507107,-0.04628407501458393,0.036500125504571296,40.94984653994659,199.80810816360784,353.33108321602464,-498.5275328853187,-72.82227512905119,0.39432019412785235
0.0019145638585497061,0.271353866469805,-0.2459845406845712,-0.012309237022743499,-1.0492549529856343,0.001480943499025205,0.04024665976557897,0.10805007532095949,0.1942293700204549,-0.1505429891659725,-0.04747539837328106,0.03753244564759355,41.94624117825331,201.2178367328908,353.1699157706012,-498.45764377630854,-74.01741152175313,0.3967212566240082
0.001997051147640821,0.2715699829681057,-0.24559608231417676,-0.012610295851687459,-1.0493522868512166,0.0015580724141068048,0.04124364454555755,0.10805824915033203,0.19422918519722254,-0.1505294144719802,-0.048666932791132385,0.03856445754079991,42.94246732276872,202.62675620638555,353.00472130083523,-498.38577826697554,-75.21222927935239,0.3991243130182438
0.0020815320500388542,0.2717861176914832,-0.24520762667899965,-0.012911327468936914,-1.049452004046804,0.0016372647310000693,0.042240451199016635,0.10806736168875154,0.19422781758855215,-0.15051580862472713,-0.04985859779367415,0.039596158446632224,43.9385209501929,204.0348484338164,352.8355013172047,-498.31193668344775,-76.4067215253714,0.4015293740395232
0.00216800620528717,0.2720022722413541,-0.24481917579642454,-0.013212331816926142,-1.0495541046949761,0.0017185198215669472,0.043237077624158085,0.10807727493546092,0.19422544128755734,-0.15050217399461424,-0.05105032408603135,0.04062754528343897,44.93439804305957,205.44209523271783,352.6622574091502,-498.236119354069,-77.60088138632509,0.40393644785882876
0.0022564732482763,0.2722184479850437,-0.2444307313884962,-0.01351330884172106,-1.0496585887986867,0.0018018370508713184,0.044233521494564824,0.10808787184478641,0.19422220396417256,-0.1504885123974591,-0.05224205185526683,0.04165861465218559,45.93009458907593,206.84847839521572,352.4849912394584,-498.15832660992476,-78.7947019914809,0.40634554048262406
0.002346932808820728,0.27243464609133466,-0.2440422949267472,-0.013814258492196271,-1.049765456257348,0.0018872157766020403,0.04522978027221408,0.10809905314548927,0.1942182308744897,-0.15047482523760486,-0.0534337293306541,0.042689362865360944,46.9256065805469,208.25397969379378,352.3037045394878,-498.0785587853445,-79.98817647266205,0.4087566560809138
0.002439384511271066,0.2726508675606198,-0.2436538676702234,-0.014115180719421104,-1.0498747068804732,0.001974655348554339,0.04622585122516894,0.10811073464255226,0.19421362826190514,-0.15046111361241646,-0.05462531156265117,0.043719785976149415,47.92093001387419,209.65858088620325,352.1183991051088,-497.99681621837084,-81.18129796408812,0.41116979726035563
0.002533827974165548,0.2728671132504764,-0.24326545069773875,-0.014416075476198852,-1.049986340399248,0.0020641551081676626,0.04722173144724091,0.10812284492830015,0.19420848624231932,-0.15044737838887404,-0.0558167593873303,0.0447498798066618,48.916060889121766,211.06226371964792,351.92907679325356,-497.91309925119435,-82.37405960224652,0.41358496529130484
0.002630262809921377,0.27308338389735803,-0.24287704493523546,-0.014716942716718761,-1.0501003564763443,0.002155714388116687,0.04821741787791455,0.10813532344081311,0.19420288125163981,-0.1504336202599551,-0.05700803854808087,0.04577963997451231,49.9109952096397,212.46500993435552,351.73573951898146,-497.8274082305516,-83.56645452579063,0.41600216029630677
0.0027286886245643776,0.273299680134992,-0.24248865117899152,-0.015017782396291434,-1.0502167547142456,0.0022493325119514115,0.04921290732150027,0.1081481188169822,0.19419687812197192,-0.150419839786337,-0.05819911895069163,0.04680906191736212,50.90572898173938,213.86680126663262,351.5383892529846,-497.7397435080868,-84.75847587545958,0.4184213814063831
0.002829105017494246,0.27351600250998304,-0.24210027011530588,-0.015318594471146243,-1.0503355346623087,0.002345008793781954,0.050208196464934074,0.10816118749552826,0.19419053184281293,-0.15040603742740472,-0.05938997403155253,0.04783814091527114,51.900258214413746,215.26761945148078,351.33702801946714,-497.65010544067945,-85.95011679401733,0.4208426268904524
0.0029315115812821252,0.27373235149504715,-0.24171190233719583,-0.015619378898275122,-1.0504566958227524,0.002442742538003639,0.05120328189393971,0.10817449253207322,0.19418388905502657,-0.15039221356443944,-0.060580580221796444,0.04886687211084253,52.89457891909684,216.66744622484322,351.13165789434,-497.5584943907382,-87.14137042620705,0.42326589426237643
0.0030359079014970437,0.27394872750023536,-0.24132354835855957,-0.015920135635311257,-1.050580237655738,0.002542533039058107,0.05219816010745931,0.10818800259409682,0.19417698931812874,-0.1503783685180671,-0.06177091649281211,0.04989525052723411,53.888687109457635,218.0662633255394,350.92228100368595,-497.4649107264642,-88.33222991871901,0.42569118036939524
0.003142293556557798,0.2741651308824523,-0.24093520862618903,-0.016220864640434207,-1.0507061595836795,0.0026443795812264334,0.05319282753037723,0.10820169110848701,0.19416986618526993,-0.15036450256147485,-0.06296096397077278,0.05092327108416325,54.88257880122377,219.46405249693507,350.7088995224531,-497.36935482208594,-89.52268842017001,0.4281184814651017
0.0032506681176070603,0.27438156195352936,-0.24054688352995887,-0.01652156587229519,-1.050834460994899,0.002748281438450553,0.05418728052463111,0.10821553553852939,0.1941625481150848,-0.15035061593049145,-0.06415070560970189,0.051950928612059834,55.87625001203122,220.86079548838998,350.4915156733407,-497.27182705806797,-90.71273908109183,0.43054779326959025
0.0033610311484047434,0.27459802098707076,-0.24015857341146857,-0.016822239289957852,-1.0509651412467274,0.00285423787417962,0.05518151539884152,0.10822951677069197,0.19415505924515633,-0.15033670883133085,-0.06534012591418846,0.05297821786453354,56.86969676129656,222.2564740565164,350.27013172585157,-497.1723278212959,-91.90237505392815,0.43297911101897985
0.003473382205237959,0.27481450822425985,-0.2397702785713724,-0.01712288485285102,-1.051098199668136,0.002962248141238265,0.056175528416607785,0.10824361859454083,0.1941474200480887,-0.15032278144658445,-0.06652921070421439,0.054005133529322374,57.86291507010881,223.65106996627944,350.0447499954826,-497.0708575052403,-93.09158949303797,0.4354124295061367
0.003587720836845199,0.27503102387878314,-0.2393819992755964,-0.017423502520730806,-1.0512336355619674,0.0030723114817140323,0.05716931580361999,0.10825782726164926,0.1941396478879986,-0.1503088339398925,-0.06771794691569999,0.05503167023788377,58.85590096113821,225.0445649919621,349.8153728430338,-496.9674165101009,-94.28037555470499,0.4378477431141291
0.003704046584352664,0.27524756814100615,-0.2389937357606113,-0.017724092253650032,-1.0513714482068302,0.003184427126861592,0.05816287375373236,0.10827213111150853,0.1941317574925352,-0.15029486645961218,-0.06890632243134544,0.05605782257377995,59.84865045855968,226.4369409180172,349.5820026740186,-496.8620052429336,-95.46872639715158,0.440285045843677
0.0038223589812209297,0.2754641411815147,-0.2386054882379048,-0.01802465401193347,-1.0515116368587045,0.0032985942970215868,0.05915619843413285,0.10828652025426726,0.19412376135324488,-0.15028087914171837,-0.07009432593716791,0.057083585079997425,60.84115958798911,227.82817953982365,349.3446419381585,-496.7546241177624,-96.65663518055709,0.44272433133564904
0.003942657553200393,0.275680743154118,-0.2382172568977745,-0.018325187756157695,-1.0516542007523062,0.003414812201552243,0.06014928598973187,0.1083009863016703,0.19411567006515515,-0.15026687211211365,-0.07128194680083368,0.05810895226532817,61.83342437643045,229.21826266436116,349.1032931289498,-496.64527355567725,-97.84409506707937,0.44516559288948293
0.004064941818294153,0.2758973741983958,-0.23782904191254492,-0.018625693447134654,-1.0517991391022432,0.003533080038772097,0.06114213254687986,0.10831552213887777,0.19410749261480073,-0.15025284548847945,-0.07246917496847557,0.059133918609927116,62.825440852232454,230.60717211081678,348.8579587832926,-496.5339539849199,-99.03109922087941,0.4476088234782486
0.004189211286727174,0.27611403444185767,-0.2374408434392959,-0.018926171045898194,-1.0519464511039975,0.003653396995912395,0.06213473421651067,0.10833012173095553,0.19409923662451736,-0.15023879938176873,-0.07365600087718933,0.060158478570148735,63.81720504505363,231.99488971113368,348.6086414811705,-496.4206658409588,-100.21764080814836,0.4500540157609566
0.004315465460920765,0.2763307240017752,-0.2370526616221766,-0.019226620513693025,-1.0520961359347591,0.0037757622490779026,0.06312708709679546,0.10834477995877126,0.19409090855964028,-0.1502247338974161,-0.07484241538082767,0.06118262658275381,64.80871298583415,233.38139731051118,348.35534384537465,-496.30540956655483,-101.40371299713665,0.45250116209260133
0.004443703835471526,0.2765474429867349,-0.23666449659436814,-0.019527041811965674,-1.0522481927541334,0.003900174963215037,0.06411918727538057,0.10835949247982933,0.19408251390423836,-0.15021064913632437,-0.07602840968707329,0.062206357068567114,65.799960706774,234.7666767678631,348.0980685412655,-496.18818561181774,-102.58930895818465,0.45495025453235416
0.004573925897134071,0.2767641914979554,-0.23627634847974782,-0.019827434902357017,-1.0524026207047414,0.004026634292086351,0.06511103083127272,0.10837425561025597,0.19407405731015978,-0.15019654519567174,-0.07721397530407767,0.063229664435657,66.79094424131647,236.15070995624194,347.8368182765651,-496.06899443425647,-103.77442186375517,0.4574012848502375
0.004706131124806923,0.27698096963040486,-0.23588821739430094,-0.02012779974669617,-1.0525594189127319,0.004155139378250549,0.06610261383642578,0.10838906622472175,0.19406554272344106,-0.15018242216957597,-0.07839910399521287,0.06425254308209924,67.78165962413591,237.53347876323272,347.5715958011775,-495.9478364988217,-104.95904488846716,0.45985424453256313
0.004840318989521074,0.277197777473748,-0.2355001034473179,-0.020428136306995453,-1.0527185864882134,0.004285689353047309,0.06709393235707568,0.10840392167157598,0.19405697349151613,-0.15016828014964193,-0.07958378774070433,0.06527498739837974,68.7721028911297,238.91496509132284,347.3024039070299,-495.82471227794343,-106.14317120912996,0.46230912478635683
0.004976488954430799,0.2774146151131498,-0.23511200674240962,-0.020728444545446284,-1.0528801225256235,0.0044182833365862765,0.06808498245486269,0.10841881970088163,0.19404835245414034,-0.1501541192254149,-0.08076801870509952,0.06629699176948392,69.76227007941353,240.29515085824985,347.0292454279346,-495.69962225156314,-107.32679400477927,0.4647659165429645
0.00511464047480635,0.27763148262995657,-0.2347239273783686,-0.0210287244244158,-1.0530440261040428,0.004552920437739705,0.069075760187775,0.10843375840339059,0.1940396820205024,-0.1501399394847571,-0.08195178920968585,0.0673185505767143,70.75215722731942,241.67401799733275,346.7521232394662,-495.5725669071617,-108.50990645671305,0.4672246104609871
0.005254772998028233,0.27784838010227414,-0.23433586544989937,-0.02132897590644412,-1.053210296287461,0.00468959975413825,0.07006626161094164,0.10844873615879644,0.19403096423462146,-0.15012574101416046,-0.08313509170910616,0.06833965819927265,71.74176037439649,243.05154845778688,346.4710402588521,-495.44354673978336,-109.69250174852871,0.46968519692867816
0.005396885963582831,0.27806530760545783,-0.23394782104823775,-0.021629198954242135,-1.053378932125004,0.004828320372169527,0.07105648277729898,0.10846375159185506,0.1940222008308086,-0.15011152389900775,-0.0843179187715341,0.06936030901563808,72.7310755614138,244.42772420502683,346.18599944487596,-495.3125622520564,-110.87457306616042,0.4721476660658983
0.005540978803059133,0.2782822652125282,-0.23355979426167633,-0.021929393530689716,-1.0535499326511277,0.0049690813669790645,0.0720464197381512,0.1084788035351771,0.19401339328070122,-0.15009728822379054,-0.0855002630618685,0.07038049740476882,73.72009883036495,245.8025272209586,345.89700379778856,-495.17961395421094,-112.05611359791708,0.4746120077257236
0.005687050940146416,0.27849925299452355,-0.23317178517601003,-0.022229559598834298,-1.0537232968857828,0.005111881802473367,0.07303606854364147,0.10849389099767816,0.19400454283315108,-0.1500830340722914,-0.08668211732748803,0.07140021774715105,74.70882622447435,247.17593950426203,345.6040563592294,-495.0447023640935,-113.23711653452044,0.4770782114957622
0.0058351017906327135,0.2787162710207992,-0.23278379387491394,-0.02252969712188977,-1.0538990238345551,0.005256720731324799,0.07402542524314858,0.10850901313782679,0.19399565054805054,-0.15006876152773654,-0.08786347438617727,0.07241946442571584,75.69725378820492,248.54794307066604,345.30716021215295,-494.9078280071802,-114.41757506914408,0.4795462666992505
0.005985130762403955,0.2789333193592811,-0.2323958204402639,-0.02282980606323562,-1.0540771124887869,0.005403597194978082,0.07501448588562092,0.10852416924096069,0.19398671732501843,-0.1500544706729237,-0.08904432711589409,0.07343823182664173,76.68537756726697,249.91851995321719,345.00631848076205,-494.7689914165877,-115.5974823974519,0.48201616239596323
0.006137137255443671,0.27915039807668124,-0.23200786495240847,-0.02312988638641628,-1.054257561825679,0.0055525102236582,0.07600324651985814,0.10853935870005306,0.19397774392772643,-0.1500401615903294,-0.09022466844609854,0.07445651434005884,77.67319360862794,251.28765220254252,344.7015343304452,-494.6281931330819,-116.7768317176375,0.48448788738298015
0.006291120661833169,0.27936750723868004,-0.23161992749039942,-0.023429938055140678,-1.0544403708083798,0.005703458836379535,0.07699170319474888,0.10855458099940402,0.19396873100452794,-0.15002583436219893,-0.09140449135040603,0.07547430636066751,78.66069796052324,252.65532188710748,344.3928109677188,-494.4854337050857,-117.95561623046328,0.48696143019533955
0.006447080365752113,0.27958464691008167,-0.23123200813218753,-0.023729961033281923,-1.0546255383860605,0.005856442040956102,0.07797985195947181,0.10856983570081268,0.19395967910595155,-0.15001148907062203,-0.09258378884036346,0.0764916022882835,79.64788667246762,254.02151109347037,344.0801516401718,-494.3407136886854,-119.13382913930013,0.4894367791066009
0.006605015743479444,0.2798018171549454,-0.23084410695478846,-0.024029955284877117,-1.054813063493981,0.006011458834012741,0.078967688863666,0.10858512243185257,0.1939505886995355,-0.14999712579759625,-0.09376255396017759,0.07750839652831945,80.63475579526741,255.38620192653255,343.7635596364137,-494.19403364763565,-120.31146365016693,0.49191392212933716
0.006764926163394596,0.28001901803669726,-0.23045622403442365,-0.024329920774127278,-1.0550029450535454,0.006168508200997164,0.07995520995757559,0.1086004408759307,0.19394146018240688,-0.1499827446250803,-0.09494077978225093,0.07852468349221159,81.62130138103316,256.74937650978654,343.44303828602466,-494.0453941533638,-121.48851297177035,0.49439284701557423
0.006926810985978942,0.28023624961822496,-0.23006835944663975,-0.024629857465397354,-1.0551951819723522,0.006327589116192762,0.08094241129217312,0.10861579076385845,0.19393229389194871,-0.14996834563503877,-0.09611845940340255,0.07954045759779892,82.60751948319283,258.1110169855609,343.1185909595078,-493.894795784973,-122.66497031554444,0.49687354125718597
0.007090669563817472,0.2804535119619584,-0.22968051326641006,-0.024929765323216314,-1.0553897731442354,0.006488700542732085,0.08192928891926483,0.10863117186670526,0.1939230901148453,-0.14995392890947987,-0.09729558594166923,0.08055571326966163,83.59340615650522,259.47110551526345,342.7902210682422,-493.74223912924464,-123.84082889569095,0.49935599208626114
0.007256501241600634,0.28067080512993786,-0.22929268556822055,-0.025229644312277286,-1.0555867174493025,0.0066518414326109335,0.082915838891581,0.10864658398973913,0.19391384909475232,-0.14993949453048677,-0.09847215253359942,0.08157044493942413,84.57895745707415,260.82962427962184,342.4579320644379,-493.5877247806406,-125.0160819292191,0.5018401864754438
0.007424305356126342,0.28088812918387246,-0.22890487642614296,-0.025529494397437773,-1.0557860137539665,0.006817010726702989,0.08390205726285394,0.10866202696728917,0.1939045710388008,-0.14992504258024428,-0.09964815233196435,0.08258464704602773,85.56416944236247,262.18655547892376,342.1217274410917,-493.4312533413037,-126.19072263598545,0.5043261111382591
0.007594081236302113,0.2811054841851892,-0.22851708591389674,-0.025829315543719894,-1.0559876609109742,0.006984207354774943,0.08488794008788544,0.10867750065838974,0.1938952561231121,-0.14991057314106093,-0.10082357850382336,0.08359831403597698,86.54903817120666,263.5418813332544,341.781610731944,-493.27282542105974,-127.3647442387344,0.506813752529425
0.007765828203147324,0.2813228701950754,-0.2281293141049018,-0.02612910771631067,-1.056191657759432,0.00715343023550207,0.08587348342260565,0.1086930049430873,0.19388590449747434,-0.1498960862953877,-0.1019984242288893,0.08461144036356336,87.53355970383153,264.89558408273376,341.43758551143486,-493.11244163741657,-128.53813996313798,0.5093030968451574
0.007939545569795573,0.281540287274514,-0.22774156107232318,-0.026428870880562335,-1.0563980031248281,0.007324678276484209,0.08685868332412446,0.10870853971930897,0.19387651628930794,-0.1498815821258335,-0.1031726826981487,0.08562402049106947,88.51773010186508,266.2476459877521,341.0896553946626,-492.9501026155646,-129.71090303783626,0.5117941300234703
0.008115232641497126,0.28175773548431443,-0.22735382688910913,-0.026728605001992693,-1.0566066958190534,0.007497950374262122,0.08784353585077716,0.10872410490020785,0.1938670916070279,-0.14986706071517827,-0.10434634711269745,0.08663604888895633,89.50154542835364,267.5980493292047,340.7378240373411,-492.7858089883765,-130.88302669447748,0.5142868377444721
0.008292888715621456,0.28197521488513827,-0.22696611162802333,-0.02702831004628546,-1.0568177346404188,0.007673245414334194,0.08882803706216483,0.10873970041191192,0.19385763054289495,-0.14985252214638392,-0.10551941068275973,0.08764752003603613,90.48500174777702,268.9467764087263,340.3820951357578,-492.61956139640625,-132.05450416775815,0.5167812054306626
0.008472513081659838,0.2821927255375215,-0.22657841536167245,-0.02732798597929067,-1.0570311183736725,0.007850562271173459,0.08981218301919061,0.10875532619161539,0.19384813317543312,-0.14983796650260323,-0.1066918666268619,0.0886584284196324,91.4680951260639,270.2938095489236,340.02247242673224,-492.4513604878883,-133.2253286954636,0.5192772182472298
0.008654105021228023,0.2824102675018934,-0.2261907381625295,-0.027627632767025043,-1.0572468457900148,0.008029899808244917,0.09079596978409252,0.10877098218596075,0.19383859957147984,-0.1498233938671876,-0.1078637081711381,0.08966876853572942,92.45082163060721,271.63913109360834,339.65895968757343,-492.2812069187363,-134.39549351850792,0.5217748611023485
0.00883766380806897,0.2826278408385927,-0.22580308010295363,-0.02792725037567243,-1.0574649156471123,0.008211256878023142,0.09177939342047321,0.10878666834966644,0.19382902978792402,-0.1498088043236932,-0.10903492854874738,0.09067853488911225,93.43317733027973,272.9827234080291,339.2915607360386,-492.1091013525418,-135.56499188097456,0.5242741186474811
0.009023188708055626,0.28284544560788144,-0.22541544125520727,-0.028226838771584203,-1.057685326689111,0.00839463232201014,0.09276244999332757,0.10880238464436365,0.19381942387318027,-0.14979419795588622,-0.11020552099938523,0.09168772199349867,94.41515829544967,274.3245688791023,338.92027943029115,-491.9350444605727,-136.7338170301564,0.5267749752776827
0.009210678979193762,0.28306308186995666,-0.2250278216914704,-0.028526397921279697,-1.0579080776466487,0.008580024970753468,0.09374513556906798,0.10881813103760973,0.1938097818684386,-0.14977957484774712,-0.11137547876887544,0.0926963243716642,95.39676059799628,275.66464991564345,338.54511966885775,-491.7590369217714,-137.90196221659622,0.5292774151319072
0.009400133871624859,0.28328074968496075,-0.22464022148385296,-0.028825927791446646,-1.0581331672368663,0.00876743364386459,0.09472744621554813,0.10883390750205177,0.1938001038087245,-0.14976493508347413,-0.11254479510883,0.093704336555561,96.37798031132569,277.0029489485971,338.1660853905871,-491.58107942275285,-139.06942069412693,0.5317814220933184
0.00959155262762903,0.2834984491129902,-0.22425264070440537,-0.029125428348941617,-1.058360594163419,0.008956857150037453,0.09570937800208533,0.10884971401471726,0.19379038972379753,-0.14975027874748614,-0.11371346327636642,0.09471175308643175,97.35881351038663,278.33944843126716,337.7831805746064,-491.401172657803,-140.23618571991187,0.5342869797896047
0.009784934481627993,0.28371618021410305,-0.22386507942512754,-0.029424899560790467,-1.0585903571164867,0.009148294287067291,0.09669092699948176,0.10886555055641262,0.19378063963891368,-0.14973560592442495,-0.11488147653387394,0.09571856851491885,98.3392562716862,279.67413083954574,337.39640924027884,-491.2193173288762,-141.40225055448528,0.5367940715932983
0.009980278660188082,0.2839339430483255,-0.2234775377179766,-0.02972434139418878,-1.0588224547727845,0.009341743841869631,0.09767208928004456,0.10888141711121288,0.1937708535754717,-0.1497209166991572,-0.1160488281488214,0.09672477740116982,99.31930467330591,281.0069786721425,337.0057754471605,-491.035514145593,-142.56760846179253,0.5393026806220956
0.010177584382023293,0.28415173767565755,-0.22309001565487346,-0.03002375381650233,-1.0590568857955718,0.00953720459049951,0.09865286091760539,0.10889731366602923,0.19376103155156132,-0.14970621115677588,-0.11721551139359997,0.0977303743149393,100.29895479491732,282.3379744508134,336.61128329495705,-490.8497638252385,-143.7322527092305,0.5418127897391836
0.010376850857998372,0.284369564156078,-0.2227025133077086,-0.030323136795267533,-1.0592936488346625,0.009734675298170885,0.09963323798753904,0.10891324021024187,0.1937511735824283,-0.1496914893826013,-0.1183815195453956,0.09873535383568814,101.27820271779817,283.66710072058845,336.2129369234797,-490.6620670927588,-144.89617656768786,0.5443243815535698
0.010578077291131934,0.2845874225495488,-0.22231503074834685,-0.030622490298191897,-1.0595327425264347,0.009934154719276245,0.10061321656678168,0.10892919673538881,0.19374127968086868,-0.14967675146218215,-0.11954684588608697,0.09973971055267994,102.2570445248482,284.99434005000035,335.8107405126012,-490.4724246807598,-146.05937331158552,0.546837438420415
0.010781262876599631,0.28480531291601857,-0.22192756804863173,-0.03092181429315449,-1.059774165493839,0.010135641597406396,0.10159279273384858,0.10894518323490152,0.1937313498575634,-0.14966199748129602,-0.12071148370216463,0.10074343906507538,103.23547630060514,286.3196750313112,335.40469828221154,-490.2808373295038,-147.22183621891685,0.549351942441369
0.010986406801737333,0.28502323531542634,-0.221540125280389,-0.03122110874820639,-1.0600179163464085,0.010339134665370446,0.10257196256885145,0.10896119970388098,0.19372138412136217,-0.1496472275259499,-0.12187542628466826,0.10174653398202467,104.2134941312607,287.6430882807401,334.9948144921731,-490.0873057869072,-148.38355857128818,0.5518678754649118
0.011193508246044365,0.28524118980770413,-0.22115270251542996,-0.031520373631571154,-1.0602639936802667,0.010544632645215962,0.10355072215351546,0.10897724613890733,0.19371138247952419,-0.14963244168238043,-0.12303866692913938,0.10274898992275822,105.19109410467662,288.9645624386897,334.5810934422753,-489.8918308085378,-149.54453365395895,0.5543852190866969
0.011402566381186757,0.2854591764527799,-0.22076529982555412,-0.031819608911645265,-1.060512396078138,0.010752134248249313,0.10452906757119604,0.10899332253787858,0.19370134493792268,-0.14961764003705413,-0.12420119893558697,0.103750801516676,106.16827231040047,290.2840801699731,334.16353947218937,-489.69441315761225,-150.70475475588233,0.5569039546498968
0.011613595622165693,0.28567734224813246,-0.22037796372732674,-0.0321188145485729,-1.060762454473502,0.010961641639436798,0.10551462048946796,0.10908289767629052,0.19366804911369975,-0.14960281846381776,-0.12502919768197618,0.10475369559374245,107.14498771727476,291.6015964181996,333.7421544281273,-489.49501488428433,-151.86420189533698,0.5595075914418499
0.01182659925128504,0.2858957999895926,-0.21999076455804334,-0.03241798773145359,-1.06101340230133,0.011173154034342237,0.10650181455967311,0.10922887073005084,0.19359958464170438,-0.14958659144034356,-0.12547391391408305,0.10575619745271976,108.12123401139733,292.9171036193986,333.31692613389697,-489.2936279970826,-153.02287840886098,0.5622031150488973
0.012041567638805236,0.2861145445298729,-0.2196037479524187,-0.03271712566379598,-1.061264850239696,0.011386668274790054,0.10748419376009757,0.10937227014016226,0.19350830281232614,-0.14956896617119708,-0.1257239691829391,0.10675712022390871,109.09702826974022,294.2306157281037,332.88784119525565,-489.0902790835691,-154.180796396418,0.5649396540044287
0.012258494101594374,0.28633354243307346,-0.2192169303900067,-0.03301622794928989,-1.0615165942580485,0.011602182891511971,0.1084632313945693,0.10949895160028658,0.19340878120599145,-0.14955114274695575,-0.12587200917620142,0.10775730836095836,110.07237444853043,295.54212903575205,332.4548962289038,-488.88498734016156,-155.33795587377443,0.5676943750448777
0.012477375088187836,0.28655275825690196,-0.21883030905387585,-0.033315295419399545,-1.061768523969402,0.011819697596164708,0.10944049329673154,0.10960791191426396,0.19331066806541916,-0.14953373505482545,-0.1259648556766827,0.10875735232636904,111.04727230746431,296.8516311840475,332.0180942655793,-488.6777633726722,-156.49435240604456,0.5704566641982631
0.012698208672965368,0.2867721610861997,-0.2184438709280749,-0.03361432920848259,-1.0620205774627498,0.012039212549607122,0.11041679238876603,0.10970141464886492,0.19321906290047378,-0.14951689454152164,-0.1260267466739092,0.10975747672120666,112.02172006505981,298.159105983648,331.5774412392583,-488.4686123179711,-157.64997999356643,0.5732214862673382
0.012920993598267176,0.2869917252772374,-0.2180575987405285,-0.033913330347427946,-1.0622727184950171,0.012260727966358782,0.11139246265090401,0.10978209551884734,0.19313609377320476,-0.14950056947267837,-0.12607051613365905,0.11075770837582935,112.99571525527985,299.4645357067275,331.13294408526497,-488.2575363748028,-158.80483212696436,0.575986443635992
0.013145728837839854,0.287211429759696,-0.21767147432963427,-0.034212299649160255,-1.0625249247494755,0.012484243956121688,0.11236761978633895,0.10985224122931408,0.1930622054471046,-0.14948465086615528,-0.1261031272291419,0.11175799488145322,113.96925504460745,300.7679021099832,330.68460990077654,-488.04453630800737,-159.95890215424038,0.5787504146553014
0.013372413430091825,0.2874312571619663,-0.21728548035894094,-0.03451123771364776,-1.062777181689119,0.012709760478859185,0.11334229612598568,0.10991370113515522,0.19299698534665957,-0.1494690322437518,-0.12612846982171527,0.11275826136874909,114.94233637136723,302.0691868684675,330.2324456301338,-487.82961225147193,-161.1121833984022,0.5815129018381204
0.013601046424171852,0.287651193068747,-0.2168996010779094,-0.03481014496844732,-1.0630294792849542,0.012937277344757378,0.11431649704001434,0.1099679533903214,0.1929396405157618,-0.14945362739977974,-0.12614879791762332,0.1137584329490958,115.91495601743746,303.36837174753896,329.77645797647006,-487.6127641140043,-162.2646691893215,0.5842737125420496
0.013831626866446445,0.2878712254447956,-0.21651382256794616,-0.03510902171182236,-1.0632818102410697,0.013166794228592944,0.11529022113729694,0.11001618802431151,0.19288925498162582,-0.14943837168752214,-0.12616547805776396,0.114758441917783,116.88711064983163,304.66543866181826,329.31665340088057,-487.393991775849,-163.41635286869354,0.5870328003561456
0.014064153798920016,0.2880913441940966,-0.21612813272815826,-0.03540786814837046,-1.063534169008331,0.013398310686780783,0.11626346623678499,0.1100593746504947,0.19284491989395033,-0.14942321827404614,-0.12617938363070763,0.11575822909391954,117.85879684701051,305.9603696869367,328.85303815062036,-487.1732951783993,-164.567227788105,0.5897901858975702
0.014298626259965518,0.28831154081861926,-0.21574252114105677,-0.03570668441583247,-1.0637865512188382,0.013631826173252393,0.11723623052275084,0.11009831226132075,0.19280579355074104,-0.14940813373100498,-0.1261911052535441,0.11675774323580486,118.83001111675476,307.2531470526513,328.38561829355956,-486.95067436051136,-165.7172873063484,0.5925459174135936
0.014535043284777605,0.2885318081489254,-0.21535697889243977,-0.036005470604457246,-1.0640389533482986,0.013867340053258697,0.11820851240604385,0.11013366515304797,0.19277112430850696,-0.1493930943123905,-0.12620106473011186,0.11775694000315204,119.8007499090761,308.543753129568,327.91439975088997,-486.7261294686847,-166.8665247874671,0.5953000514916444
0.014773403905224095,0.28875214012734784,-0.2149714983830468,-0.036304226770745684,-1.0642913725043381,0.014104851615145719,0.11918031022324448,0.11016598921123476,0.19274025469648887,-0.14937808314421785,-0.12620957801974575,0.11875578094351126,120.77100962604499,309.83217041459653,327.43938832580267,-486.4996607549143,-168.0149335996191,0.5980526439440554
0.01501370714931745,0.28897253163069186,-0.2145860731498142,-0.03660295294714741,-1.0645438062862986,0.014344360080384913,0.12015162204667784,0.11019575167201932,0.1927126166162931,-0.14936308820086378,-0.126216890980275,0.11975423261959675,121.74078662958503,311.1183815171782,326.9605897279152,-486.2712685691587,-169.1625071145318,0.6008037458156132
0.015255952040549081,0.28919297832353297,-0.21420069770418135,-0.036901649148901476,-1.0647962526870898,0.014585864612145465,0.12112244561581544,0.11022334642055734,0.19268772281643104,-0.14934810087703262,-0.12622320039560003,0.12075226588027649,122.71007724784106,312.40236914699796,326.47800959386706,-486.04095334987954,-170.30923870732073,0.6035534019346374
0.015500137597239092,0.2894134765358232,-0.21381536738961937,-0.03720031537887578,-1.0650487100209234,0.0148293643226476,0.1220927783450058,0.11024910614512418,0.19266515728099232,-0.14933311498715235,-0.12622866691677234,0.12174985525106745,123.67887778048531,313.68411610332834,325.99165350463886,-485.8087156143355,-171.45512175650924,0.6063016506913623
0.01574626283197294,0.2896340231602067,-0.21343007825799756,-0.03749895163100501,-1.0653011768678349,0.015074858279486859,0.1230626173669234,0.11027331219173601,0.19264456581090547,-0.14931812606461145,-0.12623342345575186,0.12274697841962928,124.64718450319398,314.9636052659223,325.50152700012006,-485.5745559494046,-172.60014964415086,0.6090485243756536
0.015994326751145618,0.28985461556555425,-0.21304482696327004,-0.03779755789274431,-1.0655536520297153,0.015322345511081272,0.12403195958633917,0.11029620267377738,0.1926256473637596,-0.14930313086965302,-0.126237580940202,0.12374361579720666,125.61499367145139,316.24081958729505,325.0076355913731,-485.338475003255,-173.74431575599414,0.6117940497392378
0.016244328354608123,0.29007525152398334,-0.212659610670562,-0.038096134146829046,-1.0658061344946606,0.015571825011365564,0.125000801731252,0.11031797921454266,0.19260814635402929,-0.14928812704236813,-0.12624123247265812,0.12473975014214604,126.58230152379588,317.5157420862123,324.50998477096925,-485.10047347795296,-174.88761348166008,0.6145382486185818
0.016496266635400433,0.2902959291491669,-0.21227442697868953,-0.038394680372542796,-1.0660586234076121,0.015823295743836206,0.12596914039615498,0.11033881259179383,0.19259184593623044,-0.14927311285687406,-0.12624445647581642,0.12573536623532142,127.54910428459536,318.788355842214,324.0085800217086,-484.8605521229904,-176.0300362148158,0.6172811385417214
0.01675014057955309,0.2905166468441357,-0.2118892738542677,-0.038693196546635514,-1.0663111180459268,0.016076756645035682,0.12693697207632837,0.11035884748438098,0.19257656221091307,-0.14925808704635857,-0.1262473191573807,0.1267304505997382,128.51539816642287,320.05864399101745,323.5034268239798,-484.6187117296603,-177.1715773533357,0.6200227332863173
0.017005949165940958,0.2907374032570863,-0.21150414957574684,-0.0389916826439915,-1.0665636177989124,0.016332206627552005,0.12790429319393393,0.1103782064752919,0.1925621392604327,-0.1492430486779926,-0.12624987649277533,0.12772499125816214,129.4811793720905,321.32658972066673,322.99453066197606,-484.3749531261952,-178.31223029944937,0.6227630433779352
0.01726369136617565,0.2909581972439539,-0.21111905268592035,-0.0392901386381177,-1.066816122150611,0.01658964458259936,0.128871100117346,0.11039699343379834,0.19254844491324966,-0.14922799706310164,-0.1262521758492534,0.12871897752367864,130.44644409639113,322.5921762683113,322.4818970289446,-484.12927717357746,-179.45198845987477,0.6255020765279037
0.017523366144526098,0.2911790278367065,-0.21073398195164222,-0.03958856450150246,-1.0670686306652761,0.016849069382237052,0.1298373891752234,0.11041529637630172,0.19253536713906755,-0.14921293169237757,-0.12625425733254297,0.12971239981884541,131.4111885275896,323.85538691751765,321.9655314316218,-483.8816847619366,-180.59084524593757,0.6282398380146685
0.017784972457859382,0.29139989421648244,-0.21034893632967078,-0.039886960205880354,-1.0673211429751008,0.01711047988127642,0.13080315666664144,0.11043318988797163,0.1925228109857183,-0.14919785218894918,-0.126256154912346,0.13070524951968426,132.37540884869927,325.11620499602947,321.4454393939793,-483.63217680745504,-181.7287940736785,0.6309763310143179
0.018048509255596083,0.2916207956908295,-0.20996391493771288,-0.04018532572242883,-1.0675736587698366,0.017373874918918893,0.13176839886835082,0.11045073717352268,0.19251069597894738,-0.14918275827424002,-0.12625789736782714,0.1316975188212354,133.33910123857518,326.37461387390744,320.9216264603865,-483.3807542497137,-182.86582836394945,0.6337115568862645
0.018313975479676038,0.2918417316744183,-0.20957891702987988,-0.04048366102191487,-1.0678261777880056,0.017639253320162505,0.13273311203997828,0.11046799179440313,0.19249895391650634,-0.14916764974301802,-0.12625950908446898,0.1326892006218058,134.30226187284953,327.63059696198866,320.39409819828165,-483.12741804941567,-184.0019415425008,0.6364455154198194
0.018581370064531588,0.2920627016726995,-0.20919394197588492,-0.040781966074805026,-1.0680786998094596,0.017906613897009305,0.1336972924277747,0.11048499914059345,0.19248752699748095,-0.14915252644507762,-0.12626101072703935,0.13368028842340038,135.26488692473256,328.8841377106168,319.8628602004242,-482.8721691864357,-185.13712704006053,0.6391782050468571
0.01885069193706628,0.29228370526805486,-0.20880898924341235,-0.041080240851348475,-1.0683312246490768,0.01817595544950159,0.13466093626734743,0.11050179767768303,0.19247636623629447,-0.1491373882717256,-0.12626241980866598,0.1346707762461413,136.22697256569884,330.13521960860044,319.32791808679536,-482.6150086581487,-186.27137829240624,0.6419096230251562
0.019121940016637657,0.29250474210806204,-0.2084240583831758,-0.04137848532164,-1.0685837521514217,0.018447276766611113,0.1356240397856879,0.11051842000359921,0.19246543011827175,-0.1491222351457613,-0.1262637511724466,0.13566065855476125,137.18851496607454,331.38382618236426,318.78927750619766,-482.3559374779986,-187.40468874043222,0.6446397655964431
0.01939511321504308,0.2927258118955502,-0.20803914901625561,-0.041676699455668015,-1.06883628218622,0.018720576627002123,0.13658659920271127,0.11053489374407112,0.19245468346008435,-0.14910706701400825,-0.1262650173992431,0.13664993019550534,138.1495102955411,332.6299409952633,318.2469441376031,-482.094956674272,-188.5370518302108,0.6473686281226161
0.019670210436507997,0.2929469143801731,-0.20765426082336777,-0.04197488322335145,-1.0690888146445263,0.018995853799686116,0.13754861073245844,0.11055124231145158,0.1924440964439158,-0.14909188384171748,-0.12626622915308247,0.13763858634199563,139.10995472356683,333.873547647035,317.7009236912846,-481.83206728904844,-189.66846101305038,0.6500962052031525
0.019947230577676122,0.2931680493512686,-0.20726939353576998,-0.04227303659456815,-1.0693413494354738,0.01927310704458373,0.13851007058406306,0.11056748554775202,0.1924336437988992,-0.14907668560835044,-0.12626739547376734,0.1386266224488065,140.06984441977744,335.1146297733678,317.1512219097667,-481.5672703773018,-190.7989097455495,0.6528224907762976
0.020226172527601227,0.2933892166318077,-0.2068845469275552,-0.042571159539176916,-1.0695938864835233,0.019552335113007066,0.13947097496255267,0.11058364026955853,0.19242330410739006,-0.1490614723043834,-0.12626852402479433,0.13961403421166768,141.02917555427402,336.3531710455677,316.59784456862246,-481.3005670061302,-191.9283914896485,0.6555474782062662
0.02050703516774029,0.2936104160732673,-0.2064997208091211,-0.04286925202703466,-1.0698464257261302,0.019833536748073786,0.14043132006953088,0.11059972072979961,0.19241305921704865,-0.14904624392887253,-0.1262696213034217,0.14060081753336023,141.98794429790658,337.5891551703092,316.0407974771373,-481.0319582540977,-193.05689971267867,0.6582711603583873
0.020789817371947832,0.29383164755128544,-0.2061149150216359,-0.043167314028009836,-1.0700989671117676,0.020116710685062784,0.14139110210377134,0.11061573900905096,0.1924028937426012,-0.1490310004875882,-0.1262706928186729,0.14158696849449975,142.94614682250935,338.82256588945484,315.48008647886525,-480.7614452106688,-194.18442788740907,0.66099352966385
0.02107451800647132,0.2940529109619797,-0.2057301294323487,-0.04346534551199299,-1.070351510598252,0.02040185565171981,0.14235031726174455,0.11063170534712786,0.1923927946436052,-0.1490157419915778,-0.12627174324217333,0.14257248332851258,143.9037793011037,340.0533869799362,314.91571745208813,-480.4890289757267,-195.31096949209245,0.6637145781754805
0.0213611359299475,0.2942742062188279,-0.20534536393061545,-0.043763346448905095,-1.070604056151324,0.020688970368520226,0.1433089617380907,0.11064762842407484,0.192382750866629,-0.14900046845605283,-0.12627277653596908,0.14355735840020842,144.86083790807308,341.28160225368356,314.34769631019765,-480.2147106591583,-196.43651801050902,0.6664342976157897
0.0216496699933996,0.2944955332500244,-0.2049606184245314,-0.04406131680870414,-1.0708566037434457,0.020978053548895096,0.14426703172604816,0.11066351559827337,0.19237275304202103,-0.148985179899523,-0.12627379606084002,0.14454159018743584,145.81731881931486,342.5071955575989,313.7760290020076,-479.93849138050024,-197.5610669320097,0.6691526794183522
0.021940119040235285,0.29471689199624085,-0.2045758928380775,-0.04435925656139038,-1.071109153352782,0.021269103899425858,0.1452245234178436,0.11067937310821019,0.19236279322694272,-0.1489698763431194,-0.1262748046680846,0.14552517526538017,146.77321821237132,343.7301507735646,313.20072151201066,-479.6603722686348,-198.68460975155776,0.6718697147634403
0.022232481906245383,0.29493828240872777,-0.2041911871087023,-0.0446571656770105,-1.0713617049623365,0.02156212012001211,0.1461814330050482,0.11069520624345118,0.1923528646876084,-0.1489545578100631,-0.12627580477729802,0.14650811029312516,147.72853226654414,344.9504518184825,312.621779860585,-479.38035446152986,-199.80713996977022,0.6745853946086954
0.02252675741960319,0.2951597044477068,-0.2038065011852728,-0.044955044125660995,-1.071614258559221,0.021857100904016418,0.14713775667890377,0.11071101948951936,0.1923429617147515,-0.14893922432524664,-0.12627679844228107,0.1474903920021542,148.6832571629937,346.1680826443382,312.0392101041608,-479.0984391060155,-200.92865109295855,0.6772997097155407
0.02282294440086443,0.2953811580810081,-0.2034218350263383,-0.0452528918774908,-1.0718668141340348,0.022154044938389444,0.14809349063062,0.11072681665065937,0.1923330794672482,-0.14892387591490325,-0.1262777874068908,0.148472017186512,149.63738908482617,347.3830272382879,311.45301833535063,-478.81462735759254,-202.04913663316833,0.6800126506719002
0.023121041662967724,0.29560264328291586,-0.20303718859865907,-0.04555070890270349,-1.0721193716803397,0.02245295090377822,0.14904863105164654,0.11074260095386271,0.19232321383960355,-0.14890851260634444,-0.12627877315236746,0.1494529826943887,150.59092421717,348.5952696227621,310.86321068305085,-478.52892038026823,-203.16859010821915,0.6827242079117561
0.023420313068086205,0.2958241157846925,-0.2026525957520104,-0.04584834495699447,-1.0723719442522839,0.022753553485716397,0.14963570255924113,0.1107362508883098,0.19229642332433966,-0.14881802714548842,-0.12628628597207234,0.15030129096908765,151.54400137110028,349.80463060931083,310.2701453387646,-478.2409641144123,-204.28693989946487,0.6853862861677846
0.023720050864503864,0.2960455617870898,-0.2022680695994126,-0.04614570335444624,-1.072624535060109,0.02305559651219633,0.14986889820882854,0.11072300119866346,0.19226307629888992,-0.14867919872588592,-0.1262954039124776,0.15102151323996751,152.49661482027076,351.0111193838687,309.6737864852305,-477.9507709930627,-205.40418556724165,0.6879964872982955
0.02402000043560717,0.29626700410423723,-0.20188359557195898,-0.046442810785313156,-1.07287713692913,0.023358986086962425,0.14997478555165444,0.11072115857372622,0.192237013726816,-0.148553715433459,-0.12630093451045865,0.15169478738304604,153.4486756930467,352.21483414820267,309.073903433695,-477.65855831043575,-206.52036460232972,0.6905806840043511
0.024320060664547016,0.29648846044260674,-0.20149916132643755,-0.046739717023740204,-1.0731297451709714,0.023663683932439637,0.15003011446992126,0.11072816918476072,0.19221712276071573,-0.14845311921352344,-0.1263041209207476,0.15234892273860604,154.40014994244314,353.41579171753426,308.47043184682,-477.3644003727174,-207.63548504971152,0.6931486104441594
0.02462018587175304,0.2967099406223093,-0.20111475950563093,-0.047036467535039324,-1.0733823576589965,0.023969672158338052,0.15006260360301232,0.1107400898512979,0.19220091040331397,-0.14837525564955809,-0.12630624401253612,0.15299411294920648,155.35102156537,354.6139832473332,307.86335994215847,-477.0683251002582,-208.74954458949216,0.6957050956756686
0.024920352376686376,0.2969314495269038,-0.2007303860875404,-0.04733309796702678,-1.0736349735729387,0.02427694110497493,0.15008325246666707,0.11075445229723696,0.19218670904525884,-0.14831521599372857,-0.1263079569710956,0.15363447331844043,156.30128099078053,355.8093923570468,307.25269194929734,-476.7703446516863,-209.86253740933586,0.6982531254407828
0.025220546372271727,0.29715298948524943,-0.20034603887455238,-0.04762963475238383,-1.0738875926166265,0.024585484869452785,0.15009699779267616,0.11076997917282161,0.19217360649401508,-0.14826839267852376,-0.12630952184389133,0.15427188223892768,157.25092124168185,357.0020009421797,306.63843641772706,-476.47046542077885,-210.97445665144005,0.7007947501320009
0.025520759116857045,0.2973745615924265,-0.19996171661017337,-0.04792609702486102,-1.0741402146693164,0.0248952995011392,0.1501063722926587,0.11078605358852604,0.19216113218949882,-0.14823113623859094,-0.12631102634495273,0.15490731584320747,158.19993656387948,358.19179093516476,306.0206025872876,-476.16869145150076,-212.08529525485642,0.703331425614697
0.025820984790878698,0.29759616635960556,-0.199577418524127,-0.04822249847955087,-1.0743928396576912,0.025206382183323925,0.15011283701082692,0.11080238358955509,0.19214904302318184,-0.14820072734492448,-0.12631249418734983,0.155541341092363,159.1483218738519,359.37874474608293,305.3991993738615,-475.8650256904588,-213.1950462201438,0.7058641914972907
0.026121219409325203,0.2978178040197168,-0.19919314410734934,-0.04851884886401343,-1.0746454675180916,0.02551873081214299,0.15011730922325361,0.11081883005561866,0.19213720838882478,-0.14817519223127856,-0.12631393020021012,0.15617431440953303,160.09607250005925,360.56284529301087,304.77423518307586,-475.5594704968055,-214.3037026716134,0.7083937884509964
0.02642146020157817,0.2980394746701844,-0.19880889300038232,-0.04881515509550301,-1.074898098189673,0.02583234375434279,0.15012039612648334,0.11083532523378248,0.19212555348351448,-0.14815311574478932,-0.12631533579064222,0.15680647109989962,161.043184042249,361.744075923134,304.14571796424667,-475.25202787935086,-215.4112578536536,0.7109207422249504
0.02672170522566526,0.29826117834078697,-0.1984246649361752,-0.04911142207418619,-1.075150731615679,0.02614721969601472,0.15012251204354313,0.11085183530129306,0.19211403210356917,-0.1481334893415913,-0.12631671300297004,0.1574379708359646,161.98965228573883,362.92242032047596,303.5136553149171,-474.9426996230224,-216.51770510970334,0.7134454247100267
0.027021953114530546,0.2984829150270921,-0.19804045970910758,-0.04940765326710359,-1.0754033677454604,0.026463357543044342,0.15012394443264399,0.11086834315257556,0.19210261353380884,-0.1481155964587041,-0.12631806489069386,0.1580689235148109,162.93547314537525,364.0978624271451,302.8780545790582,-474.6314873643292,-217.62303786016687,0.7159680981009477
0.027322202903584517,0.2987046847076831,-0.19765627715700973,-0.04970385112470829,-1.0756560065355192,0.026780756353547465,0.15012489452698527,0.11088484029547747,0.19209127604893056,-0.14809892880234923,-0.12631939502933553,0.15869940525156107,163.88064262745178,365.2703863825526,302.23892292560333,-474.31839263993044,-218.7272495839232,0.7184889465969679
0.02762245391133708,0.2989264873534269,-0.19727211714993637,-0.050000017376965834,-1.0759086479495943,0.027099415291222125,0.15012550387628254,0.11090132287193138,0.19208000353668347,-0.14808312612877078,-0.12632070703757226,0.15932946883732943,164.82515680331605,366.43997647847783,301.5962674074874,-474.003416919303,-219.8303338040807,0.7210080990274887
0.027922705655947705,0.2991483229326185,-0.19688797958267112,-0.05029615324346024,-1.076161291958161,0.02741933359284108,0.15012587230531207,0.11091778959580062,0.19206878363261928,-0.1480679332472035,-0.1263220042833566,0.15995915080947742,165.76901179090106,367.6066171265307,300.9500950047923,-473.6865616272383,-220.93228407741202,0.7235256449422607
0.028222957796570566,0.2993701914138639,-0.19650386436943623,-0.0505922595823348,-1.0764139385376619,0.02774051054548707,0.15012607031143074,0.11093424062269652,0.19205760661744042,-0.1480531694372783,-0.1263232897505025,0.16058847632299694,166.71220374174123,368.77029283484524,300.300412655844,-473.3678281595168,-222.0330939866693,0.7260416460306877
0.02852321009200745,0.29959209276766374,-0.19611977143999573,-0.05088833699581599,-1.0766665876696748,0.028062945470571327,0.15012614771844257,0.11095067689991135,0.19204646472024475,-0.14803870674059552,-0.1263245660064965,0.1612174625421274,167.6547288318275,369.93098819148724,299.6472272794622,-473.047217893888,-223.13275713505234,0.7285561442179943
0.028823462371515292,0.29981402696722304,-0.19573570073669286,-0.05118438590495285,-1.076919239340122,0.028386637712601505,0.1501261397539199,0.11096709977965094,0.1920353516514317,-0.1480244545684273,-0.1263258352235739,0.161846121015089,168.59658325516125,371.0886878526895,298.9905457908191,-472.72473219777646,-224.23126714225162,0.731069167403062
0.029123714514177647,0.3000359939887934,-0.19535165221214493,-0.05148040660254202,-1.0771718935385672,0.028711586631285077,0.1501260713311774,0.1109835107851594,0.19202426227396632,-0.1480103487945876,-0.12632709922271002,0.16247445934178673,169.53776321921274,372.2433765345348,298.33037511271806,-472.4003724336921,-225.32861764162914,0.7335807335247209
0.029423966434321026,0.30025799381173274,-0.19496762582741886,-0.05177639929060064,-1.0774245502576147,0.029037791595978572,0.15012596007168955,0.11099991146968136,0.19201319236303782,-0.1479963440293093,-0.12632835952376056,0.16310248234674812,170.478264941722,373.3950390070979,297.6667221836018,-472.074139963023,-226.4248022782159,0.7360908534439325
0.029724218071202103,0.3004800264183997,-0.19458362155056855,-0.052072364106895856,-1.0776772094924019,0.02936525198178782,0.15012581844053863,0.1110163033334871,0.1920021384251517,-0.1479824081476085,-0.12632961739354562,0.1637301929046235,171.41808464844942,374.5436600903348,296.9995939632337,-471.7460361486921,-227.51981470729484,0.7385995329872509
0.030024469381714075,0.30070209179395524,-0.19419963935545073,-0.052368301143725524,-1.0779298712401788,0.029693967166830336,0.15012565525598617,0.11103268777775967,0.1919910975589026,-0.14796851841483397,-0.12633087388849779,0.16435759252125787,172.35721857159578,375.68922465121346,296.32899743672226,-471.4160623570119,-228.6136485934012,0.7411067743961754
0.030324720335227897,0.3009241899261191,-0.19381567922075876,-0.052664210461212446,-1.0781825354999608,0.030023936530315626,0.15012547675691065,0.11104906608193071,0.19198006734597928,-0.14795465874346062,-0.12633212989098525,0.16498468174264572,173.2956629486952,376.8317176017288,295.6549396173676,-471.08421995897646,-229.70629760962046,0.7436125773555775
0.030624970909943337,0.3011463208049106,-0.1934317411292294,-0.052960092096714415,-1.0784352022722399,0.03035515945120091,0.1501252873577198,0.11106543939577704,0.1919690457646894,-0.1479408177509859,-0.12633338613958128,0.1656114604426415,174.23341402184155,377.9711238975427,294.97742754867033,-470.75051033115767,-230.797755437099,0.7461169397238263
0.0309252210903079,0.3013684844223918,-0.19304782506698817,-0.05325594607148456,-1.0786878715587478,0.030687635307251424,0.1501250901822807,0.11108180874058413,0.1919580311206156,-0.14792698738507348,-0.12633464325400753,0.1662379280252563,175.1704680371503,379.1074285370721,294.29646830574444,-470.414934856324,-231.88801576470595,0.7486198580514476
0.031225470865191035,0.30159068077242307,-0.1926639310230071,-0.0535517723953852,-1.078940543362259,0.031021363474385007,0.1501248874415687,0.11109817501563232,0.19194702199052557,-0.1479131619503209,-0.12633590175558695,0.16686408356679175,176.1068212443859,380.24061656089145,293.6120689963064,-470.07749492386534,-232.97707228880313,0.7511213279498268
0.0315257202265926,0.3018129098504382,-0.19228005898865375,-0.053847571070223935,-1.079193217686427,0.03135634332621622,0.1501246807007831,0.11111453900755813,0.19193601717667738,-0.1478993374193666,-0.12633716208399562,0.16748992591560927,177.04246989670608,381.3706730513624,292.92423676136127,-469.7381919300818,-234.064918713091,0.7536213443535207
0.031825969168729165,0.3020351716532402,-0.19189620895731502,-0.054143342092114514,-1.0794458945356489,0.03169257423374038,0.15012447106828306,0.11113090140100902,0.1919250156693711,-0.14788551094528976,-0.12633842461099867,0.16811545376208123,177.9774102504878,382.4975831324224,292.2329787756752,-469.3970272783783,-235.1515487485102,0.756119901707067
0.03212621768738762,0.3022574661788194,-0.19151238092408282,-0.054439085453147525,-1.0796985739149523,0.03203005556511551,0.15012425932922646,0.11114726278959253,0.19191401661610355,-0.14787168051650368,-0.12633968965173997,0.16874066568756538,178.91163856521118,383.6213319694877,291.53830224809167,-469.0540023793933,-236.23695611318135,0.7586169940981766
0.03242646577946781,0.3024797934261924,-0.1911285748854907,-0.05473480114257255,-1.0799512558299005,0.03236878668551278,0.15012404604009683,0.11116362368651074,0.1919030192960543,-0.1478578447125136,-0.126340957474049,0.1693655601986336,179.84515110338356,384.7419047694377,290.8402144217408,-468.7091186510829,-237.3211345323726,0.7611126153528188
0.03272671344265894,0.30270215339526146,-0.19074479083929288,-0.055030489147634684,-1.0802039402865127,0.03270876695701467,0.1501238315955665,0.11117998453453035,0.19189202309890444,-0.14784400253106844,-0.12634222830613812,0.1699901357509432,180.777944130492,385.85928678065676,290.1387225741677,-468.3623775187731,-238.4040777384874,0.7636067591032214
0.03302696067521053,0.30292454608669167,-0.1903610287842785,-0.05532614945416637,-1.0804566272911986,0.033049995738546355,0.15012361627579326,0.11119634571510846,0.19188102750719863,-0.14783015326584387,-0.1263435023429885,0.1706143907658411,181.71001391497532,386.9734632931167,289.43383401740545,-468.01378041519104,-239.48577947106534,0.7660994188365824
0.03332720747577028,0.30314697150180486,-0.18997728872011524,-0.055621782047006144,-1.080709316850702,0.0333924723858301,0.1501234002798777,0.1112127075566048,0.19187003208161893,-0.14781629641988833,-0.1263447797516639,0.17123832364187505,182.6413567282101,388.0844196384902,288.7255560980079,-467.663328780482,-240.5662334767942,0.7685905879300468
0.033627453843269345,0.30336942964248803,-0.1895935706472179,-0.0559173869102949,-1.0809620089720535,0.033736196251355585,0.15012318374953268,0.11122907034157926,0.19185903644866237,-0.14780243164437964,-0.1263460606757441,0.17186193276274203,183.571968844506,389.19214119028294,288.0138961970523,-467.31102406221623,-241.6454335095279,0.7710802596758888
0.03392769977684101,0.30359192051111444,-0.1892098745666373,-0.05621296402768548,-1.0812147036625317,0.03408116668436108,0.1501229667858293,0.11124543431321493,0.1918480402903102,-0.14778855869529253,-0.12634734523903293,0.1724852165027477,184.50184654110765,390.2966133639822,287.29886173012085,-466.95686771539033,-242.72337333031,0.7735684272996838
0.034227945275763096,0.3038144441104763,-0.1888262004799666,-0.056508513382490966,-1.081467400929629,0.03442738303082214,0.15012274946104603,0.1112617996809304,0.19183704333535315,-0.1477746774027411,-0.1263486335486655,0.1731081732305322,185.43098609820134,391.39782161721536,286.58046014726773,-466.60086120242323,-243.800046707401,0.7760550839734821
0.0345281903394172,0.30403700044372683,-0.1884425483892624,-0.056804034957789545,-1.0817201007810244,0.03477484463344532,0.15012253182705462,0.11127816662525462,0.19182604535209716,-0.1477607876492901,-0.12634992569771705,0.17373080131159135,186.3593837989244,392.4957514499157,285.8586989329741,-466.2430059931507,-244.87544741630794,0.7785402228253844
0.034828434967259715,0.3042595895143309,-0.18805891829697793,-0.05709952873649877,-1.0819728032245592,0.035123550831665254,0.15012231392125536,0.11129453530204232,0.19181504614222256,-0.14774688935461183,-0.12635122176739666,0.1743530991099639,187.2870359293769,393.5903884044942,285.13358560609436,-465.88330356481765,-245.9495692398154,0.7810238369465383
0.035128679158801274,0.3044822113260231,-0.18767531020590672,-0.05739499470142803,-1.082225508268217,0.03547350096164394,0.15012209577077962,0.11131090584610547,0.19180404553560973,-0.14773298246463326,-0.12635252182889387,0.17497506498934406,188.2139387786348,394.68171806601396,284.4051277197975,-465.52175540207014,-247.0224059680186,0.7835059193962757
0.035428922913592203,0.3047048658827718,-0.18729172411913478,-0.057690432835315754,-1.082478215920107,0.035824694356271544,0.15012187739546612,0.11132727837433264,0.19179304338597503,-0.14771906694385967,-0.12635382594493513,0.17559669731380023,189.14008863876356,395.76972606236785,283.6733328615027,-465.15836299694564,-248.09395139835652,0.785986463205905
0.03572916623121214,0.30492755318874853,-0.1869081600400004,-0.05798584312085565,-1.0827309261884492,0.03617713034516799,0.15012165880996936,0.11134365298836155,0.19178203956718776,-0.1477051427699453,-0.12635513417109673,0.17621799444822572,190.065481804833,396.85439806445817,282.9382086528119,-464.79312784886497,-249.16419933564643,0.7884654613815263
0.03602940911126265,0.30515027324830224,-0.1865246179720601,-0.05828122554071535,-1.082983639081563,0.03653080825468521,0.15012144002525446,0.11136002977686471,0.19177103397016015,-0.14769120992985413,-0.12635644655691305,0.17683895475860903,190.990114574932,397.9357197863763,282.1997627494395,-464.4260514646231,-250.23314359211824,0.7909429069061373
0.036329651553361965,0.30537302606593725,-0.18614109791905967,-0.05857658007754964,-1.0832363546078567,0.036885727407909574,0.150121221049657,0.11137640881750058,0.1917600265002197,-0.1476772684171447,-0.12635776314681288,0.1774595766121837,191.91398325018358,399.0136769855844,281.4580028411402,-464.05713535838,-251.30077798744932,0.793418792741219
0.03662989355714123,0.3055958116462944,-0.1857575998849099,-0.05887190671400974,-1.0834890727758186,0.03724188712466457,0.1501210018896355,0.11139279017857731,0.19174901707488828,-0.1476633182300507,-0.12635908398091042,0.17807985837749984,192.83708413475995,400.0882554630964,280.71293665163483,-463.6863810516524,-252.3670963487997,0.7958931118279382
0.036930135122241844,0.30581862999413534,-0.1853741238736659,-0.05916720543274999,-1.08374179359401,0.03759928672151346,0.1501207825503061,0.11140917392046956,0.19173800562200433,-0.14764935937012383,-0.12636040909567428,0.17869979842444525,193.75941353589815,401.15944106365964,279.96457193853496,-463.3137900733052,-253.43209251084733,0.7983658570880673
0.03723037624831349,0.306041481114329,-0.18499066988950963,-0.05946247621643254,-1.083994517071059,0.037957925511761935,0.15012056303582214,0.11142556009682408,0.19172699207813462,-0.1476353918412746,-0.12636173852449306,0.17931939512423553,194.68096776391477,402.2272196759364,279.2129164932665,-462.93936395954324,-254.49576031582316,0.8008370214246907
0.03753061693501278,0.3062643650118402,-0.18460723793673517,-0.05975771904773073,-1.0842472432156554,0.03831780280546071,0.15012034334964522,0.11144194875558465,0.1917159763872308,-0.1476214156490945,-0.12636307229815408,0.17993864684938626,195.6017431322215,403.2915772326851,278.4579781409924,-462.5631042539035,-255.55809361354667,0.8033065977227573
0.037830857182002256,0.3064872816917199,-0.1842238280197362,-0.06005293390933148,-1.0844999720365458,0.03867891790940806,0.15012012349473802,0.11145833993986308,0.19170495849949265,-0.14760743080037683,-0.1263644104452481,0.1805575519736757,196.52173595734018,404.35249971094163,277.6997647405339,-462.185012507247,-256.61908626146106,0.8057745788495083
0.03813109698894966,0.30671023115909724,-0.1838404401429954,-0.06034812078393704,-1.0847527035425308,0.03904127012715227,0.1501199034737022,0.1114747336886787,0.19169393837040583,-0.14759343730277852,-0.12636575299251218,0.18117610887210361,197.44094255891784,405.4099731322001,276.93828418429223,-461.8050902777514,-257.6787321246687,0.8082409576548204
0.038431336355527417,0.3069332134191724,-0.18345707431107552,-0.0606432796542662,-1.0850054377424612,0.03940485875899397,0.1501196832888771,0.11149113003758619,0.19168291595992773,-0.147579435164581,-0.1263670999651196,0.18179431592084958,198.35935925974198,406.4639835625927,276.1735443981684,-461.4233391309033,-258.7370250759664,0.8107057269714725
0.03873157528141224,0.3071562284772108,-0.18307373052861192,-0.06093841050305524,-1.085258174645235,0.03976968310198844,0.1501194629424107,0.1115075290192083,0.19167189123179829,-0.1475654243945217,-0.1263684513869255,0.1824121714972331,199.27698238575536,407.5145171130704,275.40555334148337,-461.0397606394912,-259.79395899588076,0.8131688796153629
0.03903181376628486,0.3073792763385382,-0.18269040880030601,-0.06123351331305859,-1.0855109142597963,0.04013574244994779,0.1501192424363106,0.11152393066368764,0.1916608641529563,-0.14755140500167485,-0.1263698072806746,0.1830296739796768,200.1938082660711,408.5615599395817,274.6343190068975,-460.6543563835977,-260.8495277727035,0.8156304083856838
0.03933205180982982,0.30760235700853633,-0.18230710913091994,-0.06152858806704933,-1.0857636565951327,0.040503036093443134,0.15011902177248101,0.11154033499906996,0.19164983469304553,-0.14753737699536765,-0.12637116766817716,0.1836468217476729,201.10983323298765,409.60509824325226,273.85984942032894,-460.2671279505932,-261.9037253025266,0.8180903060650611
0.03963228941173532,0.3078254704926396,-0.18192383152527195,-0.061823634747819566,-1.0860164016602736,0.04087156331980664,0.15011880095274938,0.11155674205162892,0.1916388028239963,-0.14752334038512102,-0.12637253257045813,0.18426361318175372,202.02505362200347,410.645118270563,273.0821526408724,-459.87807693512764,-262.9565454892778,0.8205485654196696
0.03993252657169309,0.3080486167963319,-0.1815405759882326,-0.062118653338180785,-1.0862691494642893,0.04124132341313357,0.15011857997888606,0.11157315184614158,0.19162776851967162,-0.147509295180608,-0.1263739020078831,0.1848800466634656,202.9394657718321,411.68160631352777,272.30123676071656,-459.4872049391246,-264.00798224475517,0.8230051791993278
0.04023276328939833,0.30827179592514414,-0.18115734252472146,-0.06241364382096403,-1.0865219000162898,0.04161231565428426,0.15011835885261857,0.1115895644061217,0.19161673175556693,-0.14749524139162443,-0.12637527600026513,0.18549612057534673,203.8530660244169,412.71454870987156,271.51710990506234,-459.0945135717737,-265.05802948866324,0.825460140137577
0.040532999564549616,0.3084950078846522,-0.18077413113970434,-0.06270860617902017,-1.0867746533254237,0.041984539320886076,0.15011813757564216,0.11160597975401755,0.19160569250855655,-0.14748117902806823,-0.12637665456695513,0.18611183330090778,204.7658507249458,413.74393184320684,270.7297802320392,-458.7000044495237,-266.10668114864717,0.8279134409517384
0.04083323539684887,0.3087182526804749,-0.180390941838191,-0.06300354039522002,-1.0870274094008776,0.04235799368733531,0.15011791614962774,0.11162239791137941,0.1915946507566784,-0.1474671080999252,-0.12637803772691844,0.1867271832246159,205.6778162218659,414.7697421432099,269.93925593262236,-458.30367919607585,-267.15393116032817,0.8303650743429754
0.041133470786001325,0.30894153031827293,-0.1800077746252331,-0.06329844645245454,-1.0872801682518751,0.042732678024799076,0.15011769457622762,0.11163881889900165,0.19158360647895215,-0.14745302861725873,-0.12637942549879963,0.18734216873188117,206.58895886689857,415.7919660857963,269.14554523054875,-457.9055394423769,-268.1997734673388,0.8328150329963333
0.04143370573171549,0.309164840803747,-0.17962462950592264,-0.06359332433363495,-1.087532929887677,0.04310859160121717,0.15011747285708002,0.11165524273704286,0.1915725596552249,-0.1474389405902028,-0.1263808179009772,0.18795678820904546,207.4992750150537,416.8105901932968,268.3486563822333,-457.5055868266119,-269.2442020213573,0.835263309580775
0.04173394023370311,0.30938818414263725,-0.17924150648539056,-0.06388817402169286,-1.0877856943175803,0.043485733681303915,0.15011725099381248,0.11167166944512766,0.19156151026604082,-0.14742484402895709,-0.12638221495161014,0.18857104004337327,208.40876102464466,417.82560103463135,267.54859767668444,-457.1038229941978,-270.2872107821434,0.8377098967492154
0.042034174291679195,0.3096115603407221,-0.1788584055688055,-0.06418299549958043,-1.0880384615509178,0.043864103526550006,0.15011702898804438,0.11168809904243301,0.1915504582925304,-0.14741073894378362,-0.1263836166686772,0.18918492262304457,209.31741325730283,418.83698522548315,266.74537743541885,-456.70024959777646,-271.3287937175722,0.8401547871385454
0.04233440790536197,0.30983496940381766,-0.17847532676137287,-0.06447778875027044,-1.0882912315970579,0.0442437003952243,0.15011680684138895,0.11170453154776128,0.1915394037163172,-0.14739662534500436,-0.12638502307001004,0.18979843433714902,210.22522807799228,419.8447294284722,265.93900401237727,-456.29486829720753,-272.36894480366976,0.8425979733696576
0.04263464107447288,0.31005841133777684,-0.178092270068334,-0.06477255375675643,-1.0885440044654044,0.044624523542375664,0.15011658455545485,0.11172096697960195,0.19152834651943834,-0.1473825032429997,-0.12638643417332138,0.1904115735756816,211.1322018550242,420.84882035332805,265.12948579383783,-455.8876807595619,-273.4076580246479,0.8450394480474612
0.042934873798736575,0.3102818861484892,-0.17770923549496545,-0.06506729050205284,-1.0887967801653968,0.04500657221983474,0.1501163621318474,0.11173740535618398,0.19151728668427762,-0.14736837264820737,-0.12638784999622882,0.19102433872953953,212.03833096007173,421.8492447570617,264.31683119833116,-455.4786886591143,-274.44492737293814,0.8474792037609018
0.04323510607788091,0.31050539384188025,-0.17732622304657844,-0.06536199896919509,-1.0890495587065094,0.04538984567621578,0.15011613957216954,0.11175384669552023,0.19150622419350868,-0.14735423357112176,-0.12638927055627497,0.1916367281905201,212.94361176818435,422.84598944413784,263.501048676554,-455.0678936773373,-275.48074684922744,0.8499172330829745
0.04353533791163696,0.31072893442391114,-0.17694323272851833,-0.06565667914123968,-1.0893023400982513,0.045774343156918425,0.1501159168780227,0.11177029101544474,0.191495159030047,-0.1473400860222934,-0.1263906958709444,0.1922487403513194,213.84804065780244,423.8390412666452,262.68214671128203,-454.6552975028935,-276.51511046249226,0.8523535285707353
0.043835569299738975,0.31095250790057843,-0.1765602645461643,-0.06595133100126434,-1.0895551243501667,0.04616006390412949,0.15011569405100725,0.11178673833364465,0.19148409117700918,-0.1473259300123288,-0.126392125957678,0.1928603736055317,214.7516140107719,424.82838712446744,261.86013381728407,-454.2409018316289,-277.5480122300331,0.8547880827653176
0.04413580024192442,0.3111761142779138,-0.17617731850492896,-0.06624595453236812,-1.0898079114718344,0.04654700715682479,0.15011547109272316,0.1118031886676869,0.19147302061767857,-0.14731176555189024,-0.1263935608338851,0.1934716263476498,215.65432821235856,425.81401396545243,261.03501854123397,-453.82470836656626,-278.57944617750957,0.8572208881919344
0.04443603073793396,0.3113997535619839,-0.175794394610258,-0.06654054971767151,-1.0900607014728683,0.04693517215077092,0.1501152480047703,0.11181964203504095,0.19146194733547617,-0.1472975926516957,-0.12639500051695382,0.19408249697306548,216.55617965126262,426.7959087855815,260.20680946162355,-453.4067188178977,-279.6094063389743,0.8596519373598936
0.04473626078751146,0.3116234257588901,-0.17541149286763014,-0.06683511654031654,-1.0903134943629167,0.04732455811852706,0.15011502478874894,0.11183609845309798,0.191450871313936,-0.14728341132251888,-0.12639644502425967,0.19469298387807077,217.45716471963334,427.7740586291386,259.3755151886747,-452.98693490297774,-280.6378867569081,0.8620812227626029
0.04503649039040398,0.3118471308747685,-0.17502861328255676,-0.06712965498346692,-1.090566290151663,0.047715164289446776,0.15011480144625985,0.11185255793918714,0.19143979253668436,-0.1472692215751892,-0.12639789437317275,0.19530308545985942,218.3572798130833,428.7484505888772,258.54114436425084,-452.5653583463167,-281.6648814822533,0.8645087368775808
0.04533671954636179,0.31207086891578967,-0.17464575586058192,-0.0674241650303081,-1.0908190888488252,0.04810698988967983,0.15011457797890457,0.11186902051058915,0.19142871098742203,-0.1472550234205919,-0.12639934858106402,0.19591280011652887,219.25652133070298,429.71907180618825,257.7037056617691,-452.14199087957314,-282.69038457444947,0.8669344721664606
0.04563694825513836,0.31229463988815875,-0.1742629206072821,-0.06771864666404744,-1.0910718904641559,0.048500034142174,0.1501143543882856,0.11188548618454795,0.1914176266499096,-0.147240816869668,-0.12640080766531042,0.1965221262470824,220.154885675075,430.6859094712668,256.8632077861105,-451.7168342415473,-283.71439010146685,0.8693584210750015
0.045937176516490374,0.31251844379811533,-0.1738801075282662,-0.06801309986791426,-1.0913246950074424,0.048894296266676865,0.15011413067600668,0.11190195497828039,0.1914065395079548,-0.14722660193341455,-0.1264022716432992,0.19713106225143162,221.05236925228883,431.6489508232774,256.0196594735319,-451.2898901781733,-284.7368921398406,0.8717805760330914
0.04623740433017772,0.3127422806519333,-0.1734973166291754,-0.06830752462516003,-1.0915775024885073,0.04928977547973766,0.15011390684367262,0.11191842690898457,0.1913954495454019,-0.14721237862288455,-0.12640374053243156,0.19773960653039901,221.94896847195488,432.6081831505206,255.17306949157518,-450.86116044251276,-285.7578847747057,0.8742009294547588
0.0465376316959635,0.312966150455921,-0.17311454791568315,-0.06860192091905841,-1.0918303129172076,0.0496864709947091,0.1501136828928897,0.11193490199384667,0.19138435674612286,-0.14719814694918712,-0.12640521435012578,0.19834775748572084,222.84467974721912,433.56359379059637,254.32344663897896,-450.4306467947474,-286.7773620998303,0.876619473738175
0.04683785861361403,0.3131900532164211,-0.17273180139349512,-0.06889628873290539,-1.0920831263034352,0.0500843820217492,0.15011345882526553,0.1119513802500468,0.1913732610940096,-0.1471839069234876,-0.1264066931138197,0.19895551352005014,223.73949949477728,434.5151701305694,253.47079974558696,-449.9983510021718,-287.79531821765045,0.879036201265663
0.04713808508289885,0.31341398893981065,-0.17234907706834918,-0.06919062805001941,-1.092335942657117,0.05048350776782312,0.1501132346424092,0.11196786169476398,0.1913621625729678,-0.14716965855700764,-0.12640817684097286,0.19956287303695988,224.6334241348894,435.46289960713176,252.61513767225858,-449.56427483918594,-288.81174723930417,0.8814511044037064
0.047438311103590716,0.313637957632501,-0.17196637494601535,-0.06948493885374146,-1.0925887619882153,0.050883847436705015,0.1501130103459313,0.11198434634518022,0.19135106116691142,-0.14715540186102521,-0.1264096655490683,0.2001698344409461,225.52645009139388,436.40676970676617,251.75646931077767,-449.12842008728876,-289.8266432846647,0.8838641755029545
0.047738536675465605,0.31386195930093796,-0.17158369503229584,-0.06977922112743522,-1.0928415843067265,0.05128540022897988,0.15011278593744404,0.11200083421848392,0.19133995685975835,-0.14714113684687483,-0.12641115925561403,0.20077639613743134,226.4185737917222,437.346767965908,250.89480358376142,-448.6907885350702,-290.8400004823758,0.8862754068982297
0.04803876179830273,0.3140859939516017,-0.171201037333025,-0.07007347485448712,-1.093094409622683,0.051688165342045414,0.15011256141856116,0.1120173253318729,0.1913288496354265,-0.14712686352594748,-0.12641265797814416,0.20138255653276796,227.30979166691282,438.28288197110686,250.03014944456916,-448.2513819782041,-291.8518129698843,0.8886847909085358
0.048338986471884525,0.31431006159100683,-0.17081840185406932,-0.0703677000183065,-1.0933472379461513,0.0520921419701139,0.15011233679089794,0.11203381970255667,0.1913177394778307,-0.14711258190969084,-0.12641416173422004,0.20198831403424172,228.20010015162578,439.2150993591875,249.16251587721058,-447.81020221944107,-292.8620748934749,0.8910923198370662
0.048639210695996665,0.31453416222570235,-0.17043578860132758,-0.07066189660232572,-1.093600069287234,0.05249732930421405,0.1501121120560713,0.11205031734775849,0.19130662637087997,-0.14709829200960933,-0.12641567054143096,0.20259366705007528,229.08949568415684,440.14340781741004,248.29191189625317,-447.3672510686011,-293.87078040830403,0.8934979859712117
0.04893943447042806,0.3147582958622718,-0.17005319758073062,-0.07095606459000024,-1.093852903656069,0.05290372653219291,0.15011188721569974,0.11206681828471708,0.19129551029847544,-0.14708399383726414,-0.12641718441739477,0.20319861398943176,229.97797470645182,441.0677950836295,247.41834654673067,-446.9225303425659,-294.8779236784327,0.8959017815825672
0.049239657794970866,0.31498246250733314,-0.1696706287982416,-0.07125020396480879,-1.0941057410628283,0.05331133283871775,0.15011166227140335,0.11208332253068796,0.19128439124450844,-0.1470696874042734,-0.12641870337975847,0.20380315326241843,230.86553366412073,441.98824894645486,246.54182890405008,-446.47604186527207,-295.8834988768614,0.8983036989269444
0.04953988066942047,0.315206662167539,-0.1692880822598559,-0.07154431471025341,-1.0943585815177208,0.05372014740527793,0.15011143722480383,0.11209983010294457,0.19127326919285895,-0.14705537272231217,-0.12642022744619855,0.20440728328009036,231.75216900645216,442.9047572454074,245.66236807389814,-446.0277874677034,-296.8875001855627,0.9007037302443754
0.04984010309357552,0.3154308948495766,-0.16890555797160112,-0.07183839680985964,-1.0946114250309897,0.05413016941018684,0.1501112120775244,0.11211634101877915,0.19126214412739437,-0.14704104980311256,-0.12642175663442137,0.2050110024544541,232.63787718642746,443.81730787107773,244.77997319214893,-445.57776898788313,-297.889921795516,0.9031018677591274
0.0501403250672379,0.3156551605601676,-0.16852305593953718,-0.07213245024717656,-1.094864271612914,0.054541398028583786,0.15011098683118987,0.11213285529550358,0.19125101603196853,-0.14702671865846384,-0.12642329096216337,0.20561430919847148,233.5226546607349,444.72588876528374,243.8946534247695,-445.1259882708671,-298.89075790674,0.9054981036797094
0.050440546590212756,0.31587945930606853,-0.16814057616975633,-0.07242647500577698,-1.0951171212738084,0.054953832432435915,0.15011076148742655,0.11214937295044985,0.1912398848904208,-0.14701237930021246,-0.12642483044719113,0.20621720192606321,234.4064978897838,445.630487921226,243.00641796772663,-444.6724471687358,-299.8900027283271,0.9078924301988802
0.05074076766230848,0.3161037910940705,-0.1677581186683832,-0.07272047106925751,-1.095369974024023,0.05536747179054014,0.15011053604786231,0.11216589400097068,0.19122875068657544,-0.1469980317402622,-0.1264263751073016,0.20681967905211288,235.28940333771897,446.5310933836439,242.11527604689184,-444.2171475405869,-300.8876504784762,0.9102848394936649
0.05104098828333673,0.3163281559309994,-0.16737568344157472,-0.07301443842123866,-1.0956228298739437,0.05578231526852508,0.15011031051412646,0.11218241846443976,0.19121761340424107,-0.14698367599057416,-0.12642792496032204,0.20742173899247046,236.17136747243455,447.4276932489703,241.22123691794755,-443.76009125252807,-301.88369538452656,0.9126753237253578
0.05134120845311243,0.3165525538237159,-0.1669932704955203,-0.07330837704536498,-1.0958756888339918,0.056198362028853,0.1501100848878498,0.11219894635825198,0.1912064730272102,-0.1469693120631669,-0.12642948002411009,0.20802338016395636,237.05238676558838,448.32027566548607,240.32430986629177,-443.3012801776688,-302.8781316829911,0.9150638750395417
0.05164142817145376,0.31677698477911553,-0.16661087983644177,-0.07360228692530521,-1.0961285509146248,0.056615611230821726,0.15010985917066458,0.11221547769982376,0.19119532953925897,-0.14695493997011647,-0.12643104031655372,0.20862460098436506,237.93245769261614,449.20882883347355,239.42450420694325,-442.84071619611336,-303.8709536195896,0.9174504855660929
0.051941647438182165,0.3170014488041287,-0.16622851147059348,-0.07389616804475233,-1.0963814161263359,0.057034062030566664,0.15010963336420444,0.11223201250659307,0.19118418292414685,-0.14694055972355652,-0.1264326058555712,0.209225399872469,238.8115767327453,450.0933410053696,238.52182928444594,-442.3784011949528,-304.862155449282,0.9198351474191944
0.052241866253122375,0.3172259459057208,-0.16584616540426225,-0.07419002038742369,-1.0966342844796542,0.05745371358106271,0.1501094074701044,0.11224855079601949,0.19117303316561657,-0.14692617133567834,-0.12643417665911094,0.20982577524802234,239.68974036900926,450.9738004859177,237.61629447277312,-441.9143370682575,-305.8517314363014,0.9222178526973513
0.05254208461610238,0.31745047609089194,-0.16546384164376746,-0.07448384393706114,-1.0968871559851445,0.057874565032126235,0.15010918149000083,0.11226509258558434,0.19116188024739386,-0.14691177481873097,-0.12643575274515145,0.21042572553176495,240.56694508826172,451.8501956323198,236.70790917523152,-441.4485257170694,-306.8396758541878,0.9245985934833971
0.05284230252695344,0.3176750393666775,-0.1650815401954611,-0.07477763867743119,-1.0971400306534078,0.05829661553041709,0.15010895542553138,0.11228163789279051,0.19115072415318754,-0.1468973701850212,-0.12643733413170125,0.211025249145426,241.44318738119028,452.72251485438693,235.79668282436495,-440.9809690493941,-307.8259829858208,0.926977361844515
0.05314251998551011,0.31789963574014785,-0.16469926106572771,-0.07507140459232502,-1.0973929084950813,0.058719864219440546,0.15010872927833507,0.11229818673516251,0.19113956486668943,-0.14688295744691374,-0.1264389208367985,0.21162434451172804,242.318463742331,453.59074661468986,234.8826248818574,-440.51166898019363,-308.8106471234524,0.9293541498322428
0.053442736991610215,0.31812426521840836,-0.16431700426098456,-0.07536514166555867,-1.0976457895208382,0.05914431023954933,0.15010850305005213,0.11231473913024635,0.1911284023715744,-0.14686853661683122,-0.12644051287851119,0.21222301005439065,243.192770670082,454.4548794287079,233.9657448384365,-440.0406274313782,-309.7936625687405,0.9317289494824925
0.05374295354509486,0.3183489278085996,-0.16393476978768157,-0.07565884988097318,-1.097898673741388,0.0595699527279456,0.150108276742324,0.11233129509560948,0.19111723665150043,-0.1468541077072543,-0.12644211027493668,0.2128212441981344,244.06610466671773,455.31490186497865,233.04605221377597,-439.56784633179853,-310.77502363278165,0.9341017528155617
0.05404316964580845,0.31857362351789725,-0.16355255765230134,-0.07595252922243463,-1.0981515611674764,0.05999679081868297,0.15010805035679328,0.11234785464884055,0.19110606769010863,-0.14683967073072163,-0.1264437130442017,0.2134190453686846,244.9384622384031,456.17080254524546,232.1235565563981,-439.09332761723806,-311.75472463614375,0.9364725518361485
0.05434338529359866,0.31879835235351234,-0.1631703678613593,-0.07624617967383429,-1.0984044518098852,0.06042482364266852,0.1501078238951038,0.11236441780754937,0.1910948954710234,-0.14682522569983011,-0.12644532120446209,0.21401641199277532,245.80983989520703,457.02257014460554,231.19826744357601,-438.61707323040525,-312.73275990889925,0.9388413385333653
0.054643600488316464,0.3190231143226911,-0.1627882004214036,-0.07653980121908877,-1.098657345679433,0.060854050327664826,0.15010759735890042,0.11238098458936673,0.19108371997785262,-0.1468107726272348,-0.12644693477390254,0.21461334249815303,246.680234151117,457.87019339165624,230.27019448123565,-438.13908512092524,-313.70912379065777,0.9412081048807575
0.054943815229816124,0.31924790943271497,-0.16240605533901523,-0.07683339384214007,-1.0989102427869746,0.061284469998291985,0.15010737074982913,0.11239755501194414,0.19107254119418762,-0.146796311525649,-0.12644855377073658,0.21520983531358057,247.54964152405253,458.7136610686412,229.33934730385693,-437.65936524533265,-314.6838106305987,0.9435728428363153
0.0552440295179552,0.3194727376909009,-0.16202393262080803,-0.07712695752695575,-1.099163143143401,0.06171608177602967,0.15010714406953696,0.11241412909295373,0.19106135910360345,-0.14678184240784448,-0.12645017821320614,0.21580588886884097,248.4180585358794,459.55296201159615,228.40573557437534,-437.17791556706294,-315.6568147875039,0.9459355443424928
0.055544243352594544,0.31969759910460105,-0.1616418322734287,-0.07742049225752906,-1.09941604675964,0.062148884779219156,0.1501069173196719,0.11243070685008813,0.1910501736896591,-0.1467673652866513,-0.1264518081195815,0.2164015015947413,249.28548171242352,460.3880851104932,227.4693689840829,-436.6947380564449,-316.62813062979035,0.9482962013262198
0.05584445673359831,0.3199224936812032,-0.1612597543035569,-0.07771399801787898,-1.0996689536466564,0.06258287812306539,0.15010669050188302,0.11244728830106004,0.19103898493589752,-0.14675288017495805,-0.1264534435081611,0.21699667192311653,250.15190758348493,461.219019309385,226.5302572525288,-436.20983469069245,-317.59775253554324,0.9506548056989244
0.05614466966083395,0.3201474214281304,-0.16087769871790522,-0.0780074747920504,-1.0999218638154509,0.06301806091963905,0.1501064636178202,0.11246387346360226,0.19102779282584592,-0.14673838708571185,-0.1264550843972711,0.21759139828683333,251.01733268285145,462.04575360654815,225.58841012741985,-435.72320745389686,-318.5656748925474,0.9530113493565474
0.05644488213417222,0.3203723823528413,-0.1604956655232192,-0.07830092256411424,-1.1001747772770614,0.06345443227787863,0.1501062366691343,0.11248046235546728,0.1910165973430159,-0.1467238860319184,-0.1264567308052654,0.218185679119794,251.88175354831287,462.86827705462576,224.6438373845203,-435.2348583370182,-319.5318920983206,0.9553658241795587
0.05674509415348717,0.32059737646283015,-0.1601136547262774,-0.07859434131816752,-1.1004276940425624,0.06389199130359251,0.150106009657477,0.11249705499442718,0.19100539847090373,-0.14670937702664216,-0.12645838275052534,0.21877951285694028,252.74516672167465,463.6865787607692,223.69654882755233,-434.744789337878,-320.4963985601458,0.9577182220329784
0.057045305718656174,0.3208224037656267,-0.1597316663338914,-0.07888773103833353,-1.1006806141230652,0.06433073709946102,0.15010578258450083,0.11251365139827338,0.19099419619299043,-0.1466948600830062,-0.1264600402514594,0.21937289793425713,253.6075687487718,464.5006478867794,222.74655428809493,-434.25300246115046,-321.45918869510314,0.960068534766392
0.05734551682955989,0.3210474642687963,-0.15934970035290594,-0.07918109170876192,-1.1009335375297182,0.06477066876503858,0.15010555545185908,0.11253025158481635,0.19098299049274206,-0.14668033521419244,-0.12646170332650306,0.2199658327887767,254.46895617948277,465.3104736492475,221.79386362548345,-433.75949971835496,-322.42025693010277,0.9624167542139721
0.05764572748608231,0.3212725579799401,-0.15896775679019873,-0.0794744233136288,-1.1011864642737064,0.06521178539675575,0.15010532826120582,0.11254685557188546,0.19097178135360998,-0.1466658024334417,-0.1264633719941185,0.22055831585858213,255.32932556774315,466.1160453196943,220.8384867267085,-433.26428312784725,-323.3795977019164,0.9647628721944947
0.057945937688110696,0.3214976849066947,-0.15858583565268067,-0.07976772583713691,-1.101439394366252,0.06565408608792137,0.15010510101419586,0.11256346337732871,0.19096056875903097,-0.14665126175405369,-0.12646504627279445,0.22115034558281127,256.1886734715597,466.9173522247097,219.8804335063149,-432.7673547148117,-324.3372054572104,0.9671068805113622
0.05824614743553567,0.32172284505673276,-0.15820393694729581,-0.08006099926351569,-1.101692327818614,0.06609756992872469,0.15010487371248457,0.11258007501901247,0.19094935269242744,-0.14663671318938706,-0.12646672618104582,0.2217419204016607,257.0469964530239,467.71438374609056,218.91971390629953,-432.2687165112531,-325.2930746525768,0.9694487709526215
0.05854635672825113,0.32194803843776243,-0.1578220606810214,-0.08035424357702141,-1.1019452646420889,0.06654223600623747,0.1501046463577281,0.11259669051482127,0.19093813313720776,-0.14662215675285956,-0.1264684117374136,0.22233303875638957,257.9042910783258,468.5071293209791,217.95633789601,-431.7683705559882,-326.24719975456634,0.971788535290983
0.058846565566154294,0.32217326505752775,-0.15744020686086785,-0.08064745876193731,-1.10219820484801,0.06698808340441612,0.15010441895158305,0.11261330988265753,0.1909269100767664,-0.146607592457948,-0.12647010296046463,0.22292369908932322,258.76055391776794,469.2955784419989,216.9903154720422,-431.2663188946377,-327.19957523972,0.9741261652838444
0.059146773949145706,0.3223985249238086,-0.15705837549387888,-0.08094064480257368,-1.1024511484477475,0.06743511120410384,0.1501041914957067,0.11262993314044131,0.19091568349448415,-0.14659302031818838,-0.12647179986879117,0.22351389984385728,259.61578154577876,470.0797206573919,216.02165665813789,-430.7625635796178,-328.15019559460063,0.9764616526733116
0.05944698187712922,0.3226238180444208,-0.15667656658713142,-0.08123380168326803,-1.1027040954527094,0.06788331848303276,0.1501039639917568,0.11264656030611013,0.19090445337372844,-0.1465784403471759,-0.12647350248101089,0.22410363946446138,260.46997054092697,470.8595455711534,215.05037150508218,-430.2571066701317,-329.09905531582586,0.9787949891862192
0.059747189350012005,0.322849144427216,-0.1562947801477357,-0.08152692938838517,-1.102957045874341,0.06833270431582614,0.15010373644139155,0.11266319139761866,0.19089321969785347,-0.14656385255856508,-0.12647521081576643,0.22469291639668298,261.3231174859341,471.635042843167,214.07647009060025,-429.74995023216184,-330.04614891009874,0.9811261665341504
0.06004739636770454,0.32307450408008187,-0.15591301618283532,-0.08182002790231731,-1.1032099997241245,0.06878326777400044,0.15010350884626966,0.11267982643293842,0.19088198245020047,-0.14654925696606969,-0.12647692489172535,0.22528172908715127,262.17521896768955,472.4062021893388,213.0999625192543,-429.24109633846103,-330.99147089424036,0.9834551764134638
0.06034760293012064,0.323299897010942,-0.15553127469960712,-0.08211309720948423,-1.1034629570135797,0.06923500792596761,0.1501032812080502,0.11269646543005768,0.19087074161409795,-0.146534653583463,-0.12647864472757975,0.22587007598358091,263.0262715772633,473.17301338173013,212.12085892233983,-428.7305470685441,-331.93501579522115,0.9857820105053161
0.060647809037177425,0.32352532322775596,-0.1551495557052614,-0.08240613729433338,-1.1037159177542637,0.06968792383703716,0.15010305352839265,0.11271310840698107,0.1908594971728619,-0.14652004242457767,-0.12648037034204604,0.22645795553477602,263.87627190992,473.9354662486909,211.13916945778195,-428.21830450867975,-332.8767781501928,0.9881066604756817
0.060948014688795335,0.3237507827385194,-0.1547678592070418,-0.08269914814134,-1.1039688819577713,0.07014201456941843,0.15010282580895673,0.11272975538172937,0.19084824910979611,-0.14650542350330586,-0.12648210175386473,0.22704536619063378,264.72521656513237,474.693550674991,210.15490431003144,-427.70437075188187,-333.8167525065196,0.990429117975378
