Joohwan-Seo/mujoco_sysID/Fanuc/Dataset/square_PIH_fanuc_new_real_real_3.csv
q1,q2,q3,q4,q5,q6,dq1,dq2,dq3,dq4,dq5,dq6,t1,t2,t3,t4,t5,t6
-7.872763363644198e-06,0.46177967143739207,-0.39269694418323886,2.904504098070017e-05,-0.19999106374816322,6.597892578272831e-05,-0.003936381681822099,-0.009858180878668124,0.0010687577426511231,0.014522520490350086,0.004468125918400136,0.03298946289136415,0.04019940821162402,20.44975996011295,-32.7095592427599,32.07841712791845,-10.033977016558476,22.678138192981663
-2.3606733385530538e-05,0.4617403298783234,-0.39269262163475854,8.66637567627668e-05,-0.19997323964028532,0.00019463032672514672,-0.007866985010943172,-0.019670779534319657,0.0021612742401658836,0.02880935789103331,0.00891205393894541,0.06432570047120921,0.15817608068160693,20.61819426768129,-32.667304609293936,31.933192795963667,-10.041825776926755,21.419544481185785
-4.7138202594785994e-05,0.46168154503022885,-0.39268601213544674,0.00017238058838592524,-0.19994653051084021,0.0003828091652337433,-0.01176573460462773,-0.029392424047274414,0.0033047496558954908,0.04285841581157922,0.013354564722558162,0.0940894192542983,0.2768565522863176,20.78740419980643,-32.62459392062643,31.78932211869789,-10.050588348322233,20.221397913000878
-7.840076641375246e-05,0.4616034987872459,-0.39267701395384574,0.00028573593631606734,-0.19991093958514197,0.000627520455232569,-0.01563128190948323,-0.0390231214914956,0.004499090800487492,0.05667767396507105,0.017795462849116865,0.12235564499941282,0.39621460963353305,20.95732007522716,-32.581445456654926,31.64675627167471,-10.060222568983658,19.08080907439259
-0.00011732545217452931,0.46150637303043707,-0.39266552553441497,0.0004262853759903712,-0.19986647054356035,0.0009259120958417527,-0.019462342880388426,-0.0485628784043958,0.005744209715380027,0.07027471983715193,0.022234520790807514,0.14919582030459186,0.5162247104262163,21.127878701835115,-32.53787742795065,31.505449299289698,-10.070692924063598,17.99502669946134
-0.0001638408424080095,0.461390349626087,-0.39265144549069325,0.000593598911667373,-0.19981312757544126,0.0012752680478186644,-0.0232576951167401,-0.05801170217502394,0.007040021860852217,0.08365676783850089,0.026671484059544004,0.1746779759884558,0.6368619732121997,21.299022660209978,-32.49390789364942,31.365357974182274,-10.081969685590437,16.961431061487545
-0.00021787319267614402,0.4612556104215949,-0.3926346726016446,0.0007872602667318122,-0.19975091542394877,0.0016730018363400173,-0.02701617513406725,-0.0673696022460415,0.008386444524326006,0.09683067753221962,0.031106075746248612,0.19886689426067644,0.7581021630404488,21.47069966009365,-32.449554693194386,31.226441663148545,-10.094028148790562,15.977527680338705
-0.0002793465442050596,0.46110233723929495,-0.39261510581079295,0.0010068662086937415,-0.19967983942291584,0.0021166503644935862,-0.030736675764457762,-0.07663659114997304,0.009783395425804826,0.10980297098096456,0.0355380005164667,0.2218242640767844,0.8799216740343315,21.642861962601188,-32.40483539008692,31.08866219931411,-10.106847954626458,15.040941331074912
-0.0003481828315642618,0.4609307118684987,-0.3925926442277937,0.0012520259072067107,-0.1995999055266752,0.0026038680225999354,-0.0344181436796011,-0.0858126853981224,0.01123079149962946,0.12257984925648469,0.03996694812031716,0.24360882905317455,1.0022975097103577,21.815465861663647,-32.3597672260225,30.951983760308714,-10.120412489439326,14.149410339321602
-0.00042430198562542267,0.4607409160560214,-0.3925671871321261,0.0015223603235110224,-0.19951112033373733,0.0031324210791996124,-0.03805957703058045,-0.09489790623865602,0.012728547833805913,0.1351672081521558,0.04439259646893876,0.2642765282998385,1.1252072617179287,21.988471218833226,-32.314367083983356,30.81637275218192,-10.134708353513687,13.30078114967493
-0.0005076220320231272,0.46053313149542413,-0.39253863397862604,0.0018175016297852843,-0.19941349110508869,0.0037001823402215282,-0.041660023198852265,-0.10389228029865268,0.014276576750033845,0.14757065313713089,0.04881461432432179,0.28388063051095785,1.2486290875474102,22.161841046151643,-32.268651459034004,30.68179769879962,-10.149724891217987,12.493003154066486
-0.0005980591853293946,0.46030753981517736,-0.3925068844046075,0.0021370926569629824,-0.19930702577779938,0.0043051260634954895,-0.04521857665313372,-0.11279584012338309,0.015874787009256517,0.15979551358884903,0.053232663644659665,0.30247186163698087,1.3725416876466225,22.335541132300044,-32.22263643571739,30.548229136464393,-10.165453776128151,11.724123767642597
-0.0006955279391437579,0.46006432256592794,-0.39247183823834936,0.0024807863696407017,-0.19919173297455325,0.004945323116387738,-0.048734376907181645,-0.12160862462470003,0.017523083129081792,0.17184685633885968,0.057646401623065884,0.3200985264461243,1.4969242822964592,22.50953970771551,-32.176337671084255,30.415639513508335,-10.18188864521795,10.992283740311636
-0.0007999411522911426,0.4598036612070296,-0.39243339550874773,0.002848245366771139,-0.19906762200964598,0.005618936364924438,-0.05220660657369234,-0.13033067944917337,0.019221364800803678,0.18372949856521864,0.06205548245363419,0.3368066242683501,1.621756588522067,22.6838071447807,-32.129770382512675,30.28400309461364,-10.199024776809392,10.29571269268078
-0.0009112101313107067,0.4595257370924786,-0.39239145645595774,0.003239141406897327,-0.19893470289193532,0.006324216283325861,-0.05563448950978207,-0.1389620572754829,0.020969526394999223,0.19544802006309395,0.06645955885533249,0.3526399592007116,1.7470187972545395,22.858315689574923,-32.08294933957414,30.15329586962441,-10.216858807524414,9.632724865644834
-0.0010292447094101568,0.4592307314563795,-0.3923459215428661,0.003653154956744689,-0.19879298632517317,0.007059496773404889,-0.05901728904972503,-0.147502818049572,0.02276745654579988,0.20700677492368114,0.07085828338107793,0.36764024503951404,1.8726915509074036,23.0330392220177,-32.03588885930206,30.023495466621988,-10.235388483972203,9.001715073404018
-0.001153953322051816,0.4589188253980492,-0.3922966914672562,0.004089974762044813,-0.19864248370610016,0.007823191183788783,-0.06235430632082964,-0.1559530291651566,0.024615037804950328,0.21840990265006205,0.07525130953650763,0.3818472051919467,1.998755921490565,23.207953041548066,-31.98860280429847,29.894581069045266,-10.254612445349123,8.401154850177107
-0.001285243079328871,0.45859019986685645,-0.39224366717454084,0.00454929743951931,-0.19848320712063935,0.008613788519404149,-0.06564487863852751,-0.16431276559636726,0.026512146357682356,0.22966133873724837,0.07963829273040797,0.3952986678076833,2.1251933893505055,23.38303367576372,-31.941104583189446,29.76653333664737,-10.274530033527874,7.829588781342479
-0.0014230198352827353,0.4582450356468793,-0.3921867498709543,0.00503082708900396,-0.19831516933848642,0.009429849832122918,-0.06888837797693215,-0.17258210998856743,0.02845865179325627,0.24076482474232513,0.08401889107646641,0.4080306563593842,2.251985822597966,23.558258709695714,-31.893407153004112,29.639334330089575,-10.295141127568888,7.28563101018264
-0.0015671882543053315,0.45788351334145383,-0.3921258410371068,0.005534274924742658,-0.19813838380635854,0.010270004783902983,-0.0720842095112981,-0.18076115271273155,0.03045441692376543,0.2517239178693488,0.08839276606394084,0.4200774758900331,2.3791154572622815,23.733606633626685,-31.845523023108875,29.512967438983235,-10.316445999910833,6.767961911830318
-0.001717651874763284,0.4575058133576775,-0.3920608424418158,0.006059358924927568,-0.1979528646401326,0.01113294837417214,-0.07523181022897624,-0.1888499918881736,0.03249929764546963,0.26254200009245493,0.09275958311297809,0.43147179513457795,2.5065648781938394,23.90905670756431,-31.797464260379854,29.38741731320003,-10.338445191784869,6.275324926415674
-0.0018743131699745195,0.4571121158909217,-0.3919916561561408,0.006605803498606547,-0.19775862661607532,0.012017437823598915,-0.07833064760561778,-0.19684873337788536,0.03459314283752651,0.2732222868394895,0.09711901202863767,0.44224472471338766,2.634317000722267,24.084588840670698,-31.749242495340425,29.26266979728023,-10.361139405657777,5.806523543796903
-0.0020370736066615777,0.4567026009094012,-0.39191818456755373,0.007173339169121332,-0.19755568516134298,0.01292228960677004,-0.08138021834352908,-0.20475749076026586,0.03673579429353345,0.2837678352573928,0.10147072736616868,0.45242589158556296,2.7623550530670973,24.260183484115792,-31.70086892903035,29.138711867777957,-10.38452941274234,5.360418432620671
-0.0022058337010000214,0.45627744813883997,-0.39184033039419014,0.007761702273280397,-0.1973440563439055,0.01384637662665229,-0.08438004716922186,-0.21257638528059633,0.03892708668178195,0.29418155207953256,0.1058144087187328,0.4620435099411243,2.8906625594894377,24.43582153597574,-31.65235434040595,29.015531573390952,-10.408615973822462,4.935924706805475
-0.0023804930723747004,0.4558368370472695,-0.39175799669912903,0.008370634675508802,-0.1971237568620304,0.014788625524057325,-0.08732968568733941,-0.22030554578523115,0.04116684753056644,0.3044662011142019,0.11014974093754741,0.4711244487025178,3.0192233241669277,24.611484256934247,-31.603709094104047,28.893117977731173,-10.433399771829842,4.532009322871435
-0.002560950494951239,0.45538094682998725,-0.39167108690465846,0.008999883496253927,-0.19689480403344375,0.015748014115652752,-0.0902287112882693,-0.22794510864113224,0.04345489723528566,0.3146244103725622,0.11447641429332887,0.47969429579771394,3.1480214157698767,24.787153195669354,-31.554943148425608,28.771461104600384,-10.458881354775295,4.147688601854151
-0.0027471039471649926,0.4549099563947011,-0.3915795048064896,0.009649200853960777,-0.1966572157842699,0.01672356895437155,-0.09307672610687674,-0.23549521764306725,0.04579104908443078,0.32465867885342514,0.11879412458693289,0.48777741935940044,3.27704115271336,24.962810122919706,-31.506066063419723,28.650551885642724,-10.485061087792268,3.7820258698397353
-0.002938850659224816,0.45442404434688005,-0.39148315458788585,0.01031834361996362,-0.19641101063783747,0.01771436300636629,-0.09587335602991182,-0.2429560239105167,0.048175109301874394,0.3345713830014213,0.1231025732162068,0.495397025997369,3.4062670890580895,25.138436973325497,-31.45708700897056,28.53038211025371,-10.511939113183404,3.4341292114434108
-0.003136087158724329,0.45392338897532786,-0.39138194083367955,0.011007073185672222,-0.19615620770342693,0.018719513438934597,-0.09861824974975639,-0.2503276857760909,0.05060687710316187,0.344364782854301,0.12740146720527734,0.5025752162841538,3.5356840010318655,25.314015794230862,-31.40801477280305,28.41094437763187,-10.539515317483628,3.1031493308250377
-0.0033387093144488992,0.4534081682379938,-0.391275768544152,0.011715155241460915,-0.19589282666502336,0.01973817951410914,-0.10131107786228515,-0.25761036866703657,0.05308614476376498,0.3540410278943471,0.13169051920178806,0.5093330375872713,3.665276874142996,25.489528700715205,-31.358857768344336,28.29223205086597,-10.567789304662757,2.7882775150939736
-0.0035466123784623363,0.4528785597480314,-0.39116454314875704,0.012442359566697224,-0.19562088777012943,0.020769560582859194,-0.10395153200671858,-0.2648042449812201,0.05561269769748883,0.3636021626181543,0.13596944744696451,0.5156905343750283,3.795030890857329,25.664957836198163,-31.30962404238651,28.174239212957026,-10.596760374687264,2.4887436952014497
-0.0037596910265532252,0.45233474076011376,-0.39104817051967017,0.013188459830373898,-0.1953404118186838,0.021812894175092766,-0.1065393240454445,-0.2719094939587973,0.05818631454343121,0.37305013183833663,0.14023797572281624,0.5216667961167866,3.924931418811111,25.8402853380253,-31.260321282510112,28.056960624680034,-10.62642750674918,2.2038145996532412
-0.003977839397116984,0.4517768881570125,-0.39092655698515,0.013953233401834034,-0.19505142015212326,0.022867454180878335,-0.1090741852818794,-0.27892630155062664,0.06080676726007935,0.38238678573006807,0.14449583328027513,0.5272800028927845,4.054963999532876,26.01549330750663,-31.21095682423836,27.940391684196204,-10.656789346547967,1.932791996598565
-0.004200951128546047,0.4512051784364438,-0.3907996093426994,0.014736461171103504,-0.19475393464262003,0.023932549118524556,-0.11155586571453131,-0.2858548602843444,0.06347382122529609,0.39161388463473507,0.14874275475161383,0.5325474688231103,4.185114337648678,26.19056378393105,-31.161537657898265,27.824528388331135,-10.687844197081162,1.6750110200636645
-0.004428919395197071,0.450619787698186,-0.3906672348720172,0.015537927378368274,-0.19444797768251987,0.025007520485364896,-0.11398413332551212,-0.29269536912889693,0.06618723534109637,0.4007331036323854,0.15297848005008094,0.5374856834201702,4.315368290546344,26.365478722129897,-31.112070435174644,27.709367295440085,-10.719590012462593,1.4298385763011927
-0.004661636942000731,0.4500208916314696,-0.3905293413477327,0.016357419452156456,-0.1941335721740012,0.026091741187292912,-0.11635877340183001,-0.29944803335821724,0.06894676214224879,0.40974603689409056,0.15720275425932598,0.5421103509640073,4.445711858475843,26.540219973207545,-31.062561475348396,27.594905489785262,-10.752024394342362,1.1966718264188319
-0.004898996117776474,0.4494086655026403,-0.390385837051917,0.01719472785580606,-0.19381074151897149,0.027184614043283043,-0.1186795878878715,-0.30611306441463665,0.07175214790785593,0.41865420182480206,0.16141532751486298,0.5464364279950659,4.5761311750643445,26.714769268095225,-31.013016771215035,27.481140547354986,-10.785144590553577,0.9749367416345458
-0.00514088890731159,0.4487832841430952,-0.3902366307863666,0.018049645941819598,-0.19347950960921242,0.02828557036131199,-0.12094639476755803,-0.31269067977253656,0.07460313277517397,0.42745904300676807,0.16561595487953207,0.5504781590144726,4.706612498226022,26.889108203621657,-30.963441994685198,27.36807050305842,-10.818947495654092,0.764086727680533
-0.0053872069622610584,0.4481449219374899,-0.39008163188465655,0.018921969813725778,-0.1931399008167831,0.029394068582267174,-0.12315902747473399,-0.3191811028026707,0.07749945085502688,0.43616193595309083,0.16980439621466134,0.5542491104775925,4.837142201448212,27.063218230824923,-30.91384250207122,27.25569381923337,-10.853429653072602,0.5636013150441549
-0.005637841630921883,0.4474937528122149,-0.38992075022396006,0.01981149819508686,-0.19279193998468627,0.030509592988592203,-0.12531733433041192,-0.32558456263752106,0.08044083034825532,0.4447641906805414,0.17398041604840223,0.557762203162515,4.967706765436917,27.237080645260214,-30.864223339069028,27.14400935540827,-10.888587258603659,0.3729849118929698
-0.0058926839869330155,0.4468299502241389,-0.38975389623663464,0.020718032305307475,-0.19243565241780125,0.03163165247457463,-0.12742117800556627,-0.33190129403799273,0.08342699366271576,0.45326705511030657,0.17814378344250778,0.5610297429912164,5.098292770106141,27.410676579082313,-30.81458924544404,27.03301633926286,-10.92441616502644,0.1917656166816093
-0.006151624856949475,0.4461536871496155,-0.38958098092157384,0.021641375741917324,-0.19207106387408396,0.03275977937532948,-0.12947043500822988,-0.33813153726170153,0.08645765753041232,0.46167171830492476,0.18229427185864333,0.5640634503774243,5.2288868868968414,27.58398699470819,-30.764944659435216,26.922714338735293,-10.960911887652241,0.01949408758214255
-0.00641455484733689,0.4454651360737494,-0.389401915855325,0.022581334369015858,-0.19169820055603365,0.03389352835167281,-0.13146499519370716,-0.34427553793306215,0.08953253312440337,0.4699793135492667,0.18643165902515846,0.5668744881716663,5.359475871412587,27.756992679882046,-30.71529372189047,26.813103235225974,-10.99806961062914,-0.14425753398375718
-0.00668136436993044,0.44476446897991867,-0.3892166132029747,0.023537716211581936,-0.19131708910242343,0.03503247532821403,-0.13340476129677498,-0.35033354691534685,0.09265132617517789,0.478190921283039,0.1905557268051078,0.5694734882706132,5.490046556360256,27.929674243988124,-30.665640280148843,26.704183197851968,-11.035884193854661,-0.2998966483020793
-0.006951943666900034,0.444051857339549,-0.3890249857288022,0.02451033135536579,-0.19092775658029107,0.03617621648212326,-0.13528964848479708,-0.3563058201848488,0.09581373708624305,0.4863075718919254,0.19466626106618343,0.5718705769546137,5.620585844785195,28.102012115470995,-30.61598789168606,26.595954658707623,-11.074350180367992,-0.44781117328050835
-0.007226182834761493,0.44332747210213447,-0.38882694680670477,0.025498991852094064,-0.19053023047718484,0.03732436728015178,-0.13711958393072957,-0.3621926187072548,0.09901946104870635,0.49433024836413847,0.1987630515531106,0.5740753990142596,5.751080703591354,28.273986540238816,-30.566339827540247,26.488418289089886,-11.113461804109019,-0.5883704736683303
-0.007503971847571582,0.44259148368550183,-0.3886224104303954,0.02650351162973172,-0.19012453869365892,0.0384765615615996,-0.13889450640504464,-0.36799420831630625,0.1022681881546715,0.5022598888188265,0.20284589176296225,0.5760971407239087,5.881518157337887,28.445577580939748,-30.51669907553505,26.381574976649347,-11.153212997948957,-0.7219262458187662
-0.0077852005793428766,0.4418440619663122,-0.3884112912233768,0.027523706407556657,-0.1897107095360114,0.03963245066503424,-0.1406143658856472,-0.37371085959480504,0.10555960350929994,0.5100973889124698,0.20691457882376163,0.5779445517173215,6.01188528230459,28.616765117012342,-30.467068343317393,26.275425803429535,-11.193597401908779,-0.8488133601234724
-0.008069758825712684,0.4410853762707962,-0.388193504448694,0.028559393615814863,-0.18928877170925806,0.040791702596670094,-0.14227912318490402,-0.37934284775800076,0.10889338734141797,0.5178436041291034,0.21096891337666832,0.5796259658179258,6.142169200819403,28.787528845423687,-30.4174500612282,26.169972024759666,-11.234608371495913,-0.9693506631465982
-0.008357536324898579,0.4403155953657174,-0.38796896601846886,0.02961039231973471,-0.1888587543103341,0.04195400123841752,-0.1438887495929478,-0.38489045253938,0.11226921511257411,0.5254993519599229,0.21500869946197707,0.5811493208737115,6.272357075841926,28.95784828201676,-30.367846385022887,26.065215048967648,-11.276238986098377,-1.0838417413890558
-0.008648422777971499,0.43953488744955965,-0.38773759250321993,0.030676523147689833,-0.18842068682151591,0.043119045593706246,-0.14544322653646033,-0.39035395807886447,0.11568675762447324,0.5330654139775622,0.21903374440910217,0.5825221776443636,6.402436105797615,29.127702763399334,-30.318259198458392,25.961156417881853,-11.318482057386426,-1.192575648520857
-0.008942307868475852,0.4387434201439328,-0.3874993011409705,0.03175760822330998,-0.18797459910405456,0.044286549069278175,-0.1469425452521765,-0.39573365281341205,0.11914568112473296,0.5405425378100744,0.22304385873067045,0.5837517377859645,6.532393519657893,29.297071449313126,-30.268690115765267,25.85779778809216,-11.361330137678934,-1.2958275978316904
-0.009239081281424632,0.4379413604851928,-0.3872540098461486,0.0328534711013488,-0.18752052139201295,0.04545623879123103,-0.14838670647439006,-0.4010298293700053,0.12264564741092378,0.5479314390194076,0.2270388560208032,0.5848448609764251,6.662216572262017,29.46593332542941,-30.219140484018546,25.75514091294207,-11.404775528239698,-1.3938596215659391
-0.009538632721696182,0.4371288749162708,-0.38700163721828285,0.03396393670712667,-0.18705848428629768,0.04662785495367651,-0.14977572013577542,-0.4062427844610041,0.12618631393286944,0.5552328028889343,0.23101855285763043,0.585808081222741,6.791892539876991,29.634267206524676,-30.169611385426748,25.653187625225268,-11.44881028747416,-1.4869211987284134
-0.009840851931857932,0.4363061292787071,-0.38674210255049646,0.03508883127937542,-0.18658851874887758,0.04780115019845491,-0.15110960508087526,-0.41137281878183096,0.1297673338931955,0.5624472861243752,0.2349827687100491,0.5866476223892004,6.921408715992265,29.802051739993384,-30.120103639550372,25.551939820561586,-11.493426239004238,-1.575249852871417
-0.010145628709441202,0.4354732888048852,-0.3864753258378042,0.036227982316319914,-0.18611065609718017,0.048975889024422514,-0.1523883887916347,-0.41642023691095353,0.13338835634612528,0.5695755184722463,0.23893132584870988,0.587369412983801,7.05075240734635,29.969265409661364,-30.070617805468657,25.45139944142823,-11.538614979601757,-1.6590717213011374
-0.01045285292368999,0.43463051811046094,-0.38620122778521515,0.03738121852483944,-0.1856249279986578,0.05015184722489921,-0.15361210712439388,-0.42138534721212306,0.13704902629453097,0.5766181042597616,0.24286404926119412,0.5879791002383467,7.1799109301828254,30.135886539868437,-30.021154183905438,25.351568461823973,-11.584367886966497,-1.738602097072613
-0.01076241453180555,0.4337779811869833,-0.38591972981564465,0.03854836977255931,-0.18513136646551515,0.051328811351931215,-0.15478080405778027,-0.42626846173882493,0.14074898478525533,0.5835756238599341,0.24678076657132358,0.5884820635160019,7.30887160673346,30.30189329979049,-29.971712819329767,25.252448872544498,-11.630676127338253,-1.8140459450769886
-0.011074203594707488,0.4329158413947015,-0.3856307540776392,0.03972926704273018,-0.18463000384959008,0.05250657820608813,-0.15589453145096863,-0.43106989614089425,0.1444878690027261,0.5904486350854368,0.25068130796252897,0.5888834270784592,7.437621761926451,30.467263707977153,-29.922293502043246,25.154042667048795,-11.677530662934895,-1.8855983934621467
-0.011388110292331097,0.432044261455555,-0.3853342234529174,0.04092374239175941,-0.1841208728373797,0.05368495435057482,-0.1569533488118043,-0.4357899695732481,0.14826531236089038,0.5972376745146136,0.2545655061051905,0.5891880722433435,7.5661487203180275,30.631975637083162,-29.872895770265778,25.056351827897117,-11.72492225921136,-1.9534452015687058
-0.011704024938479716,0.43116340344634163,-0.3850300615637304,0.04213162890926515,-0.183604006445204,0.054863755648496826,-0.15795732307430996,-0.44042900460668416,0.1520809445935006,0.6039432587528686,0.25843319608785276,0.5894006489610037,7.694439803245723,30.796006818774128,-29.823518912232544,24.95937831374218,-11.772841491937394,-2.0177632055063626
-0.012021837995249954,0.43027342879206026,-0.3847181927800448,0.04335276068053016,-0.18307943801449958,0.05604280682217374,-0.15890652838511937,-0.4449873271406953,0.15593439184278737,0.6105658856325045,0.26228421535220714,0.589525586838456,7.822482326201922,30.95933484879065,-29.77416196831134,24.863124046856296,-11.82127875409212,-2.078720742441984
-0.012341440087046766,0.42937449825942375,-0.38439854222655173,0.044586972751238026,-0.1825472012072361,0.05722194103344755,-0.15980104589840582,-0.4494652663182489,0.15982527674655744,0.6171060353539358,0.2661184036317296,0.5895671056369055,7.95026359642624,31.121937192155908,-29.724823733152327,24.767590901177563,-11.870224262577667,-2.1364780546193787
-0.012662722014204552,0.4284667719505388,-0.38407103578950424,0.045834101094380145,-0.1820073300014484,0.058400999483983584,-0.16064096357889304,-0.45386315444248077,0.1637532185237569,0.6235641715710594,0.2699356028938547,0.589529225268017,8.077770910715499,31.28379118851467,-29.675502757877126,24.672780690859796,-11.919668064752463,-2.1911876740820344
-0.012985574766229668,0.42755040929674826,-0.38373560012338714,0.047093982579227006,-0.18145985868687725,0.05957983103460937,-0.16142637601255788,-0.45818132689525215,0.1677178330585418,0.6299407424234323,0.2737356572855649,0.5894157753128942,8.204991553450041,31.44487405759243,-29.626197352319082,24.57869515931072,-11.969600044788592,-2.242994789023228
-0.013309889534678975,0.4266255690526332,-0.3833921626574213,0.04836645494226256,-0.18090482186071272,0.060758291842782544,-0.16215738422465373,-0.4624201220575215,0.17171873298289916,0.6362361815177799,0.27751841308227077,0.5892304040865863,8.331912794835212,31.60516290476628,-29.576905587319757,24.48533596870464,-12.02000992985695,-2.292037592644106
-0.013635557725688377,0.42569240929017027,-0.3830406516019056,0.049651356759985034,-0.180342254423433,0.061936245017322235,-0.16283409550470132,-0.4665798812314812,0.17575552775786238,0.642450908861234,0.2812837186398568,0.5889765872698438,8.458521889356788,31.764634726737835,-29.5276252970919,24.392704689955558,-12.070887296144893,-2.3384476153577514
-0.013962470972164602,0.42475108739304146,-0.38268099595439886,0.05094852742348221,-0.17977219157473345,0.06311356028957986,-0.16345662323811253,-0.47066094856441254,0.17982782375336517,0.6485853317485885,0.2850314243497676,0.5886576361288111,8.584806074449219,31.923266417302823,-29.478354081653762,24.300802793138264,-12.12222157471239,-2.382350041137431
-0.014290521145652858,0.42380176005109305,-0.3823131255057453,0.0522578071146937,-0.17919466880953944,0.06429011370026456,-0.16402508674412855,-0.47466367097421197,0.18393522432677845,0.654639845605747,0.2887613825970083,0.58827670534235,8.710752569375439,32.08103477321056,-29.429089309342693,24.209631638344508,-12.174002057192142,-2.423864008768793
-0.014619600367892399,0.42284458325493995,-0.38193697084594497,0.05357903678427657,-0.17860972191409757,0.06546578730117607,-0.16453961111977064,-0.4785883980765442,0.18807732990017417,0.6606148347914346,0.292473447720936,0.5878368004557489,8.836348574317007,32.23791650010787,-29.37982811941221,24.11919246696312,-12.22621790134011,-2.463102898729449
-0.014949601022071431,0.4218797122907128,-0.38155246336987225,0.05491205813099486,-0.17801738696214015,0.06664046887113341,-0.16500032708951606,-0.48243548211357856,0.19225373803636003,0.6665106733591455,0.29616747597871923,0.5873407849786726,8.961581269673259,32.39388821856346,-29.33056742471925,24.02948639337225,-12.278858136442805,-2.500174606384899
-0.015280415763792287,0.4209073017349443,-0.3811595352828448,0.056256713582557266,-0.17741770031111745,0.06781405164542212,-0.16540737086042728,-0.48620527788426643,0.19646404351372782,0.6723277257812035,0.29984332551134535,0.5867913871443561,9.086437815568164,32.54892647016888,-29.281303914505045,23.940514397033432,-12.331911668588425,-2.5351818021564334
-0.015611937531757237,0.41992750544959206,-0.3807581196060449,0.05761284627783071,-0.17681069859849333,0.06898643405811458,-0.16576088398247515,-0.4898981426761198,0.20070783839995787,0.6780663476367228,0.3035008563120578,0.5861912063462318,9.21090535156338,32.703007723712346,-29.232034057274902,23.852277314976963,-12.38536728580754,-2.5682221792855904
-0.01594405955818486,0.4189404765771952,-0.38034815018179563,0.058980300050361055,-0.1761964187380991,0.07015751949664939,-0.1660610132138111,-0.4935144361984518,0.20498471212462108,0.6837268862651706,0.3071399301971088,0.585542719267404,9.334970996576008,32.856108381422764,-29.18275410377941,23.76477583466891,-12.43921366309118,-2.5993886897896314
-0.01627667537896637,0.4179463675361611,-0.3799295616786942,0.060358919413135356,-0.17557489791654168,0.07132721606808469,-0.16630791039075427,-0.497054520517042,0.20929425155071857,0.6893096813871511,0.3107604107787149,0.5848482857176488,9.458621848999426,33.00820478528104,-29.133460090101124,23.678010487250297,-12.493439367291817,-2.62876976917408
-0.016609678843570917,0.4169453300161807,-0.37950228959660376,0.06174854954452326,-0.17494617358966147,0.07249543637646852,-0.16650173230227316,-0.5005187599901914,0.2136360410451985,0.6948150656939526,0.31436216344010764,0.5841101541919146,9.581844987025464,33.15927322339746,-29.084147840849305,23.591981641139533,-12.548032861914693,-2.656449550441316
-0.01694296412470842,0.41593751497376846,-0.3790662702715068,0.06314903627533791,-0.17431028347903632,0.07366209731079579,-0.16664264056875075,-0.5039075212061317,0.218009662548488,0.7002433654073266,0.31794505531257317,0.5833304671636316,9.70462746916611,33.30928993645134,-29.034812972464373,23.506689495989317,-12.602982511805122,-2.6825080679083104
-0.017276425727758088,0.41492307262792494,-0.37862144088022065,0.0645602260769597,-0.17366726556852757,0.07482711984304678,-0.16673080152483408,-0.507221172921758,0.22241469564307706,0.7055949008108965,0.32150895525438,0.5825112661254996,9.826956334972751,33.45823112419266,-28.98545089663493,23.42213407698994,-12.658276587738412,-2.707021451322149
-0.017609958499970445,0.41390215245591966,-0.3781677394449783,0.06598196605046876,-0.17301715810086457,0.07599042883582642,-0.16676638610617867,-0.5104600860026522,0.22685071762118997,0.7108699867545257,0.3250537338314969,0.581654496389821,9.948818605950887,33.6060729520035,-28.93605682382814,23.33831522951083,-12.713903270918111,-2.730062110738376
-0.017943457639450263,0.4128749031891909,-0.3777051048378751,0.06741410391673458,-0.17235999957426457,0.07715195285914615,-0.16674956973990818,-0.5136246333643689,0.23131730355157865,0.7160689331329139,0.32857926330000564,0.5807620116598651,10.070201286668162,33.75279155751727,-28.886625766934912,23.25523261407276,-12.769850657388819,-2.7516989126052382
-0.0182768187039275,0.411841472809361,-0.37723347678518415,0.06885648800741383,-0.17169582873908432,0.07831162401591256,-0.16668053223861848,-0.5167151899149537,0.23581402634547075,0.721192045339626,0.3320854175901191,0.5798355783832048,10.19109136605332,33.89836305729488,-28.83715254503047,23.172885701643434,-12.826106762368317,-2.771997347475384
-0.018609937619323027,0.41080200854436366,-0.37675279587154076,0.07030896725680924,-0.17102468459450088,0.07946937777570744,-0.16655945769776426,-0.5197321324986688,0.24034045682170438,0.7262396246977043,0.3355720722917168,0.5788768798974399,10.311475818883615,34.042763553556,-28.787631787250678,23.09127376924918,-12.882659524505327,-2.791019689746473
-0.018942710688115576,0.4097566568646819,-0.3762630035439986,0.07177139119454515,-0.17034660638521826,0.08062515281646389,-0.1663865343962745,-0.5226758398408995,0.24489616377107978,0.7312119688679556,0.3390391046413144,0.5778875203782255,10.431341607458139,34.18596914096351,-28.738057936783992,23.01039589589605,-12.939496810066762,-2.808825149813088
-0.019275034597516078,0.40870556347969345,-0.3757640421159587,0.07324360993901706,-0.16966163359819747,0.08177889087366198,-0.1661619547002508,-0.5255466924942165,0.24948071401995703,0.7361093722359556,0.34248639351038795,0.5768690285990498,10.550675683454253,34.32795591346116,-28.68842525497999,22.93025095879357,-12.996606417060768,-2.825470018993815
-0.019606806427455298,0.4076488733341223,-0.37525585477097245,0.07472547419157459,-0.16896980595940753,0.08293053659668549,-0.1658859149696104,-0.5283450727855719,0.2540936724931275,0.7409321262787628,0.3459138193949753,0.5758228615117518,10.66946498996429,34.46869997116114,-28.638727825571788,22.850837629874896,-13.053976079298382,-2.841007807579998
-0.01993792365839038,0.4065867306045931,-0.3747383855664205,0.07621683523139916,-0.16827116343059456,0.08408003741199818,-0.16555861546754191,-0.5310713647646057,0.2587346022759859,0.7456805199122838,0.3493212644064827,0.5747504076563444,10.787696463709462,34.60817742728135,-28.588959559013354,22.772154372607,-13.111593470399459,-2.8554893763360787
-0.02026828417893568,0.405519278696287,-0.3742115794370684,0.07771754491103955,-0.16756574620606732,0.08522734339281476,-0.1651802602726499,-0.5337259541530425,0.26340306467602825,0.7503548398201916,0.3527086122636264,0.5736529904082932,10.905357037427853,34.7463644151299,-28.539114196930466,22.69419943908501,-13.169446207746244,-2.868963061765726
-0.02059778629332302,0.4044466602396967,-0.373675382198501,0.07922745565257006,-0.16685359470949643,0.0863724071349568,-0.1647510571936691,-0.5363092282951571,0.26809861928369955,0.7549553707652509,0.35607574828544225,0.572531871071015,11.022433642433153,34.88323709513633,-28.48918531668231,22.61697086740479,-13.227521856388398,-2.8814747954426694
-0.020926328728696292,0.40336901708747813,-0.37312974055043574,0.08074642044433779,-0.16613474959072583,0.08751518363859878,-0.16427121768663652,-0.5388215761092919,0.2728208240326145,0.7594823958838669,0.3594225593853014,0.5713882518209905,11.138913211340713,35.01877166192655,-28.439166336034628,22.54046647930815,-13.285807932903143,-2.8930682176910985
-0.021253810642245123,0.40228649031139735,-0.3725746020799174,0.08227429283826705,-0.16540925172259408,0.08865563019562384,-0.16374095677441494,-0.5412633880404047,0.2775692352591731,0.763936196964633,0.3627489340658697,0.5702232785125275,11.254782680957298,35.15294435144043,-28.38905051794015,22.46468387809508,-13.344291909213592,-2.903784785886601
-0.021580131628182054,0.4011992201993701,-0.3720099152643942,0.08381092694769028,-0.16467714219776416,0.0897937062823216,-0.16316049296846594,-0.543635056013632,0.2823434077615919,0.7683170547116173,0.3660547624149558,0.5690380433488789,11.37002899533084,35.28573144808997,-28.338830975426315,22.38962044679776,-13.402961216368336,-2.9136638776358623
-0.021905191724567608,0.4001073462525924,-0.37143562947467745,0.08535617744567646,-0.16393846232555978,0.09092937345717379,-0.16253004819277736,-0.5459369733888499,0.28714289485837025,0.7726252489930913,0.369339936102191,0.5678335874260968,11.484639108956328,35.417109291956805,-28.288500676586796,22.315273346610866,-13.461803248285449,-2.9227428890806992
-0.022228891419987316,0.39901100718276,-0.37085169497778503,0.0869098995638292,-0.1631932536288068,0.09206259526348519,-0.1618498477098535,-0.5481695349162163,0.29196724844621086,0.7768610590763718,0.37260434837649087,0.5666109031557015,11.598599990133769,35.5470542860252,-28.238052449674914,22.24163951557338,-13.520805365462557,-2.9310573285604935
-0.02255113166008468,0.39791034090937466,-0.37025806293967023,0.08847194909152803,-0.1624415578406783,0.09319333713662908,-0.16112012004868184,-0.550333136692679,0.2968160190574117,0.7810247638494143,0.37584789406424823,0.5653709365719508,11.711898624474165,35.67554290345025,-28.187478988295787,22.168715667496503,-13.579954898656247,-2.938640905855724
-0.022871813853953867,0.39680548455713577,-0.36965468542783675,0.09004218237558756,-0.16168341690154187,0.09432156631568753,-0.16034109693459406,-0.5524281761194357,0.30168875591674627,0.7851166420297656,0.3790704695682114,0.5641145895292201,11.82452201854917,35.802551694858174,-28.13677285669559,22.096498291133077,-13.639239152532655,-2.9455256172245354
-0.023190839880395754,0.3956965744534151,-0.36904151541384106,0.09162045632031048,-0.16091887295580787,0.09544725175927701,-0.15951301322094366,-0.5544550518603303,0.3065850069978486,0.7891369723614556,0.3822719728670029,0.5628427217947417,11.936457203680042,35.928057295676076,-28.0859264951437,22.024983649583476,-13.698645409290565,-2.9517418264344144
-0.023508112094040808,0.39458374612581276,-0.36841850677568283,0.09320662838791123,-0.1601479683487774,0.0965703640653604,-0.1586361068225261,-0.556414163801172,0.3115043190791165,0.7930860338003795,0.3854523035152365,0.5615561530416979,12.047691239861384,36.05203643348935,-28.03493222540548,21.954167779933325,-13.758160932259845,-2.957318341980984
-0.02382353333134215,0.39346713429979285,-0.36778561430008455,0.09480055659928863,-0.15937074562348902,0.09769087539485526,-0.15771061865067126,-0.5583059130099651,0.31644623779914904,0.7969641056886952,0.3886113626441932,0.5602556647474267,12.158211219814952,36.17446593542368,-27.98378225630212,21.884046493118376,-13.817772969475584,-2.96228249067698
-0.024137006916442032,0.3923468728963968,-0.3671427936846611,0.0964020995351261,-0.15858724751756298,0.09880875939885779,-0.1567367925499417,-0.5601307016980344,0.3214103077117299,0.8007714679187387,0.39174905296301743,0.5589420020012696,12.268004273168852,36.29532273554922,-27.932468689354515,21.81461537401193,-13.877468757230172,-2.966660187785554
-0.024448436666914777,0.3912230950300327,-0.36649000153998035,0.09801111633729996,-0.15779751696004218,0.09992399114931054,-0.15571487523637326,-0.5618889331820345,0.3263960723403701,0.8045084010869303,0.3948652787603985,0.5576158752263761,12.377057570757135,36.41458388230392,-27.880983524506927,21.745869781730292,-13.937235523604143,-2.970476003863773
-0.024757726899389175,0.39009593300633905,-0.3658271953915155,0.09962746671057622,-0.15700159706822878,0.10103654707294968,-0.15464511623719815,-0.5635810118468322,0.33140307423242193,0.8081751866381306,0.39795994590670253,0.5562779618195719,12.48535832903484,36.53222654593346,-27.829318665928177,21.67780485015175,-13.997060491976622,-2.9737532284741643
-0.02506478243505316,0.38896551832012055,-0.3651543336814899,0.10125101092457797,-0.15619953114451574,0.10214640488837608,-0.15352776783199315,-0.5652073431092469,0.33643085501277437,0.8117721070008742,0.401032961856523,0.5549289077132024,12.592893814603357,36.648228025944825,-27.777465927885324,21.610415488644765,-14.05693088451682,-2.9765139309145114
-0.02536950860504356,0.38783198165335525,-0.3644713757706156,0.10288160981600576,-0.1553913626732125,0.10325354354610143,-0.15236308499519896,-0.5667683333826403,0.34147895543714163,0.8152994457138975,0.40408423565161944,0.5535693288626766,12.699651348840879,36.76256575856982,-27.725417040686736,21.543696383000963,-14.11683392565661,-2.978779018109115
-0.025671811255723476,0.38669545287327056,-0.3637782819397257,0.10451912479109446,-0.15457713531736406,0.10435794317142795,-0.15115132533995912,-0.5682643900423414,0.3465469154449537,0.8187574875443497,0.40711367792421504,0.5521998126632579,12.805618312632607,36.87521732423645,-27.67316365669057,21.47764199656842,-14.17675684554535,-2.9805682897975405
-0.025971596753849937,0.3855560610304868,-0.363075013391302,0.10616341782829058,-0.1537568929155628,0.1054595850100269,-0.14989274906322947,-0.5696959213918973,0.35163427421185844,0.8221465185980641,0.4101212009006259,0.550820919299478,12.910782151195333,36.986160455044256,-27.620697356374823,21.412246571581417,-14.236686883487016,-2.9819004911506486
-0.02626877199163416,0.3844139343572265,-0.3623615322508983,0.10781435148113508,-0.1529306794787524,0.10655845137608769,-0.1485876188921117,-0.5710633366301378,0.3567405702018441,0.8254668264222437,0.41310671840519597,0.549433183030391,13.015130378990818,37.0953730422403,-27.56800965446476,21.347504130681802,-14.296611291360312,-2.9827933629371426
-0.026563244391696893,0.3832692002655884,-0.3616378015684603,0.10947178888133688,-0.15209853918702337,0.10765452560291515,-0.14723620003136678,-0.5723670458190422,0.3618653412189899,0.8287187001009029,0.4160701458645128,0.5480371134137304,13.118650584722428,37.202833143692686,-27.51509200611308,21.283408478628317,-14.356517337021721,-2.9832636893583113
-0.026854921911921025,0.3821219853458836,-0.3609037853195426,0.11113559374202366,-0.15126051638639962,0.10874779199585892,-0.14583876011206617,-0.5736074598523987,0.3670081244588527,0.8319024303433874,0.41901140031188133,0.5466331964718827,13.221330436409314,37.308518991358284,-27.461935813129994,21.219953204189267,-14.4163923076916,-2.9833273436625496
-0.027143713050203706,0.3809724153650331,-0.3601594484064236,0.11280563036115622,-0.15041665558561557,0.10983823578746384,-0.14439556914134066,-0.5747849904252441,0.3721684565594968,0.8350183095662821,0.4219304003920329,0.5452218958024566,13.32315768653238,37.41240899874067,-27.40853243025756,21.157131682214697,-14.476223513323838,-2.9829993316463
-0.027429526849110084,0.379820615265025,-0.35940475665911925,0.11448176362509421,-0.14956700145288346,0.11092584309473602,-0.14290689945318907,-0.575900050004074,0.3773458736521729,0.8380666319689994,0.4248270663660486,0.5438036536360911,13.424120177246191,37.51448176833522,-27.354873171484936,21.09493707588355,-14.535998289958117,-2.9822938331425886
-0.027712272900430705,0.37866670916142936,-0.35863967683629594,0.11616385901230088,-0.1487115988126505,0.11201060087842406,-0.1413730256603103,-0.5769530517978116,0.3825399114116534,0.8410476936033305,0.42770132011647766,0.5423788918440191,13.524205845650991,37.614716099057404,-27.300949316399624,21.033362339122093,-14.595704003055374,-2.9812242415936363
-0.027991861349644553,0.3775108203419703,-0.3578641766260835,0.11785178259717533,-0.14785049264234523,0.11309249690421963,-0.13979422460692417,-0.5779444097295263,0.3877501051062289,0.8439617924372237,0.43055308515263097,0.5409480128977863,13.623402729118753,37.71309099365069,-27.246752116570953,20.97240021918914,-14.655328050816117,-2.9798032017992844
-0.02826820290028965,0.37635307126515255,-0.35707822464678873,0.11954540105400142,-0.14698372806911317,0.11417151970578644,-0.1381707753225486,-0.5788745384088887,0.39297598964737246,0.846809228413047,0.43338228661603273,0.5395114007834055,13.721698970667369,37.80958566607046,-27.192272801960506,20.91204325942422,-14.714857867480545,-2.978042645928668
-0.02854120881824305,0.37519358355894183,-0.35628179044751057,0.12124458166100258,-0.14611135036654113,0.11524765854953069,-0.13650295897670103,-0.5797438531053531,0.39821709963907476,0.8495903035005767,0.4361888512860125,0.5380694218721231,13.819082824376867,37.90417954883999,-27.137502587356266,20.852283802154364,-14.774280926611484,-2.9759538278781497
-0.02881079093591204,0.37403247801949774,-0.35547484450865685,0.12294919230449246,-0.1452334049513703,0.11632090340103042,-0.134791058834495,-0.5805527697220565,0.4034729694268569,0.8523053217449434,0.43897270758542145,0.5366224257498654,13.915542660841488,37.99685230037478,-27.082432678824887,20.793113991755654,-14.833584744357909,-2.9735473560547456
-0.029076861656338247,0.3728698746099569,-0.35465735824236394,0.12465910148311198,-0.14434993738019739,0.11739124489304509,-0.13303536021310267,-0.5813017047704216,0.40874313314646377,0.8549545893097554,0.4417337855864582,0.535170746007337,14.01106697265162,38.08758381227113,-27.027054280178163,20.73452577786528,-14.892756882700272,-2.9708332246602582
-0.02933933395721636,0.371705892459266,-0.3538293039928195,0.1263741783121432,-0.14346099334616422,0.11845867429503039,-0.13123615043905662,-0.5819910753454555,0.41402712477224246,0.8575384145156117,0.4444720170165882,0.5337147009926492,14.105644379899257,38.17635421655562,-26.971358599449296,20.67651091874006,-14.951784952675629,-2.9678208435478943
-0.02959812139482909,0.37054064986106255,-0.3529906550364891,0.12809429252789162,-0.14256661867563514,0.11952318348408691,-0.12939371880636452,-0.58262129910173,0.4193244781652096,0.8600571078742033,0.4471873352645439,0.5322545945282631,14.199263635700916,38.26314389289108,-26.915336855374363,20.619060984757496,-15.010656617583226,-2.964519066719401
-0.029853138107899916,0.3693742642726025,-0.35214138558224745,0.129819314492128,-0.14166685932486237,0.12058476491727482,-0.1275083565354119,-0.5831927942300359,0.4246347271208107,0.8625109821181957,0.4498796753863919,0.5307907165939524,14.29191363173169,38.347933475735246,-26.858980283874068,20.562167362055053,-15.069359596168585,-2.960936219527687
-0.030104298821365175,0.3682068523137331,-0.3512814707714147,0.13154911519658213,-0.14076176137663907,0.12164341160522964,-0.12558035673262943,-0.5837059794346963,0.42995740541637456,0.8649003522270743,0.4525489741116538,0.5293233439774048,14.383583403764286,38.430703861448265,-26.802280144531966,20.505821256303754,-15.127881665786518,-2.9570801246468315
-0.03035151885006698,0.36703852976591006,-0.35041088667769815,0.1332835662674804,-0.13985137103694012,0.12269911708701765,-0.12361001435090162,-0.5841612739115304,0.43529204685826656,0.8672255354491276,0.45519516984946984,0.5278527408940051,14.474262137206729,38.511436215345206,-26.74522772706443,20.450013696612054,-15.186210665541633,-2.9529581268679075
-0.03059471410236837,0.36586941157125713,-0.34952961030704066,0.13502253997011987,-0.13893573463155054,0.12375187540617219,-0.1215976261506954,-0.5845590973264557,0.44063818532874216,0.8694868513197335,0.4578182026947926,0.5263791595772713,14.563939172632573,38.59011197868895,-26.687814357777235,20.39473553955579,-15.244334499405705,-2.9485771167768693
-0.030833801083692144,0.3646996118316677,-0.34863761959737566,0.1367659092134721,-0.13801489860268135,0.12480168108785487,-0.11954349066188755,-0.584899869794716,0.44599535483250424,0.8716846216761077,0.4604180144346002,0.5249028408413403,14.652604011297331,38.666712875620334,-26.630031406005596,20.33997747333023,-15.302241139311345,-2.9439435533674514
-0.031068696899984687,0.36352924380794627,-0.3477348934182897,0.13851354755480944,-0.13708890950557312,0.12584852911708855,-0.11744790814627089,-0.5851840118607249,0.4513630895429656,0.8738191706686668,0.4629945485541181,0.5234240146168385,14.740246320634919,38.74122092002135,-26.571870290531912,20.285730022020147,-15.359918628220964,-2.939063485639861
-0.03129931926110613,0.36235841991898926,-0.34682141157059326,0.14026532920434773,-0.13615781400508703,0.12689241491801137,-0.1153111805607201,-0.5854119444785124,0.45674092384821935,0.8758908247691479,0.46554775024303985,0.5219429004614046,14.82685593972791,38.813618422306746,-26.51332248597734,20.23198354998381,-15.417355083169815,-2.9339425732333124
-0.031525586484148126,0.36118725174100375,-0.34589715478579985,0.14202112902989897,-0.13522165887228355,0.1279333343341035,-0.11313361152099838,-0.5855840889927626,0.46212839239671843,0.8778999127756255,0.46807756640173626,0.5204597080460723,14.912422884745428,38.88388799614111,-26.454379529163162,20.178728266346926,-15.47453869828304,-2.928586106138223
-0.0317474174966805,0.3600158500067629,-0.34496210472551453,0.14378082256152808,-0.13428049098098865,0.12897128360934085,-0.1109155062661875,-0.5857008671204305,0.4675250301426665,0.8798467658145555,0.47058394564744394,0.5189746376186656,14.99693735434255,38.952012565076515,-26.39503302543661,20.1259542296023,-15.531457747765108,-2.922999023531742
-0.03196473183992795,0.35884432460489707,-0.3440162439807323,0.14554428599620803,-0.1333343573043478,0.13000625937023144,-0.10865717162372365,-0.585762700932926,0.4729303723911212,0.8817317173399729,0.4730668383204246,0.5174878804452994,15.080389735015036,39.0179753691078,-26.335274654957853,20.073651352311266,-15.588100588861117,-2.9171859317779028
-0.032177449671877995,0.35767278457921936,-0.34305955607104666,0.14731139620246794,-0.13238330491136763,0.1310382586086935,-0.10635891597502291,-0.5857700128388525,0.47834395484281106,0.8835551031299639,0.47552619649008565,0.5159996192310314,15.162770606403441,39.081759971140556,-26.275096178942807,20.021809405902886,-15.644455664788799,-2.9111511216320167
-0.03238549177032136,0.35650133812808477,-0.3420920254437693,0.14908203072502899,-0.13142738096344553,0.1320672786657348,-0.1040210492216801,-0.5857232255672876,0.483765313638668,0.885317261280525,0.47796197396105417,0.5145100285206564,15.244070746540501,39.1433502633688,-26.214489445858764,19.970418025566566,-15.700511507640584,-2.9048985846866877
-0.03258877953582581,0.35533009260378157,-0.3411136374729612,0.15085606778942284,-0.13046663271088713,0.13309331721589598,-0.10164388275222572,-0.5856227621515931,0.489193985404075,0.8870185321969222,0.48037412627919623,0.5130192750805902,15.324281137035857,39.20273047355752,-26.153446397566903,19.919466715234392,-15.756256741254532,-2.8984320290951597
-0.032787234994644664,0.35415915451195407,-0.3401243784583755,0.15263338630658815,-0.129501107489412,0.13411637225242148,-0.09922772940942602,-0.5854690459137427,0.4946295072928315,0.8886592585826522,0.4827626107375735,0.5115275182627436,15.403392968192257,39.25988517122778,-26.091959075409243,19.86894485264883,-15.811680084053386,-2.891754894605948
-0.03298078080156089,0.35298862951105575,-0.3391242356243138,0.15441386587744038,-0.12853085271664733,0.13513644207312397,-0.09677290345811165,-0.5852625004491526,0.5000714170308357,0.8902397854261075,0.4851273863823297,0.5100349103512437,15.481397644047394,39.3147992737387,-26.03001962623467,19.818841694511892,-15.86677035185058,-2.8848703669410107
-0.03316934024266793,0.35181862241183176,-0.3381131971183948,0.15619738679741046,-0.12755591588861032,0.1361535252669096,-0.09427972055352102,-0.5850035496120036,0.5055192529594856,0.8917604599850408,0.48746841401849983,0.5085415968928201,15.5582867873356,39.36745805226436,-25.9676203083606,19.7691463817116,-15.921516460622447,-2.877781391548132
-0.03335283723808822,0.35064923717682966,-0.3370912520102372,0.1579838300609483,-0.12657634457617883,0.13716762070093286,-0.09174849771014457,-0.5846926175010408,0.5109725540787985,0.8932216317689203,0.48978565621573433,0.5070477170116324,15.634052244363788,39.417847137660495,-25.904753497465848,19.71984794462182,-15.975907429245723,-2.87049068675672
-0.03353119634463033,0.349480576919938,-0.3360583902900567,0.1597730773659868,-0.12559218642155096,0.13817872750835142,-0.089179553271057,-0.5843301284458378,0.5164308600902492,0.8946236525192641,0.4920790773139325,0.5055534037092813,15.708686089796005,39.465952526218395,-25.841411692411157,19.670935308471208,-16.02993238219912,-2.863000756364785
-0.033704342758385776,0.34831274390595096,-0.33501460286717805,0.16156501111836288,-0.12460348913469341,0.13918684507665283,-0.08657320687772435,-0.5839165069935115,0.5218937114393285,0.895966876188037,0.49434864342877743,0.5040587841507059,15.782180631341138,39.51176058530164,-25.77758752098277,19.62239729877756,-16.08358055222851,-2.855313901683423
-0.03387220231726632,0.3471458395501592,-0.3339598815684624,0.16335951443619126,-0.12361030048977907,0.1401919730365261,-0.08392977944027342,-0.5834521778958751,0.5273606493578201,0.8972516589141916,0.4965943224571662,0.5025639799366423,15.854528414338398,39.55525805886292,-25.713273745556293,19.574222646843083,-16.136841282974075,-2.8474322330639907
-0.03403470150348274,0.3459799644179652,-0.3328942191366508,0.1651564711541881,-0.12261266832161401,0.14119411125125267,-0.08124959310821159,-0.5829375660970142,0.5328312159057975,0.8984783589984281,0.4988160840825298,0.5010691073632778,15.925722226235267,39.59643207283675,-25.64846326867603,19.526399995307024,-16.18970403155941,-2.8393576809316414
-0.034191767445965915,0.34481521822452266,-0.33181760922862413,0.1669557658279406,-0.12161064052205393,0.1421932598065921,-0.07853297124158469,-0.5823730967212729,0.5383049540133406,0.89964733687625,0.5010138997800352,0.49957427766971557,15.995755100952744,39.63527014040464,-25.583149138546275,19.478917903751178,-16.242158371140846,-2.8310920063482072
-0.03434332792273104,0.34365169983439936,-0.33073004641358017,0.16875728373811938,-0.1206042650364106,0.14318941900113974,-0.07578023838256168,-0.5817591950616366,0.5437814075219706,0.9007589550893831,0.5031877428216648,0.49807959727382367,16.06462032313284,39.67176016713037,-25.51732455443181,19.431764854354718,-16.294193993416577,-2.822636811125598
-0.03448931136318591,0.34248950726126237,-0.32963152617112856,0.17056091089463063,-0.11959358985984826,0.1441825893371338,-0.0729917202274344,-0.5810962865684957,0.5492601212258055,0.9018135782556282,0.5053375882811671,0.4965851679970246,16.132311432263393,39.70589045596104,-25.450982871962648,19.38492925759399,-16.345800711094626,-2.8139935475104974
-0.03462964685038395,0.3413287376675848,-0.3285220448893037,0.17236653404070507,-0.11857866303377051,0.1451727715116909,-0.0701677435990215,-0.5803847968387779,0.5547406409124328,0.9028115730372113,0.5074634130388724,0.49509108727854895,16.19882222667538,39.73764971209058,-25.384117608340617,19.33839945798338,-16.396968460318348,-2.8051635274597633
-0.03476426412322288,0.34016948736437397,-0.3274015998624967,0.17417404065692046,-0.11755953264219778,0.1461599664084502,-0.06730863641946541,-0.5796251516054339,0.5602225134035016,0.9037533081076929,0.5095651957863682,0.4935974483796538,16.264146767408,39.76702704768421,-25.316722447444022,19.29216373985356,-16.44768730304953,-2.7961479315249127
-0.034893093578589704,0.3390118518109194,-0.3262701892893066,0.17598331896515546,-0.11653624680813572,0.14714417508960675,-0.06441472768341167,-0.5788177767272625,0.5657052865950318,0.9046391541174996,0.5116429170310288,0.49210434057828356,16.328279381937108,39.794011986458315,-25.248791244826712,19.24621033316261,-16.497947429407134,-2.7869478173634645
-0.03501606627345282,0.3378559256145613,-0.32512781227031173,0.17779425793247172,-0.11550885368993494,0.14812539878831602,-0.061486347431560125,-0.5779630981790601,0.571188509497441,0.9054694836581305,0.5136965591003945,0.49061184935462543,16.391214667762455,39.81859446811504,-25.180318032608977,19.200527419336595,-16.5477391599616,-2.777564127893725
-0.03513311392690198,0.33670180253047716,-0.32397446880576114,0.17960674727492193,-0.11447740147764215,0.149103638901452,-0.05852382672457755,-0.5770615420420805,0.5766717322752879,0.9062446712250988,0.515726106146393,0.48912005656799284,16.452947495849568,39.84076485262763,-25.111297024256896,19.15510313713544,-16.597052947983737,-2.767997699109019
-0.0352441689221367,0.33554957546148756,-0.32281015979318767,0.18142067746128124,-0.11344193838934336,0.1500788969827029,-0.055527497617361476,-0.5761135344947909,0.5821545062867309,0.9069650931796581,0.517731544149401,0.48762904062544754,16.513473013922123,39.860513924373265,-25.041722619246173,19.109925588540207,-16.64587938164722,-2.758249267566279
-0.03534916430840399,0.3343993364578797,-0.32163488702494225,0.18323593971669996,-0.11240251266749908,0.151051174735988,-0.05249769313364518,-0.5751195018039084,0.5876363841227032,0.9076311277093666,0.5197128609221375,0.4861388766425527,16.572786649600893,39.87783289611216,-24.971589407609265,19.064982844657926,-16.694209186183997,-2.7483194775636104
-0.03544803380288586,0.3332511767172483,-0.32044865318565063,0.18505242602627503,-0.11135917257527231,0.15202047400918126,-0.04943474724093397,-0.5740798703157027,0.5931169196458005,0.908243154787537,0.5216700461133864,0.4846496365966292,16.63088411338538,39.89271341280878,-24.900892174361115,19.02026295164011,-16.74203322599182,-2.738208888020186
-0.035540711792537386,0.3321051865843532,-0.31925146184959285,0.18687002913853829,-0.11031196639284922,0.152986796788127,-0.046338994825762904,-0.5729950664475507,0.5985956680288826,0.9088015561316211,0.5236030912115427,0.4831613894728714,16.687761401474678,39.905147555293496,-24.82962590380195,18.975753936611234,-16.789342506693487,-2.727917979071566
-0.035627133335875916,0.3309614555509937,-0.31804331747800607,0.18868864256885942,-0.10926094241375327,0.1539501451909343,-0.04321077166926636,-0.5718655166797271,0.604072185793388,0.9093067151605727,0.5255119895479767,0.4816742014036596,16.74341479842386,39.91512784376226,-24.757785783693727,18.93144381360318,-16.836128177146257,-2.7174471583927637
-0.03570723416472202,0.3298200722558989,-0.31682422541631133,0.19050816060276188,-0.10820614894115284,0.1549105214625371,-0.040050414423049865,-0.5706916475474169,0.6095460308473576,0.909759016951235,0.5273967363002131,0.4801881358013916,16.79784087963282,39.92264724111156,-24.68536720930804,18.887320589491978,-16.882381531401677,-2.7067967672606565
-0.03578095068589273,0.328681124484633,-0.315594191891265,0.19232847829914945,-0.107147634284163,0.15586792796950738,-0.03685826058535478,-0.569473885632935,0.6150167625231708,0.9101588481937932,0.5292573284949185,0.47870325348514026,16.85103651366427,39.9276991561066,-24.612365787342746,18.843372269933212,-16.928094010614625,-2.6959670863668928
-0.03584821998284774,0.32754469916951673,-0.314353224008035,0.19414949149344213,-0.10608544675414161,0.15682236719511022,-0.03363464847750651,-0.5682126575581369,0.6204839416149887,0.9105065971463345,0.5310937650106942,0.4772196128014285,16.902998864388046,39.93027744638077,-24.53877733970493,18.799586865292042,-16.973257204900627,-2.6849583413918334
-0.035908979817289015,0.32641088238956273,-0.31310132974720317,0.19597109680061925,-0.10501963466098027,0.15777384173458903,-0.030379917220637008,-0.5669083899770067,0.6259471304159049,0.9108026535885541,0.532906046580669,0.47573726973939984,16.953725392948897,39.93037642126433,-24.46459790715815,18.75595239656467,-17.017862855141573,-2.67377070834956
-0.03596316863071436,0.3252797593704259,-0.31183851796169354,0.19779319161816855,-0.1039502463093905,0.15872235429067033,-0.027094406712672502,-0.5655615095684061,0.6314058927548039,0.9110474087746462,0.5346941757948883,0.4742562780406497,17.003213859555206,39.927990844440124,-24.389823752831404,18.712456901286966,-17.06190285473865,-2.6624043187134165
-0.036010725545925514,0.32415141448436796,-0.3105647983736277,0.19961567412893938,-0.1028773299951855,0.15966790766927827,-0.02377845760557728,-0.5641724430289716,0.6368597940329223,0.9112412553854172,0.536458157102494,0.47277668930396866,17.051462325086167,39.92311593642472,-24.31445136558815,18.66908843942729,-17.105369251311913,-2.650859264331193
-0.036051590368491204,0.32302593125023565,-0.3092801815711075,0.20143844330389868,-0.10180093400155812,0.16061050477544875,-0.020432411282844676,-0.5627416170661415,0.6423084012601148,0.9113845874796559,0.5381979968136917,0.4712985530852384,17.098469152515296,39.915747376873476,-24.23847746325278,18.625835099259405,-17.148254248346024,-2.6391356021384733
-0.03608570358816566,0.32190339233345305,-0.3079846790049258,0.20326139890478828,-0.10072110659535512,0.16155014860943417,-0.01705660983722638,-0.5612694583913007,0.6477512830908216,0.9114778004447963,0.5399137031015016,0.46982191699270803,17.144233008148145,39.9058813067076,-24.16189899569364,18.582685003212358,-17.190550206781918,-2.6272333586783425
-0.03611300638026304,0.320783879546027,-0.3066783029852064,0.2050844414866821,-0.09963789602334855,0.1624868422629899,-0.013651396048691198,-0.5597563937130279,0.6531880098597358,0.9115212909469065,0.5416052860032866,0.4683468267778691,17.188752862672438,39.89351433006193,-24.084713147759356,18.53962631369343,-17.232249646553022,-2.6151525344351394
-0.03613344060698825,0.31966747384656613,-0.305361066677972,0.20690747240044216,-0.09855135050850443,0.16342058891583416,-0.01021711336260462,-0.5582028497304274,0.6586181536171695,0.9115154568800363,0.5432727574220574,0.46687332642213597,17.23202799201897,39.87864351605195,-24.006917342068732,18.496647238881103,-17.27334524806666,-2.6028931079896847
-0.03614694881872449,0.31855425534031306,-0.3040329841016438,0.20873039379507208,-0.09746151824624934,0.1643513918322732,-0.006754105868120508,-0.5566092531265351,0.6640412881641171,0.9114606973149554,0.5449161311275457,0.46540145821952894,17.274057978031784,39.86126640035923,-23.92850924165064,18.45373603848433,-17.313829853629073,-2.5904550400029533
-0.03615347425527804,0.3174443032791895,-0.30269407012346977,0.2105531086199667,-0.09636844740073525,0.1652792543579843,-0.0032627182767763527,-0.5549760305617796,0.6694569890870139,0.911357412447312,0.5465354227570459,0.4639312628555477,17.31484270894637,39.84138098663331,-23.849486752434355,18.410881029464864,-17.35369646881421,-2.577838277034745
-0.036152960847080605,0.3163376960618545,-0.3013443404558854,0.2123755206270572,-0.0952721861011032,0.16620417991694914,0.00025670409871640133,-0.5533036086674865,0.6748648337921876,0.9112060035452442,0.548130649816019,0.4624627794824142,17.354382379674842,39.818985747710094,-23.769848025587088,18.368070591719444,-17.392938263775875,-2.5650427552037764
-0.03614535321634962,0.3152345112337757,-0.29998381165280535,0.21419753437285013,-0.0941727824377463,0.16712617200853083,0.0038038153654954047,-0.5515924140394095,0.6802644015400023,0.9110068728964698,0.5497018316784551,0.4609960457908549,17.392677491897217,39.7940796266449,-23.689591459699525,18.32529317371825,-17.431548574502504,-2.5520684036951202
-0.03613059667820683,0.31413482548731314,-0.29861250110584797,0.2160190552203599,-0.09307028445857231,0.168045234204688,0.007378269071392171,-0.5498428732312739,0.6856552734786913,0.910760423754887,0.5512489895869916,0.45953109807858467,17.429728853958053,39.76666203756007,-23.608715702816458,18.2825372980967,-17.469520904014338,-2.5389151481206422
-0.03610863724175562,0.3130387146618165,-0.29723042704049224,0.21783998934093332,-0.09196474016526675,0.1689613701473193,0.010979718225606831,-0.5480554127483189,0.6910370326778781,0.9104670602867102,0.5527721466527828,0.4580679713156464,17.46553758056808,39.736732866306234,-23.52721965431276,18.239791567197358,-17.506848923502737,-2.5255829137379497
-0.03607942161111718,0.31194625374373486,-0.29583760851216867,0.21966024371596565,-0.09085619750955651,0.16987458354573282,0.014607815319221115,-0.5462304590408225,0.6964092641617836,0.91012718751617,0.5542713278551167,0.45660669920675356,17.50010509231043,39.704292470936565,-23.445102466613047,18.197044668558767,-17.543526473411244,-2.512071628532865
-0.03604289718642606,0.3108575168667397,-0.29443406540228445,0.22147972613850725,-0.08974470438947496,0.17078487817423438,0.01826221234555766,-0.5443684384975952,0.7017715549421168,0.9097412112708038,0.5557465600407764,0.4551473142507753,17.533433114951478,39.66934168199393,-23.36236354675492,18.15428538034803,-17.579547564457627,-2.4983812261704177
-0.03599901206478527,0.3097725773118608,-0.2930198184141832,0.22329834521475997,-0.08863030864562868,0.17169225786982936,0.021942560820393735,-0.5424697774394298,0.7071234940506472,0.9093095381263607,0.5571978719231427,0.45368984779749755,17.56552367855633,39.6318818026104,-23.279002557794392,18.1115025767345,-17.61490637859781,-2.484511648818887
-0.035947715041181195,0.30869150750763585,-0.29159488906904024,0.22511601036546267,-0.08751305805746662,0.17259672653003294,0.02564851180203737,-0.5405349021124898,0.7124646725714565,0.9088325753513501,0.5586252940810331,0.45223433010178643,17.596379116409263,39.59191460841902,-23.195019420053676,18.068685233201226,-17.649597269929878,-2.47046284985137
-0.03588895560935865,0.3076143790302726,-0.2901592997016945,0.22693263182716517,-0.08639300033955206,0.1734982881107835,0.02937971591127375,-0.538564238681625,0.7177946836728689,0.908310730851254,0.5600288589572748,0.45078079037527563,17.62600206373974,39.54944234727802,-23.110414312210473,18.025822431791525,-17.683614765539218,-2.456234796429078
-0.03582268396265627,0.3065412626038254,-0.2887130734564164,0.22874812065339004,-0.08527018313783805,0.17439694662445487,0.033135823351189767,-0.5365582132235993,0.7231131226390555,0.9077444131124311,0.5614086008570086,0.4493292568356915,17.654395456254473,39.50446773880701,-23.025187672228483,17.98290336628766,-17.71695356628379,-2.4418274719702877
-0.035748850994802496,0.305472228100385,-0.28725623428261376,0.2305623887156815,-0.0841446540259466,0.17529270613796272,0.036916483926884416,-0.5345172517202172,0.7284195869013124,0.907134031145734,0.5627645559457197,0.44787975675392633,17.681562528476658,39.456993973735976,-22.939340198129237,17.939917347319017,-17.749608547519813,-2.4272408785088007
-0.03566740830067235,0.30440734454028234,-0.28578880693047576,0.2323753487045412,-0.08301646050145262,0.17618557077096064,0.04072134706507273,-0.5324417800513348,0.7337136760690095,0.9064799944298645,0.564096762246993,0.44643231649896326,17.707506811893303,39.40702471306692,-22.852872848604385,17.89685380739696,-17.781574759767373,-2.4124750389454546
-0.03557830817700517,0.30334668009230686,-0.28431081694655536,0.2341869141302502,-0.08188564998217264,0.17707554469412215,0.044550061833590816,-0.5303322239877417,0.7389949919602078,0.9057827128544891,0.5654052596399884,0.4449869615807526,17.73223213291196,39.354564087049205,-22.765786843470085,17.853702305873714,-17.812847429316278,-2.3975299991962187
-0.035481503623083555,0.3022903020739391,-0.2828222906692915,0.23599699932357648,-0.08075226980245936,0.1779626321275044,0.04840227696080947,-0.5281890091839018,0.7442631386319426,0.9050425966631376,0.5666900898566354,0.4435437166911337,17.75574261062834,39.299616693967906,-22.67808366396123,17.810452533822705,-17.843421958771163,-2.382405830240017
-0.03537694834137363,0.301238276951598,-0.28132325522447116,0.2378055194363683,-0.07961636720950228,0.17884683733899018,0.05227764085496376,-0.5260125611705377,0.7495177224101711,0.9042600563959069,0.5679512964785414,0.442102605742892,17.778042654406395,39.242187598747385,-22.589765052868024,17.76709431883797,-17.873293927537087,-2.3671026300694917
-0.03526459673812682,0.3001906703409039,-0.2798137385206324,0.23961239044203228,-0.07847798935963506,0.17972816464280425,0.056175801623405894,-0.5238033053470481,0.7547583519193806,0.903435502831992,0.5691889249336127,0.44066365190703777,17.799136961272808,39.18228233137021,-22.500833014514292,17.723617629749825,-17.902459092244353,-2.3516205255476255
-0.03514440392394324,0.29914754700695645,-0.2782937692444087,0.24141752913589642,-0.07733718331465028,0.18060661839810102,0.0600964070917885,-0.5215616669737426,0.7599846381118561,0.9025693469320657,0.5704030224923847,0.4392268776483869,17.819030513127675,39.11990688511156,-22.41128981457735,17.680012581254857,-17.930913387113172,-2.3359596741730755
-0.035016325714296866,0.2981089708646287,-0.2767633768558155,0.2432208531354575,-0.07619399603812217,0.18148220300762005,0.06403910482318552,-0.5192880711638843,0.7651961942966049,0.9016619997805285,0.5715936382640583,0.4377923047595224,17.837728573773845,39.055067714591786,-22.321137979751445,17.636269438457546,-17.958652924258033,-2.3201202657569007
-0.03488031863002255,0.2970750049788776,-0.2752225915834796,0.24502228088051278,-0.07504847439173769,0.18235492291640648,0.06800354213715756,-0.5169829428755255,0.7703926361679339,0.9007138725276495,0.5727608231922401,0.43635995439320957,17.85523668576702,38.98777173364695,-22.23038029725427,17.592378621321487,-17.98567399393179,-2.3041025240132207
-0.03473633989776501,0.29604571156507137,-0.2736714444198123,0.24682173163317603,-0.07390066513163691,0.18322478261059316,0.07198936612876876,-0.514646706903125,0.7755735818336796,0.8997253763316184,0.5739046300503842,0.434929847093336,17.871560667089284,38.91802631301876,-22.139019814178038,17.548330709027905,-18.011973064709455,-2.2879067080663607
-0.034584347450389887,0.2950211519893335,-0.2721099671161261,0.2486191254777771,-0.07275061490476305,0.18409178661624204,0.07599622368756168,-0.5122797878689361,0.7807386518430869,0.8986969223005316,0.5750251134369323,0.43350200282444257,17.88670660764868,38.84583927786622,-22.047059836685484,17.504116444239408,-18.037546783611987,-2.271533113876712
-0.03442429992735689,0.2940013867689052,-0.2705381921776974,0.25041438332064575,-0.07159837024522275,0.18495593949824185,0.08002376151649712,-0.5098826102141522,0.7858874692143335,0.8976289214343285,0.5761223297701504,0.4320764409999102,17.9006808656078,38.771218905099346,-21.95450392905229,17.45972673726699,-18.06239197616985,-2.2549820755876517
-0.03425615667505516,0.2929864755725256,-0.268956152858774,0.25220742688977915,-0.07044397757065743,0.18581724585925957,0.08407162615086525,-0.5074555981897986,0.7910196594616995,0.8965217845667028,0.5771963372826593,0.4306531805088619,17.91349006354425,38.694173920537125,-21.861355912556718,17.41515267013815,-18.086505646426822,-2.238253966795563
-0.03407987774710081,0.29197647722083087,-0.26736388315752924,0.2539981787343932,-0.06928748317862611,0.18667571033874325,0.08813946397717438,-0.5049991758473611,0.7961348506223773,0.8953759223070046,0.5782471960156564,0.42923223974183883,17.925141084446317,38.614713495891436,-21.76761986421775,17.370385500564467,-18.10988497688398,-2.221349201745108
-0.033895423904596766,0.2909714496867726,-0.2657614178109634,0.25578656222435747,-0.06812893324300046,0.18753133761197385,0.09222692125202392,-0.5025137670291381,0.8012326732829206,0.8941917449821555,0.579274967812828,0.4278136366153051,17.935641067547074,38.532847245578566,-21.673300115383167,17.325416665806557,-18.132527328384185,-2.2042682364516963
-0.03370275661635483,0.28997145009605596,-0.26414879228975274,0.25757250154951467,-0.06696837381037256,0.18838413238916393,0.09633364412096722,-0.49999979535830663,0.8063127606053295,0.8929696625785956,0.5802797163139476,0.42639738859503346,17.944997404000404,38.44858522336023,-21.578401250168746,17.280237786434938,-18.154430239936996,-2.1870115697529595
-0.03350183805908009,0.2889765347275986,-0.2625260427930472,0.2593559217188832,-0.06580585079647623,0.1892340994146008,0.10045927863737075,-0.4974576842286929,0.8113747483527695,0.891710084684281,0.5812615069481615,0.4249835127184224,17.953217732402653,38.361937918816764,-21.482928103750396,17.234840669984795,-18.17559142848488,-2.1695797442911284
-0.033292631117517534,0.2879867590140101,-0.2608932062432174,0.2611367485597447,-0.06464140998262231,0.19008124346583236,0.10460347078127517,-0.4948878567942351,0.8164182749149205,0.8904134204307527,0.5822204069269562,0.4235720256157912,17.960309934163558,38.27291625365311,-21.38688576051033,17.189217314503438,-18.196008788609994,-2.1519733474280445
-0.033075099384561005,0.28700217754209384,-0.25925032028055145,0.2629149087166153,-0.06347509701214869,0.19092556935289376,0.10876586647826414,-0.4922907359581305,0.8214429813329552,0.889080078435293,0.5831564852368085,0.42216294353069955,17.966282128730416,38.18153157784199,-21.290279552039802,17.143359911988643,-18.215680392182954,-2.1341930120944435
-0.03284920716132431,0.28602284405337053,-0.2575974232579032,0.2646903296501017,-0.06230695738688566,0.1917670819175724,0.11294611161834633,-0.4896667443616569,0.8264485113241427,0.8877104667431922,0.5840698126315156,0.42075628233933304,17.971142668669486,38.08779566560431,-21.193115054999147,17.09726085171655,-18.23460448795293,-2.116239417575078
-0.0326149194571746,0.28504881144462524,-0.25593455423529105,0.266462939635642,-0.06113703646363725,0.19260578603271042,0.1171438520748562,-0.4870163043726586,0.8314345113060749,0.8863049927701411,0.5849604616242032,0.41935205756899735,17.97490013460887,37.99172071123142,-21.095398088838177,17.050912723457763,-18.252779501080116,-2.0981132902313924
-0.032372201989727845,0.28408013176847785,-0.25426175297445003,0.2682326677621315,-0.05996537945067923,0.19344168660154193,0.12135873372337856,-0.4843398380736885,0.8364006304205145,0.8848640632447692,0.5858285064790113,0.4179502844157588,17.977563330046937,37.893319324749804,-20.99713471337763,17.00430832058025,-18.27020403261036,-2.0798154041630514
-0.03212102118480644,0.28311685623397825,-0.2525790599333363,0.2699994439304342,-0.05879203140427432,0.19427478855706445,0.12559040246070236,-0.4816377672497986,0.8413465205568595,0.8833880841513478,0.5866740232024544,0.41655097776126937,17.979141276030983,37.79260452743215,-20.89833122625506,16.95744064303807,-18.28687685889273,-2.0613465818098438
-0.03186134417635882,0.2821590352072263,-0.25088651626058583,0.2717631988517795,-0.057617037225205406,0.19510509686144206,0.12983850422380822,-0.47891051337596885,0.8462718363752244,0.8818774606726754,0.5874970895344573,0.4151541521888109,17.979643205710296,37.6895897471572,-20.798994160236415,16.910302900244503,-18.302796930940616,-2.0427076944954745
-0.031593138806341035,0.281206718212018,-0.24918416378992755,0.27352386404604584,-0.05644044165532728,0.19593261650543925,0.13410268500889483,-0.4761584976041683,0.8511762353291333,0.8803325971331637,0.5882977849390628,0.413759821998593,17.97907855876852,37.58428881362058,-20.699130280395607,16.86288851382881,-18.317963373735903,-2.0238996629143395
-0.03131637362456014,0.2802599539305179,-0.24747204503455192,0.2752813718399301,-0.055262289274137656,0.19675735250788393,0.13838259089044852,-0.47338214075004004,0.8560593776878239,0.8787538969421436,0.5890761905948118,0.412368001222336,17.9774569757398,37.476715953400614,-20.598746581164885,16.815191120275394,-18.332375485477954,-2.0049234575628803
-0.03103101788847942,0.2793187902039595,-0.2457502031814356,0.27703565536500496,-0.05408262449536807,0.19757930991515826,0.1426778680403607,-0.4705818632792032,0.8609209265581587,0.8771417625374077,0.5898323893847944,0.41097870363717015,17.974788292213656,37.36688578488093,-20.497850283257947,16.767204573444683,-18.34603273677643,-1.9857800991165298
-0.030737041562985224,0.27838327403337315,-0.2440186820856233,0.278786648555663,-0.052901491563595325,0.19839849380071603,0.14698816274709706,-0.4677580852931649,0.865760547906142,0.8754965953290089,0.5905664658863713,0.40959194277887984,17.9710825329334,37.25481331303365,-20.39644883046867,16.718922946974818,-18.35893476979031,-1.9664706587537393
-0.030434415320115378,0.27745345158034346,-0.24227752626446722,0.28053428614694964,-0.051718934550874195,0.19921490926462507,0.15131312143492298,-0.464911226514836,0.8705779105780396,0.8738187956433314,0.5912785063605637,0.408207731954521,17.966349905793056,37.14051392406616,-20.294549886347333,16.670340536563323,-18.37108139731148,-1.9469962584280083
-0.030123110538749002,0.27652936816779616,-0.24052678089182503,0.2822785036722845,-0.05053499735339197,0.20002856143313394,0.15565239068318865,-0.46204170627364455,0.8753726863210982,0.8721087626674533,0.5919685987411129,0.40682608425443756,17.96060079573786,37.02400337993455,-20.19216133075777,16.621451862128353,-18.38247260179534,-1.927358071089384
-0.029803099304257646,0.27561106828081566,-0.2387664917922173,0.28401923746107216,-0.04934972368814555,0.20083945545826135,0.16000561724567788,-0.4591499434902411,0.880144549803864,0.8703668943938179,0.5926368326232072,0.4054470125637031,17.953845758573454,36.90529781272702,-20.089291256317622,16.572251669848583,-18.393108534337845,-1.9075573208563052
-0.0294743544081176,0.2746985955674941,-0.2369967054349451,0.2857564246362026,-0.0481631570896418,0.20164759651740738,0.16437244807002385,-0.45623635666079077,0.8848931786360957,0.8685935875652312,0.5932832992518776,0.4040705295730106,17.946095514688935,36.784413718920675,-19.98594796472463,16.52273493408164,-18.40298951360003,-1.8875952831391185
-0.029136849347483208,0.2737919928398124,-0.23521746892816855,0.287490003111443,-0.04697534090662168,0.20245298981298546,0.16875253031719525,-0.45330136384084735,0.8896182533882714,0.8667892376202039,0.5939080915100595,0.40269664778903425,17.937360942698994,36.661367953515054,-19.88213996297153,16.472896859160294,-18.4121160246808,-1.867473284716215
-0.028790558324721098,0.2728913020745548,-0.23342883001294717,0.28921991158872035,-0.04578631829880903,0.20325564057207401,0.17314551138105588,-0.4503453826288043,0.8943194576106864,0.8649542386386537,0.5945113039063229,0.40132537954428416,17.927653073010486,36.536177724046176,-19.777875959453382,16.422732881066302,-18.420488717938042,-1.8471927037639102
-0.0284354562469051,0.27199656441425696,-0.23163083705724288,0.29094608955529633,-0.04459613223368449,0.20405555404608697,0.17755103890800056,-0.4473688301489192,0.89899647785214,0.8630889832879877,0.5950930325622694,0.3999567370064759,17.91698308131869,36.40886058448403,-19.673164859968555,16.37223866898148,-18.428108407759478,-1.8267549698411725
-0.02807151872527176,0.27110782016818913,-0.22982353904988648,0.2926684772808355,-0.0434048254832853,0.20485273551046185,0.18196876081667004,-0.44437212303390783,0.9036490036782079,0.8611938627695793,0.5956533751995966,0.39859073218743335,17.90536228203874,36.27943442901756,-19.56801576361802,16.321410126715882,-18.434976071283305,-1.8061615638300663
-0.027698722074636264,0.2702251088133749,-0.22800698559450827,0.2943870158143668,-0.04221244062103164,0.20564719026436493,0.18639832531774758,-0.4413556774071042,0.9082767276891003,0.8592692667656595,0.5961924311268297,0.3972273769515453,17.892802121677555,36.147917485731035,-19.462437958605385,16.270243394013214,-18.44109284706995,-1.7854140178331732
-0.027317043312768585,0.2693484689956466,-0.22618122690343406,0.2961016469811401,-0.041019020018580196,0.20643892363041252,0.19083938093383915,-0.43831990886418415,0.9128793455371016,0.8573155833866376,0.5967103012257214,0.3958666830237924,17.879314172151762,36.01432831017494,-19.356440917940716,16.218734847732776,-18.446460033724943,-1.7645139150286926
-0.026926460159729704,0.26847793853073765,-0.22434631379154688,0.29781231337937786,-0.03982460584270556,0.20722794095440725,0.19529157651943962,-0.43526523245444976,0.9174565559435903,0.855333199118869,0.5972070879373199,0.3945086619973625,17.86491012405708,35.878685778835425,-19.25003429505105,16.16688110290876,-18.451079088474444,-1.7434628894844604
-0.02652695103716773,0.2676135544054143,-0.2225022976701156,0.2995189583769236,-0.03862924005221015,0.208014247605089,0.1997545612809868,-0.4321920626616727,0.922008060715638,0.853322498772887,0.5976828952477056,0.39315332534087094,17.849601779894652,35.741009082506324,-19.143227919301662,16.11467901368662,-18.454951625693617,-1.7222626259316955
-0.026118495067573723,0.2667553527786453,-0.2206492305405912,0.30122152610778785,-0.03743296439486335,0.20879784897389939,0.2042279847970046,-0.42910081338449485,0.9265335647621838,0.8512838654321156,0.5981378286733977,0.3918006844052006,17.83340104725981,35.60131771956706,-19.036031791430624,16.062125674136535,-18.458079415389143,-1.7009148594994774
-0.025701072073497047,0.2659033689828125,-0.21878716498837164,0.302919961468592,-0.03623582040437048,0.20957875047475935,0.20871149703833744,-0.42599189791638475,0.9310327761097843,0.8492176804020786,0.5985719952464316,0.3904507504299777,17.81631993199879,35.459631489171294,-18.92845607889989,16.009218418944727,-18.460464381636008,-1.6794213754109546
-0.025274662576720095,0.26505763752496225,-0.21691615417653576,0.30461421011491224,-0.03503784939737227,0.21035695754385875,0.2132047483884764,-0.42286572892514973,0.9355054059179356,0.8471243231601229,0.5989855034991067,0.3891035345496965,17.79837053133887,35.315970484348796,-18.82051111116692,15.955954823982474,-18.46210860097028,-1.6577840086420776
-0.024839247797392137,0.26421819208809827,-0.21503625183954783,0.3063042184575236,-0.03383909247047545,0.21113247563945775,0.21770738966397857,-0.41972271843200276,0.9399511684939673,0.845004171305672,0.5993784634484081,0.3877590477995078,17.77956502699757,35.17035508502609,-18.712207374879682,15.902332706753574,-18.463014300737953,-1.6360046435439661
-0.024394809653122174,0.2633850655325179,-0.21314751227693282,0.30798993365854566,-0.03263959049731525,0.21190531024169912,0.22221907213498043,-0.4165632777901845,0.9443697813075055,0.8428576005110248,0.5997509865801008,0.3864173011206834,17.75991567827615,35.022805950968745,-18.60355550899816,15.848350126720575,-18.46318385740135,-1.6140852134296522
-0.023941330758030562,0.2625582898971916,-0.21124999034692382,0.30967130362749107,-0.03143938412565025,0.21267546685243066,0.22673944754580538,-0.41338781766314087,0.9487609650045038,0.8406849844727174,0.600103185832501,0.3850783053657686,17.739434815143138,34.873344014649795,-18.494566299847186,15.794005385510468,-18.46261979480343,-1.5920277001262229
-0.02347879442175923,0.2617378964011871,-0.20934374146008214,0.311348277017218,-0.030238513774490404,0.21344295099503754,0.23126816813566634,-0.41019674800225747,0.9531244434208412,0.8384866948634633,0.6004351755799222,0.3837420713034362,17.718134831313158,34.72199047404823,-18.385250676101656,15.739297027000097,-18.461324782391323,-1.5698341334932433
-0.0230071846484403,0.2609239154451388,-0.20742882157289116,0.31302080321978737,-0.029037019631258803,0.21420776821428364,0.23580488665946317,-0.4069904780241516,0.9574599435954851,0.8362631012846858,0.6007470716158012,0.38240860962305157,17.696028177326557,34.56876678538199,-18.27561970371077,15.684223837282683,-18.4593016334001,-1.547506590908327
-0.022526486135622952,0.26011637661276377,-0.20550528718132474,0.31468883236222667,-0.027834941648987796,0.21496992407616156,0.24034925640867502,-0.40376941618752454,0.9617671957832178,0.8340145712196625,0.6010389911355039,0.3810779309389607,17.67312735363521,34.413694655778514,-18.16568458076147,15.628784844515351,-18.456553302996927,-1.5250471967207466
-0.022036684273158257,0.25931530867242464,-0.2035731953143909,0.31635231530220126,-0.026632319543550168,0.21572942416775057,0.2449009312323472,-0.4005339701695757,0.9660459334669262,0.8317414699872923,0.6013110527188137,0.3797500457945116,17.649444903699855,34.25679603588857,-18.055456632287175,15.572979318649395,-18.453082886387946,-1.5024581216740078
-0.021537765142041913,0.25852073957874067,-0.20163260352765197,0.31801120362359425,-0.02542919279092596,0.2164862740970822,0.2494595655581722,-0.39728454684198167,0.9702958933694534,0.8294441606965042,0.6015633763121041,0.37842496466581854,17.624993407104164,34.09809311244597,-17.944947305024336,15.516806771043296,-18.448893616887535,-1.4797415822982538
-0.021029715513214586,0.2577326964742478,-0.19968356989672195,0.3196654496319969,-0.024225600624505565,0.21724047949301276,0.2540248144136638,-0.39402155224644336,0.9745168154650098,0.8271230042013209,0.6017960832101981,0.377102697965279,17.59978547269102,33.93760830077794,-17.83416816212007,15.460266953960247,-18.443988863951454,-1.4568998402733209
-0.02051252284631974,0.2569512056911082,-0.19772615301074167,0.32131500635011007,-0.02302158203242973,0.21799204600510247,0.2585963334474239,-0.39074539156980476,0.978708442990145,0.8247783590565926,0.6020092960379166,0.37578325604485263,17.573833731725912,33.77536423727067,-17.7231308777952,15.403359859950696,-18.438372131175406,-1.433935201763451
-0.01998617528841874,0.2561762927528707,-0.1957604119658331,0.3229598275130589,-0.021817175754967093,0.2187409793035007,0.26317377895050015,-0.38745646911874704,0.9828705224542783,0.8224105814744156,0.6022031387313191,0.3744666491991102,17.54715083109286,33.61138377179329,-17.611847231965545,15.346085721121119,-18.432047054259158,-1.4108500167243394
-0.019450661672663072,0.25540798237628254,-0.19378640635853353,0.3245998675636214,-0.02061242028192982,0.21948728507883683,0.26775680787783374,-0.384155188294063,0.9870028036497871,0.8200200252812508,0.6023777365186379,0.3731528876680623,17.519749426527742,33.44568996008523,-17.50032910482602,15.288445008290466,-18.425017398937733,-1.38764667818361
-0.01890597151692348,0.2546462984731535,-0.19180419627921022,0.3262350816473729,-0.019407353850127998,0.2202309690421164,0.2723450778697953,-0.3808419515645164,0.9911050396616532,0.8176070418757557,0.6025332159009099,0.37184198163977433,17.491642175894068,33.27830605611045,-17.38858847139949,15.230438430034862,-18.4172870588807,-1.364327621495369
-0.018352095022375867,0.2538912641522729,-0.1898138423054569,0.3278654256077476,-0.01820201444086338,0.22097203692462195,0.27693824727380695,-0.3775171604402914,0.9951769868766663,0.8151719801873442,0.6026697046323092,0.3705339412527766,17.4628417325063,33.1092555043833,-17.276637396056287,15.172066931622679,-18.408860053560744,-1.3408953235698513
-0.017789023072043768,0.2531429017213808,-0.18781540549547251,0.32949085598101857,-0.016996439777463016,0.2217104944778185,0.2815359751660492,-0.37418121544603805,0.9992184049921842,0.812715186635488,0.6027873317001822,0.3692287765982764,17.433360738505247,32.93856193226939,-17.164488027005557,15.11333169384056,-18.399740526092046,-1.3173523020789277
-0.01721674722929727,0.2524012326891938,-0.18580894738142362,0.33111132999119813,-0.015790667322853436,0.22244634747326283,0.2861379213732498,-0.37083451609352014,1.0032290570244484,0.8102370050897743,0.6028862273047901,0.3679264977221797,17.403211818290657,32.76624914226631,-17.05215259076366,15.054234131712194,-18.389932741040358,-1.2937011146384134
-0.016635259736308167,0.25166627776748607,-0.1837945299627907,0.3327268055448596,-0.014584734277175913,0.2231796017025167,0.29074374649455187,-0.3674774608538713,1.0072087093164586,0.8077377768307304,0.6029665228387614,0.3666271146269287,17.372407572015348,32.59234110426782,-16.939643386602725,14.994775893111182,-18.37944108220522,-1.2699443579679066
-0.016044553512461247,0.2509380568732271,-0.1817722156996999,0.3343372412258825,-0.013378677575443396,0.223910262977063,0.2953531119234602,-0.36411044712946694,1.0111571315454,0.8052178405114325,0.6030283508662578,0.36533063727316223,17.34096056914576,32.41686194781551,-16.826972780982373,14.93495885726956,-18.368270050375752,-1.2460846670291414
-0.015444622152721525,0.25021658913077627,-0.17974206750624064,0.3359425962901223,-0.01217253388523968,0.22463833712822542,0.2999656798698606,-0.36073387122541967,1.01507409672963,0.8026775321199072,0.6030718451018584,0.36403707558120557,17.30888334209321,32.23983595434253,-16.71415320196951,14.874785133183366,-18.35642426106103,-1.2221247141436362
-0.014835459925957303,0.24950189287413485,-0.1777041487437702,0.33754283066000695,-0.010966339604461351,0.2253638300070902,0.3045811133821113,-0.35734812832070484,1.018959381235219,0.800117184942342,0.6030971403891645,0.3627464394323954,17.27618837992036,32.06128754941264,-16.601197133647798,14.814257057917056,-18.343908442196312,-1.1980672080904697
-0.014217061773218898,0.248793985649257,-0.17565852321420608,0.3391379049190612,-0.00976013085910309,0.2260867474844307,0.30919907636920196,-0.3539536124389257,1.0228127647820502,0.7975371295271142,0.6031043726791304,0.3614587386702457,17.242888122127113,31.881241294959402,-16.488117110522097,14.75337719480833,-18.33072743182583,-1.1739148931850762
-0.013589423305972943,0.24809288421641956,-0.17360525515330713,0.34072778030636053,-0.008553943501086842,0.22680709545063363,0.3138192336229773,-0.350550716418726,1.0266340304494748,0.794937693649653,0.6030936790081238,0.36017398310146115,17.208994952520236,31.69972188152858,-16.374925711920163,14.692148331574987,-18.316886175764125,-1.1496705483398564
-0.0129525408042921,0.24739860455265184,-0.17154440922394407,0.34231241871091683,-0.007347813106135402,0.22752487981562725,0.31844125084042174,-0.347139831883859,1.030422964681526,0.7923192022781445,0.6030651974757201,0.35889218249680255,17.17452119317058,31.516754120528404,-16.261635556396033,14.630573478325783,-18.302389725235944,-1.1253369861074924
-0.012306411215000097,0.24671116185422598,-0.16947605050936068,0.343891782665997,-0.006141774971690931,0.22824010650881085,0.323064794646001,-0.3437213492129228,1.0341793572916909,0.7896819775400912,0.6030190672222352,0.35761334659180993,17.139479098462107,31.33236293649147,-16.14825929613729,14.56865586547682,-18.287243234496863,-1.1009170517077218
-0.011651032149771983,0.24603057053920843,-0.1674002445064262,0.3454658353433765,-0.004935864114878927,0.22895278147898562,0.32768953261405726,-0.34029565750877094,1.037903001467242,0.7870263386897391,0.6029554284060019,0.35633748508738894,17.103880849236376,31.146573359351564,-16.034809611380997,14.506398941575526,-18.27145195843547,-1.0764136220385108
-0.010986401883189478,0.2453568442500732,-0.16531705711887995,0.34703454054752925,-0.00373011527051814,0.22966291069428615,0.33231513329125273,-0.3368631445676091,1.0415936937731287,0.7843526020763811,0.6028744221803938,0.3550646076502648,17.067738547036328,30.95941051674,-15.921299204840535,14.443806371033997,-18.255021250157625,-1.0518296046723845
-0.010312519350751361,0.24468999585637763,-0.1632265546505691,0.34859786270975635,-0.002524562889176936,0.23037050014211277,0.3369412662190584,-0.3334241968477875,1.0452512341554305,0.781661081113548,0.6027761906706021,0.3537947239133093,17.03106420845287,30.770899626304743,-15.807740796147451,14.380882031773591,-18.23795655855511,-1.027167936838694
-0.009629384146838796,0.24403003745750101,-0.16112880379868036,0.3501557668822545,-0.0013192411352765943,0.23107555582906425,0.3415676019562827,-0.3299791994383011,1.0488754259443713,0.7789520862490977,0.6026608769501708,0.35252784347574484,16.993869759577912,30.581065988056103,-15.694147116311125,14.317630012782836,-18.220263425859102,-1.002431584392807
-0.008936996522635524,0.243376980385447,-0.15902387164696657,0.35170821873212693,-0.00011418388524200526,0.2317780837808707,0.34619381210163586,-0.3265285360270071,1.0524660758568989,0.7762259249362121,0.6025286250172945,0.35126397590323066,16.956167030566977,30.38993497674283,-15.580530902199655,14.254054611590565,-18.201947485179616,-0.9776235407728577
-0.008235357384002875,0.24273083520770986,-0.1569118256589689,0.35325518453533755,0.0010905752742997662,0.23247809004232636,0.35081956931632446,-0.3230725888685726,1.056022993998828,0.7734829016053111,0.6023795797708857,0.3500031307278355,16.917967750314858,30.197532034262164,-15.466904891045452,14.190160331656369,-18.183014458032428,-0.9527468259449554
-0.00752446828930953,0.24209161173020552,-0.1547927336712358,0.35479663117061133,0.0022950030482725963,0.23317558067722216,0.35544454734667247,-0.3196117387521634,1.0595459938665517,0.7707233176368931,0.6022138869864151,0.3487453174479006,16.879283541247215,30.00388266210731,-15.353281814978235,14.12595187968035,-18.16347015185461,-0.9278044853377148
-0.006804331447216006,0.24145931900026774,-0.15266666388653916,0.356332526113282,0.0034990664348556605,0.23387056176827775,0.36006842104676207,-0.31614636496888665,1.0630348923483195,0.7679474713353107,0.6020316932915322,0.3474905455277979,16.8401259142312,29.80901241385588,-15.239674395589061,14.061434162834338,-18.143320457509414,-0.9027995887667657
-0.0060749497144138255,0.24083396530970974,-0.15053368486708898,0.357862837429089,0.004702732727138603,0.23456303941707293,0.3646908664010902,-0.31267684527899897,1.0664895097250864,0.7651556579034904,0.6018331461414714,0.3462388243975867,16.800506263607925,29.612946887703146,-15.126095338528096,13.99661228591671,-18.122571346782266,-0.8777352293502039
-0.005336326593319356,0.24021555819795196,-0.1483938655277471,0.3593875337679262,0.005905969514727103,0.23525301974397808,0.3693115605472349,-0.30920355587889387,1.0699096696709338,0.7623481694186031,0.6016183937942499,0.34499016345257344,16.760435862349404,29.41571171904236,-15.012557328139016,13.93149154843292,-18.101228869868812,-0.852614522415656
-0.004588466229722305,0.23960410445521618,-0.146247275129241,0.3609065843575436,0.007108744685298426,0.23594050888808363,0.3739301817985258,-0.3057268713678803,1.0732951992530648,0.7595252948086949,0.6013875852856618,0.3437445720527782,16.71992585734263,29.217332573097277,-14.899073022133976,13.866077441603812,-18.07929915285602,-0.8274406043998139
-0.003831373410388878,0.23899961012578666,-0.14409398327137823,0.36241995899720414,0.008311026426106581,0.23662551300712825,0.3785464096667133,-0.3022471647147667,1.0766459289313752,0.7566873198302847,0.6011408704040776,0.34250205952231116,16.6789872648031,29.01783513760844,-14.785655046310803,13.80037564530431,-18.056788395197565,-0.8022166317412127
-0.003065053560619616,0.23840208051133813,-0.14193405988626304,0.363927628051298,0.009512783225436685,0.23730803827742558,0.3831599248846311,-0.29876480722426313,1.079961692557603,0.7538345270469341,0.6008783996650521,0.3412626351486636,16.637630965820172,28.817245115577066,-14.672315989315946,13.734392024934142,-18.03370286718507,-0.7769457797669783
-0.002289512741761927,0.2378115201743317,-0.13976757523151492,0.36542956244291563,0.010713983874008185,0.23798809089378942,0.38777040942884444,-0.29528016850321614,1.08324232737406,0.7509671958087987,0.6006003242857499,0.3400263081819164,16.595867702036358,28.615588218070265,-14.559068397456194,13.668132628223372,-18.01004890741575,-0.75163124157442
-0.001504757648677366,0.23722793294147831,-0.13759459988349104,0.36692573364738196,0.011914597466326572,0.23866567706945715,0.39237754654228063,-0.2917936164266899,1.0864876740119451,0.748085602233165,0.6003067961591934,0.3387930878338697,16.553708071462502,28.412890157089727,-14.445924769561627,13.601603681974638,-17.985832920257852,-0.7262762269081038
-0.0007107956071636995,0.2366513219072705,-0.13541520473051255,0.3684161136857539,0.013114593401983251,0.23934080303601135,0.3969810207568332,-0.28830551710390795,1.0896975764892467,0.7451900191859789,0.5999979678283398,0.33756298327709683,16.511162524430873,28.209176638507103,-14.332897551902125,13.534811588744649,-17.96106137331544,-0.700883961033252
9.236542866817091e-05,0.23608168943758237,-0.13322946096609609,0.3699006751182826,0.014313941386903244,0.2400134750432992,0.4015805179159352,-0.28481623484407037,1.0928718822082304,0.7422807162643715,0.5996739924599963,0.3363360036439269,16.468241359687667,28.004473355069653,-14.219999133161176,13.467762923466978,-17.935740794892887,-0.6754576836062194
0.0009047168790623593,0.23551903717333825,-0.13103744008219104,0.371379391037843,0.015512611434540398,0.2406836993593499,0.4061757251970942,-0.2813261321220607,1.0960104419525218,0.7393579597801866,0.599335023818577,0.33511215802535776,16.424954720626694,27.79880597947805,-14.107241839468173,13.400464430018733,-17.909877771461023,-0.6500006475427162
0.0017262495413311266,0.23496336603425014,-0.12883921386242347,0.37285223506333204,0.01671057386701982,0.2413514822702897,0.41076633113438366,-0.2778355695440577,1.0991131098837834,0.7364220127445144,0.5989812162397109,0.33389145546990384,16.381312591665637,27.59220015753954,-13.994637929492754,13.3329230177333,-17.883478945125287,-0.6245161178845458
0.002556953592612892,0.234414676222624,-0.1266348543753475,0.3743191813330385,0.017907799316227237,0.24201683008025449,0.4153520256408827,-0.2743449058130673,1.1021797435379885,0.7334731348532355,0.598612724603708,0.3326739049823813,16.33732479476614,27.384681501399836,-13.882199589603424,13.265145757861351,-17.856551011097697,-0.5990073706656747
0.003396818592675011,0.23387296722723522,-0.1244244339677049,0.37578020449798566,0.019104258724845016,0.24267974911129975,0.4199325000310593,-0.2708544976943895,1.1052102038212985,0.7305115824735786,0.5982297043088889,0.3314595155226341,16.293000986098967,27.17627558285471,-13.769938929092383,13.197139879982782,-17.829100715173354,-0.5734776917781306
0.00424583348676119,0.23333823782727314,-0.12220802525769382,0.37723527971524906,0.020299923347334593,0.24334024570330814,0.4245074470430891,-0.26736469998103607,1.108204355005543,0.7275376086316947,0.5978323112447884,0.33024829600420336,16.248350652855173,26.96700792674551,-13.657867975469257,13.128912768371759,-17.80113485121266,-0.5479303758386951
0.005103986608483397,0.2328104860963549,-0.1199857011282472,0.37868438264125154,0.021494764750865068,0.24399832621389403,0.42907656086110363,-0.2638758654591143,1.11116206472331,0.7245514630012506,0.5974207017652372,0.3290402552929437,16.203383110204243,26.75690400444023,-13.545998669826027,13.06047195831706,-17.772660258630165,-0.5223687250568791
0.005971265682758119,0.2322897094066085,-0.11775753472032191,0.3801274894250376,0.02268875481618773,0.2446539970183052,0.43363953713736103,-0.26038834487319307,1.1140832039626476,0.7215533918930446,0.5969950326613316,0.32783540220558866,16.158107498399957,26.545989227402345,-13.434342862275082,12.991825132400457,-17.743683819891697,-0.49679604810496203
0.006847657828786784,0.23177590443282517,-0.11552359942619915,0.3815645767015289,0.023881865738456326,0.24530726450932175,0.4381960730143327,-0.2569024868916663,1.11696764706138,0.7185436382456443,0.5965554611342979,0.32663374550826924,16.112532780034492,26.334288940850435,-13.322912307462683,12.922980116735186,-17.714212458020114,-0.47121565899077544
0.007733149563080181,0.2312690671566809,-0.11328396888279706,0.38299562158476297,0.025074070027992845,0.24595813509715173,0.4427458671466987,-0.2534186380721302,1.1198152717010459,0.71552244161705,0.5961021447682598,0.32543529391498693,16.066667737441378,26.121828417509736,-13.211718660159747,12.853944877166995,-17.68425313411108,-0.4456308759338732
0.008627726802526672,0.23076919287102735,-0.11103871696499615,0.38442060166111774,0.026265340510998676,0.2466066152093238,0.4472886197232453,-0.24993714282679066,1.1226259589004568,0.7124900381773828,0.5956352415029154,0.32424005608604506,16.02052097024755,25.908632851459117,-13.100773470931786,12.784727515440121,-17.65381284486008,-0.4200450202457169
0.009531374867503987,0.2302762761842515,-0.10878791777897838,0.38583949498252296,0.02745565033021094,0.2472527112905767,0.4518240324886572,-0.24645834338791583,1.1253995930088863,0.7094466607025979,0.595154909606133,0.32304804062644105,15.974100893074722,25.69472735207418,-12.990088181890613,12.715336265330496,-17.62289862010131,-0.3944614152145822
0.010444078485034385,0.2297903110247048,-0.1065316456555806,0.3872522800596614,0.028644972945503888,0.24789642980274512,0.45635180876519865,-0.24298257977335133,1.1281360616988887,0.7063925385692246,0.5946613076464744,0.32185925608422156,15.927415733390227,25.480136938069368,-12.879674122528378,12.645779488748719,-17.591517520359663,-0.36888338499577267
0.011365821791982936,0.22931129064520056,-0.1042699751436631,0.38865893585516165,0.029833282134435188,0.24853777722464274,0.46087165347427517,-0.23951018975211344,1.1308352559587544,0.7033278977501298,0.59415459446565,0.3206737109488042,15.880473529507189,25.264886531640236,-12.769542505636654,12.576065671814822,-17.559676634416913,-0.343314253507762
0.012296588338298674,0.2288392076275804,-0.10200298100349389,0.39005944177678425,0.031020551992737025,0.24917676005194128,0.46538327315786976,-0.23604150881007696,1.1334970700846054,0.7002529608113063,0.5936349291509193,0.31949141364926736,15.833282128733904,25.04900095270864,-12.659704423312135,12.506203420907456,-17.52738307689283,-0.31775734333490435
0.013236361090298368,0.22837405388734885,-0.09973073820014962,0.39145377767060363,0.032206756934751904,0.2498133847970465,0.4698863759998464,-0.23257687011577388,1.1361214016721362,0.6971679469096828,0.5931024710074403,0.31831237255261147,15.785849185672115,24.832504913271165,-12.550170843049674,12.436201458689752,-17.49464398584219,-0.2922159746372459
0.014185122433992597,0.2279158206783762,-0.09745332189693362,0.39284192381418753,0.03339187169381306,0.2504476579889705,0.4743806718471139,-0.2291166044863192,1.138708151608002,0.6940730717919544,0.5925573795305784,0.31713659596199384,15.73818216066372,24.615423011853995,-12.440952603925759,12.36606862011397,-17.46146652036917,-0.2666934640681258
0.015142854178453883,0.22746449859766923,-0.09517080744881189,0.3942238609097764,0.034575871322569424,0.25107958617320036,0.47886587223064314,-0.22566104035348025,1.1412572240608636,0.6909685477944314,0.591999814378183,0.31596409211493953,15.690288318385429,24.39777972807434,-12.332060412871964,12.295813848407725,-17.427857858259,-0.2411931236999969
0.016109537559226544,0.22702007759020942,-0.09288327039586772,0.3955995700774642,0.0357587311932551,0.25170917591156344,0.48334169038633057,-0.22221050372990578,1.143768526472088,0.6878545838439016,0.5914299353428398,0.3147948691815309,15.64217472659066,24.17959941731059,-12.223504841041297,12.225446191043396,-17.393825193628988,-0.21571825995915805
0.017085153241777947,0.22658254695385835,-0.09059078645677549,0.39696903284838325,0.036940426997903314,0.2523364337820886,0.4878078412757017,-0.2187653181755311,1.1462419695461141,0.6847313854595061,0.5908479023241063,0.31362893526257773,15.593848254997873,23.960906305482755,-12.115296320267687,12.15497479569365,-17.359375734598807,-0.19027217256983375
0.01806968132499084,0.22615189534433,-0.08829343152229452,0.3983322311578945,0.038120934748504795,0.2529613663788641,0.49226404160644677,-0.21532580476417548,1.1486774672404862,0.6815991547556208,0.5902538753007414,0.3124662983877712,15.545315574324498,23.741724483943443,-12.007445139620593,12.084408906174911,-17.324516700981622,-0.16485815350821253
0.019063101344696406,0.2257281107802293,-0.0859912816487834,0.399689147338786,0.039300230777110666,0.2535839803118918,0.49671000985278263,-0.21189228205034788,1.15107493675556,0.678458090445743,0.5896480143029345,0.31130696651382256,15.496583155465396,23.522077904481954,-11.899961442055085,12.013757858381096,-17.289255321996468,-0.1394794859669244
0.020065392277247674,0.22531118064815675,-0.08368441305173563,0.4010397641144808,0.04047829173587976,0.25420428220693697,0.5011454662756336,-0.2084650660362774,1.1534342985238872,0.675308387847375,0.5890304793845458,0.3101509475225905,15.44765726881476,23.301990374441097,-11.792855221159101,11.94303107621018,-17.25359883400287,-0.11413944333040438
0.021076532543132923,0.2249010917078784,-0.08137290209933706,0.40238406459225656,0.04165509459707049,0.2548222787053754,0.5055701329426245,-0.20504447013918412,1.1557554761992836,0.672150238887902,0.5884014305953637,0.3089982492191978,15.398543983730201,23.081485551949303,-11.686136317998507,11.872238067485045,-17.217554478258577,-0.0888412881617664
