Joohwan-Seo/mujoco_sysID/Fanuc/Dataset/square_PIH_fanuc_new_real_3.csv
q1,q2,q3,q4,q5,q6,dq1,dq2,dq3,dq4,dq5,dq6,t1,t2,t3,t4,t5,t6
-7.877994283957397e-06,0.4617796628285999,-0.3926969484948534,2.9064627936293628e-05,-0.19999105912320236,6.606449630243137e-05,-0.003938997141978698,-0.009862485274774875,0.0010666019353686557,0.014532313968146814,0.00447043839883026,0.033032248151215686,0.04022615378557942,20.449804397880577,-32.709537139663105,32.078318088740126,-10.034000962158172,22.676423567909513
-2.3627372567218778e-05,0.4617402957620728,-0.3926926388246765,8.67412215668714e-05,-0.1999732216815851,0.0001949618266926643,-0.00787468914163069,-0.019683533263534336,0.002154835088468269,0.02883829681528889,0.008918720808636602,0.06444866519511647,0.1582558108326245,20.618328576183607,-32.6672381375008,31.932899512256736,-10.041896354012833,21.414613248823617
-4.718938408305823e-05,0.4616814603672859,-0.392686054918854,0.00017257189005837834,-0.19994648645662375,0.0003836142449203207,-0.011781005757919724,-0.029417697393438868,0.003291952911242818,0.04291533424575346,0.0133676124806806,0.09432620911382819,0.2770164587556734,20.787675243971393,-32.62446093306347,31.788744031675918,-10.05072914316123,20.211895320037094
-7.8502583673749e-05,0.4616033305466343,-0.39267709908831755,0.0002861137306023587,-0.1999108526505648,0.0006290871003426128,-0.01565659979534538,-0.03906491032578132,0.004477915268219836,0.05677092027199018,0.01781690302947055,0.12273642771114604,0.3964827769490463,20.957775835705952,-32.58122395906058,31.645807208941754,-10.060457786589433,19.065517038296363
-0.00011750295353630859,0.4615060803378412,-0.3926656737141069,0.00042693810434545065,-0.19986631995008255,0.0009285821773811139,-0.019500184931279797,-0.04862510439657309,0.005712687105341674,0.07041218687154595,0.022266350241121467,0.14974753851925054,0.5166300581396476,21.128568009933694,-32.53754561452335,31.504047231346448,-10.071047164298903,17.97285393888374
-0.0001641240197319502,0.4613898839119158,-0.3926516812407069,0.000594629946834802,-0.19981288858003488,0.0012794313454689344,-0.023310533097820805,-0.05809821296268623,0.006996236699989451,0.08384592124467567,0.02671568502384139,0.17542458404391031,0.6374342014355182,21.299994976722715,-32.4934441831854,31.363424786623785,-10.082467767469488,16.931403854318205
-0.00021829696370089365,0.46125491556876924,-0.3926350241724731,0.000788787111353642,-0.19975055934845673,0.0016790905049892176,-0.027086471984471727,-0.06748417157329419,0.008328534116898557,0.09707858225941998,0.031164615789068116,0.19982957976014162,0.7588717012074314,21.472004891904433,-32.44893776506839,31.223902943599953,-10.094694975386513,15.93878121211192
-0.00027995072901272535,0.46110134973079864,-0.3926156050727752,0.0010090197435987252,-0.19967933368381258,0.0021251338153863487,-0.030826882655915846,-0.07678291898530104,0.00970954984894499,0.11011631612254164,0.03561283232207094,0.22302165519856557,0.8809196327731132,21.644550311679133,-32.404044219563744,31.085447038205444,-10.107708412010386,14.99271159854385
-0.00034901212357165735,0.4609293609347195,-0.3925933265655276,0.0012549496862245242,-0.19959921366542244,0.002615248192279236,-0.03453069727946601,-0.08599439803958918,0.011139253623815059,0.12296497131289956,0.040060009195076574,0.24505718844644364,1.0035556356846942,21.8175877017595,-32.35878111850166,30.948024564642257,-10.121491373973617,14.091026576026836
-0.00042540591748577085,0.460739123821893,-0.39256809133880877,0.0015262099118487449,-0.1995102020478809,0.003147228061023114,-0.038196896957056733,-0.09511855641323114,0.01261761335941343,0.1356301128121103,0.04450580877077027,0.2659899343719388,1.1267578952772055,21.991076995774556,-32.31316570787264,30.81160507149556,-10.13603032260797,13.231658742229474
-0.0005090549367995916,0.46053081312737043,-0.3925398021503037,0.0018224439831801397,-0.19941230228020226,0.003718970354754094,-0.04182450965691033,-0.10415534726129044,0.014144594252533811,0.14811703566569745,0.04894988383931104,0.28587114686549003,1.2505051230155435,22.164981198163602,-32.26721487702864,30.67616006257706,-10.151314433342343,12.41263701967053
-0.0005998801532800987,0.46030460366784953,-0.3925083618343301,0.002143305538992855,-0.19930551852034678,0.0043284697455106165,-0.04541260824025357,-0.1131047297604602,0.01572015798682801,0.1604307779063576,0.053391879927737404,0.30474969537826113,1.3747765360760846,22.33926602724066,-32.22094513432594,30.541662902288106,-10.167335196478016,11.632082165032802
-0.0006978007704374765,0.46006067032871845,-0.39247367331023514,0.0024884578047317998,-0.1991898556457132,0.004973814097559384,-0.048960308578688876,-0.12196666956554504,0.017344262047478354,0.17257613286947232,0.05783143731678478,0.3226721760243837,1.49955183651421,22.51389959452186,-32.17437258830026,30.40808872529344,-10.184086063948945,10.888202487947273
-0.0008027343059535494,0.4597991880503411,-0.3924356395919727,0.0028575731265909356,-0.19906531926011992,0.005653180132561639,-0.05246676775803649,-0.13074113918866942,0.019016859131217582,0.18455766092956788,0.06226819279664925,0.3396830175011272,1.6248111902980011,22.688852116781227,-32.12751293357054,30.275414350300927,-10.201562137216555,10.179289769478029
-0.0009145966706828751,0.45952033181372093,-0.39239416379868974,0.003250332527961061,-0.19893191569773974,0.006364829296699942,-0.05593118236466284,-0.1394281183100811,0.02073789664146233,0.19637970068506258,0.06670178119008066,0.35582458206915196,1.750535206429198,22.864095657638963,-32.08038144076928,30.143618197748214,-10.219759891936746,9.503715370995064
-0.0010333022443838697,0.4592242766256639,-0.3923491491661711,0.003666425287195751,-0.19878965202440307,0.00710710382034716,-0.059352786850497295,-0.148027594028503,0.022507316259341235,0.20804637961734515,0.07113183666833899,0.37113726182360873,1.8767049163233949,23.039603895788964,-32.032992949880644,30.012680211203676,-10.23867693547895,8.859926524557261
-0.0011587639483301008,0.4589111975035476,-0.39230049905900644,0.004105548535693735,-0.19863853603663711,0.00787842296129917,-0.06273085197311548,-0.15653956105816144,0.02432505358231752,0.2195616242489916,0.07555799388297295,0.3856595704760047,2.0033017535808355,23.21535191725323,-31.98536186644733,29.88258178229647,-10.258311793772801,8.246442796342171
-0.0012908933149449679,0.45858126945978983,-0.39224811698336054,0.004567406875343237,-0.198478576258769,0.008677279423012036,-0.06606468330743351,-0.16496402187887277,0.026191037822936213,0.23092916982475103,0.07997988893405432,0.3994282308564331,2.130307534245784,23.391316029297123,-31.93750216017305,29.753305678997634,-10.278663724317799,7.661852715054052
-0.0014296005545963982,0.45823466748610003,-0.39219190660023856,0.005051712014418856,-0.1983097819383822,0.009502235939683908,-0.0693536198257151,-0.17330098684489917,0.028105191560977794,0.24215256953780967,0.08439716019339966,0.4124782583359359,2.25770443762511,23.567473593870396,-31.889427365509533,29.624835977082277,-10.299732552512912,7.104810557617985
-0.0015747946196818835,0.45787156653758465,-0.3921317717391526,0.005558182421064403,-0.19813216304038336,0.010351922020402728,-0.07259703254274272,-0.18155047425767923,0.030067430542978855,0.25323520332277377,0.08880944899941474,0.4248430403594093,2.385474987714557,23.74380287864178,-31.84115058387011,29.497157994610625,-10.321518528755492,6.574033284826383
-0.0017263832661281752,0.45749214151677065,-0.3920676164121052,0.006086542993535993,-0.1979457302399064,0.011225030844943825,-0.07579432322314583,-0.18971251040699286,0.032077663523694296,0.2641802862357951,0.09321640023848383,0.43655441227054914,2.5136020352632156,23.920282923882546,-31.792684487159036,29.370258229273574,-10.344022204019474,6.068297619945943
-0.0018842731124242042,0.4570965672576014,-0.39199934482781595,0.006636524746418582,-0.19775049491425384,0.012120316304147505,-0.07894492314801452,-0.1977871295846298,0.034135792144630014,0.2749908764412941,0.0976176628262807,0.4476427296018396,2.642068740492467,24.096893423621736,-31.744041322347776,29.24412429845619,-10.367244321860591,5.586437263619016
-0.0020483696963003147,0.45668501850945303,-0.3919268614061254,0.007207864512066206,-0.19754646913405188,0.013036590178136508,-0.08204829193805523,-0.20577437407418833,0.03624171084527601,0.28566988282381217,0.10201289010098413,0.4581369369945012,2.770858556474339,24.2736146196496,-31.69523291686688,29.11874488188019,-10.391185725007766,5.1273402387036775
-0.0022185775291616514,0.4562576699212126,-0.39185007079251916,0.007800304656551498,-0.19733366565377364,0.013972719445947718,-0.08510391643066842,-0.21367429412023412,0.038395306803121934,0.2962200722426462,0.10640174013912307,0.46806463390560527,2.899955213165427,24.450427207083045,-31.64627068461457,28.99410966669393,-10.41584727489215,4.689946358993097
-0.002394800148378541,0.4558146960254532,-0.39176887787272124,0.00841359280944366,-0.19711209790176634,0.014927623720452152,-0.08811130960844489,-0.2214869478796908,0.04059645989894541,0.30664407644608116,0.11078387600364346,0.47745213725221736,3.029342702085793,24.627312250331727,-31.597165632412413,28.870209294885296,-10.441229782637377,4.273244816036759
-0.0025769401675319204,0.4553562712227372,-0.39168318778731276,0.00904748160676614,-0.1968817799699008,0.01590027280272302,-0.09107000957668972,-0.22921240135801424,0.04284504270423166,0.3169443986612399,0.11515896593276716,0.486324541135434,3.1590052616272493,24.804251108416977,-31.547928366762918,28.747035312900117,-10.467333950189575,3.8762718785554737
-0.0027648993247073,0.4548825697660724,-0.39159290594633694,0.00970172844651576,-0.1966427266029462,0.01688968435028403,-0.0939795785876898,-0.2368507283324125,0.045140920487915154,0.32712341987480953,0.1195266834772934,0.49470577378050545,3.28892736297179,24.981225368698937,-31.49856910078804,28.62458012335514,-10.494160320405783,3.498108699198336
-0.002958578528926387,0.45439376574554413,-0.3914979380438571,0.01037609525615412,-0.19639495318775987,0.017894921653929793,-0.09683960210954341,-0.2444020102641163,0.04748395123993358,0.33718340481918074,0.1238867075931651,0.5026186518228815,3.4190936965984493,25.158216788156643,-31.44909766124473,28.502836938740735,-10.521709235044227,3.1378792236347333
-0.0031578779048013236,0.4538900330731412,-0.39139819007243837,0.011070348271509819,-0.19613847574236912,0.018915091518057706,-0.09964968793746823,-0.25186633620147225,0.04987398570935417,0.3471265076778487,0.1282387226953767,0.510084932063956,3.549489159355315,25.335207241454775,-31.3995234955348,28.381799737014934,-10.549980799713301,2.794748197207463
-0.0033626968354925194,0.45337154546779035,-0.3912935683375282,0.011784257826556354,-0.19587331090501187,0.01994934223968673,-0.10240946534559796,-0.25924380267542346,0.052310867455075384,0.35695477752326765,0.1325824186786298,0.5171253608145125,3.6800988420725798,25.512178675101023,-31.349855678635848,28.261463218995416,-10.578974854937533,2.4679192645955816
-0.003572934004047255,0.4528384764406128,-0.39118397947171357,0.012517598153555808,-0.1955994759231928,0.02099686168156346,-0.10511858427736774,-0.26653451358875546,0.05479443290732629,0.36667016349972686,0.1369174909095401,0.5237597209383649,3.8109080176922743,25.689113067070963,-31.30010291989963,28.141822767462227,-10.608690952589518,2.1566331581476
-0.0037884874331926034,0.45229099928041216,-0.3910693304488368,0.013270147193082251,-0.19531698864280347,0.022056875434970345,-0.10777671457267424,-0.27373858010032054,0.05732451143838221,0.3762745197632212,0.1412436401946576,0.5300068767034418,3.9419021298905625,25.86599239133664,-31.250273569669993,28.022874407888313,-10.639128337018896,1.8601659707477396
-0.00400925452365276,0.4517292870394016,-0.3909495285979546,0.014041686413461697,-0.19502586749734732,0.023128645068055464,-0.11038354523007864,-0.28085612050530306,0.05990092544109299,0.38576961018972294,0.1455605727280753,0.5358848165425594,4.073066782169016,26.042798586791946,-31.20037562568656,27.904614770720464,-10.67028593028333,1.5778275092708303
-0.00423513209105756,0.4511535125191767,-0.3908244816171267,0.01483200063918714,-0.1947261314973034,0.024211466455698178,-0.1129387837023998,-0.28788726011245663,0.06252349041397894,0.39515711286272226,0.14986800002196599,0.5414106938213569,4.204387727392156,26.219513530119013,-31.150416739247206,27.78704105513719,-10.702162320951428,1.3089597248652507
-0.0044660164015058,0.4505638482569384,-0.3906940975870231,0.015640877887887917,-0.1944178002196574,0.02530466818711083,-0.11544215522411999,-0.2948321311191252,0.06519201505179262,0.404438624350389,0.15416563882299442,0.5466008657063252,4.335850857749538,26.39611901218467,-31.100404221109137,27.67015099421477,-10.734755756007681,1.0529352164786183
-0.0047018032058439956,0.4499604665119689,-0.390558284984342,0.01646810921545236,-0.194100893797623,0.026407610047553872,-0.11789340216909781,-0.3016908724847549,0.06790630134057332,0.41361566378222087,0.15845321101720192,0.5514709302215217,4.467442195121867,26.57259671759793,-31.050345047116778,27.55394282143653,-10.76806413544199,0.8091558042078217
-0.0049423877727183,0.4493435392523619,-0.3904169526950293,0.01731348856892151,-0.1937754329105717,0.027519681570710743,-0.12029228343715236,-0.3084636298035085,0.0706661446563357,0.4226896767345748,0.1627304435256463,0.5560357615784359,4.5991478818318265,26.748928207096704,-31.000245863548578,27.438415238484108,-10.802085009153608,0.5770511692146565
-0.005187664920454597,0.4487132381420089,-0.390270010027296,0.01817681264678958,-0.1934414387741861,0.028640300658429797,-0.12263857386814839,-0.3151505551765127,0.07347133386663762,0.43166203893403665,0.16699706819279875,0.5603095438595266,4.730954171761632,26.925094902465183,-30.950112992180458,27.323567384253277,-10.836815575842708,0.3560775571001039
-0.005437529047819149,0.44806973452784055,-0.39011736672442726,0.0190578807663639,-0.1930989331308472,0.0297689122646942,-0.12493206368227582,-0.3217518070841922,0.07632165143436472,0.4405340597871594,0.17125282166944833,0.5643058031322002,4.862847421820647,27.101078073715183,-30.899952435066353,27.20939880503996,-10.872252683599719,0.14571654177507676
-0.005691874163709703,0.4474131994273224,-0.38995893297738093,0.019956494737853298,-0.19274793824026393,0.030904987140827032,-0.12717255794527726,-0.3282675502590805,0.07921687352315147,0.4493069857446992,0.17549744529164035,0.5680374380664169,4.9948140837476664,27.276858828290095,-30.849769879041453,27.095909425845267,-10.908392831937633,-0.054526152996191235
-0.005950593915824574,0.4467438035162035,-0.3897946194371731,0.020872458744869482,-0.19238847687035,0.032048020639078426,-0.12935987605743546,-0.33469795555943826,0.0821567701039332,0.45798200350809304,0.1797306849569743,0.5715167491256978,5.126840696233778,27.452418102076816,-30.79957069995477,26.98309952275159,-10.94523217504263,-0.24512177707253557
-0.006213581618354948,0.4460617171165156,-0.3896243372270487,0.0218055792310406,-0.19202057228835118,0.033197531571874536,-0.13149385126518728,-0.34104319984395937,0.08514110506218885,0.46656024308555877,0.1839522909994091,0.574755466398054,5.2589138773529625,27.627736652032088,-30.74935996664062,26.870969696324156,-10.982766526044617,-0.4265196249985467
-0.006480730278743518,0.44536711018482,-0.3894479979544377,0.022755664792450295,-0.19164424825222404,0.03435306112413504,-0.1335743301942849,-0.3473034658477985,0.08816963630549376,0.4750427807048474,0.18816201806356433,0.5777647761302526,5.391020317288772,27.802795050250403,-30.69914244464104,26.7595208459952,-11.020991362135302,-0.5991480571006218
-0.006751932623550467,0.4446601523006998,-0.3892655137226956,0.023722526075628993,-0.1912595290022653,0.0355141718161868,-0.1356011724034741,-0.3534789420601154,0.09124211587105392,0.4834306415893487,0.19235962497936485,0.5805553460258809,5.523146771346539,27.977573679319466,-30.648922599691566,26.648754145390566,-11.059901830381355,-0.763415472949199
-0.007027081123465885,0.4439410126554932,-0.3890767971426297,0.02470597568083686,-0.19086643925298982,0.0366804465149165,-0.13757424995770912,-0.3595698226032952,0.09435829003293995,0.49172480260393303,0.19654487463775094,0.583137349364847,5.655280053241663,28.152052728822973,-30.598704600984142,26.538671018560393,-11.099492754100465,-0.9197112394111512
-0.007306068017505824,0.4432098600412652,-0.38888176134381214,0.025705828070390086,-0.1904650041852537,0.03785148749091503,-0.13949344701996916,-0.3655763071139738,0.0975178994087808,0.4999261947766135,0.20071753386806493,0.5855204879992666,5.787407028655538,28.326212192869136,-30.548492324223083,26.42927311707815,-11.139758639684928,-1.0684065754124696
-0.007588785336427395,0.4424668628400133,-0.3886803199856807,0.026721899481793734,-0.19005524943861843,0.03902691551947128,-0.14135865946078588,-0.3714986006259702,0.10072067906571382,0.5080357057018238,0.20487737331762668,0.587714014278126,5.919514609051542,28.500031868533107,-30.498289354488577,26.320562297973865,-11.180693683772455,-1.209855395432748
-0.007875124925396663,0.4417121890131029,-0.38847238726842986,0.027754007845455404,-0.18963720110395058,0.04020636902337261,-0.1431697944846334,-0.37733691345520454,0.10396635862542042,0.516054181830836,0.20902416733392393,0.5897267519506633,6.051589745744469,28.673491355115228,-30.44809898892401,26.21254060246968,-11.222291780677928,-1.3443951136582446
-0.008164978465941409,0.44094600609092954,-0.38825787794369365,0.028801972706764566,-0.18921088571625105,0.04138950325556477,-0.14492677027237272,-0.383091461086661,0.10725466236810599,0.5239824306545812,0.21315769384976596,0.5915671160960834,6.183619424217493,28.846570054127344,-30.39792423926349,26.10521023548736,-11.26454653001127,-1.4723474106306471
-0.00845823749721937,0.44016848116280266,-0.38803670732502304,0.029865615152332343,-0.18877633024770768,0.04257598951981477,-0.1466295156389806,-0.38876246406343556,0.11058530933530743,0.5318212227838888,0.21727773427168268,0.5932431321250002,6.31559065868156,29.019247169929148,-30.34776783421524,25.998573545899152,-11.307451244417482,-1.5940189641429414
-0.00875479343663103,0.4393797808670469,-0.38780879129816015,0.03094475774019619,-0.1883335621009641,0.04376551442760653,-0.1482779697058304,-0.3943501478778955,0.11395801343143486,0.5395712939319235,0.22138407337179083,0.5947624538958828,6.447490486872662,29.191501710944408,-30.297632221717848,25.892633007494986,-11.350998957384778,-1.7097021460519337
-0.009054537599804683,0.43858007138131694,-0.3875740463311122,0.032039224433802936,-0.18788260910259752,0.044957779189582055,-0.1498720815868263,-0.3998547428649629,0.11737248352397331,0.5472333468033748,0.2254764991832984,0.5961323809877612,6.579305965083188,29.36331249139652,-30.247519571083885,25.787391200640435,-11.395182431073506,-1.8196756865989983
-0.009357361219980136,0.4377695184131219,-0.38733238948402765,0.03314884053959241,-0.18742349949679799,0.04615249893991911,-0.15141181008772675,-0.4052764840975245,0.12082842354228787,0.5548080528947388,0.22955480289977198,0.5973598751685282,6.711024163423927,29.534658133507172,-30.19743177504806,25.682850794601272,-11.439994164128196,-1.9242053077566887
-0.009663155466816186,0.43694828719055395,-0.38708373841887767,0.03427343264801207,-0.18695626193924147,0.047349402092111775,-0.15289712341802453,-0.4106156112839605,0.12432553257499068,0.5622960542098292,0.23361877877825327,0.5984515760963323,6.842632161313929,29.705517070110695,-30.147370451734524,25.579014530511714,-11.48542639943929,-2.023544327047531
-0.009971811464645748,0.4361165424532184,-0.38682801140894596,0.03541282857780098,-0.18648092549114892,0.0485482297246914,-0.15432799891478086,-0.4158723686677775,0.12786350496584123,0.5696979648944585,0.23766822404627636,0.5994138162898138,6.974117043195761,29.875867547640738,-30.097336946557782,25.475885204964765,-11.53147113182819,-2.117934233214203
-0.01028322031020143,0.4352744484433598,-0.38656512734812964,0.036566857323389074,-0.18599751961352332,0.04974873499549393,-0.15570442277784094,-0.42104700492932273,0.13144203040816324,0.5770143727940452,0.24170293881280794,0.6002526354012647,7.105465894474084,30.045687629450825,-30.04733233407252,25.373465654204008,-11.578120115633595,-2.2076052350557376
-0.010597273089833199,0.43442216889718066,-0.3862950057600541,0.03773534900526453,-0.1855060741615571,0.05095068258314434,-0.15702638981588493,-0.4261397730895545,0.1350607940377709,0.5842458409377281,0.24572272598310763,0.6009737938252042,7.236665797675886,30.21495519943644,-29.9973574197855,25.271758738897656,-11.625364872181404,-2.2927767846830687
-0.01091386089623879,0.43355986703634897,-0.3860175668070053,0.03891813482316933,-0.18500661937920213,0.05215384815449104,-0.1582939032027955,-0.43115093041583524,0.13871947652440597,0.5913929089523977,0.24972739117748363,0.6015827856733476,7.367703828830899,30.383647965927423,-29.94741274194331,25.170767329476302,-11.673196697124826,-2.373658076388743
-0.011232874844726487,0.43268770555968955,-0.3857327312986819,0.040115047011989126,-0.18449918589389433,0.05335801785678204,-0.15950697424384808,-0.4360807383297145,0.14241775416169417,0.5984560944098964,0.253716742653901,0.6020848511454999,7.4985670540709926,30.551743465826704,-29.897498573308447,25.070494292016896,-11.721606667643798,-2.450448522269868
-0.011554206089028995,0.4318058466350562,-0.3854404207007706,0.041325918800210096,-0.18398380471142556,0.054562987833431095,-0.16066562215125374,-0.44092946231666263,0.14615529895563628,0.6054358941104867,0.2576905912343836,0.6024849883245285,7.62924252644762,30.71921906897077,-29.84761492293603,24.970942474656624,-11.7705856494958,-2.523338205690111
-0.01187774583668621,0.4309144518913808,-0.38514055714334733,0.042550584370821175,-0.18346050721095528,0.055768563762275604,-0.1617698738286076,-0.4456973718377167,0.14993177871165322,0.6123327853055389,0.2616487502351394,0.6027879644222557,7.7597172829664585,30.886051982692646,-29.79776153796262,24.872114694520697,-11.82012430391406,-2.5925083136160714
-0.012203385364013846,0.43001368241089477,-0.3848330634291069,0.043788878824545685,-0.1829293251401546,0.056974560415279325,-0.16281976366381756,-0.45038474024299735,0.15374685712021013,0.6191472268622541,0.26559103540032625,0.6029983265018619,7.889978341838579,31.05221925656999,-29.747937905418503,24.774013725149498,-11.870213094347877,-2.658131548814729
-0.012531016030674063,0.42910369872152065,-0.3845178630414248,0.04504063814529189,-0.18239029061047587,0.05818080123868171,-0.16381533333010873,-0.45499184468705506,0.15760019384104704,0.6258796603731028,0.26951726483936833,0.6031204117011942,8.020012699947605,31.217697787342807,-29.69814325407303,24.67664228441066,-11.920842293046146,-2.720372522852932
-0.0128605292938635,0.42818466078942863,-0.3841948801522527,0.046305699167716964,-0.18184343609254042,0.05938711795264219,-0.16475663159471884,-0.4595189660460026,0.1614914445860472,0.6325305112125379,0.27342725896772596,0.6031583569802387,8.14980733053236,31.382464323987094,-29.64837655632349,24.580003022882863,-11.972001987482077,-2.7793881307957586
-0.013191816722133338,0.42725672801175585,-0.38386403962985116,0.047583899546803796,-0.1812887944116384,0.06059335016947205,-0.16564371413491868,-0.4639663888363924,0.16542026120077596,0.6391001895434155,0.27732084045101557,0.6031161084149304,8.279349181084546,31.546495472933362,-29.598636530135963,24.484098512698427,-12.023682086622015,-2.8353279084587224
-0.013524770008855358,0.42632005920948424,-0.3835252670463617,0.04887507772935469,-0.18072639874333365,0.061799345029588934,-0.1664766433610095,-0.4683344011357955,0.16938629174472564,0.645589091275448,0.2811978341523741,0.6029974300584404,8.408625171461122,31.709767703419445,-29.548921641047812,24.388931236832704,-12.07587232704022,-2.888334373029084
-0.013859280985347291,0.42537481262047416,-0.3831784886852211,0.05017907292731049,-0.18015628260916774,0.06300495685436912,-0.16725548824596678,-0.47262329450504065,0.173389180570302,0.6519975989779003,0.2850580670829578,0.6028059123900938,8.537622192210906,31.87225735296918,-29.499230104237988,24.294503578828678,-12.12856227888276,-2.9385433478331797
-0.014195241633670122,0.42442114589265,-0.3828236315484199,0.051495725092807774,-0.17957847987245681,0.06421004681511139,-0.16798032416141528,-0.47683336391207265,0.17742856840059032,0.6583260827486417,0.2889013683554642,0.6025449803711315,8.666327103115062,32.03394063298886,-29.44955988667428,24.200817812945708,-12.18174135168549,-2.986084271990718
-0.014532544099109396,0.4234592160773352,-0.38246062336360803,0.05282487489489089,-0.1789930247341757,0.06541448261736266,-0.16865123271963667,-0.48096490765738864,0.18150409240593837,0.6645749010415589,0.29272756914056597,0.6022179011256348,8.794726731941017,32.19479363447532,-29.399908709343315,24.107876094722094,-12.235398800049575,-3.031080495662158
-0.014871080702352046,0.4224891796227332,-0.38208939259104924,0.0541663636977994,-0.1783999517289234,0.0666181381998908,-0.16926830162132508,-0.48501822730101396,0.18561538627939467,0.6707444014542518,0.2965365026261432,0.6018277912640766,8.922807873409303,32.354792333829806,-29.35027404956957,24.01568045194141,-12.289523729180765,-3.0736495615624357
-0.015210743951369688,0.42151119236755125,-0.38170986843042715,0.05552003354075506,-0.17779929572096498,0.0678208934476231,-0.1698316245088206,-0.4889936275909785,0.1897620803110401,0.6768349214778339,0.3003280039792031,0.601377623866148,9.050557288372808,32.5139125987724,-29.300653143429813,23.924232775993012,-12.34410510029668,-3.113903473382967
-0.015551426553018815,0.42052540953476475,-0.3813219808275046,0.05688572711917622,-0.1771910919003442,0.06902263391790056,-0.17034130082456336,-0.4928914163932566,0.19394380146125115,0.6828467892105805,0.30410191031037714,0.600870235138734,9.17796170320785,32.67213019435312,-29.251042988267344,23.83353481361793,-12.399131735909375,-3.1519489517337234
-0.015893021424367864,0.4195319857255185,-0.38092566048063875,0.05826328776725039,-0.17657537577906243,0.07022325057942891,-0.17079743567452418,-0.4967119046231351,0.19816017343293185,0.6887803240370838,0.30785806064088417,0.6003083307641713,9.305007809416285,32.82942078905559,-29.2014403453107,23.743588159031027,-12.454592324986756,-3.187887678188665
-0.016235421703760623,0.41853107491316255,-0.38052083884715326,0.05965255944179938,-0.17595218318731873,0.07142263956333535,-0.17120013969637987,-0.5004554061779737,0.20241081674275233,0.6946358372744947,0.3115962958718548,0.5996944919532163,9.431682263437919,32.985759960990336,-29.15184174240263,23.654394246411577,-12.510475428001463,-3.2218165279907263
-0.016578520761625047,0.4175228304374199,-0.3801074481495704,0.061053386707374105,-0.17532155026980692,0.0726207019257683,-0.1715495289322122,-0.5041222378713257,0.20669534879142953,0.700413632787361,0.3153164587559102,0.5990311812164777,9.557971686672305,33.14112320417453,-29.102243476840137,23.565954342754043,-12.566769481870553,-3.2538277919463434
-0.01692221221103609,0.4165074049986831,-0.37968542138170425,0.062465614722519096,-0.17468351348206512,0.07381734342150316,-0.17184572470552129,-0.5077127193683862,0.21101338393308666,0.7061140075724969,0.31901839387089354,0.5983207478674276,9.683862665708839,33.295485934895794,-29.052641618331982,23.478269541071572,-12.623462804793688,-3.2840093880150802
-0.0172663899180408,0.4154849506524376,-0.3792546923146168,0.0638890892271496,-0.17403810958687382,0.07501247428804216,-0.17208885350235392,-0.5112271731227378,0.21536453354372528,0.7117372523152546,0.3227019475956536,0.5975654332694949,9.809341752764093,33.44882349815845,-29.003032012074137,23.391340753944952,-12.680543600994847,-3.312445063075967
-0.017610948011753516,0.4144556188038089,-0.3788151955024391,0.06532365653098661,-0.17338537565069825,0.07620600903972047,-0.17227904685635786,-0.5146659243143629,0.21974840608884472,0.7172836519185034,0.3263669680877841,0.5967673758391581,9.934395466324995,33.6011111742083,-28.953410281947193,23.305168707409855,-12.737999965373517,-3.339214585330004
-0.01795578089422868,0.4134195602022311,-0.3783668662880586,0.06676916350299773,-0.1727253490401718,0.07739786627135328,-0.17241644123758212,-0.5180293007888972,0.22416460719024092,0.7227534860055596,0.3300133052632237,0.5959286158164045,10.059010291996522,33.75232418513692,-28.90377183383628,23.219753935176,-12.79581988807075,-3.364393927776546
-0.018300783250118385,0.4123769249362349,-0.37790964080867456,0.06822545756179424,-0.17205806741861657,0.07858796847098005,-0.17250117794485242,-0.5213176329980954,0.2286127396920173,0.7281470293982549,0.333640810777627,0.5950510998133886,10.183172683552257,33.902437701560885,-28.854111859076802,23.135096773171405,-12.853991258956045,-3.3880554431811785
-0.018645850056121505,0.41132786242835195,-0.37744345600122287,0.06969238666693679,-0.17138356874259775,0.07977624184128329,-0.1725334030015595,-0.5245312539414837,0.23309240372583773,0.733464552571274,0.33724933800941687,0.5941366851516189,10.30686906418616,34.05142684937647,-28.804425338025382,23.05119735440576,-12.912501872039522,-3.4102680309328433
-0.018990876590230917,0.4102725214301336,-0.37696824960767195,0.07116979931110447,-0.17070189125850888,0.08096261612927834,-0.17251326705470638,-0.5276704991091763,0.23760319677545147,0.7387063220838368,0.3408387420444353,0.5931871439975228,10.430085827963598,34.199266716586976,-28.75470704375899,22.96805560414682,-12.971339429814993,-3.4310972961696242
-0.019335758440785052,0.4092110500172819,-0.3764839601801909,0.07265754451308398,-0.17001307349918465,0.0821470244638899,-0.17244092527706772,-0.5307357064258312,0.24214471374051894,0.7438726009897573,0.34440887966210926,0.5922041673057773,10.552809341469704,34.34593236020157,-28.704951545900357,22.885671235404132,-13.030491547538741,-3.4506057015349083
-0.019680391515329698,0.4081435955848905,-0.3759905270861914,0.07415547181153768,-0.16931715428053853,0.08332940320104862,-0.17231653727232257,-0.5337272161957239,0.2467165469997651,0.7489636492268537,0.34795960932305436,0.5911893685793571,10.67502594565276,34.49139881320448,-28.65515321457223,22.80404374471432,-13.089945757448351,-3.4688527119086126
-0.020024672049295755,0.40707030484279266,-0.37548789051324444,0.07566343125951099,-0.16861417269822246,0.0845096917759583,-0.17214026698302806,-0.5366453710489174,0.2513182864734875,0.7539797239866475,0.3514907911580406,0.5901442874548356,10.796721957860345,34.63564109159243,-28.605306224479204,22.723172408222737,-13.149689512926024,-3.485894932442088
-0.020368496614498372,0.40599132381101566,-0.37497599147387356,0.07718127341964147,-0.16790416812430597,0.08568783256220044,-0.1719122826013089,-0.5394905158885096,0.2559495196854432,0.7589210800652394,0.355002286958248,0.5890703931210747,10.917883674065699,34.77863420147882,-28.555404559116457,22.643056278056072,-13.209710192610885,-3.5017862402101505
-0.020711762127462657,0.4049067978153378,-0.3744547718102253,0.07870884936003389,-0.1671871802039725,0.08686377073735857,-0.17163275648214307,-0.5422629978389378,0.26060983182414016,0.7637879701962116,0.35849396016674234,0.5879690875790604,11.038497371281554,34.92035314626372,-28.505442015105366,22.563694178980924,-13.269995104463712,-3.516577909778807
-0.021054365857580918,0.40381687148294715,-0.3739241741986182,0.08024601065076661,-0.1664632488522303,0.08803745415485914,-0.17130186505913117,-0.5449631661953231,0.2652988058035541,0.7685806453663651,0.3619656758711061,0.5868417087502826,11.158549310158746,35.06077293386723,-28.455412206655197,22.48508470534329,-13.330531489787889,-3.530318732973403
-0.0213962054351062,0.40272168873819947,-0.3733841421539716,0.08179260936099673,-0.16573241425063598,0.08920883322174056,-0.17091978876264108,-0.5475913723738367,0.2700160223232949,0.7732993551150639,0.3654173007971596,0.5856895334407076,11.27802573776637,35.19986858402476,-28.405308570148947,22.407226218284276,-13.391306527210578,-3.54305513311873
-0.021737178858986652,0.4016213927984733,-0.3728346200341151,0.08334849805663258,-0.16499471684402855,0.0903778607820747,-0.17048671194022666,-0.5501479698630719,0.2747610599282421,0.7779443478179211,0.36884870330371294,0.5845137801670687,11.396912890550524,35.33761513564255,-28.35512436885217,22.330116843227202,-13.45230733662648,-3.554831274009667
-0.0220771845045451,0.4005161261701205,-0.37227555304397975,0.08491352979854364,-0.16425019733727197,0.09154449200577847,-0.17000282277922313,-0.5526333141764065,0.2795334950676696,0.7825158709555273,0.3722597533782906,0.5833156118518835,11.51519699746812,35.47398765421171,-28.30485269774355,22.253754467631573,-13.513520983107583,-3.5656891638592025
-0.022416121131007955,0.3994060306445098,-0.371706887239672,0.08648755814127942,-0.16349889669200443,0.09270868428256508,-0.16946831323142703,-0.5550477628053399,0.284332902153879,0.7870141713678914,0.37565032263377346,0.5820961383933096,11.632864283292323,35.60896123927771,-28.254486488464703,22.178136739009453,-13.574934480781923,-3.575668754458769
-0.022753887888887502,0.3982912472941622,-0.3711285695324313,0.08807043713226988,-0.16274085612339262,0.09387039712079641,-0.16888337893977348,-0.5573916751737907,0.28915885362035937,0.7914394954952293,0.37902028430590584,0.5808564191156647,11.749900972085953,35.74251103196534,-28.20401851438728,22.10326106319981,-13.636534796683526,-3.5848080357752723
-0.023090384327221356,0.39717191646897554,-0.3705405476924723,0.0896620213114813,-0.1619761170968894,0.09502959205100873,-0.1682482191669278,-0.5596654125933415,0.29401091997948997,0.7957920896057091,0.3823695132516171,0.5795974651061664,11.866293290838978,35.87461222255422,-28.153441395795294,22.029124602896413,-13.698308854575856,-3.593143126198221
-0.02342551040067278,0.3960481777925367,-0.36994277035271267,0.09126216571150277,-0.16120472132499317,0.0961862325338951,-0.16756303672571232,-0.5618693382194162,0.298888669879803,0.8000722000107326,0.38569788594811066,0.5783202414431883,11.98202747326611,36.00524005810516,-28.102747605179506,21.9557242764253,-13.760243538751158,-3.600708358640794
-0.023759166476495366,0.39492017015851993,-0.36933518701238705,0.09287072585803938,-0.16042671076400783,0.09734028387253726,-0.1668280379112937,-0.5640038170083799,0.30379167016282116,0.8042800732683041,0.38900528049267435,0.5770256693210815,12.097089763760312,36.13436985013314,-28.051929472642144,21.883056756767346,-13.822325697807738,-3.607536362688969
-0.024091253341365484,0.39378803172716886,-0.3687177480405481,0.0944875577707894,-0.1596421276108015,0.09849171312869001,-0.1660434324350597,-0.5660692156755454,0.30871948591948417,0.8084159563750144,0.3922915766031694,0.5757146280763755,12.211466421497997,36.26197698232507,-28.00097919140841,21.81111847082198,-13.884542148406148,-3.6136581429837555
-0.02442167220808572,0.3926518999218607,-0.3680904046794557,0.09611251796468369,-0.15885101429956316,0.09964048904292991,-0.1652094333601176,-0.5680659026540779,0.3136716805461789,0.8124800969471426,0.3955566556191563,0.5743879571199503,12.32514372469131,36.38803691830043,-27.94988882344102,21.739905598908056,-13.946879679006848,-3.6191031540129237
-0.02475032472216242,0.39151191142575115,-0.36745310904785494,0.0977454634514664,-0.15805341349855592,0.10078658195848901,-0.16432625703835024,-0.5699942480547839,0.31864781580038487,0.8164727433913537,0.39880040050361937,0.5730464577795537,12.438107974983,36.512525209410114,-27.898650305156824,21.669414074497578,-14.009325053590208,-3.6238993714804497
-0.02507711296826036,0.3903682021784976,-0.36680581414414304,0.09938625174159729,-0.1572493681068654,0.10192996374860269,-0.1633941230489688,-0.571854623626775,0.32364745185594845,0.8203941450654488,0.40202269584525135,0.5716908950568382,12.55034550197903,36.63541750257285,-27.84725545323964,21.599639584178632,-14.071865015359855,-3.628073360413876
-0.025401939476537367,0.3892209073730596,-0.36614847384942706,0.1010347408464565,-0.15643892125114287,0.10307060774720848,-0.16241325413850397,-0.573647402718994,0.3286701473579961,0.8242445524296053,0.4052234278612642,0.570321999302895,12.66184266791407,36.75668954814478,-27.795695970547122,21.530577567843462,-14.134486290430921,-3.631650340162471
-0.025724707228861728,0.3880701614525744,-0.36548104293047207,0.10269078928083354,-0.1556221162823415,0.10420848868284063,-0.16138387616218106,-0.5753729602425943,0.33371545947749826,0.8280242171885192,0.4084024844006915,0.5689404678160772,12.772585872444779,36.876317207819696,-27.7439634521086,21.462223219097588,-14.197175591503772,-3.6346542464316816
-0.02604531966491498,0.3869160981073061,-0.36480347704254107,0.10435425606568324,-0.15479899677244519,0.1053435826155721,-0.1603062180266263,-0.5770316726341617,0.3387829439654938,0.8317333924248499,0.4115597549481505,0.5675469663657303,12.882561557565733,36.99427646255667,-27.692049391208492,21.394571485886473,-14.259919621523965,-3.6371077904927898
-0.026363680688182692,0.38575885027166656,-0.3641157327321271,0.10602500073113193,-0.15396960651118913,0.10647586687686265,-0.15918051163385472,-0.578623917819767,0.3438721552069842,0.8353723327243419,0.41469513062803415,0.5661421306452759,12.991756212642638,37.11054342053159,-27.63994518555277,21.32761707133549,-14.32270507732917,-3.639032515700019
-0.026679694671835678,0.3845985501213069,-0.3634177674395781,0.1077028833197179,-0.15313398950277093,0.10760532001217853,-0.15800699182649228,-0.5801500751798423,0.3489826462745072,0.8389412942929853,0.41780850420910326,0.5647265676579368,13.100156379557427,37.225094325110085,-27.587642143514145,21.26135443479958,-14.385518653283578,-3.6404488514411915
-0.02699326646450405,0.38343532907027716,-0.36270953950161533,0.10938776438985102,-0.15229218996255203,0.10873192172625501,-0.15678589633418757,-0.5816105255148685,0.3541139689813972,0.8424405350665589,0.42089977010945195,0.5633008570382384,13.207748657959637,37.33790556283695,-27.535131490452155,21.195777793118676,-14.448347044899732,-3.6413761646421072
-0.02730430139594639,0.38226931776825346,-0.36199100815374585,0.11107950501947679,-0.1514442523137484,0.10985565283087956,-0.15551746572116987,-0.5830056510118649,0.3592656739347413,0.8458703148128847,0.4239688244018203,0.5618655523122723,13.314519710618407,37.44895367144004,-27.482404375103215,21.13088112207512,-14.511176952448466,-3.6418328089392107
-0.027612705282616216,0.3811006460978301,-0.36126213353256975,0.11277796680993099,-0.15059022118410992,0.11097649519507871,-0.15420194333491322,-0.5843358352116723,0.36443731058803763,0.8492308952271037,0.4270155648192289,0.5604211820995741,13.420456268869309,37.558215347843856,-27.429451876037284,21.06665815804912,-14.57399508455724,-3.6418361716296683
-0.02791838443312795,0.3799294431718761,-0.3605228766779826,0.11448301188997154,-0.14973014140258809,0.11209443169759738,-0.1528395752558678,-0.5856014629770184,0.36962842729356316,0.8525225400202757,0.4300398907609122,0.55896825125933,13.525545138150058,37.665667456190015,-27.37626500817677,21.003102399868677,-14.63678816179588,-3.6414027185029294
-0.028221245653624393,0.3787558373309534,-0.3597731995352737,0.1161945029199747,-0.14886405799599103,0.11320944618156438,-0.15143061024822152,-0.5868029204613566,0.374838571354457,0.855745515001584,0.4330417032985278,0.5575072419835017,13.629773203619159,37.7712870358597,-27.32283472937241,20.940207110849816,-14.699542920250895,-3.6405480366529197
-0.028521196253047706,0.3775799561407965,-0.35901306495712065,0.11791230309628353,-0.1479920161856258,0.11432152341124306,-0.14997529971165688,-0.5879405950784684,0.3800672890765256,0.8589000881544194,0.4360209051826207,0.5560386148393405,13.733127435851369,37.87505130949552,-27.269151947032697,20.87796532102366,-14.762246115087319,-3.6392868753653174
-0.028818144048315845,0.3764019263898508,-0.3582424367054811,0.11963627615569673,-0.14711406138392716,0.11543064903077035,-0.1484738976340697,-0.5890148754728202,0.38531412581977503,0.8619865297066008,0.4389774008493215,0.5545628097636442,13.835594896603746,37.97693769101791,-27.215207524802032,20.816369829546275,-14.82488452409828,-3.63763318517001
-0.02911199736940628,0.37522187408686947,-0.35746127945338174,0.1213662863800867,-0.14623023919107264,0.11653680952479235,-0.1469266605452179,-0.5900261514906638,0.39057862604967547,0.8650051121949816,0.4419110964272601,0.5530802470110007,13.937162744646091,38.07692379363236,-27.160992289282454,20.755413207287503,-14.887444951241365,-3.6356001551444894
-0.02940266506434882,0.3740399244585657,-0.3566695587866054,0.12310219860113605,-0.14534059539158328,0.11763999218090868,-0.1453338474712696,-0.590974814151872,0.3958603333881629,0.8679561105246759,0.44482189974467523,0.5515913280581591,14.03781824164935,38.174987437823376,-27.106497036795535,20.695087799595047,-14.949914230162406,-3.6332002485499983
-0.029690056504129262,0.3728562019473207,-0.35586724120527663,0.12484387820518232,-0.1444451759509099,0.11874018505384182,-0.143695719890222,-0.5918612556224983,0.40115879066438215,0.8708398020231326,0.44770972033670337,0.5500964364665699,14.137548758125588,38.27110665933105,-27.051712540178233,20.635385729229714,-15.01227922770481,-3.6304452368782862
-0.02997408158750559,0.3716708302089446,-0.3550542941253463,0.12659119113816086,-0.14354402701200422,0.11983737693125189,-0.14201254168816319,-0.5926858691880516,0.4064735399651753,0.8736564664892688,0.4505744694528294,0.5485959387050371,14.236341779413056,38.36525971710639,-26.996629555609417,20.57629889946832,-15.074526847405094,-3.6273462323832626
-0.030254650745738288,0.37048393211048963,-0.35423068587997564,0.1283440039106366,-0.14263719489187526,0.12093155730112057,-0.1402845791163502,-0.5934490492274761,0.41180412268531963,0.8764063862378713,0.4534160600644834,0.5470901849343397,14.334184911699788,38.45742510124018,-26.941238829461515,20.517818997369886,-15.136644032973381,-3.6239137191683124
-0.030531674947236444,0.36929562972811397,-0.3533963857208206,0.13010218360291553,-0.14172472607812972,0.12202271632063175,-0.13851210074907863,-0.5941511911878252,0.4171500795775177,0.87908984613946,0.4562344068727674,0.5455795097555901,14.43106588807913,38.547581540862474,-26.885531105172728,20.45993749720171,-15.198617771758128,-3.620157582896557
-0.030805065702121083,0.3681060443449947,-0.3525513638192163,0.13186559787022714,-0.14080666722549712,0.12311084478647978,-0.1366953774423191,-0.5947926915596201,0.4225109508021436,0.881707133655801,0.4590294263162993,0.5440642329240151,14.526972574630536,38.6357080120074,-26.829497130134985,20.402645664021072,-15.26043509819468,-3.6160871391883824
-0.031074735066707278,0.36691529644928894,-0.3516955912672628,0.13363411494796965,-0.1398830651523388,0.12419593410653931,-0.1348346822930977,-0.5953739478528819,0.4278862759767477,0.8842585388712486,0.46180103657915716,0.5425446600297673,14.62189297651901,38.72178374543927,-26.77312766259299,20.345934557408768,-15.32208309723677,-3.6117111607674497
-0.03134059564790648,0.3657235057321413,-0.35082904007881216,0.13540760365700982,-0.13895396683714098,0.1252779762728339,-0.13293029059959835,-0.5958953585738279,0.43327559422532247,0.8867443545200849,0.46454915759891313,0.541021083147301,14.71581524410637,38.805788234435624,-26.716413478549587,20.289795035350508,-15.38354890776979,-3.607037903413261
-0.03160256060755041,0.3645307910857369,-0.3499516831903575,0.13718593340902988,-0.1380194194149915,0.12635696383574346,-0.13098247982196567,-0.5963573232022203,0.4386784442273319,0.8891648760100229,0.46727371107474214,0.5394937814547718,14.808727679067717,38.88770124252281,-26.65934537867163,20.234217758262236,-15.444819726005639,-3.602075130776095
-0.031860543666637986,0.36333727060139814,-0.3490634944618245,0.13896897421191393,-0.1370794701740403,0.12743288987939316,-0.12899152954378817,-0.5967602421693563,0.44409436426650667,0.8915204014420256,0.46997462047559396,0.537963021824855,14.900618740506243,38.967502811159534,-26.601914195193586,20.179193193155275,-15.50588280885759,-3.596830138106963
-0.03211445910950647,0.36214306156772474,-0.3481644486772657,0.1407565966751671,-0.13613416655194346,0.12850574799816977,-0.1269577214342421,-0.5971045168366894,0.44952289227940684,0.8938112316265926,0.4726518110484166,0.5364290593883104,14.991477051059668,39.04517326736421,-26.54411079881156,20.1247116179375,-15.566725477294675,-3.591309774953106
-0.03236422178792823,0.3609482804687746,-0.3472545215454582,0.1425486720153604,-0.13518355613229063,0.1295755322743129,-0.1248813392108773,-0.5973905494750711,0.4549635659037536,0.8960376700966539,0.47530520982641905,0.5348921380715604,15.081291402991543,39.120693231281706,-26.485926105565213,20.070763125846312,-15.627335119674456,-3.5855204668669733
-0.03260974712513428,0.3597530429822854,-0.3463336897004052,0.1443450720615948,-0.13422768664101592,0.13064223725653187,-0.12276266860302668,-0.5976187432445992,0.46041592252653196,0.8982000231172086,0.4779347456373634,0.5333524911094889,15.170050764260546,39.19404362368433,-26.4273510837007,20.017337630009415,-15.687699195053197,-3.5794682361743764
-0.03285095111976592,0.35855746397793525,-0.34540193070174147,0.14614566926097847,-0.13326660594279216,0.1317058579396011,-0.12060199731582245,-0.5977895021750643,0.46587949933186523,0.9002985996918366,0.48054034911187443,0.5318103415346122,15.257744284561175,39.26520567340354,-26.368376760511325,19.964424868129555,-15.747805236472422,-3.5731587218454335
-0.03308775034975553,0.3573616575156413,-0.3444592230350441,0.1479503366841109,-0.13230036203740864,0.13276638974488855,-0.11839961499480184,-0.5979032311469809,0.47135383334866265,0.9023337115662089,0.4831219526917577,0.5302659026437198,15.344361301328949,39.33416092468752,-26.308994229150613,19.912014407288694,-15.807640854221155,-3.5665971985096583
-0.0333200619761377,0.3561657368438949,-0.34350554611204803,0.14975894803056833,-0.13132900305613202,0.13382382850177463,-0.11615581319108627,-0.5979603358731904,0.47683846149804093,0.904305673228714,0.4856794906383151,0.528719378443032,15.429891345703474,39.400891244479936,-26.24919465541281,19.86009564886812,-15.86719373907205,-3.5597885946547505
-0.03354780374679194,0.35496981439813285,-0.342540880270767,0.15157137763438497,-0.13035257725805072,0.13487817042992037,-0.1138708853271185,-0.597961222881027,0.4823329206405208,0.906214801908314,0.48821289904064946,0.5271709640728717,15.51432414844269,39.46537882961597,-26.188969284476176,19.80865783357978,-15.92645166549127,-3.5527375100466743
-0.033770894000117825,0.3537740017991428,-0.341565206775521,0.15338750046952446,-0.12937113302640282,0.13592941212234597,-0.11154512666294245,-0.5979062994950303,0.4878367476229985,0.9080614175697395,0.4907221158239476,0.5256208462128017,15.597649645781585,39.527606213930866,-26.128309447604483,19.757690046605187,-15.985402494820239,-3.5454482324068404
-0.03398925166864385,0.3525784098515024,-0.34057850781687,0.1552071921553367,-0.12838471886488736,0.13697755052928223,-0.10917883426301095,-0.5977959738201944,0.4933494793254936,0.909845842906126,0.493207080757734,0.5240692034681353,15.679857985228912,39.587556275276334,-26.067206568802114,19.707181222837438,-16.044034178428916,-3.5379247533804477
-0.03420279628257086,0.35138314854205094,-0.33958076651145463,0.1570303289619951,-0.1273933833939592,0.1380225829427596,-0.10677230696350763,-0.5976306547257417,0.49887065270767256,0.9115684033291931,0.49566773546408616,0.5225162067386839,15.76093953129519,39.6452122424416,-26.005652171417868,19.657120152222475,-16.102334760838797,-3.5301707838284333
-0.0344114479732512,0.35018832703839214,-0.33857196690174435,0.1588567878159092,-0.1263971753471076,0.13906450698190073,-0.1043258453401686,-0.5974107518294047,0.5043998048551487,0.9132294269570584,0.4981040234258024,0.5209620195705673,15.840884871145661,39.70055770197301,-25.943637884692606,19.607495485195052,-16.16029238281516,-3.522189768474076
-0.03461512747660438,0.34899405368742775,-0.33755209395569324,0.16068644630510875,-0.12539614356711856,0.14010332057888447,-0.10183975167659097,-0.5971366754822072,0.5099364730255584,0.9148292445997811,0.5005158899945148,0.519406798491872,15.919684820171721,39.75357660488983,-25.881155450247324,19.55829573820568,-16.21789528442709,-3.5139848999334253
-0.03481375613647041,0.3478004360139203,-0.3365211335663044,0.1625191826845942,-0.12439033700232108,0.14113902196555028,-0.09931432993301499,-0.5968088367537282,0.5154801946944141,0.9163681897427184,0.5029032823987389,0.5178506933329075,15.99733042747442,39.80425327328997,-25.81819672850534,19.509509299333942,-16.275131808074246,-3.5055591321578152
-0.03500725590790155,0.34660758071908465,-0.33547907255110293,0.16435487588164976,-0.12337980470281737,0.14217160966061382,-0.09674988571556709,-0.5964276474178375,0.5210305076007323,0.917846598527782,0.5052661497518522,0.5162938475317743,16.073812981253923,39.85257240684351,-25.754753705046056,19.46112443398426,-16.331990401479533,-3.4969151933148916
-0.03519554936039345,0.3454155936792069,-0.33442589865151806,0.1661934055011151,-0.12236459581669738,0.14320108245746568,-0.09414672624595141,-0.5959935199388869,0.5265869497924386,0.9192648097326721,0.5076044430599941,0.5147363984259269,16.14912401409863,39.89851908916812,-25.690818496884198,19.413129290659718,-16.388459620646163,-3.4880555981337884
-0.035378559681056604,0.3442245799442902,-0.33336160053217495,0.16803465183061145,-0.12134475958623762,0.14422743941252644,-0.09150516033157795,-0.5955068674583455,0.5321490596715465,0.9206231647481662,0.5099181152298793,0.513178477530378,16.22325530816793,39.9420787940832,-25.62638335867134,19.365511906809978,-16.444528132778505,-3.4789826597382754
-0.035556210677728836,0.34303464373672643,-0.33228616778009673,0.1698784958457185,-0.12032034534408459,0.14525067983413278,-0.0888254983361151,-0.5949681037818632,0.5377163760391123,0.9219220075535376,0.5122071210765187,0.5116202108031671,16.296198900262645,39.983237391738506,-25.561440688815072,19.318260214748648,-16.50018471916519,-3.4696985009911785
-0.03572842678202975,0.3418458884499929,-0.3311995909038168,0.17172481921509886,-0.11929140250942291,0.14627080327193015,-0.08610805215045532,-0.5943776433667499,0.5432884381399633,0.9231616846901726,0.5144714173308386,0.5100617188986805,16.367947086777242,40.0219811546131,-25.495983035511145,19.27136204763639,-16.555418278023485,-3.4602050653717225
-0.03589513305235791,0.34065841664737323,-0.3301018613324024,0.17357350430556576,-0.11825798058412852,0.1472878095067489,-0.08335313516408245,-0.5937359013098548,0.5488647857071998,0.9243425452334545,0.5167109626471933,0.5085031174093877,16.4384924285281,40.058296763380895,-25.4300031026852,19.224805145525146,-16.610217827304695,-3.450504127406697
-0.03605625517683157,0.33947233006070154,-0.32899297141438943,0.17542443418709172,-0.11722012914890699,0.14830169854094197,-0.08056106223682953,-0.5930432933358306,0.5544449590064687,0.9254649407629808,0.5189257176107626,0.5069445170965305,16.507827755452215,40.092171312638705,-25.363493755839308,19.17857716145936,-16.664572507457727,-3.440597302675255
-0.036211719476173604,0.33828772958913,-0.3278729144166294,0.17727749263775408,-0.11617789785941733,0.14931247058916253,-0.0777321496710162,-0.5923002357857708,0.56002849888001,0.9265292253311737,0.5211156447448284,0.5053860241102757,16.575946171170852,40.12359231649347,-25.296448027799965,19.132665667630143,-16.718471584151864,-3.4304860574060934
-0.03636145290654151,0.3371047152979176,-0.32674168452304847,0.17913256414861478,-0.11513133644238148,0.15032012606956216,-0.07486671518395487,-0.5915071456062022,0.5656149467904725,0.9275357554303463,0.5232807085179237,0.503827740199819,16.642841057412717,40.15254771400414,-25.22885912436287,19.08705816157783,-16.771904450956207,-3.420171717685086
-0.036505383062303144,0.33592338641724073,-0.32559927683331946,0.18098953392853134,-0.11408049469167979,0.15132466559538998,-0.07196507788081515,-0.5906644403384187,0.5712038448644995,0.9284848899582805,0.5254208753508475,0.502269762913908,16.708506078291506,40.179025874475464,-25.16072042983103,19.041742072439053,-16.824860631975504,-3.409655478290264
-0.036643438178758814,0.3347438413410245,-0.3244456873614473,0.1828482879088961,-0.11302542246443271,0.15232608996697444,-0.06902755822783603,-0.5897725381081419,0.5767947359360825,0.9293769901823735,0.5275361136235378,0.5007121857922228,16.772935184432704,40.203015602599514,-25.09202551244298,18.996704767233858,-16.87732978444095,-3.398938411170409
-0.036775547134810564,0.3335661776257935,-0.3232809130342679,0.18470871274830092,-0.11196616967706911,0.15332440016407053,-0.06605447802587554,-0.5888318576154924,0.582387163589682,0.9302124197024049,0.5296263936817999,0.4991550985480417,16.836122616944746,40.22450614344177,-25.022768129685993,18.95193355718876,-16.929301701255568,-3.388021473582807
-0.03690163945557914,0.33239049198954296,-0.3221049516898617,0.18657069583712488,-0.11090278630138135,0.15431959733855571,-0.06304616038428767,-0.5878428181252565,0.5879806722031132,0.9309915444119771,0.5316916878438791,0.49759858724259204,16.89806291122972,40.243487187268215,-24.95294223349194,18.907415704091548,-16.98076631349236,-3.3769055159045767
-0.03702164531496937,0.33121688031062807,-0.32091780207588133,0.18843412530204223,-0.1098353223605676,0.15531168280745866,-0.06000292969511668,-0.5868058394574335,0.5935748069901963,0.9317147324586782,0.533731970406876,0.49604273445147135,16.95875090062907,40.25994887421038,-24.882541975312478,18.863138426673665,-17.031713692845,-3.365591289131785
-0.037135495538184564,0.330045437626672,-0.319719463847795,0.19029889001044825,-0.10876382792526161,0.15630065804630566,-0.056925111607598604,-0.5857213419780464,0.5991691140431686,0.9323823542030149,0.5357472176529955,0.49448761942350505,17.01818171989979,40.273881798764634,-24.811561711068055,18.819088907015868,-17.08213405402985,-3.3540794520794144
-0.037243121604190486,0.3288762581334916,-0.31850993756704526,0.19216487957480058,-0.10768835310955036,0.15728652468277043,-0.05381303300296039,-0.5845897465902022,0.6047631403748581,0.9329947821761616,0.5377374078556246,0.49293331823239006,17.076350808516906,40.2852770141236,-24.73999600597069,18.775254296973195,-17.132017757138193,-3.3423705782949336
-0.0373444556481295,0.32770943518404083,-0.317289224699124,0.19403198435687372,-0.10660894806697989,0.15826928449061334,-0.050667021969506836,-0.5834114747253846,0.6103564339606156,0.9335523910365712,0.5397025212852335,0.49137990392145675,17.13325391379812,40.29412603633556,-24.667839639214304,18.731621724614975,-17.181355309938233,-3.3304651626973643
-0.037439430463685475,0.32654506128737093,-0.316057327611564,0.1959000954719247,-0.1055256629865497,0.15924893938389706,-0.047487407777985616,-0.5821869483349631,0.6159485437800042,0.9340555575254882,0.5416425402150934,0.4898274466418672,17.18888709384671,40.300420848289505,-24.595087608530974,18.688178300675766,-17.23013737012555,-3.3183636279533375
-0.03752797950539992,0.3253832281076071,-0.3148142495718475,0.19776910479276752,-0.10443854808869608,0.16022549141146616,-0.04427452085722103,-0.5809165898819035,0.621539019858245,0.9345046604214092,0.5435574489268054,0.48827601378455193,17.243246720308974,40.30415390352341,-24.521735134610342,18.64491112501309,-17.278354747521377,-3.306066330600849
-0.03761003689093993,0.3242240264629418,-0.31355999474523266,0.19963890495375458,-0.10334765362126482,0.1611989427516785,-0.04102869277000684,-0.5796008223326632,0.6271274133074152,0.9349000804935276,0.5454472337156355,0.48672567010617374,17.296329480942685,40.30531812985243,-24.447777665378183,18.601807293068152,-17.32599840621795,-3.293573566931208
-0.03768553740331843,0.3230675463246433,-0.31229456819249785,0.20150938935466298,-0.10225302985547352,0.1621692957073773,-0.037750256189248974,-0.5782400691492539,0.6327132763673985,0.935242200454203,0.5473118828956498,0.48517647784939355,17.34813238199321,40.30390693281453,-24.373210880132035,18.558853902324977,-17.37305946666964,-3.2808855786387356
-0.03775441649306713,0.32191387681608036,-0.31101797586760466,0.20338045216448397,-0.10115472708186424,0.1631365527010927,-0.03443954487434855,-0.5768347542814578,0.6382961624465847,0.9355314049104942,0.5491513868046428,0.48362849685770076,17.39865275037417,40.29991419893185,-24.29803069353132,18.51603805876445,-17.419529207729944,-3.2680025582477867
-0.03781661028036276,0.320763106211762,-0.30973022461528005,0.20525198832511354,-0.10005279560624653,0.16410071627046283,-0.03109689364781621,-0.5753853021591796,0.6438756261623167,0.9357680803147892,0.5509657378088565,0.48208178468505725,17.447888235649643,40.29333429878394,-24.222233259438696,18.473346883308977,-17.465399068632426,-3.254924654325672
-0.03787205555710698,0.3196153219363922,-0.3084313221685179,0.20712389355494268,-0.09894728574563157,0.165061789063864,-0.02772263837210847,-0.5738921376849172,0.6494512233810827,0.9359526149145709,0.552754930307482,0.48053639670059445,17.495836811815266,40.28416208989279,-24.145814974611252,18.43076751825386,-17.510660650916115,-3.2416519764901706
-0.037920689788960335,0.3184706105639395,-0.30712127714600096,0.20899606435234538,-0.09783824782415769,0.1660197738362412,-0.024317115926676895,-0.5723556862263369,0.6550225112584507,0.9360853987013512,0.5545189607369394,0.47899238618858947,17.542496778875616,40.27239291941531,-24.068772482237463,18.388287133681487,-17.555305720293397,-3.2281846002193424
-0.03796245111733078,0.3173290578167216,-0.3058000990494435,0.210868397999063,-0.09672573216900783,0.16697467344512906,-0.020880664185221193,-0.570776373608935,0.6605890482787441,0.9361668233588073,0.5562578275749308,0.4774498044439375,17.587866764215626,40.25802262664322,-23.99110267531996,18.34589293385438,-17.599326208460738,-3.2145225714714822
-0.037997278361317055,0.3161907485645041,-0.30446779826085457,0.21274079256348333,-0.09560978910631932,0.1679264908468557,-0.01741362199313709,-0.5691546261087697,0.6661503942944552,0.9361972822101531,0.5579715313442609,0.4759087008633268,17.631945723763824,40.24104754530682,-23.912802699899498,18.30357216358329,-17.642714214850937,-3.200665911122321
-0.03802511101960736,0.3150557668236136,-0.3031243860397238,0.2146131469038129,-0.09449046895708647,0.16887522909292033,-0.01391632914515013,-0.5674908704452477,0.6717061105653942,0.9361771701647769,0.5596600746164199,0.474369123032313,17.674732942945653,40.22146450568258,-23.8338699581207,18.26131211456651,-17.68546200832657,-3.186614619226269
-0.03804588927233361,0.31392419575606567,-0.30176987452012866,0.21648536067114124,-0.09336782203305663,0.1698208913265373,-0.010389126363126465,-0.5657855337739486,0.6772557597975711,0.9361068836641772,0.5613234620149237,0.47283111680848006,17.71622803742502,40.199270836501654,-23.754302111135154,18.219100131696585,-17.727562028813722,-3.172368679108441
-0.038059553982881716,0.31279611766870674,-0.30040427670776504,0.21835733431239568,-0.09224189863261982,0.17076348077933903,-0.006832355274051851,-0.5640390436794699,0.6827989061818085,0.9359868206272254,0.5629617002184067,0.4712947264008672,17.756430953632723,40.17446436665824,-23.674097081841694,18.176923619330655,-17.769006888875666,-3.157928061293383
-0.03806604669965806,0.3116716140123702,-0.29902760647690085,0.22022896907318526,-0.09111274903669289,0.1717030007682307,-0.003246358388170051,-0.5622518281682781,0.6883351154320815,0.9358173803947867,0.5645747979634612,0.4697599944458319,17.795341969080518,40.147043426717005,-23.593253057462405,18.13477004752086,-17.809789375226025,-3.1432927272766618
-0.0380653096578126,0.3105507653810471,-0.2976398785672537,0.2221001670005327,-0.08998042350459845,0.17263945469238973,0.00036852092272804914,-0.5604243156615482,0.6938639548235832,0.9355989636737257,0.5661627660472193,0.4682269620795113,17.832961692459705,40.117006850217386,-23.5117684919512,18.092626958201038,-17.849902450180213,-3.1284626331446757
-0.038057285780918854,0.30943365151107116,-0.29624110858079267,0.22397083094549336,-0.08884497226993911,0.1735728460304038,0.004011938446873241,-0.5585569349879752,0.6993849932305125,0.9353319724803276,0.5677256173296722,0.4666956690070379,17.869291063523562,40.08435397477474,-23.429642108235377,18.05048197132613,-17.88933925304569,-3.1134377330482446
-0.03804191868261095,0.3083203512803181,-0.2948313129784655,0.2258408645656597,-0.08770644553646767,0.17450317833754111,0.007683549153953319,-0.5566501153765432,0.7048978011635809,0.9350168100831594,0.5692633667357219,0.46516615356865565,17.90433135275292,40.04908464297666,-23.34687290028797,18.00832279096069,-17.92809310144925,-3.0982179825348344
-0.038019152668178104,0.3072109427074196,-0.293410509076851,0.2277101723275505,-0.08656489347395376,0.17543045524314688,0.01138300721642343,-0.5547042864492335,0.7104019508072362,0.934653880945401,0.5707760312569603,0.4636384528028787,17.938084160804625,40.01119920307379,-23.263460135029554,17.966137211313303,-17.966157492602413,-3.082803341744343
-0.037988932736116705,0.3061055029509923,-0.2919787150447378,0.22957865950888384,-0.08542036621404742,0.17635468044816052,0.015109966030699896,-0.552719878213658,0.7158970160565995,0.934243590666671,0.5722636299531715,0.46211260250682584,17.97055141774266,39.97069850946495,-23.179403354059158,17.923913122712904,-18.003526104502846,-3.0671937784730394
-0.03795120457964021,0.30500410830888114,-0.2905359498996296,0.2314462322007326,-0.08427291384614032,0.17727585772274823,0.018864078238245905,-0.5506973210555994,0.721382572554113,0.9337863459243733,0.5737261839535522,0.4605886372938594,18.001735382052125,39.9275839229755,-23.09470237521318,17.88163851752418,-18.040192797072876,-3.0513892711098687
-0.0379059145881471,0.30390683421741826,-0.28908223350417783,0.23331279730956178,-0.08312258641322502,0.17819399090404553,0.022644995746557366,-0.5486370457314458,0.7268581977258952,0.9332825544145914,0.5751637164576457,0.4590665906486501,18.03163863943621,39.88185731092862,-23.00935729395065,17.839301495998328,-18.07615161323355,-3.035389811449499
-0.037853009848646986,0.30281375525069726,-0.2876175865625422,0.2351782625591469,-0.08196943390775305,0.1791090838940051,0.02645236975005715,-0.5465394833605002,0.7323234708178005,0.9327326247925538,0.5765762527359849,0.4575464949797837,18.060264101396882,39.8335210470098,-22.923368484566062,17.79689027205606,-18.111396779914642,-3.019195407385792
-0.037792438147145176,0.301724945119863,-0.28614203061667987,0.23704253649237228,-0.08081350626749217,0.18002114065734515,0.030285850750905938,-0.5444050654171523,0.7377779729311799,0.9321369666126957,0.57796382013044,0.45602838167002163,18.087615003599897,39.78257801092358,-22.836736601227038,17.754393178999685,-18.14592270900008,-3.0028060854896235
-0.0377241479699857,0.30064047667241717,-0.2846555880425632,0.23890552847290897,-0.07965485337138364,0.1809301652195938,0.03414508857973762,-0.5422342237228951,0.7432212870583401,0.9314959902683428,0.5793264480542664,0.45451228112431885,18.113694904025138,39.72903158784353,-22.749462578838305,17.71179867515086,-18.17972399820829,-2.986221893474556
-0.03764808850515305,0.2995604218915408,-0.2831582820463278,0.24076714868677104,-0.07849352503539994,0.1818361616652252,0.03802973241632741,-0.5400273904381726,0.7486529981176971,0.9308101069310393,0.5806641679918477,0.45299822281570234,18.13850768090348,39.672885667654576,-22.66154763373076,17.669095349411307,-18.21279543190746,-2.9694429025537725
-0.037564209643532645,0.2984848518954327,-0.28165013666035055,0.24262730814375014,-0.07732957100840368,0.1827391341358834,0.04193943081020035,-0.5377849980540418,0.7540726929886211,0.9300797284895445,0.5819770134981315,0.4514862353291039,18.162057530441544,39.614144643988915,-22.572993264175416,17.626271926743087,-18.245131981865384,-2.9524692096914844
-0.03747246198013027,0.29741383693666545,-0.2801311767392586,0.24448591867872718,-0.07616304096800817,0.1836390868286899,0.045873831701188285,-0.5355074793836354,0.7594799605459699,0.9293052674885225,0.583265020197751,0.44997634640324013,18.184348964336014,39.55281341305538,-22.4838012507228,17.583317273565783,-18.27672880793353,-2.935300939751971
-0.03737279681525038,0.29634744640155863,-0.27860142795586995,0.24634289295286108,-0.07499398451644051,0.18453602399463115,0.04983258243994275,-0.5331952675534097,0.7648743916943068,0.9284871370669467,0.5845282257838305,0.4484685829706258,18.205386807079197,39.4888973722631,-22.393973656367667,17.540220403067394,-18.307581258665664,-2.917938247549058
-0.03726516615563356,0.2952857488095703,-0.27706091679706635,0.24819814445465357,-0.07382245117640758,0.18542994993702275,0.053815329808411534,-0.5308487959941632,0.7702555794018003,0.9276257508962427,0.5857666700164701,0.44696297119580475,18.225176193058072,39.42240241864032,-22.30351282653899,17.496970480426498,-18.33768487186992,-2.9003813197990196
-0.03714952271555298,0.2942288118127067,-0.27550967055959874,0.25005158750088996,-0.07264849038696577,0.1863208690100465,0.05782172004028639,-0.5284684984318113,0.7756231187338012,0.9267215231181917,0.586980394720905,0.44545953651187636,18.243722563448827,39.35333494704824,-22.212421388915693,17.4535568279425,-18.367035375095554,-2.8826303769793737
-0.03702581991787012,0.2931767021949509,-0.27394771734582657,0.2519031372374552,-0.0714721514993951,0.1872087856173573,0.061851398841429255,-0.5260548088779029,0.7809766068860938,0.9257748682826186,0.5881694437853358,0.4439583036553941,18.261031662909478,39.28170184819261,-22.12070225306934,17.409968930071713,-18.39562868605273,-2.864685675096333
-0.03689401189504955,0.29212948587171117,-0.2723750860593909,0.253752709640025,-0.07029348377307826,0.18809370421075672,0.06590401141028425,-0.5236081616198656,0.7863156432178191,0.9247862012848849,0.5893338631584263,0.44245929669970757,18.277109536073166,39.20751050643262,-22.02835860993339,17.366196438366302,-18.423460912966807,-2.846547507363181
-0.036754053490132985,0.29108722788928926,-0.2707918064008228,0.2556002215146314,-0.06911253637138533,0.18897562928893036,0.06997920245828264,-0.5211289912109647,0.7916398292840644,0.9237559373032097,0.5904737008464652,0.4409625390868166,18.29196252384493,39.130768797389,-21.935393931100055,17.32222917631389,-18.450528354865817,-2.8282162057920095
-0.03660590025767249,0.29004999242436935,-0.26919790886308653,0.2574455904981031,-0.06792935835756496,0.18985456539624596,0.07407661623024779,-0.5186177324599632,0.7969487688681169,0.9226844917358408,0.591589006910187,0.43946805365780334,18.305597259505,39.051485085352695,-21.84181196794613,17.278057144074936,-18.476827501802,-2.8096921427009836
-0.03644950846462288,0.28901784278352843,-0.26759342472705977,0.2592887350583793,-0.06674399869064246,0.19073051712160977,0.07819589652480699,-0.5160748204204693,0.8022420680133779,0.921572280138097,0.5926798334612492,0.4379758626819039,18.31802066462184,38.96966822049562,-21.74761675058827,17.2336705231162,-18.502355035007092,-2.7909757321393776
-0.03628483509119325,0.28799084140276854,-0.2659783860569499,0.2611295744946979,-0.06555650622132574,0.19160348909737832,0.08233668671481682,-0.5135006903799576,0.8075193350549329,0.9204197181593045,0.5937462346583625,0.43648598788427967,18.329239944778323,38.88532753588507,-21.652812586668666,17.18905968073711,-18.527107826981222,-2.772067431232273
-0.03611183783165763,0.2869690498470716,-0.26435282569564833,0.2629680289376572,-0.0643669296879196,0.1924734859983234,0.08649862976780893,-0.5108957778484536,0.8127801806507748,0.9192272214796472,0.5947882667030703,0.4349984504725443,18.33926258511457,38.79847284430373,-21.557404059973404,17.144215174487698,-18.551082941515986,-2.7529677414469838
-0.03593047509512471,0.2859525288099779,-0.26271677726002296,0.2648040193491511,-0.06317531771224925,0.1933405125406476,0.09068136826646245,-0.5082605185468666,0.8180242178126772,0.9179952057469544,0.5958059878351738,0.43351327116210114,18.348096345691314,38.709114434876675,-21.461396028883055,17.099127756475234,-18.574277633651505,-2.7336772097831465
-0.03574070600626649,0.284941338113188,-0.26107027513614955,0.266637467522178,-0.06198171879559365,0.19420457348104828,0.09488454442910943,-0.5055953483949593,0.823251061936712,0.9167240865134446,0.5967994583278006,0.4320304702003415,18.35574925667754,38.61726306950818,-21.3647936246588,17.053788377558018,-18.59668934956752,-2.714196429888071
-0.03554249040600593,0.2839355367061901,-0.2594133544744827,0.26846829608052286,-0.06078618131462943,0.19506567361582777,0.09910780013027967,-0.5029007034989443,0.8284603308334102,0.91541427917245,0.5977687404821119,0.43055006738975415,18.36222961336671,38.522929979129835,-21.267602249564387,17.00818819142409,-18.61831572640904,-2.6945260430994074
-0.035335788852163354,0.2829351826659127,-0.2577460511849676,0.27029642847831314,-0.059588753517386135,0.19592381778004775,0.10335077692129062,-0.5001770201386929,0.8336516447575598,0.9140661988951394,0.5987138986216477,0.42907208210999137,18.367545971025567,38.426126859762675,-21.16982757482642,16.962318558553058,-18.639154592046573,-2.6746667394164625
-0.03512056262006158,0.2819403331964036,-0.2560684019320923,0.27212178899944767,-0.058389483519213525,0.1967790108467256,0.10761311605088845,-0.49742473475454774,0.8388246264376396,0.9126802605672633,0.5996349990863041,0.4275965333389375,18.371707139580117,38.32686586839519,-21.07147553843406,16.916171050059127,-18.65920396477095,-2.6546192584020973
-0.03489677370308969,0.28095104462853615,-0.25438044412988253,0.27394430275689957,-0.05718841929876164,0.19763125772607126,0.11189445848594597,-0.49464428393372656,0.8439789011048826,0.9112568787259399,0.6005321102259429,0.42612343967282146,18.3747221781433,38.225159618680365,-20.97255234278052,16.869737451413968,-18.678462052923585,-2.6343843900165353
-0.034664384813225244,0.2799673724197435,-0.2526822159368386,0.2757638956918926,-0.055985608693974384,0.19848056336476208,0.11619444493222263,-0.4918361043963078,0.849114096521968,0.9097964674965057,0.6014053023936283,0.4246528193454143,18.376600389388955,38.12102117645386,-20.87306445214835,16.823009766047107,-18.696927254461812,-2.613962975384663
-0.03442335938151486,0.2789893711537819,-0.2509737562508159,0.2775804945729515,-0.0547810993980974,0.1993269327452548,0.12051271585519235,-0.48900063298078716,0.8542298430113356,0.9082994405294482,0.6022546479384903,0.4231846902463504,18.37735131377701,38.01446405507659,-20.77301859004062,16.77598021882309,-18.714598156460124,-2.5933559074983785
-0.03417366155851297,0.27801709454052353,-0.24925510470384968,0.27939402699482635,-0.05357493895570098,0.200170370885132,0.12484891150094397,-0.4861383066291957,0.8593257734831208,0.9067662109374446,0.6030802211982097,0.4217190699386088,18.376984723634816,37.9055022106034,-20.672421736359617,16.72864125939335,-18.73147353454737,-2.5725641318551897
-0.033915256214678655,0.27705059541578,-0.24752630165692427,0.2812044213772914,-0.05236717475871873,0.20101088283648239,0.1292026719171594,-0.4832495623717701,0.8644015234627056,0.9051971912325251,0.6038820984911254,0.42025597567519035,18.375510617099778,37.79415003678299,-20.571281124436577,16.68098556542165,-18.7475523522808,-2.5515886470346674
-0.03364810894073031,0.27608992574115765,-0.2457873881946885,0.28301160696381816,-0.05115785404250281,0.20184847368531245,0.1335736369741742,-0.48033483731116555,0.8694567311178828,0.9035927932633827,0.6046603581079588,0.41879542441502365,18.372939211928383,37.68042235988928,-20.469604237913778,16.633006045681952,-18.76283376045616,-2.530430505213871
-0.03337218604795806,0.27513513660394523,-0.24403840612011726,0.2848155138201239,-0.0499470238818965,0.2026831485509887,0.13796144638612537,-0.47739456860620394,0.8744910372856283,0.9019534281528501,0.6054150803031557,0.4173374328381321,18.369280939177088,37.564334433389966,-20.367398807481926,16.58469584302709,-18.777317096356185,-2.5090908126231977
-0.03308745456849368,0.27418627821703495,-0.2422793979491203,0.286616072832595,-0.04873473118732482,0.2035149125857089,0.1423657397321902,-0.4744291934551473,0.8795040854984797,0.9002795062355626,0.6061463472858415,0.41588201736009234,18.364546436760406,37.44590193245379,-20.264672807475424,16.53604833722754,-18.79100188293601,-2.4875707299438536
-0.03279388225553784,0.27324339991887797,-0.24051040690509926,0.2884132157065867,-0.04752102270090404,0.20434377097400053,0.1467861564779209,-0.47143914907849027,0.8844955220105167,0.8985714369958312,0.6068542432103896,0.4144291941458131,18.358746542891776,37.32514094830117,-20.161434452328944,16.48705714767912,-18.80388782794744,-2.4658714726481157
-0.03249143758354448,0.27230655017347544,-0.23873147691345337,0.2902068749645982,-0.04630594499257084,0.20516972893224586,0.15122233599667867,-0.4684248727012637,0.8894649958229395,0.8968296290057419,0.6075388541666003,0.41297897912266235,18.35189228941283,37.20206798240015,-20.05769219289601,16.437716135978707,-18.815974823001962,-2.4439943112837197
-0.03218008974836214,0.27137577657040574,-0.2369426525960349,0.2919969839443252,-0.04508954445623186,0.2059927917082318,0.15567391759117089,-0.46538680153484185,0.8944121587092423,0.8950544898635053,0.6082002681694885,0.4115313879929694,18.343994895016795,37.07669994051292,-19.9534547126353,16.3880194083669,-18.82726294257286,-2.4219405717034252
-0.03185980866733195,0.2704511258248892,-0.23514397926555494,0.2937834767965894,-0.0438718673059345,0.20681296458072365,0.1601405405150951,-0.4623253727582478,0.8993366652399788,0.8932464261320754,0.6088385751486795,0.4100864362459262,18.3350657583718,36.949054126595094,-19.848730923665357,16.337961318037358,-18.837752442937823,-2.399711635240963
-0.03153056497934217,0.2695326437778913,-0.2333355029199407,0.29556628848314553,-0.04265295957205968,0.20763025285906148,0.16462184399489296,-0.45924102349894996,0.9042381728071148,0.8914058432780573,0.6094538669374107,0.4086441391689134,18.325116451150027,36.81914823655243,-19.743529962691838,16.28753646731171,-18.847443761061918,-2.377308938834482
-0.031192330044838932,0.26862037539626504,-0.23151727023664478,0.2973453547743674,-0.04143286709753741,0.20844466188277802,0.16911746725161733,-0.45613419081314466,0.9091163416479664,0.8895331456109261,0.6100462372611383,0.4072045118582729,18.31415871096855,36.687000351858224,-19.63786118681023,16.236739709679554,-18.85633751342176,-2.3547339750986134
-0.030845075945793103,0.267714364772934,-0.22968932856690735,0.2991206122468126,-0.04021163553408591,0.20925619702123713,0.17362704952291524,-0.45300531166551944,0.9139708348687191,0.8876287362225755,0.6106157817257483,0.4057675692295493,18.30220443424799,36.552628933035535,-19.531734169187146,16.185566151703235,-18.864434494772066,-2.3319882923462125
-0.030488775485622843,0.266814655127117,-0.2278517259299723,0.30089199828066704,-0.03898931033847517,0.21006486367329158,0.17815023008512934,-0.44985482290849244,0.9188013184675254,0.8856930169272167,0.6111625978053702,0.4043333260272216,18.28926566899497,36.416052813008065,-19.425158694623555,16.134011154786812,-18.871735676854158,-2.3090734945608906
-0.030123402189071804,0.26592128880459515,-0.22600451100725794,0.3026594510570703,-0.03776593676881558,0.21087066726695947,0.1826866482755204,-0.44668316126092367,0.9236074613571769,0.8837263882016481,0.6116867848297937,0.4029017968339441,18.275354607514444,36.27729119032387,-19.318144755003054,16.08207033680898,-18.87824220704855,-2.2859912413213324
-0.02974893030204258,0.2650343072780226,-0.22414773313648323,0.30442290955532214,-0.03654155988087261,0.2116736132591181,0.18723594351461262,-0.44349076328629405,0.9283889353873486,0.8817292491259162,0.6121884439714859,0.40147299607931675,18.260483579058175,36.13636362225588,-19.210702544629406,16.02973957361968,-18.883955406971356,-2.2627432476785128
-0.02936533479138525,0.2641537511472819,-0.2222814423057504,0.30618231354997094,-0.03531622452440819,0.2124737071352145,0.1917977553286641,-0.44027806537034975,0.933145415366412,0.8797019973243869,0.6126676782322108,0.40004693804820235,18.244665042415406,35.99329001778335,-19.10284245545529,15.97701500040036,-18.888876771015656,-2.239331283986817
-0.02897259134464072,0.26327966013988546,-0.22040568914758477,0.30793760360778544,-0.034089975339549695,0.21327095440899171,0.19637172337226386,-0.43704550369820794,0.937876579082814,0.8776450289072472,0.6131245924292492,0.3986236368886084,18.227911578452026,35.848090630458486,-18.9945750722077,15.923893012887778,-18.89300796483872,-2.215757175690029
-0.028570676369738607,0.2624120731114236,-0.21852052493293272,0.3096887210846104,-0.03286285675318726,0.21406536062223003,0.20095748745105665,-0.43379351423092277,0.9425821073260179,0.8755587384124575,0.6135592931812195,0.39720310661915037,18.210235882604408,35.70078605116282,-18.885911167411827,15.870370268461159,-18.896350823795505,-2.1920228030633204
-0.028159566994649412,0.2615510280460606,-0.21662600156511871,0.31143560812210674,-0.03163491297540026,0.21485693134450226,0.20555468754459727,-0.430522532681509,0.9472616839070058,0.8734435187481747,0.6139718888934989,0.3957853611361116,18.19165075733416,35.55139720075706,-18.776861696318242,15.816443687093411,-18.89890735132017,-2.168130100912073
-0.027739241066990744,0.26069656205707975,-0.21472217157376203,0.3131782076443781,-0.03040618799591377,0.2156456721729425,0.21016296382933472,-0.427232994490422,0.9519149956783369,0.8712997611356652,0.6143624897432458,0.39437041422011626,18.172169104550097,35.39994532262942,-18.667437791736806,15.762110452165896,-18.900679717255343,-2.1440810582287213
-0.02730967715358729,0.2598487113874788,-0.2128090881086545,0.31491646335448353,-0.029176725580585722,0.21643158873202736,0.21478195670172728,-0.42392533480049444,0.9565417325537613,0.8691278550527263,0.6147312076640238,0.39295827954242846,18.15180391800358,35.24645197514644,-18.55765075878053,15.70736801114769,-18.9016702561309,-2.1198777178084294
-0.026870854539984314,0.2590075114106161,-0.21088680493359974,0.3166503197308388,-0.02794656926792567,0.21721468667336916,0.21941130680148874,-0.4205999884313273,0.961141587527385,0.8669281881776378,0.6150781563300263,0.3915489706708927,18.130568275663553,35.090939024011064,-18.447512069524095,15.652214076139211,-18.90188146539291,-2.095522175824669
-0.026422753229914383,0.25817299663090987,-0.20895537642021497,0.3183797220235061,-0.026715762365645858,0.2179949716755202,0.22405065503496596,-0.41725738985313754,0.9657142566923851,0.864701146333662,0.6154034511399049,0.3901425010755286,18.10847533207742,34.93342863453223,-18.33703335758004,15.596646624281021,-18.901316003583787,-2.0710165813657193
-0.025965353944717086,0.25734520068458977,-0.20701485754169643,0.32010461625037434,-0.025484347947245457,0.2187724494437878,0.2286996425986478,-0.4138979731600619,0.9702594392592715,0.8624471134341098,0.6157072092002001,0.3887388841337918,18.085538310724015,34.77394326381055,-18.22622641259673,15.540663898028141,-18.89997668847436,-2.0463631359329213
-0.025498638122711477,0.2565241563405039,-0.20506530386654906,0.32182494919323035,-0.024252368848628705,0.21954712571005883,0.23335791100280495,-0.4105221720429184,0.9747768375736936,0.8601664714279952,0.6159895493083761,0.3873381331355148,18.061770496364854,34.61250565284511,-18.11510317468252,15.484264405290663,-18.89786649514921,-2.0215640929017775
-0.025022587918520956,0.25570989550098105,-0.2031067715522815,0.3235406683937229,-0.02301986766475778,0.2203190062326339,0.23802510209526015,-0.4071304197614275,0.9792661571337897,0.8578596002462938,0.6162505919354622,0.38594026128753806,18.03718522739976,34.4491388185653,-18.003675728759433,15.427446919441245,-18.89498855404614,-1.9966217569467994
-0.02453718620235038,0.2549024492027493,-0.20113931733906734,0.32525172214922055,-0.02178688674634118,0.22108809679606997,0.24270085808528805,-0.4037231491158947,0.9837271066070764,0.8555268777488271,0.6164904592082993,0.38454528171804364,18.011795888232903,34.283866045792685,-17.891956298850232,15.370210479190291,-18.89134614895085,-1.9715384834311356
-0.02404241655921509,0.2541018476179126,-0.19916299854337358,0.3269580595085641,-0.02055346819655839,0.22185440321103117,0.2473848215676434,-0.40030079241835803,0.9881593978468767,0.8531686796717884,0.6167092748913962,0.38315320748060117,17.98561590165557,34.11671087913774,-17.779957242303844,15.312554388329826,-18.886942714947818,-1.9463166777617809
-0.02353826328812166,0.2533081200549862,-0.197177873051557,0.32865963026771594,-0.0193196538678216,0.22261793131414703,0.25207663554671655,-0.3968637814632033,0.9925627459082846,0.8507853795759315,0.6169071643683952,0.3817640515579372,17.95865872125123,33.94769711483593,-17.66769104396171,15.254478215346811,-18.88178183632858,-1.920958794711551
-0.02302471140120003,0.2525212949599917,-0.19518399931342967,0.33035638496530684,-0.0180854853585753,0.2233786869678779,0.25677594346081434,-0.39341254749725074,0.9969368690636652,0.8483773487954375,0.6170842546231498,0.38037782686543764,17.930937823829325,33.77684879252723,-17.555170310270583,15.195981792907055,-18.875867244458544,-1.8954673377085507
-0.0225017466227869,0.2517413999176131,-0.1931814363357943,0.3320482748780818,-0.01685100401013447,0.2241366760603867,0.2614823892065648,-0.3899475211893184,1.0012814888176862,0.8459449563874814,0.617240674220416,0.37899454625439255,17.902466701893218,33.60419018698534,-17.442407763344704,15.137065217210697,-18.869202815603188,-1.8698448580942673
-0.021969355388460014,0.25096846165241454,-0.19117024367595054,0.3337352520162468,-0.015616250903562147,0.22489190450541668,0.2661956171634436,-0.38646913259926563,1.005596329921883,0.8434885690825127,0.6173765532861607,0.3776142225149928,17.873258856148396,33.429745799799385,-17.32941623498183,15.077728847220746,-18.861792568715217,-1.844093954351139
-0.021427524844023174,0.2502025060301215,-0.18915048143517302,0.3354172691187174,-0.014381266856587171,0.22564437824217487,0.2709152722184195,-0.3829778111465234,1.0098811203887532,0.8410085512352707,0.6174920234874882,0.3762368683790873,17.84332778805657,33.253540351014394,-17.216208660637573,15.01797330376533,-18.85364066318355,-1.8182172713005609
-0.020876242844441742,0.2494435580589653,-0.18712221025216225,0.3370942796482705,-0.013146092420562795,0.2263941032352203,0.27564099979071693,-0.37947398557811657,1.0141355915053791,0.8385052647765497,0.6175872180121884,0.37486249652270887,17.812686992441225,33.075598770734146,-17.102798073361065,14.957799468515734,-18.844751396545213,-1.7922174992723503
-0.020315497952728356,0.2486916418910929,-0.1850854912964691,0.338766237786602,-0.011910767877466977,0.22714108547435705,0.28037244585669235,-0.3759580839361849,1.0183594778465797,0.8359790691657332,0.6176622715479088,0.37349111956837744,17.781349950150343,32.89594619069182,-16.98919759769747,14.897208482840838,-18.835129202161784,-1.766097373246529
-0.019745279438778712,0.2479467808240429,-0.18304038626189392,0.3404330984292902,-0.010675333236945068,0.22788533097453142,0.28510925697482153,-0.37243053352500927,1.0225525172875882,0.8334303213441122,0.6177173202609539,0.37212275008718826,17.749330120781575,32.71460793579277,-16.87542044356008,14.836201746540091,-18.824778646861212,-1.739859671968432
-0.019165577278157125,0.2472089973022878,-0.18098695735986142,0.3420948171806682,-0.009439828233395637,0.2286268457757328,0.2898510803107943,-0.36889176087755104,1.026714451016256,0.8308593756890071,0.6177525017747156,0.37075740060069223,17.71664093547543,32.53160951563386,-16.76147990007678,14.774780916456042,-18.813704428546238,-1.7135072170380403
-0.018576382150831697,0.24647831291884476,-0.17892526731277186,0.3437513503486056,-0.008204292323100165,0.22936563594289797,0.29459756366271367,-0.3653421917215121,1.0308450235447815,0.8282665839687061,0.6177679551477362,0.3693950835825765,17.683295789781578,32.34697661600501,-16.647389329415038,14.712947904968187,-18.801911373770892,-1.687042871974592
-0.017977685439858906,0.2457547484169549,-0.17685537934732995,0.3454026549392021,-0.006968764681397346,0.23010170756581827,0.29934835548639516,-0.3617822509449242,1.0349439827209632,0.8256522952982395,0.6177638208514095,0.3680358114601515,17.64930803660346,32.16073509037617,-16.53316216058893,14.650704878370082,-18.789404435286176,-1.6604695412572479
-0.01736947923001738,0.24503832369183237,-0.174777357187852,0.3470486886513941,-0.005733284199902699,0.23083506675904958,0.30410310492076237,-0.35821236256127625,1.039011079738978,0.8230168560960036,0.6177402407473234,0.366679596615652,17.614690979226335,31.97291095137535,-16.418811883252463,14.588054255130693,-18.776188689556236,-1.6337901693429555
-0.01675175630639071,0.24432905779248398,-0.17269126504955265,0.3486894098714766,-0.004497889483774206,0.2315657196618243,0.30886146181333507,-0.354632949674189,1.0430460691496817,0.820360610041252,0.6176973580642469,0.3653264513873578,17.5794578644336,31.783530362262418,-16.304352041483988,14.524998704042634,-18.76226933424612,-1.607007739662262
-0.0161245101528991,0.2436269689236007,-0.1705971676318118,0.35032477766754155,-0.0032626188490246727,0.23229367243796537,0.3136230767458046,-0.3510444344416474,1.0470487088704334,0.8176838980324674,0.6176353173747667,0.3639763880705415,17.543621875716145,31.592619628401888,-16.189796227564024,14.46154114225859,-18.74765168568299,-1.580125273594184
-0.015487734950779715,0.2429320744475211,-0.1684951301114229,0.35195475178383484,-0.0020275103198815177,0.23301893127580187,0.31838760105969277,-0.3474472380398002,1.0510187601944445,0.8149870581466301,0.6175542645715776,0.3626294189182487,17.507196126579633,31.400205188740934,-16.07515807575195,14.397684733217677,-18.732341176291012,-1.5531458294209597
-0.014841425577015536,0.24224439088626842,-0.1663852181358236,0.3535792926350336,-0.0007926016261946571,0.2337415023880857,0.323154686882089,-0.3438417806263384,1.0549559877996497,0.8122704255993979,0.6174543468434303,0.36128555614191704,17.470193653953967,31.206313607296178,-15.960451256065365,14.333432884464404,-18.716343352002635,-1.5260725012637315
-0.014185577602712615,0.2415639339236615,-0.1642674978163094,0.3551983613004461,0.00044206979910682933,0.23446139201190938,0.3279239871514602,-0.3402284813034629,1.0588601597571028,0.8095343327062119,0.6173357126507432,0.35994481191183963,17.432627411709618,31.010971564653488,-15.845689468065036,14.268789245361319,-18.699663869646212,-1.4989084179999617
-0.013520187291425557,0.2408907184075006,-0.1621420357212316,0.35681191951813473,0.0016764668225085918,0.23517860640862434,0.3326951556435294,-0.33660775808045384,1.0627310475388958,0.8067791088443413,0.6171985117008812,0.35860719835747834,17.39451026428491,30.81420584948573,-15.73088643465013,14.203757704698123,-18.682308494312238,-1.471656742163643
-0.012845251597431124,0.24022475835182888,-0.16000889886918038,0.3584199296789665,0.0029105526123548078,0.23589315186375961,0.33746784699721644,-0.3329800278358535,1.0665684260256045,0.8040050804158817,0.6170428949231079,0.35727272756763295,17.355854980428553,30.616043350092834,-15.616055895867794,14.13834238819894,-18.664283096699215,-1.4443206688291874
-0.012160768163949853,0.23956606693927032,-0.15786815472215388,0.36002235482059,0.004144290641241238,0.23660503468694055,0.3422417167406354,-0.32934570627927506,1.0703720735132574,0.8012125708117198,0.6168690144432153,0.35594141159047094,17.316674227061284,30.416511045967795,-15.5012116027401,14.072547655929988,-18.64559365044012,-1.416903424479914
-0.011466735321315565,0.23891465652344462,-0.15571987117871422,0.3616191586213429,0.005377644688356914,0.2373142612118074,0.34701642131714355,-0.32570520791285057,1.0741417717198323,0.7984019003764777,0.6166770235578379,0.3546132624334232,17.27698056326065,30.21563599939383,-15.386367311112648,14.006378099610071,-18.626246229411656,-1.3894082658620526
-0.010763152085092695,0.23827053863145997,-0.15356411656713165,0.3632103053940918,0.006610578841773826,0.2380208377959333,0.35179161811143506,-0.3220589459923315,1.0778773057912796,0.795573386374449,0.616467076708456,0.353288292062951,17.23678643437244,30.01344534707615,-15.2715367755286,13.939838539825562,-18.60624700502681,-1.3618384788252773
-0.010050018154141348,0.23763372396648427,-0.1514009596385175,0.3647957600800049,0.007843057500684014,0.23872477082074167,0.3565669654756735,-0.31840733248785535,1.081578464307075,0.7927273429565387,0.6162393294550939,0.3519665124041881,17.196104166252454,29.809966291812376,-15.156733743131511,13.872934023152874,-18.585602243512376,-1.3341973771505573
-0.009327333908630032,0.23700422241039548,-0.1492304695599469,0.36637548824226135,0.009075045377583453,0.2394260666914226,0.36134212275565736,-0.314750778044393,1.0852450392853,0.789864081128219,0.6159939384497196,0.35064793534046457,17.154945959642042,29.6052260942068,-15.041971947600638,13.805669819190108,-18.56431830317303,-1.3064883013663584
-0.008595100407996012,0.2363820430265117,-0.14705271590757238,0.36794945605969837,0.010306507500402157,0.24012473183684804,0.36611675031701074,-0.311089691941891,1.088876826187256,0.7869839087185122,0.6157310614093523,0.349332572712715,17.113323884680533,29.399252064430893,-14.927265103122842,13.738051417500667,-18.54240163164289,-1.2787146175539925
-0.007853319388853223,0.23576719406240146,-0.14486776865972917,0.36951763032039836,0.011537409214579922,0.2408207727094856,0.3708905095713944,-0.30742448205512396,1.092473623921609,0.7840871303500108,0.6154508570888829,0.3480204363187769,17.071249875557793,29.192071554035408,-14.812626898403693,13.670084524470944,-18.519858763126184,-1.2508797161431906
-0.007101993262847766,0.23515968295277492,-0.14267569819003303,0.3710799784152182,0.012767716185087154,0.24151419578531078,0.3756630630027285,-0.30375555481327227,1.096035234848071,0.7811740474099463,0.6151534852536159,0.34671153791258313,17.02873572530978,28.98371194781678,-14.698070990721959,13.60177506008473,-18.496696315628256,-1.2229870106985983
-0.006341125114460923,0.23455951632245645,-0.1404765752604718,0.37263646833126285,0.013997394398390229,0.2422050075637173,0.38043407419342146,-0.30008331515924086,1.0995614647806158,0.7782449580223165,0.6148391066515376,0.34540588920325344,16.985793080759816,28.774200655743016,-14.583611000030704,13.533129154616542,-18.472920988178352,-1.195039936698227
-0.0055707186987597294,0.23396669998943898,-0.13827047101449133,0.374187068645305,0.015226410164360868,0.24289321456742546,0.3852032078505969,-0.296408166508735,1.1030521229902348,0.775300157021079,0.6145078829853196,0.3441035018540881,16.9424334376084,28.56356510494104,-14.469260503108242,13.464153145246646,-18.448539558045475,-1.1670419503047327
-0.004790778439095105,0.23338123896802077,-0.13605745697007687,0.37573174851715385,0.016454730118128993,0.2435788233423884,0.38997012983231244,-0.29273051070910955,1.1065070222072337,0.772339935924423,0.614159976884062,0.34280438748146913,16.89866813567376,28.351832731750772,-14.355033027762127,13.394853572599988,-18.423558877948583,-1.1389965271303495
-0.0040013094247475815,0.23280313747202475,-0.13383760501283073,0.3772704776829741,0.01768232122187857,0.24426184045769575,0.3947345071737616,-0.2890507479980076,1.1099259786230706,0.769364582910125,0.6137955518747868,0.34150855765367205,16.85450835428567,28.13903097384845,-14.240942047089806,13.325237177211923,-18.397985873262673,-1.110907160996398
-0.0032023174085206753,0.23223239891810113,-0.13161098738904725,0.37880322644855813,0.01890915076658594,0.24494227250547493,0.399496008113453,-0.28536927696180686,1.1133088118917418,0.7663743827919992,0.6134147723536861,0.34021602388959327,16.80996510783453,27.925187262443295,-14.127000973798754,13.2553108959228,-18.371827539221773,-1.0827773626882493
-0.0023938088042819595,0.23166902592911334,-0.12937767669878583,0.380329965682553,0.02013518637370021,0.24562012610078973,0.4042543021193579,-0.28168649449388944,1.1166553451307146,0.763369616997447,0.613017803557134,0.3389267976573958,16.765049241477676,27.710329014550513,-14.013223154589161,13.185081858204622,-18.3450909381206,-1.0546106587065263
-0.0015757906844519206,0.23111302033760783,-0.127137745888943,0.38185066680964524,0.021360395996765147,0.2462954078815359,0.4090090599150194,-0.2780027957527535,1.1199654049214118,0.7603505635461155,0.6126048115324698,0.33764089037307826,16.719771427004904,27.494483625344166,-13.899621864602366,13.114557382421776,-18.317783196515684,-1.0264105900155118
-0.0007482707774406912,0.23056438318936787,-0.1248912682463245,0.3833653018037046,0.02258474792298227,0.24696812450833383,0.4137599535056147,-0.2743185741199839,1.1232388213092501,0.7573174970296709,0.6121759631085615,0.33635831339897015,16.674142158864576,27.277678460593197,-13.786210301937786,13.043744972028831,-18.28991150242772,-0.9981807107895087
8.874253496723539e-05,0.23002311474705167,-0.12263831739071804,0.38487384318088996,0.023808210774714577,0.24763828266441815,0.4185066562039633,-0.27063422115810043,1.126475427803235,0.7542706885926911,0.6117314258661545,0.3350790780421576,16.628171750352102,27.059940849183434,-13.673001582241426,12.97265231170786,-18.261483102546208,-0.9699245871580131
0.000935240220280182,0.22948921449391507,-0.1203789672679678,0.38637626399271935,0.025030753510930613,0.24830588905552384,0.4232488426564733,-0.2669501265683011,1.1296750613751174,0.7512104059146857,0.6112713681080177,0.3338031955528427,16.58187032996183,26.84129807572922,-13.560008733368571,12.901287263448092,-18.232505299437804,-0.941645795950554
0.0017912125980182147,0.22896268113761883,-0.11811329214305158,0.38787253781910586,0.026252345428588397,0.24897095040976913,0.4279861888690164,-0.2632666781481192,1.132837562458113,0.7481369131932464,0.6107959588288927,0.33253067712264067,16.535247837903732,26.62177737327702,-13.447244690123433,12.829657862570262,-18.20298544875943,-0.9133479234419555
0.002656649342483667,0.2284435126141208,-0.1158413665931612,0.3893626387613625,0.02747295616395891,0.24963347347753476,0.43271837223272597,-0.25958426174901317,1.1359627749451888,0.7450504711283334,0.6103053676852551,0.33126153388281776,16.488314022785765,26.40140591610398,-13.33472228907809,12.757772313698704,-18.17293095647787,-0.8850345640988944
0.0035315394855830826,0.22793170609165297,-0.11356326550078735,0.39084654143517794,0.028692555693888705,0.2502934650313397,0.4374450715497078,-0.2559032612339067,1.1390505461869211,0.7419513369077017,0.6097997649648976,0.3299957769024737,16.44107843846278,26.1802108126148,-13.22245426347422,12.68563898668344,-18.14234927609645,-0.8567093193284656
0.004415871419700396,0.22742725797478358,-0.1112790640468095,0.3923242209635649,0.029911114337001388,0.25095093186571304,0.44216596705865663,-0.2522240584346998,1.1421007269889283,0.7388397641934689,0.609279321556342,0.3287334171866722,16.393550441052696,25.958219098338787,-13.110453238208667,12.613266412475348,-18.1112479058909,-0.8283757962296197
0.005309632900621137,0.22693016390856405,-0.10898883770359173,0.3937956529697846,0.03112860275483757,0.2516058807970621,0.4468807404603702,-0.2485470331097681,1.1451131716088807,0.7357160031098315,0.6087442089180907,0.3274744656745221,16.345739186120372,25.73545772903042,-12.998731724906524,12.54066327895682,-18.07963438615466,-0.8000376063481613
0.006212811050507441,0.2264404187827611,-0.10669266222808554,0.39526081357024845,0.03234499195293302,0.25225831866353654,0.45158907494315215,-0.24487256290147094,1.1480877377530956,0.7325803002319274,0.6081945990477252,0.3262189332372137,16.29765362602969,25.511953573875072,-12.88730211708313,12.467838426730431,-18.0475162964557,-0.7716983644360949
0.0071253923609236325,0.22595801673617374,-0.10439061365494011,0.39671967936740016,0.03356025328183475,0.25290825232488856,0.4562906552080959,-0.24120102329368662,1.1510242865727163,0.729432898575849,0.6076306644508624,0.32496683067601234,16.249302507463913,25.287733408803184,-12.776176685397731,12.394800844869021,-18.014901252905585,-0.7433616872161226
0.008047362695912115,0.22548295116103495,-0.10208276828962114,0.3981722274425798,0.0347743584380547,0.25355568866232897,0.46098516749424134,-0.23753278756939472,1.1539226826594842,0.7262740375898084,0.6070525781099764,0.3237181687202132,16.200694369114508,25.06282390991458,-12.665367573000701,12.321559666628744,-17.981796905442035,-0.715031192151883
0.008978707295119306,0.2250152147074983,-0.09976920270153893,0.3996184353488727,0.03598727946496089,0.2542006345783791,0.4656722996035957,-0.2338682267683248,1.1567827940411055,0.7231039531464531,0.6064605134530955,0.32247295802506,16.151837539538267,24.83725164701537,-12.554886790976502,12.248124165128862,-17.948210935126365,-0.6867104962248005
0.009919410776971328,0.22455479928820893,-0.09744999371718649,0.40105828110394537,0.037198988753605666,0.25484309699671837,0.4703517409260107,-0.2302077096446908,1.1596044921762176,0.7199228775363362,0.6058546443223852,0.321231209169631,16.10274013518254,24.611043077269336,-12.444746213884011,12.174503749000113,-17.91415105145661,-0.6584032147181298
0.010869457141899143,0.22410169608295888,-0.09512521841328857,0.40249174318287045,0.03840945904349092,0.25548308286202775,0.4750231824639078,-0.22655160262503107,1.1623876519489607,0.7167310394625354,0.6052351449426253,0.31999293265469525,16.053410058578166,24.384224538966,-12.334957575396526,12.100707958004786,-17.879624989697675,-0.6301129600089719
0.011828829775612828,0.22365589554342652,-0.09279495410996225,0.4039188005109433,0.0396186634232701,0.2561205991398288,0.47968631685684293,-0.22290026976617333,1.1651321516631579,0.7135286640364252,0.6046021898895911,0.3187581389005419,16.003854996699623,24.156822245407245,-12.225532464042917,12.026746458631003,-17.844640508229883,-0.6018433403688581
0.012797511452424635,0.22321738739799984,-0.09045927836389002,0.4053394324564925,0.0408265753313868,0.2567556528163184,0.4843408384059031,-0.2192540727133443,1.1678378730361105,0.7103159727745977,0.6039559540583488,0.31752683824478584,15.954082419491675,23.92886227891419,-12.116482319051896,11.952629039663517,-17.809205385916286,-0.573597958773604
0.013775484338620487,0.22278616065668297,-0.088118268961506,0.4067536188236864,0.04203316855664975,0.2573882508981987,0.4889864430979259,-0.21561337065844355,1.1705047011920116,0.7070931835969294,0.6032966126314749,0.3162990409401525,15.904099578561818,23.700370584955664,-12.007818426300314,11.87836560773448,-17.77332741949067,-0.5453804117231122
0.014762729995879556,0.22236220361608597,-0.08577200391219603,0.408161339845338,0.04323841723874417,0.25801840041250323,0.49362282862953494,-0.2119785202985012,1.1731325246549835,0.7038605108257944,0.6026243410472096,0.3150747571522443,15.853913506037411,23.471372966401038,-11.899551914368201,11.803966182855525,-17.737014420966613,-0.5171942880716189
0.01575922938474152,0.2219455038644973,-0.08342056144151254,0.4095625761757108,0.04444229586867928,0.25864610840641783,0.4982496944309821,-0.2083498757943389,1.1757212353417454,0.7006181651864173,0.6019393149675534,0.3138539969572923,15.80353101358666,23.241895077897116,-11.79169375070055,11.729440893935152,-17.700274215069083,-0.48904316786923197
0.016764962868121097,0.22153604828703838,-0.08106401998440471,0.41095730888332754,0.04564477928917192,0.25927138194709765,0.5028667416897893,-0.20472778872945369,1.1782707285539147,0.6973663538083649,0.6012417102463182,0.31263677033989506,15.752958691602053,23.011962420372225,-11.684254737878419,11.654799974282572,-17.66311463668943,-0.4609306212150335
0.01777991021486946,0.2211338230709001,-0.07870245817846482,0.4123455194437839,0.0468458426949662,0.25989422812147916,0.507473673374181,-0.2011126080691441,1.1807809029699479,0.6941052802281702,0.6005317028971423,0.3114230871907476,15.702202908544999,22.78160033566759,-11.577245509999782,11.580053757101746,-17.625543528364545,-0.4328602071226719
0.018804050603382062,0.22073881371066031,-0.07633595485719136,0.41372718973257006,0.04804546163308916,0.26051465403608787,0.5120701942563014,-0.19750468011989772,1.183251660636728,0.6908351443930858,0.5998094690614796,0.3102129573043639,15.651269810450287,22.550834001297563,-11.470676529171536,11.505212670977205,-17.587568737781567,-0.4048354723987275
