Joohwan-Seo/mujoco_sysID/Fanuc/Dataset/square_PIH_fanuc_new_real_real_0.csv
q1,q2,q3,q4,q5,q6,dq1,dq2,dq3,dq4,dq5,dq6,t1,t2,t3,t4,t5,t6
8.45444812059443e-06,0.46178065850218725,-0.39269650242595733,-1.6037367086104256e-05,-0.19999128150569132,4.972169307310769e-05,0.004227224060297215,-0.009364648481093588,0.0012896363834131576,-0.008018683543052128,0.0043592471543439535,0.024860846536553842,-0.04305619918894395,20.444837564534303,-32.712038346028535,-31.694732197761947,-10.033348109961713,23.00428074819304
2.527079437059718e-05,0.46174327888290306,-0.3926913032268466,-4.829819830943592e-05,-0.19997389005411853,0.00014672363766741588,0.008408173125001375,-0.018689809642079065,0.00259959955538051,-0.016130415611665835,0.008695725786387616,0.048500972297154096,0.06706589691823148,20.483702258889743,-32.67587064743404,-31.613484582086095,-10.169481734708853,22.05560591688524
5.044840558722474e-05,0.46168728889125377,-0.3926834154649636,-9.699367298300995e-05,-0.19994799698244248,0.00028868775448585816,0.012588805608313776,-0.02799499582464239,0.0039438809414891075,-0.02434773733678701,0.01294653583802064,0.07098205840922112,0.17630459650464614,20.524161404598594,-32.63949796537867,-31.531110547969806,-10.306521934208194,21.151865754521722
8.398772030656129e-05,0.4616127292171581,-0.3926727705090569,-0.00016232147922827983,-0.1999137725829309,0.0004734069674445172,0.016769657359668275,-0.03727983704782585,0.005322477953339719,-0.03266390312263494,0.017112199755800528,0.09235960647932953,0.2846521418445582,20.56615685882842,-32.602916506526434,-31.44765676838739,-10.444371086070905,20.290918462186482
0.00012589016334938618,0.46151964129959056,-0.3926592997255259,-0.0002444664098133311,-0.19987138614669317,0.0006987798946177916,0.020951221521412447,-0.04654395878378558,0.006735391765521204,-0.04107246529252563,0.02119321811885315,0.11268646358663717,0.3921010801643985,20.609635289367574,-32.56612404042002,-31.363168265253275,-10.582940059371706,19.470724637365457
0.00017615806469313333,0.46140806733340645,-0.3926429344728526,-0.00034360092969143495,-0.19982100600109903,0.0009628057933780433,0.025133950671873573,-0.055786983092065985,0.00818262633665755,-0.04956725993905192,0.02519007279707233,0.13201294938012584,0.49864426145740137,20.654547708637296,-32.52911976138756,-31.277688503904347,-10.72214744291875,18.689342371794083
0.00023479458242999201,0.46127805027415736,-0.3926236060977613,-0.0004598857166143271,-0.19976279954157813,0.0012635797475278247,0.02931825886842934,-0.06500852962454579,0.009664187545626328,-0.05814239346144609,0.02910322976044701,0.15038697707489074,0.6042748333593538,20.70084905174373,-32.491904163635304,-31.191259483851866,-10.86191884493457,17.944922584820674
0.0003018036296206744,0.46112963384112887,-0.39260124593289975,-0.0005934701761273424,-0.1996969332584272,0.0015992880848114477,0.03350452359534119,-0.07420821651423772,0.011180082430775609,-0.06679222975650767,0.03293314157546964,0.16785416864181146,0.7089862337549319,20.74849779441356,-32.454478928165656,-31.10392182580017,-11.00218625744745,17.2357045809043
0.0003771898048623684,0.4609628625188092,-0.39257578529585735,-0.000744492932189592,-0.19962357275918519,0.001968204013752558,0.03769308762084697,-0.08338566115985159,0.0127303185211874,-0.07551137803112483,0.03668024962099522,0.18445796447055504,0.812772181677288,20.797455607044135,-32.41684682029929,-31.015714854954883,-11.142887479324717,16.560011820422822
0.0004609583263979056,0.46077778155697546,-0.3925471554893571,-0.0009130822946015604,-0.19954288278707982,0.0023686834692969766,0.0418842607677686,-0.0925404809168778,0.014314903250138638,-0.0842946812059842,0.04034498605268579,0.20023972777220925,0.9156266669720925,20.84768704145442,-32.37901159670876,-30.92667668066375,-11.283965592454813,15.916247893495346
0.0005531149696012418,0.4605744369695657,-0.3925152878024733,-0.0010993567043646709,-0.1994550272359953,0.002799161157246734,0.0460783216016681,-0.10167229370490387,0.015933843441905682,-0.09313720488155523,0.04392777554225684,0.2152388439748787,1.0175439391189902,20.899159247242693,-32.34097792098069,-30.836844272449827,-11.425368486102334,15.302892687025286
0.0006536660076819997,0.46035287553248583,-0.39248011351274537,-0.0013034251580423793,-0.1993601691623651,0.0032581467879532547,0.050275519040378955,-0.11078071853992986,0.017587144863956558,-0.10203422683885421,0.04742903681510875,0.22949281535326027,1.1185184955366139,20.951841714949254,-32.30275128683114,-30.746253532510053,-11.567048424931501,14.718498735647422
0.0007626181554590953,0.46011314478048665,-0.3924415638890706,-0.0015253876121400659,-0.19925847079435,0.003744221490196284,0.05447607388854784,-0.11986537599959154,0.019274811837385077,-0.11098122704884329,0.05084918400755193,0.24303735112151473,1.2185450696402993,21.005706043483293,-32.26433794818159,-30.654939364762406,-11.708961656617744,14.161687747715014
0.0008799785160603804,0.4598552930032298,-0.3923995701952722,-0.001765335368471275,-0.19915009353862462,0.004256034396611545,0.058680180300642565,-0.12892588862842352,0.02099684689917193,-0.11997387816560456,0.05418862786269186,0.25590645320763067,1.317618618873151,21.060725729514736,-32.22574485539302,-30.562935740532776,-11.851068055352439,13.631147297894112
0.001005754530411809,0.4595793692406506,-0.3923540636942512,-0.0020233514414305766,-0.1990351979850604,0.004792299392445366,0.06288800717571434,-0.13796188128959194,0.02275325051051631,-0.12900803647965087,0.057447776782109286,0.2681324979169103,1.4157343128898545,21.116875976747366,-32.1869795970221,-30.470275760978595,-11.993330797893893,13.125627678341049
0.0011399539293858994,0.4592854232777128,-0.39230497565263905,-0.0022995109080483707,-0.19891394390956293,0.005351792019809683,0.06709969948704518,-0.14697298146888974,0.024544020806075477,-0.13807973330889714,0.06062703774872947,0.2797463136821583,1.5128875220376943,21.174133523185958,-32.14805034653249,-30.376991716350283,-12.135716069133041,12.643938900828296
0.0012825846884852255,0.4589735056386404,-0.3922522373458801,-0.0025938812416602132,-0.19878649027529352,0.005933346529986891,0.07131537954966302,-0.15595881953621155,0.02636915337948481,-0.1471851668059213,0.06372681713470503,0.2907772550886043,1.6090738062496395,21.232476484687453,-32.10896581345153,-30.283115142194305,-12.27819279442751,12.184947842553736
0.0014336549849423607,0.458643667580702,-0.39219578006367806,-0.0029065226299826025,-0.19865299523248006,0.006535853076691901,0.07553514822856766,-0.1649190289692045,0.028228641101012635,-0.1563206941611947,0.0667475214067228,0.3012532733525053,1.704288904439403,21.291884213249332,-32.06973519851597,-30.18867687260315,-12.420732396216044,11.74757552872003
0.0015931731571231177,0.4582959610876154,-0.3921355351157508,-0.003237488278348524,-0.19851361611700033,0.007158255043539377,0.07975908609037857,-0.1738532465433195,0.030122473963638232,-0.1654828241829609,0.06968955773987061,0.3112009834237375,1.798528724467364,21.35233716863155,-32.03036815239632,-30.09370709061796,-12.563308572658817,11.330794545305126
0.0017611476661250993,0.45793043886263124,-0.3920714338378423,-0.0035868246988193086,-0.19836850944790022,0.0077995464992883165,0.08398725450099077,-0.18276111249206148,0.032050638954232054,-0.17466821023539217,0.07255333455005285,0.32064572787447,1.891789333728645,21.413816802044103,-31.990874737633828,-29.998235375889344,-12.705897096261374,10.933626575763153
0.0019375870594685125,0.4575471543213495,-0.3920034075979486,-0.003954571985854421,-0.1982178309239924,0.008458769774744714,0.08821969667170657,-0.19164227064085176,0.03401311994686859,-0.1838736435175561,0.07533926195390951,0.32961163772819885,1.9840669503998611,21.47630545074889,-31.951265393458797,-29.902290749700704,-12.848475630630315,10.555140055697258
0.0021224999367809097,0.45714616158431437,-0.39193138780271736,-0.0043407640791875875,-0.19806173541966388,0.009135013155496684,0.0924564386561985,-0.20049636851756703,0.03600989761561872,-0.19309604666658298,0.07804775216426361,0.33812169037598455,2.075357935368833,21.53978624253613,-31.91155090319645,-29.80590171745717,-12.99102356368374,10.194447939833813
0.002315894917382014,0.45672751546942936,-0.3918553059039884,-0.00474542901452607,-0.19790037698000731,0.009827408684936013,0.096697490300552,-0.20932305744250504,0.03804094936445254,-0.20233246766924148,0.08067921982828409,0.34619776471966435,2.16565878486141,21.604243009131757,-31.871742363994066,-29.70909630874109,-13.133521855794955,9.850705575901134
0.0025177806096790827,0.4562912714842289,-0.39177509340544414,-0.0051685891626598824,-0.19773390881537772,0.010535130072286174,0.10094284614853445,-0.2181219926002428,0.04010624927213928,-0.21158007406690596,0.08323408231479826,0.35386069367508033,2.254966123771134,21.669660207682554,-31.83185115863205,-29.61190211503269,-13.275952901491621,9.52310868027613
0.002728165582287364,0.4558374858180377,-0.39169068186934364,-0.005610261457539154,-0.1975624832954647,0.011257390700610099,0.10519248630414064,-0.226892833095596,0.04220576805026048,-0.220836147439636,0.08571275995650998,0.36113031416196256,2.3432766996906746,21.736022849546643,-31.79188892920598,-29.514346325192225,-13.418300403459572,9.210891410510127
0.002947058336794108,0.45536621533404636,-0.3916020029233183,-0.006070457613850735,-0.19738625194296014,0.011993441730012124,0.1094463772533719,-0.23563524199565714,0.0443394730126587,-0.23009807815579036,0.08811567625227051,0.3680255147010128,2.4305873776384064,21.803316435689304,-31.751867552487454,-29.416455758796793,-13.56054925771886,8.913324530080907
0.0031744672820883447,0.454877517561327,-0.39150898826720865,-0.006549184334599263,-0.19720536542689213,0.012742570291477998,0.11370447264711837,-0.24434888635968038,0.046507328054829156,-0.239363360374264,0.09044325803400124,0.3745642807329372,2.516895135468982,21.871526898050583,-31.711799116792413,-29.318256897422597,-13.702685448943472,8.629713660941972
0.003410400710182204,0.45437145068681023,-0.3914115696799248,-0.0070464435091734026,-0.19701997355568737,0.013504097767015317,0.11796671404692964,-0.25303343725839283,0.048709293641927755,-0.24862958728707005,0.09269593560237559,0.38076373776865935,2.602197059953256,21.940640546312814,-31.671695900203844,-29.21977591395992,-13.844695954993353,8.359397619653798
0.0036548667734529606,0.45384807354724194,-0.39130967902631636,-0.007562232402354585,-0.19683022527001753,0.014277378151964705,0.12223303163537844,-0.2616885697841418,0.05094532680421751,-0.25789444659059113,0.09487414283492505,0.3866401924746938,2.686490343510102,22.010644019546575,-31.63157035000888,-29.121038700045524,-13.986568659812733,8.101746833084619
0.003907873463238252,0.4533074456211357,-0.3912032482640385,-0.008096543834703379,-0.19663626863547787,0.015061796495550032,0.12650334489264564,-0.27031396305313443,0.05321538113890919,-0.2671557161743971,0.09697831726983779,0.39220917179266335,2.769772281570525,22.081524242268586,-31.59143506322819,-29.02207089169376,-14.128292273927967,7.856161829861631
0.004169428589720014,0.4527496270207339,-0.39109220945040357,-0.008649366354737517,-0.19643825083514113,0.015856767415924407,0.1307775632408812,-0.2789093002008883,0.05551940681747106,-0.27641126001706945,0.09900890016836185,0.3974854601871878,2.8520402705528816,22.153268384483773,-31.551302768125574,-28.922897893204887,-14.26985626184909,7.622071803937399
0.004439539763035665,0.4521746784839901,-0.39097649474920837,-0.0092206844032955,-0.19623631816202433,0.016661733686148098,0.1350555866578255,-0.2874742683718867,0.057857350597589896,-0.28565902427899126,0.10096633655840581,0.40248313511184486,2.933291806426866,22.225863825328595,-31.511186306598155,-28.823544899425833,-14.411250775743172,7.398933246811176
0.004718214375557883,0.4515826613665815,-0.39085603643753025,-0.009810478470460604,-0.19603061601150104,0.01747616488770529,0.1393373062611089,-0.29600855870432174,0.06022915583906067,-0.2948970335825522,0.10285107526164297,0.4072156007785965,3.013524483843125,22.299298119966778,-31.471098617357548,-28.724036916435907,-14.552466594807349,7.18622864511135
0.005005459585287047,0.4509736376339601,-0.3907307669124843,-0.010418725245401975,-0.19582128887368871,0.018299556128329234,0.14362260486458248,-0.3045118663107063,0.06263476252296832,-0.3041233874706859,0.10466356890616871,0.4116956203119721,3.0927359958048983,22.373558969422895,-31.431052719822887,-28.62439878072672,-14.69349506982034,6.9834652404038025
0.005301282300302992,0.45034766985345,-0.3906006186979371,-0.011045397759472178,-0.19560848032583567,0.019131426821060032,0.14791135750797235,-0.31298389025504736,0.06507410727360091,-0.3133362570351013,0.10640427392653055,0.4159353463653985,3.1709241338578207,22.44863419306936,-31.391061698652983,-28.52465517694302,-14.834328072401112,6.790173848241757
0.005605689164225174,0.4497048211863956,-0.3904655244511719,-0.011690465522884162,-0.19539233302473016,0.01997131952160673,0.15220343196109087,-0.3214243335271904,0.0675471233826018,-0.32253388170599184,0.10807365055274501,0.4199463502733497,3.248086788774044,22.524511703508274,-31.351138688852956,-28.424830654248215,-14.97495794854612,6.605907733616219
0.005918686542632738,0.4490451553803659,-0.390325416969502,-0.012353894655274977,-0.1951729886991507,0.020818798821225643,0.156498689203782,-0.32983290301487295,0.07005374083492938,-0.33171456619540807,0.10967216278973034,0.4237396498094555,3.324221951706874,22.60117948361627,-31.311296861399065,-28.324949641375465,-15.115377476055091,6.4302415401026645
0.006240280510398186,0.448368736761418,-0.39018022919682954,-0.0130356480104487,-0.19495058814237387,0.02167345029246032,0.1607969838827246,-0.3382093094739595,0.07259388633624683,-0.34087667758686097,0.11120027838842081,0.427325735617339,3.399327715792451,22.67862556554126,-31.27154940932867,-28.225036460423162,-15.25557982549339,6.262770270129942
0.006570476839890519,0.4476756302264234,-0.3900298942301467,-0.013735685295576871,-0.19472527120475452,0.022534879485215823,0.16509816474616607,-0.3465532674972719,0.07516748334141274,-0.3500186425640858,0.11265846880967999,0.4307145963777519,3.473402278175318,22.756838011460353,-31.2319095342501,-28.125115339450335,-15.395558524368772,6.103108313920707
0.006909280990005738,0.44696590123545865,-0.38987434532597914,-0.014453963185121356,-0.19449717678639053,0.02340271097076087,0.16940207505760965,-0.3548644954823764,0.07777445208378608,-0.35913894477224223,0.11404720918199975,0.43391574277252415,3.5464439424351073,22.835804895928085,-31.19239043323155,-28.025210423925785,-15.535307424232105,5.950888524770815
0.007256698095984602,0.44623961580426136,-0.38971351590676895,-0.015190435429731662,-0.1942664428298828,0.024276587431366757,0.17370855298943189,-0.3631427155986427,0.08041470960509733,-0.3682361223051526,0.1153669782538544,0.436938230302943,3.618451121392122,22.915514289658375,-31.15300528603025,-27.925345787081913,-15.674820670436816,5.805761338447172
0.007612732959979326,0.44549684049675364,-0.3895473395671976,-0.015945052960356653,-0.19403320631319987,0.02515616879340158,0.17801743199736192,-0.37138765375384664,0.0830881697856713,-0.3773087653124952,0.11661825834147477,0.4397906810174107,3.68942234027006,22.995954244600398,-31.11376724263164,-27.825545439222296,-15.814092674316768,5.667393934590088
0.00797739004233275,0.44473764241763253,-0.389375750080448,-0.016717763987798978,-0.19379760324265444,0.026041131401802784,0.18232854117671146,-0.3795990395605538,0.08579474337481678,-0.3863555137211621,0.117801535272714,0.44248130420060183,3.7593562401946454,23.07711278018204,-31.074689411067922,-27.725833336029748,-15.953118087564167,5.535469438107932
0.008350673453535155,0.44396208920502755,-0.38919868140440556,-0.017508514097929532,-0.19355976864599925,0.02693116723395045,0.1866417056012031,-0.3877766063024848,0.08853433802122514,-0.39537505506527687,0.11891729832759439,0.4450179160738343,3.828251582007545,23.158977870605845,-31.0357848454897,-27.626233385919452,-16.09189177860928,5.409686158648485
0.008732586946825566,0.4431702490232255,-0.38901606768779906,-0.018317246342768795,-0.19331983656564714,0.02782598315105842,0.190956746645206,-0.39592009090103536,0.09130685830324306,-0.4043661224196319,0.1199660401760502,0.44740795855398563,3.896107250375435,23.241537433095232,-30.997066534468672,-27.526769456480192,-16.230408810821196,5.289756866323457
0.009123133911405866,0.4423621905554613,-0.3888278432762812,-0.01914390132763192,-0.1930779400520205,0.028725300185290452,0.19527348229015,-0.40402923388209794,0.0941122057589054,-0.4133274924315632,0.1209482568133169,0.4496585171160159,3.962922258174707,23.324779316996896,-30.958547389509782,-27.427465380044193,-16.368664422366358,5.175408101950172
0.009522317366237574,0.44153798299677466,-0.38863394271845,-0.01998841729452496,-0.19283421115703378,0.02962885286089445,0.19959172741585388,-0.41210377934330705,0.09695027891563218,-0.4222579834465208,0.12186444749335859,0.4517763378019986,4.028695751132764,23.408691293657633,-30.920240233756843,-27.32834495842503,-16.50665400757615,5.066379520157845
0.009930139954392512,0.44069769604693104,-0.38843430077181096,-0.020850730201970608,-0.19258878092771242,0.030536388547729457,0.20391129407746925,-0.4201434749218108,0.09982097331950997,-0.4311564537228242,0.12271511466067417,0.45376784341750365,4.093427012707467,23.493261046997404,-30.882157790872697,-27.2294319668607,-16.64437309968755,4.962423263785316
0.010346603937929931,0.43984139990340576,-0.38822885240868277,-0.02173077380143323,-0.19234177939995087,0.03144766684563789,0.20823199176870896,-0.42814807176265307,0.10272418156409167,-0.44002179973131084,0.1235007638807775,0.45563914895421886,4.157115469186761,23.578476164713734,-30.844312674083582,-27.130750157197777,-16.78181735483518,4.863303368072392
0.010771711193273926,0.4389691652544301,-0.38801753282204543,-0.02262847971050482,-0.19209333559241165,0.032362458998189556,0.21255362767199795,-0.43611732448783314,0.10565979331866128,-0.44885295453579593,0.12422190376960646,0.4573960762758328,4.219760694991005,23.664324130054517,-30.806717375372124,-27.032323260350786,-16.918982537182064,4.768795193219257
0.011205463207066235,0.4380810632720979,-0.3878002774313336,-0.023543777483005734,-0.1918435775005675,0.03328054733439441,0.21687600689615422,-0.4440509911660969,0.1086276953559206,-0.45764888625045685,0.12487904592208014,0.45904416810242676,4.281362418161054,23.750792314105396,-30.76938425481186,-26.934174988069643,-17.055864505088785,4.6786848839565085
0.011647861072470594,0.4371771656055309,-0.3875770218881755,-0.02447659467614663,-0.1915926320908875,0.03420172473704828,0.2211989327021802,-0.4519488332835009,0.11162777157906455,-0.4664085965704472,0.1254727048399927,0.46058870132693547,4.341920526015506,23.83786796854224,-30.732325530031815,-26.8363290340464,-17.192459198228192,4.59276885483371
0.012098905485906027,0.4362575443741013,-0.3873477020820791,-0.025426856914891074,-0.1913406252951687,0.035125794136439535,0.22552220671771672,-0.4598106157147785,0.11465990304821959,-0.4751311193722228,0.1260033978594043,0.4620346996956263,4.401435070961084,23.925538218805542,-30.6955532658042,-26.73880907439148,-17.328762625562433,4.510853299996398
0.012558596744187401,0.43532227216071023,-0.38711225414606665,-0.02639448795365154,-0.1910876820050134,0.03605256802820557,0.2298456291406867,-0.4676361066955297,0.117723968006227,-0.4838155193802333,0.1264716450776659,0.4633869458830185,4.459906276440382,24.013790057656124,-30.65907936374979,-26.64163876750799,-17.464770854106327,4.432753726280413
0.013026934742052663,0.43437142200511974,-0.3868706144622591,-0.027379409735445132,-0.190833926066453,0.03698186801418597,0.23416899893263055,-0.4754250777952462,0.12081984190375854,-0.49246089089679496,0.1268779692801935,0.46464999299020315,4.517334543001748,24.102610339078616,-30.62291555215424,-26.544841753392003,-17.600479998408368,4.358294508508766
0.013503918970057087,0.4334050673973374,-0.38662271966741163,-0.028381542448629362,-0.19057948027471883,0.037913524365174256,0.23849211400221215,-0.48317730389117713,0.12394739742375757,-0.5010663565921142,0.12722289586708846,0.46582817549414085,4.573720454476299,24.191985772500146,-30.58707337589197,-26.448441652384957,-17.735886210686395,4.287308465929617
0.01398954851281579,0.43242328227105137,-0.3863685066584012,-0.02940080458133252,-0.19032446636915945,0.03884737560452264,0.2428147713793516,-0.4908925631430347,0.1271065045052029,-0.5096310663515792,0.12750695277968557,0.46692561967418966,4.62906478424751,24.28190291729701,-30.551564186453625,-26.352462063403827,-17.870985671561467,4.2196364587849855
0.01448382204757663,0.4314261409971143,-0.38610791259766886,-0.030437112973687667,-0.19006900502830526,0.03978326811160436,0.2471367673804195,-0.4985706369685324,0.13029703036619633,-0.5181541961775749,0.12773067042709507,0.4679462535408609,4.683368501599109,24.372348177565165,-30.51639913207549,-26.256926561673378,-18.00577458133874,4.155127004048308
0.014986737843106446,0.4304137183770748,-0.3858408749186161,-0.031490382867974086,-0.18981321586507968,0.040721055744185566,0.2514578977649076,-0.5062113100197461,0.13351883952637866,-0.5266349471432108,0.12789458161279416,0.46889381629060206,4.736632778127266,24.46330779713145,-30.481589147968265,-26.16185869598387,-18.14024915178816,4.093635909414935
0.015498293758874387,0.42938608963675423,-0.3855673313309587,-0.03256052795676504,-0.18955721742215706,0.0416605994788041,0.2557779578839704,-0.5138143701602826,0.13677179382868052,-0.5350725443954768,0.12799922146131212,0.4697718673092665,4.788858994203454,24.5547678547876,-30.44714494664413,-26.067281985496894,-18.27440559838276,4.035025924673883
0.016018487244516814,0.4283433304198678,-0.38528721982603786,-0.03364746042917596,-0.18930112716746697,0.04260176706829579,0.2600967428212146,-0.5213796084432385,0.14005575246041774,-0.543466236205462,0.1280451273450447,0.47058379474584483,4.840048745474517,24.646714259729677,-30.413077008342583,-25.973219916120957,-18.408240132956912,3.97916640963072
0.016547315339569005,0.4272855167816879,-0.38500047868209036,-0.034751091015302736,-0.1890450614898445,0.04354443271564979,0.2644140475260953,-0.5289068190899276,0.14337057197374226,-0.551815293063386,0.12803283881122535,0.47133282367699925,4.890203849386768,24.73913274718784,-30.379395571554348,-25.879695936477578,-18.541748956749167,3.925933017791463
0.017084774673449526,0.4262127251827492,-0.38470704646947945,-0.03587132902893534,-0.18878913569482636,0.044488476763413706,0.26872966694026074,-0.5363957994693563,0.14671610630546073,-0.5601190068163019,0.1279628975090749,0.4720220238819597,4.939326351721272,24.832008874234347,-30.346110623644464,-25.78673345347822,-18.674928253798377,3.87520739505514
0.017630861465683868,0.42512503248259237,-0.384406862055887,-0.037008082408628205,-0.18853346400059207,0.04543378539790651,0.2730433961171715,-0.5438463500784209,0.15009220679623503,-0.5683766898464317,0.12783584711714524,0.47265431724640294,4.987418533127492,24.92532801575819,-30.313231891575896,-25.694355827531304,-18.80777418466547,3.8268768926988708
0.01818557152635448,0.4240225159335468,-0.3840998646114686,-0.038161257757204595,-0.18827815953405033,0.0463802503675326,0.2773550303353053,-0.5512582745228021,0.15349872220917907,-0.576587674288194,0.12765223327086792,0.47323248481304586,5.034482915642874,25.019075360597327,-30.28076883273507,-25.602586367397954,-18.94028288045414,3.7808342939736184
0.018748900256764966,0.42290525317454974,-0.38378599361397286,-0.03933076037976875,-0.1880233343270697,0.047327768714524265,0.2816643652052433,-0.5586313794985303,0.1569354987478671,-0.5847513112820789,0.1274126034903155,0.47375917349583413,5.080522269186071,25.113235907819842,-30.24873062586149,-25.511448324714728,-19.07245043710875,3.7369775536613776
0.019320842650306806,0.42177332222500136,-0.3834651888538253,-0.04051649432029598,-0.18776909931285332,0.048276242519471865,0.2859711967709203,-0.5659654747741939,0.16040238007376983,-0.5928669702636119,0.1271175071081791,0.47423690247380057,5.12553961801161,25.207794463148225,-30.217126162084696,-25.42096488820056,-19.20427290996724,3.695209549975995
0.019901393293517422,0.42062680147865383,-0.38313739043917905,-0.041718362396867444,-0.1875155643224574,0.04922557865803166,0.2902753216053077,-0.5732603731737634,0.16389920732313396,-0.6009340382857342,0.12676749519796407,0.4746680692798978,5.169538247114193,25.302735635520214,-30.185964036069578,-25.331159177564935,-19.335746308551563,3.655437848218936
0.020490546367318993,0.41946576969753385,-0.3828025388009324,-0.04293626623561346,-0.18726283808145258,0.050175688569230416,0.2945765369007859,-0.5805158905600034,0.16742581912332202,-0.6089519193730084,0.12636312050240306,0.4750549555993771,5.212521708570758,25.39804383378284,-30.155252537275437,-25.242054237133537,-19.466866591577805,3.617574475630195
0.021088295648427895,0.41829030600589695,-0.38246057469771516,-0.04417010630342573,-0.1870110282067284,0.051126488034813594,0.29887464055445073,-0.5877318458184441,0.17098205160862884,-0.6169200339061333,0.12590493736208422,0.4753997327915888,5.2544938278087105,25.493703263514803,-30.124999641330575,-25.15367302920724,-19.597629662171762,3.5815357069007887
0.02169463451092507,0.41710048988421317,-0.382111439220844,-0.04541978193949638,-0.18676024120343981,0.05207789696911042,0.30316943124858736,-0.5949080608418857,0.17456773843559084,-0.6248378180353259,0.1253935016442915,0.4757044671484155,5.295458709788963,25.58969792397613,-30.095213001527142,-25.066038427169723,-19.728031363275775,3.547241859839204
0.022309555927978137,0.4158964011631823,-0.3817550737992484,-0.04668519138573878,-0.1865105824620957,0.05302983921891426,0.30746070852653296,-0.6020443605154079,0.1781827107978049,-0.6327047231211989,0.12482937067205231,0.47597112490191684,5.335420745092351,25.686011605181896,-30.0658999404394,-24.979173208358574,-19.85806747323542,3.514617100708477
0.02293305247370642,0.4146781200177786,-0.38139142020436784,-0.04796623181614243,-0.18626215625578893,0.053982242372900585,0.31174827286414125,-0.6091405727018556,0.18182679744027277,-0.6405202152018244,0.12421310315338803,0.47620157699316334,5.374384615898404,25.782627885099412,-30.037067441669997,-24.893100046714352,-19.987733701554323,3.4835892587736055
0.023565116325180522,0.41344572696132303,-0.3810204205550213,-0.049262799365111916,-0.1860150657375674,0.05493503758012792,0.3160319257370504,-0.6161965282277788,0.18549982467328707,-0.648283774484744,0.12354525911076195,0.4763976036136644,5.412355301845392,25.87953012696892,-30.00872214172896,-24.807841505221624,-20.117025684808798,3.4540896496212063
0.024205739264548415,0.41219930283958345,-0.3806420173222495,-0.05057478915483739,-0.18576941293794597,0.05588815937718841,0.32031146968394725,-0.6232120608697959,0.18920161638587452,-0.6559948948627359,0.12282639981071938,0.4765608985302485,5.449338085760782,25.976701476746594,-29.980870322049213,-24.72342002815548,-20.24593898271257,3.4260529068343315
0.024854912681280438,0.41093892882490074,-0.3802561533341319,-0.05190209532174182,-0.18552529876255855,0.05684154552359588,0.32458670836601133,-0.6301870073413589,0.1929319940588118,-0.663653083452218,0.12205708769371465,0.4766930732037363,5.485338559251462,26.074124860671958,-29.95351790114391,-24.63985793314705,-20.37446907432501,3.3994168216251843
0.025512627574525867,0.40966468641034093,-0.3798627717805774,-0.05324461104204824,-0.1852828229899503,0.057795136845018386,0.3288574466227149,-0.6371212072798945,0.19669077677722935,-0.6712578601532088,0.12123788630411966,0.476795660711251,5.5203626281430545,26.171782982959463,-29.92667042691042,-24.557177403080654,-20.50261135439574,3.374122190047803
0.026178874555574157,0.40837665740387236,-0.3794618162180918,-0.05460222855650789,-0.1850420842695095,0.058748877083981466,0.3331234905241453,-0.6440145032342978,0.20047778124281734,-0.678808757229828,0.12036936022040944,0.4768701194815416,5.554416517757978,26.26965832361661,-29.900333069085008,-24.475400477835358,-20.630361129840253,3.350112667430576
0.026853643850414177,0.40707492392256683,-0.37905323057452045,-0.05597483919432862,-0.18480318011953845,0.059702712757685954,0.33738464742001023,-0.6508667406527558,0.20429282178564884,-0.6863053189103635,0.11945207498552009,0.4769178368522439,5.587506778021873,26.367733136389866,-29.87451061185513,-24.394549045883196,-20.757713616340876,3.327334629686049
0.02753692530238513,0.4057595683868251,-0.37863695915376916,-0.05736233339634058,-0.1845662069254637,0.06065659302260112,0.34164072598547746,-0.6576777678708798,0.20813571037563358,-0.6937471010059787,0.11848659703737527,0.47694013245758016,5.619640288388332,26.46598944684092,-29.84920744663263,-24.31464483575591,-20.884663935069444,3.305737041171559
0.02822870837491312,0.40443067351462486,-0.3782129466405019,-0.05876460073743494,-0.18433125993818453,0.0616104695455103,0.34589153626399477,-0.6644474361001236,0.21200625663361655,-0.7011336705471802,0.11747349363957789,0.47693826145458984,5.650824262571882,26.564409050555383,-29.824427564994274,-24.23570940739203,-21.01120710952763,3.285271328790155
0.028928982154327577,0.40308832231579195,-0.37778113810481767,-0.06018152994830935,-0.18409843327256,0.06256429638070149,0.35013688970722917,-0.6711755994164698,0.21590426784213432,-0.708464605437206,0.11641333281226408,0.4769134175955981,5.681066253079364,26.6629735114874,-29.800174551794584,-24.157764143375754,-21.137338062501552,3.2658912620360727
0.029637735352752093,0.40173259808629325,-0.377341479006906,-0.06161300893655242,-0.18386781990603376,0.06351802985301001,0.35437659921225734,-0.6778621147493631,0.21982954895584214,-0.7157394941215356,0.1153066832631175,0.4768667361542598,5.710374155530066,26.761664160441377,-29.77645157845605,-24.080830240078605,-21.263051613128034,3.247552838703049
0.03035495631106436,0.4003635844025515,-0.37689391520168275,-0.06305892480709795,-0.18363951167739667,0.06447162844643435,0.3586104791561341,-0.6845068418708737,0.22378190261162467,-0.7229579352727623,0.11415411431854233,0.4767992967121668,5.738756212755019,26.860462093696643,-29.753261396443115,-24.004928698715098,-21.38834247407098,3.2302141759875003
0.03108063300192028,0.39898136511578136,-0.3764383929434059,-0.06451916388207815,-0.18341359928568668,0.06542505269805969,0.36283834542795995,-0.6911096433850725,0.2277611291384023,-0.7301195374901037,0.11295619585499439,0.47671212581267164,5.766221018666142,26.959348171774934,-29.73060633092351,-23.93008031632278,-21.51320524880478,3.213835406731281
0.03181475303283741,0.39758602434634616,-0.37597485889027266,-0.06599361172010387,-0.18319017228922574,0.06637826509703622,0.3670600154585629,-0.6976703847176011,0.23176702656664533,-0.7372239190128604,0.11171349823046986,0.47660619948826294,5.792777521885957,27.05830301835759,-29.708488274625115,-23.856305676677515,-21.637634429004358,3.198378580560973
0.032557303649333215,0.3961776464781353,-0.3755032601089974,-0.06748215313499821,-0.18296931910479344,0.06733122998837127,0.37127530824790483,-0.704188934105423,0.2357993906376074,-0.744270707447168,0.11042659221615271,0.47648244566752573,5.818435029128958,27.157307019352878,-29.686908681890948,-23.78362514115389,-21.76162439204053,3.183807569692432
0.03330827173811385,0.3947563161529618,-0.37502354407937283,-0.06898467221400904,-0.182751127006937,0.06828391348130612,0.3754840443903178,-0.710665162586739,0.23985801481228988,-0.7512595395054159,0.10909604892822157,0.4763417464674311,5.843203208325695,27.256340322119254,-29.665868562939604,-23.71205883954117,-21.885169398579237,3.170087979180152
0.03406764383030919,0.3933221182649797,-0.37453565869881256,-0.07050105233552452,-0.18253568212741736,0.06923628336205898,0.37968604609767137,-0.7170989439910532,0.24394269028014806,-0.7581900607577411,0.10772243975981836,0.476184940376425,5.867092091480967,27.355382834847045,-29.645368478336323,-23.641626660824436,-22.00826359028524,3.1571870614018573
0.034835406104750326,0.39187513795512097,-0.37403955228687746,-0.07203117618631458,-0.182323069454791,0.07018830901072602,0.3838811372205671,-0.7234901549293788,0.24805320596755018,-0.7650619253950262,0.10630633631318095,0.47601282433352543,5.8901120772576645,27.454414226102507,-29.625408533678975,-23.572348243940727,-22.13090098762869,3.145073634578554
0.03561154439128563,0.3904154606055518,-0.37353517358978544,-0.07357492577832031,-0.1821133728341271,0.0711399613221428,0.3880691432676522,-0.7298386747845673,0.25218934854599995,-0.7718747960028668,0.10484831033194328,0.47582615570838777,5.912273933278,27.553413924538223,-29.605988374505742,-23.5042429685197,-22.25307548779558,3.1337180051399343
0.03639604417413191,0.38894317183414834,-0.37302247178490516,-0.0751321824650123,-0.1819066749668599,0.07209121263051692,0.39224989142314043,-0.7361443857017534,0.25635090244013276,-0.7786283433459917,0.10334893363360659,0.47562565418706143,5.933588798134068,27.652361118773193,-29.587107181429374,-23.437329945618114,-22.374780862701705,3.123091893754153
0.037188890595257165,0.38745835748899055,-0.37250139648523417,-0.0767028269573376,-0.18170305741077553,0.0730420366376528,0.39642321056262525,-0.7424071725789027,0.2605376498354962,-0.7853222461626483,0.10180877804218631,0.47541200356793567,5.9540681830999755,27.75123475744669,-29.56876366550214,-23.3716280084573,-22.496010757109993,3.1131683648494652
0.037990068457791695,0.38596110364287567,-0.3719718977438619,-0.07828673933927457,-0.18150260058013346,0.07399240834459711,0.40058893126726497,-0.7486269230574519,0.2647493706861247,-0.7919561909684874,0.10022841532103946,0.47518585347215675,5.973723973537852,27.85001354944915,-29.550956063818788,-23.307155703172768,-22.616758686852712,3.103921759463924
0.03879956222946453,0.3844514965878496,-0.3714339260584181,-0.07988379908301359,-0.1813053837459217,0.07494230398654231,0.404746885836418,-0.7548035275130349,0.268985842721918,-0.7985298718695034,0.09860841710587813,0.4749478209725955,5.992568429990454,27.94867596433424,-29.53368213536036,-23.243931279584615,-22.737018037157778,3.0953276312665317
0.03961735604606214,0.38292962282975707,-0.3708874323755064,-0.0814938850637808,-0.18111148503624575,0.07589170097083281,0.4088969082988016,-0.7609368790462818,0.2732468414558336,-0.8050429903836093,0.09694935483797511,0.4746984921452485,6.010614188953239,28.047200232915706,-29.516939157085904,-23.18197268199767,-22.856782061080942,3.08736268560138
0.04044343371490663,0.3813955690828097,-0.3703323680951246,-0.08311687557432168,-0.18092098143685062,0.07684057781792634,0.4130388344222456,-0.7670268734736864,0.2775321401909028,-0.8114952552704416,0.09525179969756811,0.47443842354677074,6.027874263319021,28.145564348051458,-29.500723920275224,-23.121297540039745,-22.976043878043775,3.0800047214129176
0.041277778718350845,0.3798494222641726,-0.36976868507507044,-0.08475264833905971,-0.18073394879177568,0.07778891410516967,0.4171725017221085,-0.7730734093185336,0.2818415100270791,-0.8178863823690159,0.09351632253746961,0.47416814362166226,6.044362042488586,28.24374606562068,-29.48503272712884,-23.061923159546534,-23.09479647247891,3.073232575917591
0.04212037421728769,0.37829126948856884,-0.36919633563533455,-0.08640108052794544,-0.1805504618041419,0.0787366904132546,0.4212977494684214,-0.7790763878018796,0.2861747198679297,-0.8242160944428647,0.09174349381688963,0.47388815404246154,6.060091292141055,28.341722905694475,-29.46986138762901,-23.003866513501354,-23.213032692582672,3.0670260718933804
0.042971203054671336,0.37672119806290166,-0.36861527256248017,-0.08806204877001007,-0.18037059403707092,0.07968388827522688,0.42541441869182217,-0.7850357128335786,0.29053153642717816,-0.8304841210323131,0.08993388353547947,0.47359893098613964,6.075076153657816,28.43947215390557,-29.455205216667014,-22.94714423303801,-23.330745249177028,3.061365967464994
0.043830247759048015,0.375139295480895,-0.36802544911401,-0.0897354291666372,-0.18019441791473573,0.08063049012792635,0.42952235218833973,-0.7909512910033518,0.29491172423510825,-0.8366901983135596,0.08808806116760426,0.4733009263497361,6.08933114319431,28.536970863019512,-29.441059031440485,-22.891772598514585,-23.44792671468072,3.056233908268174
0.04469749054809419,0.3735456494177512,-0.3674268190227203,-0.0914210973045657,-0.18002200472354202,0.08157647926574262,0.4336213945230858,-0.7968230315718915,0.2993150456448381,-0.8428340689642487,0.08620659559685315,0.4729945689081321,6.102871150394281,28.634195854710196,-29.42741714912567,-22.83776753066616,-23.564569522191352,3.0516123818824212
0.04557291333216001,0.3719403477248272,-0.3668193365010433,-0.09311892826863616,-0.17985342461344042,0.08252183979657605,0.43771139203290954,-0.8026508464619975,0.30374126083847336,-0.848915482035233,0.08429005505079584,0.47268026541671987,6.115711436741228,28.731123721542623,-29.414273384828682,-22.78514458184418,-23.680665964679235,3.047484674426327
0.046456497717816146,0.3703234784243277,-0.366202956245377,-0.09482879665429264,-0.17968874659936843,0.08346655659989924,0.4417921928280679,-0.8084346502497404,0.30819012783314964,-0.8549341928282412,0.08233900703599471,0.47235840166159326,6.127867633542306,28.827730829166377,-29.40162104981928,-22.733918927350004,-23.79620819429389,3.0438348292152124
0.047348225011402074,0.3686951297040164,-0.36557763344040306,-0.096550576579851,-0.17952803856282187,0.08441061528681876,0.4458636467929626,-0.8141743601556494,0.3126614024869721,-0.8608899627791783,0.08035401827328179,0.47202934345976133,6.139355739540143,28.92399331872204,-29.389452950051922,-22.684105356870184,-23.911188221784162,3.040647607385152
0.04824807622257406,0.3670553899119446,-0.36494332376339333,-0.0982841416985446,-0.17937136725355526,0.0853540021620423,0.4499256055859925,-0.8198698960359198,0.3171548385048622,-0.8667825593467987,0.07833565463331042,0.47169343761176635,6.150192118148395,29.01988710946258,-29.37776138497683,-22.635718266020767,-24.02559791603348,3.0379084503923255
0.04915603206785119,0.36540434755119733,-0.36429998338850467,-0.10002936521035762,-0.1792187982914105,0.08629670418766024,0.4539779226385688,-0.825521180373639,0.3216701874443206,-0.872611755906506,0.07628448107239152,0.4713510128089741,6.160393494307202,29.115387901592985,-29.36653814664513,-22.588771648007736,-24.13942900371023,3.035603444300767
0.05007207297415787,0.3637420912746573,-0.36364756899106243,-0.1017861198736557,-0.17907039616827325,0.08723870894865562,0.45802045315333756,-0.8311281382700273,0.32620719872111525,-0.8783773316490427,0.07420106156862437,0.4710023804976968,6.169976950955144,29.210471179329836,-29.35577451911177,-22.543279085410912,-24.25267306903552,3.0337192857759954
0.050996179082361176,0.3620687098797859,-0.36298603775183264,-0.1035542780166234,-0.17892622425015658,0.08818000462006004,0.46205305410165387,-0.8366906974356924,0.33076561961490425,-0.8840790714838471,0.07208595905833233,0.47064783570220536,6.178959925114425,29.30511221418304,-29.345461278138348,-22.499253742097927,-24.36532155366818,3.0322432497055525
0.051928330250801874,0.3603842923034221,-0.362315347361283,-0.10533371154851712,-0.17878634477941097,0.08912057993567722,0.4660755842203488,-0.8422087881818948,0.3353451952748022,-0.8897167659468617,0.06993973537281402,0.47028765780858955,6.1873602035866995,29.39928606846069,-29.335588691199554,-22.45670835527543,-24.47736575670819,3.031163158371678
0.05286850605881753,0.3586889276165985,-0.36163545602383323,-0.1071242919707423,-0.17865081887706014,0.09006042415829989,0.47008790400782946,-0.8476823434118244,0.3399456687249,-0.8952902111125908,0.0677629511754203,0.4699221113113322,6.1951959182571175,29.49296759900067,-29.326146517796104,-22.415655227683843,-24.58879683481993,3.0304673521044942
0.053816685810256636,0.35698270501937474,-0.36094632246209374,-0.10892589038776274,-0.1785197065452622,0.09099952705134863,0.4740898757195519,-0.8531112986118848,0.3445667808697469,-0.9007992085102138,0.06555616589896805,0.46955144652437314,6.202485541004528,29.58613146112809,-29.317124010076416,-22.37610621994247,-24.699605802475272,3.030144661347798
0.054772848536982444,0.3552657138356888,-0.3602479059210941,-0.11073837751784987,-0.17839306666989518,0.09193787885186534,0.47808136336290247,-0.8584955918429875,0.3492082704998048,-0.906243565043567,0.06331993768350126,0.4691759002583554,6.209247878216422,29.6787521128416,-29.30850991376888,-22.33807274305137,-24.80978353231773,3.0301843800726482
0.05573697300236549,0.3535380435082251,-0.35954016617250034,-0.11256162370367952,-0.17827095702326637,0.09287547024479667,0.4820622326915255,-0.863835163731852,0.3538698742968838,-0.9116230929148195,0.061054823314410644,0.46879569646566494,6.21550206490719,29.770803819229123,-29.30029246942866,-22.301565751056067,-24.91932075564839,3.030576240476879
0.05670903770476375,0.35179978359330044,-0.3588230635188212,-0.11439549892278286,-0.17815343426694452,0.09381229233850627,0.48603235119913046,-0.8691299574623147,0.35855132683956903,-0.9169376095516744,0.058761378160922514,0.4684110468547973,6.221267558439159,29.86226065711331,-29.292459413998504,-22.266595733881413,-25.02820806303394,3.0313103889119515
0.05768902088098938,0.35005102375576713,-0.35809655879760394,-0.11623987279785873,-0.17804055395471458,0.09474833664145729,0.4899915881128134,-0.8743799187666447,0.36325236060864785,-0.9221869375379352,0.056440156114968075,0.4680221514755141,6.22656413184587,29.953096519928053,-29.284997982687138,-22.233172710340586,-25.136435905037914,3.0323773629809345
0.05867690050976122,0.3482918537639334,-0.35736061338561886,-0.11809461460695331,-0.1779323705356537,0.09568359504000966,0.49393981438592366,-0.8795849959168671,0.3679727059925481,-0.9273709045472848,0.054091709530444114,0.46762919927617985,6.231411866757675,30.043285122826575,-29.277894911166456,-22.201306221324995,-25.243994593074795,3.033768069754389
0.05967265431514224,0.3465223634845012,-0.35661518920303326,-0.11995959329351356,-0.17782893735732794,0.09661805977727887,0.49787690269050794,-0.8847451397160944,0.37271209129279603,-0.9324893432801306,0.05171658916287632,0.4672323686346048,6.235831145930249,30.132800008020475,-29.271136438087403,-22.17100532318095,-25.350874300388675,3.035473765053213
0.06067625976996096,0.3447426428775215,-0.35586024871757427,-0.12183467747632032,-0.17773030666910894,0.09755172343300618,0.5018027274093614,-0.8898603034898657,0.3774702427295051,-0.9375420914033784,0.04931534410949624,0.4668318278636566,6.239842645376731,30.221614550350743,-29.264708307917875,-22.142278581278568,-25.457065063155532,3.037486033750046
0.061687694099216386,0.3429527819913665,-0.35509575494868045,-0.12371973545930633,-0.17763652962560944,0.09848457890439187,0.5057171646277148,-0.894930443077496,0.38224688444690447,-0.9425289914930011,0.046888521749743076,0.46642773569284224,6.243467326105004,30.309701963089843,-29.258595774101224,-22.115134063778388,-25.562556781710313,3.0397967710430955
0.06270693428346556,0.3411528709577196,-0.3543216714716426,-0.12561463524126487,-0.17754765629023703,0.09941661938784588,0.5096200921245855,-0.8999555168234347,0.3870417385189185,-0.9474498909792761,0.04443666768620138,0.4660202417270057,6.246726425461844,30.397035303974654,-29.252783602537228,-22.08957933560105,-25.667339221898768,3.042398164658303
0.0637339570621932,0.33934299998658235,-0.353537962421733,-0.12751924452545402,-0.17746373563886506,0.10034783836161235,0.5135113893638203,-0.904935485568635,0.3918545249548062,-0.9523046420945722,0.041960325685985844,0.46560948688323134,6.249641448086173,30.483587481469645,-29.24725607538535,-22.065621452605058,-25.77140201655402,3.04528267793809
0.06476873893716291,0.33752325936129846,-0.3527445924983233,-0.12943343072910116,-0.17738481556361987,0.10127822956922633,0.517390937484855,-0.9098703126419362,0.3966849617048723,-0.9570931018235687,0.03946003762258415,0.46519560380699193,6.252234156474108,30.569331261258935,-29.241996995190398,-22.0432669559778,-25.87473466709824,3.04844303377654
0.06581125617574934,0.33569373943359554,-0.3519415269689908,-0.13135706099281275,-0.17731094287678353,0.10220778700376339,0.521258619293216,-0.9147599638514582,0.4015327646662588,-0.9618151318557986,0.03693634341816901,0.46477871726853,6.254526561158921,30.654239272967043,-29.236989689330603,-22.02252186684442,-25.977326545268998,3.051872199363057
0.06686148481425093,0.3338545306186435,-0.35112873167361314,-0.13329000218989356,-0.17724216331481074,0.10313650489284422,0.5251143192507902,-0.9196044074760115,0.40639764768882936,-0.9664705985404108,0.034389780986390416,0.46435894454041465,6.256540910509611,30.738284017105826,-29.23221701478731,-22.003391681099593,-26.079166894970772,3.055563371698202
0.0679194006611827,0.33200572339013046,-0.35030617302845085,-0.13523212093557965,-0.17717852154245942,0.10406437768435856,0.528957923465884,-0.9244036142565227,0.41127932258115535,-0.9710593728430508,0.03182088617565893,0.46393639575717127,6.258299680151964,30.82143787224649,-29.22766136323556,-21.985881364466337,-26.180244834250754,3.0595099638469945
0.0689849793005489,0.3301474082753555,-0.3494738180302176,-0.13718328359618917,-0.17712006115703355,0.10499140003287423,0.5327893196830965,-0.929157557387478,0.41617749911661545,-0.9755813303047639,0.02923019271293105,0.4635111742578379,6.259825562016815,30.90367310241505,-29.22330466645542,-21.96999534778658,-26.280549357399003,3.063705591896791
0.07005819609509495,0.32827967585033874,-0.3486316342601384,-0.13914335629819483,-0.17706682469273755,0.10591756678669875,0.5366083972730273,-0.9338662125083846,0.42109188503961903,-0.9800363510028318,0.026618232148007383,0.463083376912263,6.261141453020355,30.98496186470877,-29.219128402061372,-21.955737522547487,-26.3800693371728,3.0681440625882312
0.07113902618953863,0.32640261673494825,-0.34777958988799446,-0.14111220493722174,-0.17701885362514083,0.1068428729755626,0.5404150472218416,-0.9385295576952548,0.42602218607196457,-0.9844243195134524,0.023985533798354428,0.462653094431919,6.2622704433819845,31.065276217131103,-29.215113599549724,-21.943111236647784,-26.47879352714428,3.072819361589224
0.07222744451378005,0.32451632158804405,-0.3469176536761558,-0.1430896951869741,-0.1769761883757519,0.10776731379889454,0.5442091621207118,-0.9431475734521102,0.4309681059193438,-0.9887451248761815,0.02133262469446061,0.46222041166597017,6.263235804585676,31.144588126643114,-29.211240846661454,-21.932119290407805,-26.576710564171066,3.077725642383407
0.07332342578609036,0.32262088110263903,-0.3460457949835998,-0.1450756925080942,-0.17693886831670044,0.10869088461466113,0.5479906361551562,-0.9477202427025113,0.4359293462780027,-0.9929986605600563,0.018660029525737188,0.4617854078832982,6.2640609769910345,31.222869477428112,-29.207490296058854,-21.92276393282709,-26.673808970989292,3.082857215745654
0.07442694451627895,0.3207163860010768,-0.34516398376991664,-0.14707006215695687,-0.1769069317755265,0.10961358092874343,0.5517593650942944,-0.9522475507811126,0.4409056068415709,-0.9971848244313243,0.015968270586974545,0.4613481570411543,6.264769557101152,31.30009207936612,-29.203841672313125,-21.915046858093177,-26.77007715892792,3.0882085397788304
0.07553797500883902,0.31880292703022634,-0.3442721905993005,-0.14907266919440226,-0.17688041604007576,0.11053539838482558,0.5555152462800369,-0.9567294854252444,0.44589658530806986,-1.0013035187227046,0.013257867725364216,0.4609087280410771,6.2653852844943385,31.37622767671582,-29.200274279201643,-21.908969202344732,-26.865503430744386,3.0937742104866075
0.07665649136607147,0.3168805949566933,-0.34337038664452624,-0.15108337849441048,-0.17685935736349956,0.11145633275477095,0.559258178616228,-0.9611660367665246,0.4509019773871124,-1.0053546500041128,0.01052933828809706,0.46046718497268246,6.2659320284276045,31.45124795699929,-29.1967670073103,-21.904531540692656,-26.960075983579255,3.0995489528589273
0.07778246749118699,0.3149494805620483,-0.3424585436909116,-0.15310205475272004,-0.17684379096935846,0.11237637992946276,0.5629880625577575,-0.9655571973225009,0.45592147680730377,-1.009338129154781,0.007783197070547691,0.46002358734590487,6.2664337741200615,31.525124560086795,-29.19329834193974,-21.901733884501734,-27.053782912030655,3.1055276124472773
0.07891587709138631,0.31300967463807167,-0.3415366341402639,-0.15512856249539347,-0.17683375105682833,0.11329553591008723,0.5667048000996606,-0.9699029619883258,0.4609547753238563,-1.0132538713367105,0.005019956265055352,0.45957799031224106,6.266914608724948,31.597829087476352,-29.18984637131069,-21.900575678936093,-27.146612211345463,3.1117051474082746
0.08005669368091875,0.3110612679820147,-0.34060463101481103,-0.15716276608733226,-0.17682927080600772,0.11421379679983827,0.5704082947662198,-0.9742033280284657,0.46600156272642945,-1.0171017959693964,0.0022401254103111773,0.4591304448755211,6.267398706999294,31.669333111765496,-29.186388795065874,-21.901055800771076,-27.238551780727935,3.1180766209948207
0.08120489058411892,0.3091043513918778,-0.33966250796111663,-0.15920452974074378,-0.176830382383325,0.11513115879602369,0.5740984516000848,-0.9784582950684458,0.47106152684720615,-1.0208818267057633,-0.000555788658638234,0.458680998092707,6.267910316680981,31.73960818630863,-29.182902933063595,-21.903172556473862,-27.329589426762965,3.124637194475229
0.08236044093842178,0.30713901566170454,-0.3387102392539782,-0.1612537175235623,-0.17683711694704451,0.11604761818255407,0.5777751771514263,-0.9826678650866337,0.4761343535692177,-1.0245938914092578,-0.0033672818597612125,0.4582296932651947,6.268473743583019,31.808625855057077,-29.17936573446017,-21.906923680555444,-27.419712866953514,3.13138212046141
0.08352331769735605,0.3051653515768924,-0.33774779980030833,-0.16331019336782637,-0.17684950465287005,0.11696317132279622,0.5814383794671376,-0.9868320424060604,0.4812197268349284,-1.0282379221320432,-0.006193852912775674,0.45777657012107376,6.269113336415526,31.876357662575828,-29.175753787075625,-21.91230633419603,-27.50890973337038,3.1383067366282127
0.08469349363351625,0.30318344990951984,-0.33677516514299816,-0.16537382107801485,-0.17686757465964453,0.11787781465277378,0.585087968080097,-0.9909508336862837,0.4863173286550924,-1.0318138550942442,-0.009035003387238548,0.4573216649887764,6.269853471346378,31.94277516423206,-29.172043327038956,-21.91931710414576,-27.59716757641285,3.145406459806639
0.08587094134151325,0.3011934014136893,-0.33579231146476235,-0.16744446433934324,-0.1768913551351445,0.11879154467469884,0.5887238539985059,-0.9950242479152932,0.4914268391178934,-1.0353216306641926,-0.011890237749980567,0.4568650109625278,6.270718536311636,32.00784993654979,-29.168210248707716,-21.92795200190269,-27.68447386867871,3.1526767804345797
0.08705563324090389,0.29919529682088636,-0.33479921559196557,-0.16952198672602248,-0.17692087326196826,0.11970435795081881,0.5923459496953144,-0.9990522964014594,0.4965479363983802,-1.0387611933396261,-0.014759063411877129,0.45640663805998916,6.271732915087615,32.071553587725624,-29.164230114856203,-21.93820646316947,-27.770816008941402,3.1601132573493222
0.08824754157909938,0.2971892268353553,-0.3337958549984292,-0.17160625170948207,-0.17695615524351616,0.12061625109756374,0.5959541690977468,-1.0030349927655275,0.5016802967682091,-1.0421324917297936,-0.017640990773946093,0.4559465733724679,6.272920971136634,32.133857768298725,-29.16007816712873,-21.950075347590378,-27.856181326233173,3.167711512906829
0.08944663843425325,0.29517528212949,-0.33278220780921774,-0.17369712266655893,-0.17699722631006168,0.12152722077997984,0.599548427576939,-1.006972352932658,0.5068235946057056,-1.045435478538423,-0.020535533272763494,0.4554848412080499,6.274307031238903,32.19473418196998,-29.155729336749836,-21.963552938769748,-27.94055708403203,3.175467228413419
0.09065289571812865,0.293153553339241,-0.33175825280440524,-0.17579446288765396,-0.17704411072491205,0.12243726370643582,0.6031286419376996,-1.0108643951245155,0.5119775024062563,-1.0486701105475105,-0.02344220742518828,0.45502146322799253,6.275915368923522,32.25415459656297,-29.151158255487758,-21.978632944572816,-28.023930484550057,3.183376139856133
0.09186628517894546,0.29112413105953816,-0.3307239694228192,-0.17789813558485773,-0.17709683179065683,0.12334637662358922,0.6066947304084033,-1.014711139851406,0.5171416907930441,-1.051836348601888,-0.02636053287238734,0.45455645857670257,6.277770187711779,32.31209085512153,-29.14633926686389,-21.995308497710056,-28.10628867312184,3.1914340339184974
0.09308677840420752,0.28908710583972924,-0.3296793377657629,-0.1800080039000468,-0.17715541185550313,0.12425455631160043,0.6102466126310309,-1.0185126099044637,0.5223158285281372,-1.0549341575945315,-0.0292900324231522,0.4540898440056043,6.279895604186443,32.3685148871358,-29.141246437602085,-22.013572156605555,-28.187618742690308,3.199636744269332
0.09431434682351024,0.28704256817903345,-0.32862433860071505,-0.18212393091295193,-0.17721987231969613,0.12516179957958282,0.6137842096513607,-1.022268830347891,0.527499582523945,-1.0579635064525696,-0.03223023209649897,0.45362163399119276,6.282315630900951,32.42339871989118,-29.135853569312154,-22.033415906549706,-28.267907738387564,3.207980148112278
0.09554896171132889,0.28499060852201097,-0.32755895336500496,-0.18424577964919983,-0.1772902336420232,0.1260681032612779,0.6173074439093255,-1.0259798285112485,0.5326926178550517,-1.0609243681239595,-0.03518066116354308,0.45315184084754945,6.285054159142924,32.47671448993163,-29.130134210398722,-22.054831161136853,-28.34714266220921,3.216460162984659
0.09679059418978797,0.28293131725404735,-0.3264831641694641,-0.18637341308832941,-0.1773665153464005,0.12697346421094508,0.6208162392295394,-1.0296456339817983,0.5378945977704392,-1.0638167195647905,-0.03814085218864079,0.45268047483358725,6.288134941566533,32.52843445463168,-29.12406166819082,-22.077808763987655,-28.42531047777856,3.225072743794576
0.09803921523141199,0.28086478469685355,-0.32539695380205186,-0.18850669417178378,-0.17744873602854008,0.12787787929945563,0.6243105208120077,-1.0332662785969018,0.5431051837061125,-1.0666405417271838,-0.0411103410697894,0.4522075442552772,6.291581574708813,32.578531003868335,-29.1176090212836,-22.102338990756365,-28.50239811519943,3.233813880085574
0.09929479566185803,0.2787911011039806,-0.3243003057314556,-0.19064548581087928,-0.17753691336269664,0.1287813454105818,0.627790215223022,-1.0368417964364711,0.5483240352981369,-1.0693958195477549,-0.04408866707827809,0.4517330555630982,6.295417481405065,32.62697667178582,-29.110749132084827,-22.12841155142235,-28.578392475994264,3.2426795935187407
0.10055730616263055,0.27671035665634963,-0.3231932041106634,-0.1927896508947525,-0.1776310641084918,0.12968385943747168,0.6312552503862542,-1.040372223815476,0.5535508103961007,-1.0720825419366045,-0.04707537289758203,0.45125701344493946,6.299665893119058,32.673744148645504,-29.10345465955892,-22.15601559286573,-28.65328043812477,3.2516659355625013
0.10182671727377865,0.27462264145779663,-0.32207563378050935,-0.19493905229828612,-0.1777312041178148,0.13058541827930104,0.6347055555740502,-1.0438575992765051,0.5587851650770135,-1.0747007017668109,-0.050070004661491724,0.45077942091467443,6.304349832203688,32.71880629275264,-29.09569807216058,-22.185139701726108,-28.727048861093166,3.2607689853806816
0.10310299939657652,0.27252804553063187,-0.32094758027319004,-0.1970935528900149,-0.17783734834179774,0.13148601883809427,0.6381410613989347,-1.0472979635823838,0.5640267536596523,-1.0772502958643884,-0.05307211199147061,0.45030027939661443,6.309492094108263,32.76213614245201,-29.087451660949984,-22.215771907543935,-28.799684591120553,3.2699848479098974
0.10438612279618718,0.2704266588112142,-0.3198090298157513,-0.19925301554001226,-0.1779495108378642,0.13238565801570634,0.6415616998053297,-1.0506933597088475,0.5692752287193653,-1.0797313249986873,-0.0560812480332333,0.44981958880604045,6.31511522954886,32.80370692818397,-29.078687552880748,-22.247899686182805,-28.8711744663995,3.2793096521176777
0.10567605760431018,0.26831857114553964,-0.3186599693335446,-0.20141730312775868,-0.17806770477684927,0.13328433271095835,0.6449674040614941,-1.05404383283727,0.5745302411033473,-1.0821437938732048,-0.05909696949253756,0.4493373476260026,6.321241526657996,32.843492084592995,-29.06937772425333,-22.281509963531988,-28.941505322418614,3.288739549432865
0.10697277382181355,0.26620387228484477,-0.31750038645365186,-0.20358627854999223,-0.17819194245018963,0.13418203981691948,0.648358108751688,-1.0573494303474504,0.579791439946394,-1.0844877111167783,-0.06211883667018305,0.4488535529805664,6.327892993130709,32.88146526267988,-29.059494014324784,-22.316589119487578,-29.01066399735543,3.298270712340588
0.10827624132135069,0.2640826518812239,-0.3163302695082776,-0.2057598047285425,-0.17832223527718205,0.13507877621832884,0.6517337497685679,-1.0606102018104524,0.5850584726871497,-1.0867630892751365,-0.06514641349621,0.4483682007046786,6.335091338383722,32.91760034198839,-29.0490081390655,-22.353122992210235,-29.078637337534737,3.307899333133869
0.10958642984996232,0.2619549994832609,-0.3151496075381079,-0.20793774461814807,-0.17845859381230864,0.13597453878915047,0.6550942643058153,-1.0638261989815012,0.5903309850848564,-1.088969944802781,-0.06817926756329128,0.4478812854108145,6.342857955745046,32.951871442818586,-29.037891705054996,-22.391096882658285,-29.145412202949288,3.3176216228147672
0.11090330903166433,0.259821004531675,-0.31395839029563466,-0.2101199612142584,-0.17860102775262726,0.1368693243902556,0.6584395908510028,-1.0669974757929357,0.5956086212366166,-1.0911082980551718,-0.0712169701593114,0.4473928005525639,6.35121390469102,32.98425293845716,-29.026116223507152,-22.43049555939352,-29.210975472839735,3.327433810137749
0.11222684837002173,0.25768075635498056,-0.3127566082484443,-0.2123063175608208,-0.17874954594522552,0.1377631298672262,0.661769669178701,-1.0701240883472138,0.6008910235951798,-1.0931781732811947,-0.07425909629912628,0.44690273848530265,6.360179893148436,33.014719467416185,-29.013653124416326,-22.471303263657944,-29.275314051330618,3.3373321407885626
0.11355701725070938,0.25553434416516063,-0.3115442525824698,-0.21449667675805256,-0.1789041563947365,0.13865595204827438,0.6650844403438291,-1.073206094909973,0.6061778329872618,-1.0951795986158832,-0.07730522475549748,0.4464110905240914,6.369776259879134,33.043245945670606,-29.000473770813322,-22.513503714718787,-29.338414873118577,3.347312876692149
0.11489378494405988,0.25338185705335436,-0.310321315205205,-0.2166909019701993,-0.1790648662709149,0.13954778774227225,0.6683838466752503,-1.0762435559031434,0.6114686886324091,-1.0971126060733734,-0.08035493808919536,0.4459178469989363,6.380022956964645,33.069807578886326,-28.986549473124303,-22.557080115479174,-29.40026490921025,3.3573722954430796
0.11623712060759911,0.25122338398555816,-0.30908778874888015,-0.21888885643327943,-0.17923168191627142,0.14043863373688734,0.6716678317696152,-1.0792365338981122,0.616763228162416,-1.0989772315400672,-0.08340782267826517,0.445422997307539,6.390939532408707,33.09437987462836,-28.971851503620577,-22.60201515835184,-29.460851172705812,3.367506689852559
0.11758699328857002,0.24905901379834028,-0.3078436665735975,-0.2210904034628154,-0.17940460885376433,0.14132848679681864,0.6749363404854526,-1.0821850936089423,0.622061087641305,-1.1007735147679836,-0.08646346874645067,0.44492652996565873,6.402545112875233,33.11693865454048,-28.956351110950834,-22.648291031392553,-29.52016072462505,3.3777123676060774
0.11894337192644504,0.246888835194569,-0.30658894277042575,-0.22329540646155194,-0.17958365179454586,0.14221734366212904,0.6781893189375101,-1.0850893018856362,0.62736190158588,-1.102501499368272,-0.08952147039076992,0.44442843265520166,6.414858386579563,33.137460066487456,-28.940019534746497,-22.695889424690648,-29.57818067977214,3.3879856510261224
0.12030622535542773,0.2447129367391541,-0.30532361216445203,-0.22550372892716167,-0.17976881464576233,0.14310520104666935,0.681426714491344,-1.0879492277074525,0.6326653029868616,-1.1041612328048702,-0.09258142560823834,0.4439286922701488,6.42789758635085,33.15592059664879,-28.922828020288307,-22.744791537012677,-29.634898212635907,3.398322876934308
0.12167552230694405,0.24253140685480157,-0.3040476703177908,-0.22771523445993824,-0.1799601005184058,0.1439920556365902,0.684648475758158,-1.0907649421762675,0.6379709233306121,-1.1057527663882822,-0.09564293632173367,0.44342729496042754,6.441680472883229,33.17229708155611,-28.904747833226168,-22.794978082696115,-29.690300563321973,3.408720396607927
0.12305123141212383,0.2403443338177816,-0.30276111353254787,-0.22992978677047715,-0.1801575117352158,0.14487790408893786,0.6878545525898913,-1.0935365185099823,0.64327839262146,-1.107276155269457,-0.09870560840499859,0.4429242261738269,6.456224318193501,33.18656672006421,-28.885750274341287,-22.846429298789225,-29.744375043512697,3.4191745758255765
0.12443332120427293,0.23815180575370967,-0.3014639388537386,-0.23214724968734465,-0.18036104983862936,0.14576274303032996,0.6910448960745524,-1.096264032035974,0.6485873394046325,-1.1087314584337475,-0.10176905170677626,0.44241947069605225,6.471545889303254,33.198707085245296,-28.86580669433989,-22.89912495243322,-29.79710904245193,3.4296817949971445
0.12582176012133653,0.2359539106333405,-0.300156144072159,-0.23436748716473452,-0.1805707155987775,0.14664656905570797,0.6942194585318008,-1.0989475601845882,0.6538973907898027,-1.1101187386949292,-0.1048328800740745,0.4419130126890103,6.4876614321626604,33.20869613619889,-28.844888508669477,-22.95304434848288,-29.848490032950213,3.4402384493732647
0.12721651650835408,0.23375073626837517,-0.2988377277272085,-0.23659036329011304,-0.1807865090215266,0.1475293787271628,0.69737819350877,-1.1015871824826713,0.6592081724752603,-1.111438062689258,-0.10789671137455457,0.4414048357274105,6.5045866558338,33.2165122297652,-28.82296721234649,-23.008166337360937,-29.898505577407178,3.450840949329816
0.12861755861990634,0.2315423703072809,-0.2975086891096631,-0.23881574229185215,-0.18100842935656267,0.14841116857283032,0.7005210557761338,-1.1041829805471401,0.6645193087727128,-1.11268950086955,-0.11096016751804083,0.4408949228337662,6.522336716950714,33.222134132134954,-28.80001439478498,-23.064469323142376,-29.94714333384721,3.4614857207228464
0.13002485462255517,0.22932890023112373,-0.29616902826439767,-0.24104348854685068,-0.18123647510551696,0.14929193508585406,0.7036480013244091,-1.106735038078586,0.6698304226327243,-1.1138731274992628,-0.1140228744771474,0.44038325651187255,6.540926204473459,33.22554103034424,-28.776001754616438,-23.121931271863872,-29.994391061964535,3.472169205309845
0.13143837259727617,0.2271104133494139,-0.2948187459930561,-0.2432734665881438,-0.181470644030131,0.15017167472341172,0.7067589873604938,-1.1092434408549123,0.6751411356707981,-1.1149890206465582,-0.11708446230701874,0.43986981877883735,6.5603691247534215,33.226712543646244,-28.750901114490105,-23.180529720053485,-30.040236629173844,3.4828878612330563
0.13285808054188505,0.2248869967959639,-0.29345784385666784,-0.24550554111250047,-0.18171093316045936,0.1510503839058032,0.7098539723044356,-1.111708276725,0.6804510681941109,-1.116037262178331,-0.12014456516418083,0.43935459119573456,6.580678886926488,33.22562873474938,-28.72468443584333,-23.240241783476144,-30.084668016662928,3.493638163560947
0.13428394637345792,0.22265873752475912,-0.29208632417821007,-0.24773957698800883,-0.18195733880310835,0.15192805901559708,0.7129329157864264,-1.1141296356024013,0.6857598392289019,-1.1170179377541825,-0.12320282132450007,0.4388375548969489,6.601868288651146,33.2222701209129,-28.69732383363135,-23.301044166089543,-30.12767332544327,3.504416604883853
0.13571593793074596,0.220425722305841,-0.290704190045113,-0.24997543926164947,-0.18220985654950886,0.15280469639683364,0.7159957786440185,-1.1165076094590574,0.6910670665485255,-1.1179311368203237,-0.12625887320024737,0.43831869061827544,6.6239495022076476,33.216617684890615,-28.66879159100646,-23.3629131692055,-30.169240782394386,3.5152196959601714
0.13715402297658508,0.21818803772120293,-0.28931144531170866,-0.25221299316685625,-0.18246848128422138,0.15368029235428132,0.7190425229195572,-1.1188422923190355,0.6963723667021698,-1.1187769526033886,-0.12931236735626492,0.4377979787238354,6.646934060974698,33.208652885713065,-28.63906017393601,-23.425824700851386,-30.209358746298992,3.5260439664093024
0.1385981692003007,0.21594577016069835,-0.28790809460162015,-0.2544521041310645,-0.18273320719327185,0.15455484315274506,0.7220731118578223,-1.121133780252284,0.7016753550442488,-1.11955548210414,-0.1323629545252335,0.43727539923186703,6.670832846299452,33.198357669299746,-28.60810224574864,-23.489754285326313,-30.2480157138639,3.5368859654480964
0.14004834422010848,0.21369900581796156,-0.2864941433100912,-0.25669263778324664,-0.18300402777251593,0.15542834501642397,0.7250875099038756,-1.1233821713684013,0.7069756457644685,-1.1202668260910533,-0.13541028962203863,0.4367509318394456,6.695656074776559,33.18571447889115,-28.575890681598693,-23.554677072946127,-30.28520032572392,3.5477422626670574
0.1415045155855107,0.21144783068634074,-0.28506959760625405,-0.25893445996143416,-0.1832809358360304,0.15630079412831635,0.728085682701104,-1.1255875658104149,0.712272851918575,-1.1209110890937588,-0.13845403175723378,0.4362245559461866,6.7214132859516695,33.17070626529207,-28.542398582837954,-23.620567849971984,-30.320901372423606,3.5586094488433098
0.1429666507796896,0.2091923305548436,-0.28363446443533447,-0.2611774367202268,-0.18356392352452958,0.1571721866296703,0.7310675970894541,-1.1277500657485664,0.7175665854597858,-1.121488379396327,-0.14149384424959952,0.4356962506769814,6.748113330464097,33.15331649691763,-28.507599291285203,-23.687401048716115,-30.35510780037445,3.5694841367869694
0.1444347172218973,0.2069325910040954,-0.28218875152079265,-0.2634214343382876,-0.18385298231380517,0.15804251861947793,0.7340332211038495,-1.1298697753741003,0.7228564572709067,-1.1219988090303818,-0.1445293946377973,0.43516599490381325,6.775764358643687,33.13352916963268,-28.471466403382887,-23.755150757819507,-30.38780871778227,3.580362962217926
0.14590868226984285,0.20466869740230928,-0.28073246736639834,-0.26566631932582363,-0.1841481030231874,0.15891178615401133,0.7369825239727824,-1.1319468008930487,0.7281420771971391,-1.1224424937680226,-0.1475603546911174,0.43463376726669867,6.804373809575806,33.11132881637587,-28.433973784230346,-23.823790732694526,-30.418993400541638,3.591242584669917
0.147388513222077,0.20240073490126925,-0.27926562125823917,-0.26791195843205273,-0.18444927582402604,0.15977998524639891,0.7399154761170726,-1.1339812505200122,0.7334230540795769,-1.1228195531145435,-0.15058640041932048,0.43409954619379765,6.833948400648504,33.08670051656013,-28.39509558148485,-23.893294406126955,-30.448651298093257,3.6021196884191795
0.14887417732037456,0.2001287884323254,-0.27778822326666036,-0.2701582186526546,-0.1847564902481892,0.1606471118662404,0.7428320491487835,-1.1359732344719298,0.7386989957893975,-1.123130110300931,-0.15360721208157258,0.43356330992073316,6.86449411759524,33.05962990524092,-28.35480623911881,-23.96363489903093,-30.476772039240682,3.612990983434682
0.15036564175211514,0.19785294270240172,-0.27630028424813485,-0.27240496723720686,-0.18506973519657813,0.16151316193925871,0.7457322158702875,-1.1379228649618331,0.7439695092627451,-1.1233742922761263,-0.1566224741944736,0.43302503650915913,6.896016205046164,33.03010318204413,-28.31308051102456,-24.034785031350218,-30.503345437922004,3.623853206347378
0.15186287365266207,0.19557328219001657,-0.27480181584706226,-0.27465207169660494,-0.18538899894765648,0.16237813134698795,0.7486159502734696,-1.139830256192582,0.7492342005363092,-1.1235522296990368,-0.15963187553917998,0.43248470386461346,6.928519157600451,32.998107119845194,-28.269893474456186,-24.10671733309931,-30.528361498933148,3.634703121435737
0.1533658401077402,0.19328989114131542,-0.2732928304974951,-0.2768993998104655,-0.18571426916599174,0.16324201592649534,0.7514832275390617,-1.1416955243505742,0.7544926747835963,-1.1236640569302836,-0.1626351091676223,0.4319422897536914,6.96200671143191,32.96362907319198,-28.225220543299276,-24.179404055537947,-30.551810423598862,3.6455375216250454
0.15487450815581238,0.19100285356611657,-0.2717733414247913,-0.2791468196345129,-0.18604553291080736,0.16410481147013647,0.754334024036094,-1.1435187875994277,0.7597445363518961,-1.1237099120236684,-0.16563187240781851,0.43139777182057243,6.99648183643921,32.926656986463314,-28.179037481158666,-24.252817182471915,-30.573682615387533,3.656353229498068
0.15638884479045528,0.1887122532339693,-0.27024336264719145,-0.2813941995079476,-0.18638277664454392,0.16496651372534235,0.7571683173214556,-1.1453001660736257,0.7649893887999397,-1.1236899367173472,-0.16862186686828476,0.43085112760293204,7.031946728952038,32.88717940175531,-28.131320414254674,-24.326928441673953,-30.593968685465917,3.66714709831455
0.1579088169627344,0.18641817367022506,-0.26870290897731897,-0.28364140806079696,-0.186725986241427,0.1658271183944369,0.7599860861395528,-1.1470397818721234,0.770226834936249,-1.1236042764246967,-0.1716047984415453,0.43030233454726885,7.06840280500343,32.84518546648947,-28.082045844119165,-24.401709316416998,-30.612659458190496,3.6779160130374047
0.1594343915835785,0.18412069815212126,-0.2671519960236026,-0.28588831422124666,-0.1870751469960405,0.16668662113448424,0.7627873104220517,-1.148737759051908,0.7754564768581748,-1.1234530802248606,-0.1745803773067436,0.4297513700236751,7.105850694178572,32.80066494073322,-28.03119066008202,-24.477131057113812,-30.62974597653153,3.6886568913632214
0.1609655355261539,0.18181990970487824,-0.2655906401916194,-0.2881347872229526,-0.18743024363190322,0.1675450175571644,0.7655719712876969,-1.150394223621508,0.780677915991621,-1.1232365008529603,-0.17754831793135697,0.4291982113400773,7.144290234049242,32.75360820422818,-27.97873215153858,-24.55316469305499,-30.6452195074258,3.6993666847550237
0.16250221562823827,0.17951589109780935,-0.26401885868535646,-0.2903806966123325,-0.18779126031004725,0.16840230322867633,0.7683400510421906,-1.1520093035344467,0.7858907531314517,-1.1229546946899605,-0.18050833907201766,0.4286428357559731,7.183720465202832,32.7040062631178,-27.924648019990283,-24.629781044239135,-30.659071547055348,3.710042379475177
0.16404439869459453,0.1772087248404441,-0.2624366695083913,-0.29262591225583684,-0.18815818063759615,0.1692584736696677,0.7710915331781225,-1.1535831286826317,0.7910945884825775,-1.122607821752174,-0.18346016377444352,0.4280852204956884,7.224139626874224,32.65185075636853,-27.86891639084892,-24.70695073328705,-30.671293826047425,3.720680997616305
0.1655920514993444,0.17489849317866474,-0.2608440914649879,-0.29487030434719763,-0.1885309876763411,0.17011352435519006,0.7738264023749369,-1.1551158308896743,0.7962890217017154,-1.1221960456803965,-0.18640351937248162,0.42752534276117715,7.265545153188203,32.5971339618784,-27.811515824996967,-24.784644197433927,-30.681878314593153,3.7312795981285714
0.16714514078834225,0.17258527809085647,-0.2592411441611082,-0.29711374341465496,-0.18890966395131364,0.17096745071467884,0.7765446444989241,-1.1566075439041372,0.8014736519398197,-1.1217195337286567,-0.18933813748626865,0.42696317974438636,7.307933670019257,32.53984880226685,-27.75242533009527,-24.86283170059128,-30.690817227481162,3.741835277841032
0.1687036332815487,0.17026916128407107,-0.2576278480053379,-0.2993561003281601,-0.18929419145935267,0.17182024813195726,0.7792462466032225,-1.1580584033926986,0.8066480778851752,-1.121178456752572,-0.1922637540195124,0.42639870863920637,7.351300992475384,32.47998885033985,-27.691624371630052,-24.941483345471646,-30.69810302904219,3.7523451724756303
0.17026749567540433,0.1679502241902046,-0.2560042242097236,-0.3015972463065547,-0.18968455167766446,0.17267191194526332,0.7819311969278193,-1.1594685469332295,0.8118118978071498,-1.1205729891972982,-0.19518010915589878,0.4258319066530259,7.3956421230116005,32.417548334224826,-27.629092883691953,-25.02056908576904,-30.703728438002145,3.762806457651842
0.1718366946452034,0.16562854796218907,-0.25437029479052237,-0.30383705292472485,-0.1900807255723737,0.17352243744729914,0.7845994848995351,-1.160838114007777,0.8169647096005966,-1.1199033090850627,-0.19808694735462937,0.4252627510179103,7.440951250178072,32.352522142170955,-27.564811279478935,-25.100058738387325,-30.70768643223983,3.7732163498803617
0.17341119684746736,0.16330421347019816,-0.2527260825688606,-0.3060753921207294,-0.1904826936070639,0.17437181988530198,0.7872511011319787,-1.1621672459954464,0.8221061108309009,-1.11916959800227,-0.20098401734509475,0.4246912190014204,7.487221748007681,32.284905827008444,-27.49876046151618,-25.179921995709343,-30.70997025344603,3.78357210754435
0.17499096892231827,0.1609773012978678,-0.2510716111713013,-0.3083121362029017,-0.1908904357513053,0.17522005446113617,0.7898860374254584,-1.163456086165176,0.8272356987796619,-1.1183720410861704,-0.2038710721206894,0.4241172879170884,7.534446176046442,32.21469561026373,-27.43092183158557,-25.260128437899525,-30.710573411681093,3.7938710318663666
0.17657597749585194,0.158647891738531,-0.2494069050303193,-0.3105471578569239,-0.19130393148916883,0.1760671363314053,0.7925042867668354,-1.164704779668398,0.8323530704910022,-1.1175108270110818,-0.20674786893177388,0.4235409351345664,7.582616280030116,32.14188838592454,-27.36127730035814,-25.34064754523226,-30.70948968982763,3.8041104678598803
0.17816618918251054,0.15631606479146784,-0.2477319893846823,-0.3127803301528722,-0.19172315982772442,0.17691306060758422,0.7951058433293049,-1.1659134735315784,0.8374578228184949,-1.1165861479741561,-0.2096141692777913,0.4229621380894618,7.631722993209238,32.06648172385252,-27.28980929672283,-25.421448710438966,-30.706713147935353,3.8142878052635627
0.1797615705874547,0.1539819001581706,-0.2460468902797369,-0.3150115265522336,-0.1921480993055215,0.17775782235616996,0.7976907024720905,-1.1670823166486268,0.8425495524726996,-1.1155981996806805,-0.21246973889854423,0.4223808742928739,7.681756438324489,31.988473872837876,-27.216500776804992,-25.50250125106602,-30.70223812745514,3.8244004794573225
0.18136208830893477,0.15164547723862423,-0.2443516345675983,-0.3172406209148914,-0.1925787280010508,0.17860141659885126,0.8002588607400366,-1.1682114597731736,0.847627856069295,-1.1145471813289063,-0.21531434776463965,0.42179712134064445,7.732705930233241,31.907863763294063,-27.14133523266889,-25.58377442183677,-30.69605925535943,3.8344459723585196
0.18296770894066094,0.14930687512760282,-0.2426462499072427,-0.3194674875060802,-0.19301502354118502,0.17944383831269592,0.8028103158630854,-1.1693010555107026,0.8526923301778003,-1.113433295594397,-0.21814777006710948,0.4212108569223343,7.784559979187723,31.824651009588056,-27.064296700698016,-25.665237427009394,-30.688171448145717,3.844421813297207
0.1845783990741722,0.14696617261098174,-0.24093076476450095,-0.321692001003308,-0.19345696310959745,0.1802850824303558,0.8053450667556221,-1.1703512583105347,0.8577425713708706,-1.1122567486138886,-0.22096978420621444,0.4206220588299379,7.837306294764411,31.73883591200432,-26.985369769647995,-25.746859432724165,-30.678569915721493,3.8543255798691964
0.18619412530120355,0.14462344816206643,-0.23920520841195264,-0.32391403650324535,-0.19390452345515632,0.1811251438402885,0.8078631135156744,-1.1713622244576536,0.8627781762741569,-1.1110177499686542,-0.2237801727794397,0.42003070496634665,7.890931790443417,31.65041945833923,-26.90453958836683,-25.828609579331946,-30.667250165166266,3.864154898765861
0.18781485421605146,0.1422787799379377,-0.2374696109287192,-0.3261334695285801,-0.1943576809002937,0.18196401738699564,0.810364457423951,-1.1723341120643682,0.8677987416167158,-1.1097165126673685,-0.22657872256869113,0.41943677335357044,7.945422588836407,31.55940332512412,-26.821791873176885,-25.91045699369731,-30.65420800436975,3.8739074465794143
0.18944055241793686,0.1399322457758141,-0.2357240032001553,-0.328350176034837,-0.1948164113493471,0.1828016978712771,0.8128491009427038,-1.1732670810618022,0.872803864281958,-1.108353253128464,-0.2293652245267009,0.41884024214072824,8.000764027560061,31.465789878474677,-26.737112914914828,-25.99237080146835,-30.639439545542743,3.8835809505828944
0.19107118651336566,0.1375839231894317,-0.23396841691743706,-0.330564032417161,-0.1952806902968724,0.18363818005050073,0.8153170477143991,-1.1741612931912038,0.8777931413591196,-1.106928191161976,-0.23213947376265234,0.4182410896118159,8.05694066575241,31.369582174565696,-26.650489585624555,-26.07432013930659,-30.62294120859866,3.893173189483649
0.19270672311848602,0.13523388936544156,-0.23220288457704658,-0.33277491551706273,-0.19575049283592647,0.18447345863888726,0.8177683025601833,-1.1750169119950689,0.8827661701952431,-1.1054415499508683,-0.23490126952703358,0.4176392941932595,8.113936291227613,31.270783959729094,-26.56190934489924,-26.156274167069405,-30.60470972440314,3.902681994149529
0.1943471288614423,0.13288222115982543,-0.23042743948015126,-0.3349827026291264,-0.19622579366631793,0.18530752830780978,0.8202028714781269,-1.1758341028080697,0.8877225484476533,-1.1038935560318395,-0.23765041519573027,0.4170348344612629,8.171733928265063,31.169399670174702,-26.47136024586808,-26.238202079937874,-30.584742137889975,3.9121052483069096
0.19599237038472475,0.13052899509432986,-0.22864211573187743,-0.3371872715076776,-0.19670656710282466,0.1861403836861077,0.8226207616412328,-1.1766130327477804,0.8926618741369118,-1.1022844392756017,-0.24038671825336808,0.4164276891489559,8.230315846026999,31.065434431333312,-26.378830940825612,-26.320073120483272,-30.56303581104046,3.921440889209711
0.19764241434751514,0.12817428735291947,-0.22684694824047696,-0.33938850037341084,-0.1971927870833765,0.18697201936041438,0.8250219813951939,-1.1773538707051943,0.8975837457002346,-1.1006144328666319,-0.24310999027591584,0.415817837153351,8.289663567598947,30.95889405682162,-26.28431068649879,-26.40185659066472,-30.539588425725125,3.9306869082786005
0.1992972274280269,0.12581817377824941,-0.22504197271638626,-0.3415862679199756,-0.19768442717720164,0.1878024298754986,0.8274065402558853,-1.1780567873350216,0.9024877620453571,-1.098883773282391,-0.2458200469125606,0.4152052575421143,8.349757879646353,30.849785047028917,-26.187789348950247,-26.48352186375198,-30.514397986405193,3.939841351709842
0.20095677632584005,0.12346072986815788,-0.22322722567117662,-0.3437804533205196,-0.19818146059293537,0.18863160973461893,0.8297744489065763,-1.1787219550457637,0.9073735226048277,-1.0970927002720108,-0.2485167078668664,0.4145899295601569,8.410578842679579,30.73811458732586,-26.089257408114417,-26.565038396165342,-30.487462822692024,3.948902321052916
0.20262102776422974,0.12110203077217878,-0.22140274441639518,-0.3459709362341885,-0.19868386018668982,0.18945955339989104,0.832125719194847,-1.179349547989554,0.9122406273907142,-1.0952414568344435,-0.25119979687722876,0.41397183263605297,8.47210580191973,30.623890545896597,-25.988705961964506,-26.646375739226805,-30.45878159176304,3.9578679737564215
0.20428994849248813,0.11874215128807526,-0.21956856706229577,-0.3481575968125807,-0.19919159847008308,0.19028625529266763,0.8344603641291979,-1.179939742051758,0.9170886770497041,-1.0933302891960779,-0.2538691416966373,0.4133509463882888,8.534317398756286,30.507121471194843,-25.886126730308554,-26.727503550815868,-30.428353280632532,3.9667365236817904
0.2059635052882388,0.11638116585839461,-0.2177247325164586,-0.3503403157061563,-0.1997046476182266,0.19111170979393033,0.8367783978753344,-1.1804927148403266,0.9219172729185805,-1.0913594467878178,-0.2565245740717591,0.41272725063134824,8.597191582787133,30.387816589024887,-25.78151205821269,-26.808391606922466,-30.396177208275446,3.9755062415840507
0.20764166495974304,0.11401914856704483,-0.2158712804822985,-0.35251897407059957,-0.20022297947766932,0.1919359112446936,0.8390798357521158,-1.181008645674893,0.9267260170800551,-1.089329182221625,-0.2591659297213559,0.4121007253816393,8.660705624431277,30.265985799250547,-25.674854919050514,-26.889009813091995,-30.362253027603355,3.9841754555594857
0.20932439434819736,0.11165617313589361,-0.21400825145746064,-0.35469345357313264,-0.2007465655742974,0.19275885394642014,0.841364694227153,-1.181487715575607,0.9315145124189381,-1.0872397512665262,-0.2617930483140487,0.41147135086326525,8.72483612810307,30.1416396721324,-25.56614891717741,-26.96932821575468,-30.32658072729044,3.9927425514594805
0.21101166033002144,0.10929231292139022,-0.2121356867321034,-0.3568636363987808,-0.2012753771211883,0.19358053216144744,0.8436329909120425,-1.1819301072516994,0.9362823626786266,-1.0850914128240876,-0.26440577344544347,0.41083910751364555,8.789559045937311,30.01478944429728,-25.455388290229692,-27.049317013434305,-30.289160633449328,4.001205973270475
0.2127034298191359,0.10692764091121068,-0.21025362838706763,-0.35902940525658755,-0.20180938502641754,0.1944009401134254,0.845884744557223,-1.1823360050897682,0.9410291725178892,-1.0828844289033575,-0.26700395261463167,0.41020397598898856,8.8548496920527,29.88544701434163,-25.342567911047354,-27.12894656782932,-30.249993411154865,4.009564223459482
0.21439966976922878,0.10456222972092712,-0.20836211929193177,-0.3611906433857781,-0.2023485599008177,0.19522007198776464,0.8481199750464422,-1.1827055951417798,0.9457545475679284,-1.0806190645952787,-0.2695874372000802,0.4095659371696208,8.920682757341556,29.753624938072072,-25.227683289221282,-27.208187414760385,-30.209080065815144,4.0178158632849685
0.21610034717601043,0.10219615159070156,-0.20646120310295238,-0.3633472345618713,-0.20289287206568757,0.196037921932095,0.8503387033908211,-1.1830390651127782,0.9504580944896988,-1.0782955880465777,-0.27215608243492545,0.40892497216517504,8.98703232477273,29.619336423386596,-25.11073057226487,-27.287010274979448,-30.166421944389107,4.025959513072967
0.21780542907945544,0.09982947838200497,-0.20455092426088947,-0.36549906310273755,-0.20344229156045093,0.19685448405673428,0.852540951722503,-1.183336604348296,0.9551394210314593,-1.0759142704331304,-0.2747097473816861,0.4082810623196405,9.053871885193812,29.482595324800208,-24.991706546410576,-27.365386064833206,-30.122020736449706,4.03399385245808
0.2195148825660312,0.09746228157436206,-0.2026313279887164,-0.36764601387460316,-0.20399678815026376,0.19766975243516682,0.8547267432878771,-1.183598403821457,0.9597981360865391,-1.073475385932812,-0.2772482949064101,0.4076341892162777,9.12117435361882,29.34341613761866,-24.870608637032902,-27.443285906776694,-30.075878475091965,4.04191762058933
0.2212286747709119,0.09509463226212252,-0.2007024602892138,-0.3697879722979988,-0.2045563313335683,0.19848372110453164,0.8568961024403629,-1.1838246561197685,0.9644338497512933,-1.0709792116978345,-0.27977159165227156,0.4069843346824002,9.188912085986386,29.20181399176425,-24.747434908698033,-27.5206811397305,-30.027997537685692,4.049729616300754
0.2229467728801774,0.09272660115125933,-0.19876436794244734,-0.371924824353652,-0.20512089034959355,0.1992963840661197,0.8590490546327462,-1.1840155554315914,0.969046173383229,-1.068426027826578,-0.28227950801263196,0.40633148079402603,9.257056896373356,29.05780464525945,-24.622184064843186,-27.597543329277062,-29.978380646472246,4.057428698246645
0.2246691441329955,0.09035825855619475,-0.19681709850312878,-0.3740564565883218,-0.2056904341858007,0.2001077352858805,0.8611856264090556,-1.1841712975322853,0.9736347196592754,-1.0658161173349243,-0.2847719181035837,0.40567560988040025,9.325580074648192,28.911404477371715,-24.494855447086046,-27.67384427769041,-29.927030869004913,4.065013785001463
0.22639575582378743,0.08798967439665471,-0.19486070029786043,-0.376182756120576,-0.2062649315852727,0.20091776869493727,0.8633058453959689,-1.1842920797700207,0.9781991026341793,-1.0631497661270957,-0.2872486997359902,0.405016704528391,9.394452404547758,28.762630481426108,-24.36544903416798,-27.749556033794907,-29.873951618433132,4.072483855124414
0.2281265753043749,0.08562091819455221,-0.19289522242226242,-0.378303610646508,-0.20684435105404678,0.2017264781901108,0.8654097402937397,-1.1843781010512522,0.9827389377989991,-1.0604272629660108,-0.28970973438704006,0.4043547475867609,9.463644182161174,28.61150025728989,-24.233965440532117,-27.82465090264742,-29.81914665362997,4.079837947188827
0.22986156998610818,0.08325205907090052,-0.19092071473798308,-0.38041890844539433,-0.20742866086838943,0.20253385763445142,0.8674973408666361,-1.1844295618258462,0.9872538421396766,-1.0576488994431636,-0.2921549071713316,0.40368972217031474,9.533125234803464,28.458032003535585,-24.10040591454005,-27.899101455038764,-29.76262007916343,4.087075159776294
0.23160070734197394,0.08088316574275681,-0.18893722786959175,-0.3825285383852904,-0.20801782908201244,0.20333990085777928,0.8695686779328808,-1.1844466640718578,0.9917434341956626,-1.0548149699480351,-0.29458410681150426,0.40302161166392625,9.602864940261565,28.302244509288762,-23.964772336330338,-27.972880536810017,-29.704376345111278,4.094194651435871
0.23334395490868212,0.0785143065201969,-0.18694481320135461,-0.38463238992856447,-0.2086118235332293,0.20414460165723217,0.8716237833540866,-1.1844296112799513,0.9962073341185714,-1.0519257716370467,-0.2969972256084345,0.4023503997264439,9.672832246395053,28.14415714576587,-23.827067215321378,-28.04596127797892,-29.644420246719896,4.101195640608463
0.23509128028873047,0.07614554930332199,-0.18494352287389293,-0.3867303531373686,-0.2092106118520513,0.20494795379782113,0.8736626900241774,-1.1843786084374581,1.0006451637308431,-1.0489816044020668,-0.2993941594110124,0.401676070294478,9.742995691073151,27.983789857509766,-23.687293687363287,-28.118317101672492,-29.582756923907766,4.108077405516465
0.23684265115244604,0.07377696157929785,-0.18293340978072414,-0.38882231867904554,-0.20981416146722234,0.20574995101299326,0.8756854318577892,-1.1842938620120675,1.0050565465843861,-1.0459827708384792,-0.30177480758551684,0.40099860758607025,9.813323422429491,27.821163153328584,-23.545455511542137,-28.18992173286172,-29.51939186061329,4.114839284019256
0.23859803524000234,0.07140861041942756,-0.1809145275646858,-0.3909081778314712,-0.21042243961319157,0.20655058700520176,0.8776920437781444,-1.184175579935144,1.0094411080191796,-1.0429295762128268,-0.3041390729846066,0.40031799610424634,9.883783219416017,27.656298096946394,-23.401557066641068,-28.260749206894868,-29.454330883988682,4.121480673434336
0.24035740036341113,0.06904056247625823,-0.17888693061424218,-0.39298782248833125,-0.21103541333702347,0.20734985544648266,0.8796825617043914,-1.1840239715846692,1.0137984752218094,-1.0398223284300405,-0.3064868619159442,0.3996342206404531,9.954342512636527,27.48921629737145,-23.255603347262905,-28.33077387782498,-29.387580163439797,4.128001030324967
0.24212071440848795,0.06667288398072263,-0.17685067405967436,-0.3950611451643318,-0.2116530495052444,0.20814774997903843,0.8816570225384074,-1.183839247767799,1.0181282772839146,-1.0366613380002676,-0.3088180841104715,0.39894726627788124,10.024968405440733,27.31993989899079,-23.107599959618753,-28.399970426529208,-29.319146209512787,4.134399870254159
0.24388794533679006,0.06430564073931655,-0.17480581376915333,-0.3971280390003424,-0.21227531481062512,0.20894426421582776,0.8836154641510563,-1.1836216207030374,1.0224301452605193,-1.0334469180053114,-0.31113265269035273,0.39825711839467426,10.095627695259108,27.148491571398147,-22.957553116988112,-28.468313868615844,-29.24903587262917,4.140676767505811
0.24565906118752587,0.061938898131312516,-0.17275240634469688,-0.39918839776847176,-0.21290217577889833,0.20973939174116182,0.8855579253678999,-1.1833713040020177,1.0267037122282268,-1.0301793840646951,-0.31343048413660435,0.3975637626670248,10.166286895158386,26.974894498963423,-22.805469634855267,-28.53577956211596,-29.17725634166952,4.14683135477301
0.24743403007943457,0.05957272110601074,-0.17069050911801037,-0.4012421158770745,-0.2135335987754112,0.21053312611130615,0.8874844459543569,-1.183088512650891,1.030948613343251,-1.026859054301366,-0.31571149825642875,0.3968671850721591,10.236912255598114,26.799172370151986,-22.651356925727914,-28.602343214957695,-29.103815142407548,4.152863322814384
0.2492128202126352,0.0572071741800281,-0.16862018014621186,-0.4032890883756886,-0.21416955001171173,0.21132546085508858,0.8893950666003089,-1.1827734629913165,1.0351644858992628,-1.0234862493070525,-0.31797561815026976,0.3961673718912105,10.30746978636764,26.621349366601855,-22.49522299364392,-28.667980892219234,-29.028720135795485,4.158772420078435
0.2509953998704435,0.054842321434626,-0.1665414782074418,-0.4053292109599032,-0.21480999555206895,0.21211638947451253,0.8912898289041484,-1.1824263727010513,1.0393509693850242,-1.020061292107289,-0.32022277017860745,0.3954643097119825,10.377925278683287,26.4414501519676,-22.337076428371773,-28.73266902315869,-28.951979516102252,4.164558452296927
0.25278173742115606,0.05247822651307773,-0.16445446279635823,-0.4073623799761555,-0.21545490131992598,0.21290590544537574,0.8931687753562698,-1.182047460774137,1.0435077055417898,-1.0165845081261267,-0.3224528839285107,0.3947579854316028,10.448244327425403,26.259499860539393,-22.17692639931134,-28.796384408018664,-28.873601808905853,4.170221282047338
0.25457180131980006,0.05011495261807637,-0.16235919411951732,-0.4093884924264566,-0.21610423310428592,0.2136940022178939,0.8950319493220005,-1.1816369475006785,1.0476343384204494,-1.0130562251505426,-0.3246658921799644,0.3940483862590684,10.518392353494342,26.07552408564656,-22.014782649101548,-28.859104224602746,-28.793595868941676,4.175760828285251
0.256365560109848,0.047752562509183936,-0.16025573309064053,-0.41140744597304574,-0.2167579565660299,0.21448067321732925,0.8968793950239724,-1.1811950544462164,1.0517305144383893,-1.0094767732945655,-0.3268617308719899,0.3933354997176831,10.58833462626512,25.88954886785404,-21.850655486941296,-28.92080603462255,-28.71197087780811,4.181177065847132
0.2581629824248959,0.04539111850032256,-0.15814414132576843,-0.413419138942972,-0.21741603724416705,0.215265911844624,0.8987111575239345,-1.1807220044306874,1.0557958824360483,-1.0058464849631354,-0.3290403390685759,0.3926193136473878,10.658036286119877,25.70160068296157,-21.68455578163087,-28.98146778981321,-28.62873634153141,4.186470024924033
0.2599640369903039,0.043030682457308615,-0.15602448113830214,-0.4154234703326034,-0.21807844056201592,0.21604971147703797,0.900527282704007,-1.1802180215069729,1.059830093733145,-1.0021656948157125,-0.33120165892443715,0.3918998162069845,10.727462367037404,25.51170642981447,-21.516494954340374,-29.04106783781578,-28.543902087991505,4.191639790506982
0.2617686926247987,0.04067131579543055,-0.15389681553393303,-0.4174203398120627,-0.21874513183331715,0.21683206546879047,0.9023278172473783,-1.1796833309390347,1.0638328021845547,-0.9984347397296538,-0.33334563565061914,0.39117699587625526,10.796577819219337,25.319893417935493,-21.346484971113398,-29.099584927825518,-28.457478264211044,4.1966865018045185
0.2635769182420356,0.03831307947707127,-0.1517612082054614,-0.4194096477295895,-0.21941607626827708,0.21761296715170642,0.9041128086184489,-1.1791181591796371,1.0678036642358097,-0.9946539587633765,-0.3354722174799656,0.39045084145797604,10.865347531732146,25.12618935498797,-21.174538335112473,-29.156998216004425,-28.36947533350929,4.20161035163324
0.26538868285212047,0.03595603400937596,-0.149617723527505,-0.4213912951158281,-0.22009123897954203,0.21839240983586608,0.9058823050424224,-1.1785227338476527,1.0717423389782055,-0.990823693119324,-0.3375813556324661,0.389721342079827,10.933736355144427,24.930622334078897,-21.00066807861436,-29.21328727065721,-28.279904072523045,4.206411585781751
0.2672039555630892,0.03360023944196606,-0.147466426551098,-0.42336518368804166,-0.22077058498810304,0.2191703868102585,0.9076363554843504,-1.1778972837049537,1.0756484882034854,-0.9869442861067547,-0.3396730042805013,0.3889884871962001,11.001709124139072,24.733220820912397,-20.82488775476284,-29.268432077169667,-28.18877556809715,4.211090502348991
0.2690227055823444,0.03124575536470028,-0.14530738299818186,-0.4253312158542504,-0.22145407922913105,0.2199468913434383,0.9093750096276332,-1.1772420386328895,1.0795217764580851,-0.9830160831043723,-0.34174712051400224,0.38825226658990447,11.069230680080052,24.534013640803494,-20.647211429087104,-29.32241304270972,-28.09610121404646,4.215647451057479
0.2708449022180484,0.028892640905483585,-0.14314065925598804,-0.427289294717296,-0.22214168655774214,0.22072191668418586,0.9110983178519828,-1.1765572296083484,1.0833618710969137,-0.9790394315228153,-0.3438036643055407,0.38751267037377074,11.136265893513354,24.333029965561597,-20.46765367079357,-29.37521100068923,-28.00189270779178,4.220082832542184
0.2726705148804701,0.02654095472812477,-0.14096632237131473,-0.42923932407883003,-0.22283337175469287,0.22149545606217017,0.9128063312108535,-1.1758430886794067,1.0871684423366508,-0.9750146807670268,-0.3458425984753673,0.3867696889921554,11.202779686582414,24.130299300253988,-20.286229543839333,-29.426807214987598,-27.906162046872232,4.224397097615942
0.2744995130832868,0.02419075503024364,-0.13878444004469767,-0.4311812084432271,-0.2235290995320057,0.22226750268861487,0.914499101408346,-1.1750998489405657,1.0909411633085377,-0.970942182198523,-0.3478638886564134,0.38602331322234623,11.268737055337823,23.925851469859612,-20.102954597795843,-29.477183383936545,-27.8089215253367,4.228590746511827
0.276331866444838,0.021842099541228482,-0.1365950806244764,-0.4331148530214223,-0.22422883453852424,0.22303804975696662,0.9161766807755929,-1.174327744507578,1.0946797101106431,-0.9668222890975796,-0.34986750325927296,0.3852735341758694,11.334103091921932,23.71971660582266,-19.917844858510954,-29.526321644066268,-27.710183730016592,4.2326643281036995
0.27816754468933125,0.019495045520244753,-0.13439831310075723,-0.43504016373467297,-0.2249325413653986,0.223807090443566,0.9178391222466327,-1.1735270104918647,1.098383761859583,-0.962655356625357,-0.3518534134371808,0.3845203432997,11.398843006608857,23.511925132516478,-19.73091681857783,-29.574204573613066,-27.609961536682768,4.236618439105255
0.28000651764799883,0.017149649754295695,-0.13219420709927387,-0.4369570472182449,-0.22564018455150062,0.22457461790832076,0.9194864793337809,-1.1726978829745285,1.1020530007416733,-0.9584417417859834,-0.35382159305100175,0.3837637323773763,11.462922149680836,23.302507753627964,-19.54218742761985,-29.620815195789586,-27.508268106089677,4.240453723248615
0.28184875526020386,0.014805968556335772,-0.12998283287514686,-0.4388654108250221,-0.22635172858876912,0.2253406252953808,0.9211188061025074,-1.171840598979961,1.1056871120634986,-0.9541818033886169,-0.3557720186342471,0.38300369353002034,11.526306033121909,23.091495438471906,-19.351674082399207,-29.666136981817143,-27.405116879908658,4.244170870443251
0.2836942275744955,0.012464057763437668,-0.12776426130654311,-0.44076516262904114,-0.2270671379274854,0.22610510573381531,0.9227361571458289,-1.1709553964490516,1.1092857843018753,-0.9498759020095041,-0.3577046693581328,0.382240219217264,11.588960352110687,22.878919408246816,-19.159394616759386,-29.71015385372262,-27.300521576554363,4.247770615915881
0.28554290474961197,0.010123972735013668,-0.12553856388823673,-0.44265621142894923,-0.22778637698147877,0.2268680523382915,0.924338587558228,-1.1700425142119997,1.1128487091531936,-0.9455243999540587,-0.35961952699669403,0.38147330223808373,11.650851006293589,22.664811122240337,-18.965367291408754,-29.752850186899078,-27.194496186905962,4.2512537393323555
0.28739475705543016,0.0077857683510922,-0.12330581272507249,-0.4445384667513872,-0.2285094101332627,0.22762945820975458,0.9259261529091084,-1.169102191960734,1.1163755815821168,-0.9411276612189774,-0.36151657589197134,0.3807029357315447,11.711944120821057,22.44920226399651,-18.7696107835554,-29.794210812432723,-27.087054969927266,4.254621063902089
0.2892497548738618,0.005449499010650311,-0.12106608052533324,-0.44641183885429603,-0.22923620173910125,0.2283893164361095,0.9274989092157991,-1.168134670220944,1.1198660998696235,-0.936686051454415,-0.36339580291928136,0.37992911317745465,11.772206067128977,22.23212472745319,-18.572144176401864,-29.83422101919684,-26.97821244818791,4.257873455466198
0.291107868699694,0.0031152186300028566,-0.11881944059401249,-0.4482762387301485,-0.22996671613400643,0.22914762009290335,0.9290569129161185,-1.1671401903237273,1.123319965660375,-0.9321999379262373,-0.36525719745258645,0.37915182839693096,11.831603483448283,22.013610603060656,-18.37298694850812,-29.872866555714285,-26.867983403288967,4.261011821569792
0.29296906914137505,0.0007829806412491371,-0.11656596682599371,-0.45013157810910526,-0.2307009176366664,0.22990436224400912,0.9306002208405105,-1.1661189943768597,1.1267368840093892,-0.9276696894783734,-0.3671007513299765,0.37837107555288024,11.890103295025993,21.79369216389079,-18.172158963032395,-29.91013363179011,-26.756382871196344,4.264037110519533
0.2948333269217426,-0.0015471620092222462,-0.1143057336991377,-0.45197776946209584,-0.23143877055430495,0.2306595359423099,0.932128890183769,-1.1650713252356917,1.130116563428009,-0.9230956764952847,-0.36892645881927605,0.37758684915039353,11.947672734041443,21.57240185174726,-17.969680456858896,-29.94600891991657,-26.64342613748444,4.266950310427166
0.2967006128786953,-0.003875156862169603,-0.1120388162672794,-0.453814726003825,-0.23218023918747252,0.231413134230384,0.9336429784763597,-1.1639974264736783,1.1334587159291458,-0.9184782708645739,-0.37073431658378886,0.37679914403705794,12.004279359201648,21.34977226328617,-17.76557202962102,-29.980479556451883,-26.52912873249409,4.269752448239853
0.29857089796580605,-0.0062009519468747,-0.10976529015313584,-0.4556423616957045,-0.2329252878347689,0.23216515014119038,0.9351425435553576,-1.1628975423525487,1.1367630570717862,-0.9138178459397499,-0.3725243236481927,0.3760079554031864,12.059891075000653,21.125836136156586,-17.559854632629083,-30.013533142575056,-26.413506426407018,4.272444588758106
0.3004441532528761,-0.008524495782458941,-0.10748523154112635,-0.45746059124871086,-0.2336738807974981,0.23291557669875432,0.9366276435350127,-1.1617719177921204,1.1400293060047455,-0.9091147765031702,-0.3742964813645958,0.37521327878196736,12.11447615062767,20.900626335171523,-17.352549557712067,-30.045157745019146,-26.296575224241074,4.275027833642332
0.30232034992643003,-0.010845737379138479,-0.10519871717010704,-0.4592693301261692,-0.23442598238425563,0.2336644069188534,0.93809833677696,-1.1606207983397685,1.1432571855096558,-0.9043694387291793,-0.3760507933787665,0.37441511004953626,12.168003238509643,20.674175838517932,-17.143678425981673,-30.075341896585112,-26.17835136076871,4.27750332040852
0.3041994592901502,-0.013164626239417585,-0.10290582432602069,-0.46106849454646415,-0.23518155691544873,0.23441163380970334,0.939554681860089,-1.1594444301395532,1.146446422043175,-0.8995822101474619,-0.3777872655965471,0.37361344542496994,12.220441392474346,20.446517724015752,-16.933263176528165,-30.10407459643917,-26.05885129536233,4.279872221414202
0.30608145276525034,-0.015481112359219621,-0.10060663083446389,-0.4628580014856774,-0.23594056872774966,0.23515725037264376,0.9409967375500895,-1.1582430599010174,1.1495967457784027,-0.8947534696066296,-0.3795059061504621,0.37280828147020634,12.271760085520288,20.217685155435078,-16.721326055056387,-30.131345310195535,-25.938091706769903,4.282135742835246
0.3079663018907877,-0.017795146228954936,-0.09830121505317291,-0.46463776868015355,-0.2367029821784827,0.23590124960282355,0.9424245627686904,-1.1570169348676584,1.1527078906454942,-0.8898835972380593,-0.3812067253665319,0.37199961508989116,12.321929227180835,19.987711368880397,-16.507889602471142,-30.157143969788216,-25.816089487823895,4.284295123634513
