Joohwan-Seo/mujoco_sysID/Fanuc/Dataset/square_PIH_fanuc_2.csv
q1,q2,q3,q4,q5,q6,dq1,dq2,dq3,dq4,dq5,dq6,t1,t2,t3,t4,t5,t6
-3.810786441744152e-05,0.26184486591718525,-0.2618288068423797,0.00010313967817179494,-1.047169408733197,-9.178873299189198e-06,-0.019053932208720762,0.022739059017914755,-0.014709521615149603,0.05156983908589747,0.014071231700323239,-0.004589436649594599,-1.6068113695001923e-05,141.50710013977334,-443.5234865118867,300.29722936738943,-23.659245720794974,0.29703692750137717
-7.800022328848412e-05,0.2619202841978439,-0.2618855166025745,0.00026846040942998605,-1.0471319041826725,-1.5219934678511827e-05,-0.0199461794355213,0.037709140329322766,-0.028354880097380353,0.08266036562909554,0.018752275262238396,-0.003020530689661314,-0.7995532197330341,142.2384029485441,-443.53402576790467,300.29901079137414,-24.61734781832635,0.29332782445396954
-0.00011153071592064846,0.2620175154038454,-0.2619658865627836,0.0004744488126786526,-1.0470943120260474,-1.5854452366017283e-05,-0.016765246316082172,0.048615603000726815,-0.04018498010453898,0.10299420162433327,0.018796078312562622,-0.0003172588437527282,-1.5989864436468393,142.97009106647872,-443.54163133738774,300.3016577377383,-25.574330238880005,0.29049239224302026
-0.00013822207349059124,0.2621319212494814,-0.2620663013430395,0.000708163989817888,-1.0470605994360114,-1.1417462198257483e-05,-0.013345678784971383,0.05720292281800937,-0.05020739012794917,0.11685758856961766,0.016856295018041652,0.002218495083879899,-2.398590994568759,143.702479316398,-443.5482794257479,300.3037690371469,-26.530692842100994,0.288346333331846
-0.0001595560922021715,0.2622605431023967,-0.2621835497033009,0.0009612066228135887,-1.0470322423820833,-2.81495062036252e-06,-0.010667009355790132,0.06431092645763957,-0.058624180130708844,0.12652131649785037,0.014178526964007943,0.0043012557889474815,-3.1984292181336356,144.43574545870962,-443.55517721455294,300.30424619229444,-27.486684650158157,0.2865414007935985
-0.00017721886836096065,0.2624012591472667,-0.2623149114552107,0.0012278767573607882,-1.0470095814509934,9.076688985483165e-06,-0.008831388079394573,0.07035802243498712,-0.06568087595491111,0.13333506727359976,0.011330465544937461,0.0059458198029228426,-3.998470849912971,145.16981818621787,-443.5627339867043,300.3024697323767,-28.442417096610438,0.284839691550646
-0.0001926310414906007,0.2625524110494399,-0.26245812059888596,0.0015042115697167983,-1.0469924643342174,2.355259953501932e-05,-0.007706086564820027,0.07557595108659529,-0.0716045718376389,0.13816740617800508,0.008558558387960363,0.007237955274768079,-4.798662974871286,145.90453165577418,-443.57095982953797,300.2981296842987,-29.397939731137484,0.2831121929344611
-0.00020688054952661993,0.26271263753567436,-0.2626112950287556,0.001787420775591463,-1.0469805468597846,4.0082653492618295e-05,-0.007124754018009619,0.08011324311722962,-0.07658721493481394,0.14160460293733243,0.0059587372163749965,0.008265026978799486,-5.59895626801992,146.63971444930564,-443.57970990436877,300.2910840809325,-30.353274517590613,0.2812998601256872
-0.00022076770351932282,0.26288079463922487,-0.2627728675670387,0.002075526691388137,-1.0469734316584716,5.827969850653733e-05,-0.006943576996351447,0.0840785517752391,-0.08078626914155591,0.14405295789833697,0.0035576006564903154,0.009098522506959517,-6.399311629708964,147.37522203275097,-443.588798835867,300.2812759686153,-31.30843056761743,0.2793826459874266
-0.00023487003926474494,0.26305591162270603,-0.2629415280459724,0.00236712272409316,-1.0469707297355095,7.78649641146e-05,-0.007051167872711068,0.08755849174058689,-0.08433023946683192,0.14579801635251152,0.0013509614810510752,0.00979263280403134,-7.199699955639202,148.11094278675878,-443.59804743326885,300.2686893160903,-32.2634105941578,0.27736028932474166
-0.0002496001590178175,0.2632371620093802,-0.26311617698794176,0.0026612065870315264,-1.046972085535561,9.863916745837643e-05,-0.007365059876536281,0.0906251933370712,-0.08732447098470512,0.1470419314691832,-0.0006779000257809546,0.010387101671888213,-8.000100133261176,148.8467943694115,-443.60729861964234,300.25332649563444,-33.21821385778665,0.2752414885496715
-0.00026525109906737235,0.26342384169156297,-0.26329588889197164,0.0029570633231240416,-1.0469771849068858,0.00012046041424973257,-0.007825470024777412,0.09333984109138979,-0.0898559520149459,0.14792836804625764,-0.0025496856623307288,0.010910623395678071,-8.800496978270003,149.58271765737186,-443.61642042888536,300.2351970766699,-34.17283757608859,0.27303815585465746
-0.0002820301331820019,0.2636153510132611,-0.2634798829257502,0.003254182589650807,-1.0469857552867414,0.0001432279183747816,-0.008389517057314775,0.09575466084906628,-0.09199701688926508,0.1485596332633827,-0.004285189927734886,0.011383752062524519,-9.600879559459047,150.31867095062836,-443.62530409307817,300.2143124409631,-35.127277631857716,0.27076254692204554
-0.0003001074355780746,0.26381088415927934,-0.2636676324260585,0.0035522058960269186,-1.046997630367816,0.0001668608134144623,-0.00903865119803635,0.0977665730091153,-0.09387475015415167,0.1490116531880559,-0.005937540537220504,0.01181644751984034,-10.401257318539196,151.0546422150882,-443.63390382309944,300.19067235755676,-36.08156472114268,0.2684351870478652
-0.0003196116781369633,0.26400949768789833,-0.2638587828963541,0.003850877949777752,-1.0470127072287774,0.00019129783960303553,-0.00975212127944433,0.0993067643095009,-0.09557523514779957,0.1493360268754166,-0.007538430480768672,0.012218513094286615,-11.201632621019618,151.79060507076775,-443.6421626762878,300.1642861586861,-37.03572168704601,0.2660715374274617
-0.00034060062243841395,0.2642106032423444,-0.2640528945697669,0.004150006790658357,-1.0470308187533441,0.0002165077231565426,-0.010494472150725347,0.100552777223047,-0.09705583670637635,0.14956442044030252,-0.009055762283398812,0.012604941776753531,-12.001978034095389,152.52650068328091,-443.6499538283248,300.13518228113907,-37.98971026059169,0.2636689450808199
-0.0003631108676124362,0.26441377619299805,-0.2642495436223804,0.0044494553395237006,-1.04705179985455,0.00024246964887099484,-0.011255122587011127,0.10158647532681357,-0.09832452630676142,0.14972427443267194,-0.01049055060295924,0.012980962857226119,-12.802285237664167,153.26230928750027,-443.6572087362308,300.1033670647238,-38.94351303638898,0.2612304624644903
-0.0003871688483616229,0.2646186829726013,-0.26444835139560996,0.004749126724743561,-1.0470755046423676,0.00026916840922236077,-0.012028990374593337,0.10245338980165046,-0.09940388661478541,0.14983569260993038,-0.011852393908779072,0.013349380175682952,-13.602551062111411,153.99802313635018,-443.6638794421193,300.0688427779676,-39.897119198057894,0.25876073767580315
-0.00041279380106292905,0.2648250503077432,-0.264648989230083,0.005048952384545507,-1.047101808531964,0.0002965927722915065,-0.012812476350653077,0.10318366757094105,-0.10031891723651773,0.14991282990097296,-0.013151944798258429,0.013712181534572872,-14.40277364651903,154.73363861523393,-443.6699279431707,300.0316111508223,-40.85051988732042,0.2562643775274052
-0.0004399993471275832,0.2650326499517734,-0.2648511753358684,0.005348883591572153,-1.0471306062002896,0.00032473452802314867,-0.013602773032327068,0.10379982201509405,-0.10109305289267868,0.14996560351332278,-0.01439883416278216,0.014070877865821072,-15.202951434400685,155.4691538093493,-443.67532281646595,299.99167376159994,-41.80370670898422,0.25374540983259186
-0.00046879481171947145,0.26524128960768817,-0.26505466943763517,0.005648885576799935,-1.0471618087715264,0.0003535877438839154,-0.01439773229594412,0.10431982795737899,-0.10174705088339875,0.15000099261389122,-0.015601285618435505,0.014426607930383374,-16.003082927356587,156.2045676302781,-443.6800377646271,299.949031956806,-42.756671259729714,0.25120718670505815
-0.0004991863490251849,0.2654508066386702,-0.265259267191339,0.005948933450667725,-1.0471953411883712,0.0003831481674797447,-0.015195768652856765,0.10475851549103295,-0.10229887685193147,0.15002393693389526,-0.016766208422345153,0.014780211797914646,-16.803166626694328,156.93987941664977,-443.6840507081399,299.90368680628916,-43.70940499278363,0.24865244227925276
-0.0005311778442376264,0.2656610632551939,-0.26546479503326254,0.006249009349390402,-1.0472311399726018,0.00041341276354272605,-0.01599574760622075,0.1051283082618396,-0.10276392096175797,0.1500379493613382,-0.01789939211525347,0.015132298031490698,-17.603201016773507,157.67508870682158,-443.6873430857653,299.8556391249367,-44.661899192310614,0.2460833902495364
-0.000564771599141263,0.2658719426286128,-0.26567110563980234,0.0065491004231772905,-1.047269151363499,0.0004443793669963114,-0.016796877451818338,0.10543968670944831,-0.10315530326990116,0.15004553689344413,-0.019005695448617993,0.015483301726792674,-18.403184556696594,158.41019509450138,-443.68989927861054,299.8048895254024,-45.61414498236795,0.24350181994911332
-0.0005999688346572348,0.2660833456689068,-0.2658780740035877,0.006849197409820857,-1.0473093297750928,0.00047604642906703677,-0.017598617757985876,0.10570152014699075,-0.10348418189269235,0.15004849332178333,-0.020089205796840995,0.015833531035362683,-19.203115674379234,159.1451981353693,-443.6917061303682,299.75143847594273,-46.56613334528997,0.2409091787920205
-0.0006367700502934113,0.266295188319653,-0.26608559407329707,0.007149293619324207,-1.047351636513087,0.0005084128342920935,-0.018400607818088235,0.10592132537310668,-0.10376003485467489,0.1500481047516748,-0.021153368997121003,0.016183202612528348,-20.002992762492685,159.88009728876796,-443.6927525477986,299.6952863516036,-47.51785514117324,0.23830663951197983
-0.0006751752767098036,0.26650739927402567,-0.2662935758891892,0.007449384209173077,-1.047396038702645,0.0005414777698857155,-0.019202613208196165,0.10610547718633946,-0.10399090794608137,0.15004529492443536,-0.022201094778966556,0.01653246779681098,-20.802814176301823,160.61489188408498,-443.69302916835085,299.63643347527653,-48.469301125851544,0.2356951539689195
-0.000715184250595017,0.26671991804110057,-0.2665019431468761,0.0077494656660644185,-1.0474425083885996,0.000575240633051808,-0.020004486942606675,0.10625938353744012,-0.10418362884344048,0.15004072844567087,-0.02323484297723246,0.016881431583046252,-21.602578233192332,161.34958110429451,-443.69252808352127,299.5748801488494,-49.42046196670438,0.23307549596885513
-0.000756796534043625,0.2669326933066854,-0.26671063112785,0.008049535434721759,-1.0474910217779207,0.0006097009654832696,-0.020806141724304027,0.10638763279240807,-0.10434399048694087,0.15003488432867038,-0.024256694660599216,0.01723016621573079,-22.4022832135205,162.08416398110177,-443.69124260826186,299.51062667597046,-50.37132825629881,0.23044829535219408
-0.0008000115947625436,0.2671456815430097,-0.26691958494271417,0.008349591651703847,-1.0475415586004704,0.0006448584071993507,-0.02160753035945929,0.1064941181621561,-0.10447690743208583,0.15002810849104445,-0.025268411274772647,0.017578720858040544,-23.20192736239236,162.8186393976449,-443.689167088386,299.4436733781774,-51.321890524069104,0.22781406520641942
-0.0008448288588970712,0.26735884582918157,-0.2671287580404032,0.008649632954262534,-1.0475941015687027,0.0006807126640727914,-0.02240863206726386,0.10658214308592204,-0.10458654884450715,0.15002065127934341,-0.026271484116139197,0.017927128436720334,-24.001508892027395,163.55300609586862,-443.6862967393678,299.3740206059697,-52.272139246283125,0.22517322366885026
-0.0008912477448913954,0.26757215485034663,-0.2673381109433672,0.008949658342904272,-1.0476486359204948,0.0007172634850152414,-0.023209442997162086,0.10665451058253357,-0.10467645148197521,0.15001269432086875,-0.02726717589605597,0.01827541047122497,-24.80102598443521,164.28726268655493,-443.68262751114264,299.30166874611666,-53.22206485453562,0.22252611146083687
-0.0009392676843405815,0.2677855820484415,-0.2675476101745812,0.009249667082418287,-1.0477051490320253,0.0007545106459585613,-0.024009969724593048,0.10671359904742203,-0.104749615606991,0.15000436975700773,-0.028256555765216414,0.01862358047165994,-25.600476794206347,165.02140766063468,-443.67815597450783,299.22661822621336,-54.17165774298381,0.21987300604002075
-0.0009888881340240716,0.26799910490157386,-0.26775722734733465,0.009549658630484348,-1.0477636300898003,0.0007924539386071215,-0.024810224841745044,0.10676142656616903,-0.10480858637672637,0.14999577403303044,-0.029240528887554566,0.018971646324280098,-26.399859451279887,165.75543940086678,-443.67287922551753,299.148869517255,-55.12090827451229,0.21721413306113868
-0.0010401085820502783,0.2682127043125524,-0.2679669383931232,0.009849632586074965,-1.0478240698126933,0.0008310931625327498,-0.025610224013103342,0.10679970548926958,-0.1048555228942744,0.14998697779530834,-0.03021986144647278,0.01931961196281412,-27.199172063598436,166.4893561932983,-443.6667948049125,299.06842313480934,-56.06980678598718,0.214549675685486
-0.001092928550147623,0.2684263640900402,-0.2681767229066931,0.010149588652080958,-1.0478864602163107,0.0008704281196072497,-0.026409984048672345,0.10682988874392348,-0.10489225678494847,0.14997803300299645,-0.03119520180869773,0.01966747853724992,-27.998412719596605,167.22315623814632,-443.65990063013976,298.985279639216,-57.01834359273667,0.21187978216367287
-0.0011473475935056762,0.2686400705083075,-0.26838656359046065,0.01044952660817078,-1.047950794413206,0.0009104586100668957,-0.02720952167902662,0.10685320913365498,-0.10492034188377297,0.14996897804491097,-0.03216709844762985,0.020015245229823012,-28.797579490494414,167.95683765990103,-443.65219493793893,298.8994396351269,-57.96650899237441,0.20920457202718218
-0.001203365299125617,0.2688538119336812,-0.2685964457832246,0.010749446291024234,-1.0480170664434643,0.0009511844297147147,-0.028008852809970394,0.10687071268683576,-0.10494109638197417,0.14995984142672683,-0.03313601512906753,0.020362909823909446,-29.59667043238442,168.69039851655393,-443.6436762358131,298.8109037706196,-58.914293268063986,0.20652414115511694
-0.0012609812833278523,0.2690675785075904,-0.2688063570603781,0.011049347579889438,-1.0480852711310271,0.0009926053679152641,-0.02880799210111767,0.10688328695461123,-0.10495563857674928,0.14995064443260228,-0.034102343781453354,0.02071046910027474,-30.395683588112988,169.42383680792597,-443.6343432609808,298.71967273604815,-59.861686691309195,0.20383856592858351
-0.0013201951888475436,0.26928136187763557,-0.2690162868947687,0.011349230385990158,-1.0481554039618395,0.0010347212061412728,-0.02960695275984573,0.10689168502257981,-0.10496491719530968,0.1499414030503603,-0.03506641540613567,0.021057919113004378,-31.194616988963396,170.1571504831139,-443.62419494563625,298.62574726275085,-60.80867952434099,0.20114790664287366
-0.0013810066817983124,0.2694951549694056,-0.26922622636900256,0.011649094644724595,-1.0482274609804947,0.0010775317169048845,-0.030405746475384368,0.10689654588503077,-0.10496973711692499,0.14993212936721895,-0.03602850932764647,0.02140525538180581,-31.993468656152903,170.89033744710088,-443.6132303875346,298.5291281216978,-61.75526202216152,0.19845221031426313
-0.0014434154486808576,0.2697089517928705,-0.26943616793138586,0.011948940309893323,-1.0483014387025698,0.0011210366629575707,-0.031204383441272663,0.10689841173245591,-0.10497078119165755,0.14992283258436362,-0.03698886103753064,0.02175247302634313,-32.79223660215816,171.62339556659143,-443.601448825076,298.42981612213595,-62.701424434297195,0.1957515129918535
-0.001507421193542651,0.26992274727811005,-0.2696461051888826,0.01224876734940669,-1.0483773340402622,0.001165235796678575,-0.032002872430896626,0.10689774261976623,-0.10496862874837691,0.14991351975668382,-0.03794766884620486,0.02209956686050213,-33.59091883188431,172.35632267513938,-443.5888496161935,298.3278121102709,-63.647157006303985,0.19304584166386907
-0.0015730236353473524,0.27013653713593394,-0.2698560327314719,0.012548575742074644,-1.048455144239311,0.001210128859596634,-0.032801220902350686,0.10689492891193109,-0.1049637712946424,0.14990419633397664,-0.038905099524408314,0.02244653145902958,-34.38951334369307,173.08911657763718,-443.5754322204598,298.22311696801,-64.59244998106234,0.19033521583104562
-0.001640222505581138,0.27035031773962137,-0.2700659459831413,0.01284836547519151,-1.048534866825487,0.0012557155820069718,-0.033599435116892805,0.10689030184372353,-0.10495662583470719,0.14989486655843268,-0.039861293088018196,0.022793361205168904,-35.18801813030472,173.82177505423476,-443.56119618391716,298.1157316117825,-65.53729359989323,0.1876196488062779
-0.0017090175461027732,0.27056408602457993,-0.27027584107547564,0.013148136542707176,-1.0486164995592,0.0013019956826574586,-0.034397520260817646,0.10688414247928933,-0.10494754616716072,0.14988553375783265,-0.0408163668565126,0.023140050325243345,-35.986431179587754,174.55429586375263,-443.5461411262161,298.0056569914439,-66.48167810352201,0.1848991487888537
-0.0017794085072315477,0.27077783940320793,-0.2704857147404133,0.013447888943832888,-1.048700040396991,0.0013489688684860124,-0.035195480564387226,0.10687668931399548,-0.1049368324688272,0.14987620056285664,-0.041770418895490685,0.023486592914276894,-36.784750475249176,175.28667674664774,-443.53026672970805,297.892894089269,-67.42559373291317,0.1821737197528299
-0.0018513951460596518,0.27099157569265653,-0.2706955642192632,0.013747622681970884,-1.0487854874588647,0.001396634834396915,-0.0359933194140521,0.1068681447242943,-0.10492473942497972,0.14986686906899763,-0.04272353093683692,0.023832982955451262,-37.582973997437016,176.01891542758707,-443.51357273019363,297.7774439190316,-68.36903072999492,0.17944336218200985
-0.0019249772249715271,0.27120529305353686,-0.2709053871855161,0.014047337763886671,-1.0488728390005764,0.0014449932630675225,-0.03679103945593769,0.10685868044017438,-0.10491148312644716,0.1498575409578939,-0.043675770855868365,0.024179214335303775,-38.38109972326585,176.75100961767794,-443.4960589090764,297.65930752516977,-69.31197933829046,0.17670807367818922
-0.0020001545103509617,0.2714189899379135,-0.2711151816793575,0.014347034199064296,-1.0489620933901218,0.0014940438247794355,-0.03758864268971736,0.10684844218832223,-0.10489724692070496,0.1498482175888124,-0.04462719477273399,0.024525280855956472,-39.17912562727454,177.482957016398,-443.4777250867062,297.538485982032,-70.25442980346976,0.17396784946462834
-0.0020769267714564263,0.27163266504517686,-0.2713249460521088,0.014646711999200455,-1.049053249087792,0.001543786177269927,-0.03838613055273242,0.106837553631674,-0.10488218637564323,0.14983890006807934,-0.04557784883510646,0.02487117624524569,-39.977049681824845,178.21475531326422,-443.4585711167321,297.4149803931981,-71.19637237383377,0.1712226828028506
-0.0021552937794457774,0.27184631728460085,-0.27153467891909,0.014946371177804728,-1.049146304629253,0.0015942199656005975,-0.039183503994675566,0.10682611971199221,-0.10486643349061954,0.14982958930213666,-0.04652777073053721,0.025216894165335253,-40.774869857448195,178.94640218927552,-443.43859688131135,297.28879189087166,-72.13779730074106,0.16847256533770488
-0.002235255306532619,0.27205994574357273,-0.27174437911962795,0.015246011749881477,-1.049241258611192,0.0016453448220410036,-0.03998076354342073,0.10681422948594163,-0.10485010026897597,0.1498202860383743,-0.04747699096949732,0.025562428220203045,-41.572584123147394,179.67789531815797,-443.4178022870447,297.1599216353356,-73.07869483898585,0.16571748738303527
-0.002316811125258061,0.2722735496606356,-0.2719540456831257,0.015545633731675045,-1.0493381096791399,0.001697160365965526,-0.04077790936272111,0.10680195853142724,-0.10483328174887342,0.1498109908967837,-0.04842553397389559,0.02590777196226115,-42.370190446658846,180.4092323674399,-443.39618726152713,297.02837081446745,-74.0190552471343,0.16295743815816333
-0.0023999610078631653,0.27248712840261424,-0.2721636778002749,0.015845237140464395,-1.049436856517141,0.001749666203762094,-0.04157494130255211,0.10678937098932194,-0.10481605857460101,0.14980170439467433,-0.04937341900058271,0.02625291889828395,-43.167686794680726,181.14041099937947,-443.3737517504217,296.89414064330754,-74.95886878782545,0.16019240598363085
-0.002484704725748921,0.27270068144520593,-0.272373274798631,0.016144821994396624,-1.0495374978389909,0.0018028619287516182,-0.042371858942877844,0.106776521295841,-0.10479849917805255,0.1497924269661139,-0.05032066092487088,0.02659786249476205,-43.96507113307114,181.87142887176492,-443.35049571497655,296.7572323636754,-75.89812572804236,0.15742237844319562
-0.0025710420490120977,0.2729142083565108,-0.27258283612189,0.016444388312351278,-1.0496400323808015,0.0018567471211171451,-0.04316866163158832,0.1067634556524451,-0.10478066162948937,0.1497831589773261,-0.05126727090529913,0.02694259618276347,-44.76234142702056,182.60228363860412,-443.32641912991755,296.61764724382914,-76.8368163393574,0.15464734251787474
-0.0026589727460467082,0.2731277087830569,-0.2727923613123055,0.016743936113829218,-1.049744458894697,0.0019113213478418652,-0.04396534851730523,0.10675021327304791,-0.10476259520774034,0.1497739007389703,-0.052213256947653046,0.027287113362360064,-45.55949564120174,183.33297295072035,-443.30152198166064,296.47538657816364,-77.77493089815603,0.15186728469683436
-0.0027484965832020973,0.2733411824379415,-0.27300184999577026,0.01704346541886121,-1.049850776143464,0.00196658416265519,-0.044761918577694494,0.10673682744227463,-0.10474434173238259,0.14976465251599708,-0.05315862438351533,0.027631407406662468,-46.356531739900156,184.06349445626466,-443.275804266795,296.33045168694326,-78.71245968584208,0.14908219106910997
-0.0028396133244898204,0.2735546290907683,-0.27321130186915826,0.017342976247932424,-1.0499589828960165,0.0020225351059861853,-0.04555837064386154,0.10672332641340444,-0.1047259366939933,0.149755414535607,-0.054103376276305765,0.0279754716654977,-47.153447687127446,184.793845801159,-443.24926599079515,296.182843916065,-79.64939298902715,0.1462920473994512
-0.0029323227313325065,0.27376804855910886,-0.27342071668958445,0.01764246862191985,-1.0500690779235482,0.002079173704923701,-0.046354703421343055,0.106709734170289,-0.10470741021308885,0.1497461869937134,-0.0550475137658037,0.028319299468757924,-47.95024144672031,185.5240246294776,-443.2219071669294,296.03256463684886,-80.58572109970692,0.14349683919103007
-0.0030266245623488067,0.2739814407012566,-0.2736300942652919,0.017941942562040285,-1.050181059996269,0.0021364994731825917,-0.047150915508150086,0.10669607107385747,-0.1046887878537248,0.14973697006021727,-0.055991036360478995,0.028662884129445333,-48.7469109824267,186.25402858377663,-443.1937278153324,295.87961524585234,-81.5214343154258,0.1406965517372798
-0.0031225185731693313,0.27419480541007796,-0.27383943444791947,0.018241398089806952,-1.0502949278806402,0.002194511911075464,-0.04794700541026229,0.10668235441069553,-0.10467009131379032,0.1497277638833333,-0.05693394218554267,0.029006218946436044,-49.54345425798091,186.98385530537803,-443.16472796221876,295.7239971647062,-82.45652293943213,0.1378911701647436
-0.0032200045162791777,0.274408142607795,-0.27404873712594086,0.018540835226993256,-1.050410680337027,0.0022532105054894327,-0.04874297155492316,0.10666859885853518,-0.10465133901069018,0.14971856859315205,-0.05787622819342892,0.02934929720698431,-50.33986923716931,187.7135024346154,-443.1349076392161,295.565711839969,-83.39097728082493,0.135080679468492
-0.0033190821408832596,0.2746214522415575,-0.2742580022190974,0.018840253995602425,-1.050528316117712,0.0023125947298674072,-0.04953881230204093,0.10665481688124324,-0.10463254657827231,0.14970938430458433,-0.05881789034240277,0.029692112188987322,-51.136153883887744,188.44296761104624,-443.10426688279864,295.40476074299767,-84.32478765469395,0.1322650645414007
-0.0034197511927911792,0.27483473427968547,-0.2744672296736743,0.01913965441784203,-1.0506478339652081,0.002372664044193467,-0.05033452595395984,0.10664101906398954,-0.10461372728845454,0.14970021111980314,-0.05975892374812404,0.030034657163029856,-51.93230616219183,189.17224847363502,-443.0728057338068,295.2411453698332,-85.25794438225337,0.1294443101983588
-0.0035220114143188408,0.2750479887084808,-0.27467641945849225,0.01943903651610258,-1.0507692326108327,0.0024334178949819217,-0.051130110763830824,0.1066272143976573,-0.10459489240896395,0.1496910491302744,-0.060699322812265664,0.03037692539422723,-52.7283240363411,189.90134266091212,-443.0405242370395,295.0748672410982,-86.1904377909708,0.12661840119629264
-0.0036258625442044004,0.27526121552952115,-0.274885571561506,0.019738400312939483,-1.0508925107734959,0.0024948557152696896,-0.05192556494277979,0.10661341052018392,-0.10457605150687266,0.14968189841845042,-0.06163908133166382,0.03071891014388399,-53.5242054708379,190.63024781111164,-443.007422440909,294.90592790190675,-87.12225821469158,0.12378732225074196
-0.0037313043175364884,0.27547441475736384,-0.2750946859869183,0.020037745831057854,-1.0510176671586777,0.0025569769246116597,-0.05272088666604408,0.10659961392135688,-0.10455721270614433,0.14967275905918476,-0.06257819259094964,0.031060604670984947,-54.319948430461544,191.35896156229055,-442.9735003971472,294.73432892178255,-88.05339599375978,0.12095105804959111
-0.0038383364656929373,0.27568758641759705,-0.2753037627527306,0.020337073093299688,-1.05114470045756,0.002619780929078728,-0.053516074078224445,0.10658583011659972,-0.10453838290616187,0.14966363112091705,-0.06351664944116535,0.03140200223353404,-55.115550880298684,192.08748155243254,-442.93875816055674,294.56007189458654,-88.98384147513575,0.11810959326446197
-0.003946958716288495,0.27590073054518593,-0.2755128018886649,0.02063638212263302,-1.051273609346293,0.002683267121258239,-0.054311125297778824,0.10657206379444494,-0.10451956796714901,0.14965451466666624,-0.06445444436648842,0.03174309608975568,-55.91101078577005,192.8158054195383,-442.90319578880064,294.3831584384515,-89.91358501251105,0.11526291256018195
-0.004057170793130229,0.2761138471830693,-0.2757218034343999,0.02093567294214275,-1.0514043924853749,0.0027474348802565833,-0.05510603842086683,0.10655831894167923,-0.10450077286750267,0.149645409754865,-0.06539156954086525,0.03208387949917209,-56.70632611265439,193.54393080170422,-442.86681334222266,294.2035901957232,-90.84261696642136,0.11241100060266992
-0.004168972416179505,0.2763269363809684,-0.2759307674380745,0.021234945575022875,-1.051537048519127,0.0028122835717037217,-0.05590081152463818,0.10654459894954235,-0.10448200183729259,0.14963631644006095,-0.06632801687608311,0.03242434572356911,-57.50149482710981,194.27185533719137,-442.8296108836962,294.021368832907,-91.77092770435695,0.10955384206552421
-0.004282363301519596,0.2765399981943761,-0.2761396939550176,0.02153420004456989,-1.0516715760752522,0.002877812547759446,-0.05669544267004523,0.10653090670384865,-0.10446325847153921,0.1496272347735069,-0.06726377806257733,0.03276448802786209,-58.296514895692816,194.99957666448594,-442.7915884784953,293.8364960406194,-92.69850760087192,0.10669142163554726
-0.004397343161328092,0.276753032683699,-0.27634858304667026,0.021833436374177204,-1.0518079737644603,0.0029440211471211905,-0.05748992990424813,0.10651724466146616,-0.10444454582633397,0.14961816480365805,-0.06819884460407413,0.03310429968087236,-59.09138428537569,195.72709242235172,-442.7527461941861,293.6489735335439,-93.62534703769181,0.10382372401739842
-0.004513911703853435,0.2769660399135294,-0.27655743477967104,0.022132654587330387,-1.0519462401801543,0.0030109086950332385,-0.05828427126267168,0.1065036149152189,-0.10442586650040123,0.14960910657659104,-0.06913320784700268,0.03344377395602394,-59.886100963561844,196.45440024987755,-442.7130841005339,293.4588030503899,-94.55143640381989,0.10095073393753462
-0.004632068633394964,0.2771790199520274,-0.27676624922507964,0.022431854707603102,-1.0520863738981652,0.003078474503297177,-0.059078464770763985,0.10649001924896527,-0.10440722270430755,0.14960006013635727,-0.07006685900546887,0.03378290413196919,-60.6806628981002,197.1814977865184,-442.67260226942557,293.2659863538558,-95.47676609564272,0.09807243614756933
-0.0047518136502859645,0.2773919728703961,-0.27697502645771804,0.022731036758653664,-1.05222837347653,0.0031467178702834797,-0.059872508445500364,0.10647645918433976,-0.10438861631918991,0.14959102552528114,-0.07099978918246284,0.034121683493151374,-61.475068057298,197.90838267213203,-442.6313007748027,293.0705252305935,-96.4013265170344,0.09518881542715929
-0.004873146450879303,0.27760489874243693,-0.2771837665556112,0.02303020076422209,-1.0523722374553057,0.003215638080944102,-0.060666400296669226,0.10646293602042065,-0.10437004894659002,0.14958200278421177,-0.07193198938787054,0.034460105330311186,-62.269314409932704,198.63505254701224,-442.5891796926062,292.8724214911763,-97.32510807946039,0.09229985658650453
-0.004996066727535246,0.27781779764417175,-0.2773924695995127,0.02332934674812756,-1.0525179643564133,0.0032852344068259893,-0.061460138327971627,0.10644945086739396,-0.10435152195074247,0.14957299195273546,-0.0728634505537735,0.03479816294094371,-63.06339992526303,199.36150505191762,-442.54623910072826,292.6716769700682,-98.24810120208036,0.0894055444685366
-0.005120574168611169,0.278030669653522,-0.2776011356725016,0.023628474734266273,-1.0526655526835083,0.0033555061060854124,-0.06225372053796156,0.10643600467512325,-0.10433303649445945,0.1495639930693553,-0.07379416354744725,0.03513584962971155,-63.85732257303907,200.08773782809888,-442.50247907897267,292.4682935255952,-99.17029631185083,0.0865058639508533
-0.00524666845845287,0.2782435148500368,-0.27780976485964076,0.023927584746609557,-1.052815000921873,0.0034264524235030507,-0.0630471449208501,0.10642259825739557,-0.1043145935695821,0.14955500617164277,-0.0747241191824071,0.035473158708819175,-64.65108032351186,200.81374851732224,-442.4578997090206,292.26227303991743,-100.0916838436268,0.08360079994745073
-0.005374349277387256,0.2784563333146618,-0.2780183572476864,0.024226676809202288,-1.0529663075383286,0.0034980725904997572,-0.06384040946719316,0.10640923231249882,-0.1042961940228212,0.1495460312963658,-0.07565330822779656,0.03581008349835319,-65.44467114744232,201.53953476189162,-442.4125010744024,292.05361741900356,-101.01225424026336,0.08069033741028936
-0.005503616301716216,0.27866912512954317,-0.2782269129248418,0.02452575094616148,-1.0531194709811613,0.0035703658251529423,-0.06463351216447975,0.10639590744068533,-0.10427783857768567,0.14953706847959694,-0.07658172141636967,0.036146617326592544,-66.23809301610962,202.26509420466866,-442.3662832604733,291.8423285926054,-101.93199795271686,0.07777446133072916
-0.0056344692037114865,0.27888189037786115,-0.278435431980548,0.024824807181675092,-1.0532744896800639,0.0036433313322135267,-0.0654264509976354,0.10638262415899309,-0.10425952785309109,0.14952811775680502,-0.07750934945127981,0.03648275353029219,-67.03134390131929,202.99042448909114,-442.319246354393,291.6284085142333,-102.85090544014534,0.07485315674086004
-0.005766907651610392,0.2790946291436888,-0.2786439145053063,0.025123845540000956,-1.0534313620460876,0.0037169683031234137,-0.06621922394945286,0.10636938291382432,-0.10424126237915136,0.14951917916293217,-0.07843618301185595,0.036818485454943574,-67.82442177541071,203.71552325919012,-442.27139044510864,291.41185916113307,-103.76896717000938,0.07192640871474953
-0.005900931309612314,0.2793073415118721,-0.2788523605905274,0.025422866045465873,-1.0535900864716046,0.003791275916033443,-0.06701182900096071,0.10635618409162123,-0.10422304261057955,0.1495102527324592,-0.07936221275851939,0.037153806455014655,-68.61732461126454,204.44038815960596,-442.22271562334055,291.1926825342627,-104.68617361817181,0.06899420236962228
-0.006036539837875793,0.27952002756792793,-0.27906077032840354,0.025721868722464795,-1.0537506613302785,0.003866253335821787,-0.06780426413173915,0.10634302802792643,-0.10420486893806037,0.14950133849946073,-0.08028742933697113,0.03748870989417202,-69.41005038230965,205.16501683560344,-442.17322198157035,290.97088065827023,-105.60251526899805,0.06605652286699026
-0.006173732892516173,0.2797326873979581,-0.27926914381179935,0.026020853595460098,-1.053913084977042,0.0039418997141127616,-0.06859652732019028,0.10632991501507248,-0.10418674169790129,0.1494924364976517,-0.08121182338176033,0.03782318914548725,-70.2025970625299,205.88940693308567,-442.1229096140305,290.746455581471,-106.51798261545551,0.06311335541374302
-0.006312510125603713,0.2799453210885755,-0.27947748113415977,0.026319820688980953,-1.0540773557480807,0.004018214189296021,-0.06938861654376988,0.10631684530870848,-0.10416866118022261,0.1494835467604267,-0.08213538551932743,0.03815723759162949,-70.99496262647085,206.61355609860786,-442.0717786166965,290.51940937582674,-107.4325661592133,0.06016468526320545
-0.006452871185162085,0.2801579287268422,-0.2796857823894316,0.026618770027622737,-1.0542434719608218,0.004095195886546113,-0.07018052977918601,0.10630381913333893,-0.10415062763590804,0.14947466932089307,-0.08305810637060154,0.03849084862504598,-71.78714504924595,207.33746197938956,-442.01982908727933,290.2897441369234,-108.34625641074133,0.057210497716174424
-0.0065948157151672245,0.28037051040021627,-0.2798940476719966,0.026917701636046534,-1.0544114319139282,0.004172843917842377,-0.07097226500256949,0.10629083668702495,-0.10413264128250337,0.14946580421189898,-0.0839799765532193,0.03882401564813195,-72.57914230654292,208.0611222233278,-441.9670611252204,290.0574619839499,-109.25904388940982,0.05425077812193746
-0.006738343355546465,0.280583066196507,-0.28010227707661506,0.027216615538978646,-1.054581233887295,0.004251157381989159,-0.07176382018962021,0.10627789814537408,-0.10411470230922214,0.14945695146605695,-0.08490098668342284,0.03915673207339128,-73.37095237462978,208.78453447900816,-441.91347483168653,289.82256505967746,-110.17091912358796,0.05128551187927777
-0.0068834537421779305,0.2807955962038369,-0.28031047069837745,0.027515511761210174,-1.0547528761420504,0.004330135364636337,-0.07255519331573279,0.10626500366492657,-0.10409681088119405,0.14944811111576375,-0.0858211273776851,0.03948899132358903,-74.16257323036092,209.50769639571658,-441.8590703095658,289.58505553043767,-111.08187265074302,0.048314684437474165
-0.00703014650689014,0.2810081005106089,-0.2805186286326636,0.027814390327596607,-1.0549263569205587,0.004409776938300131,-0.07334638235610483,0.10625215338602945,-0.10407896714307004,0.14943928319321712,-0.08674038925410381,0.039820786831896826,-74.95400285118284,210.23060562345046,-441.8038476634651,289.34493558610205,-111.9918950175389,0.04533828129729178
-0.0071784212774618,0.2812205792054795,-0.28072675097510774,0.028113251263057467,-1.0551016744464259,0.004490081162384195,-0.07413738528582987,0.1062393474352756,-0.10406117122208208,0.14943046773042984,-0.0876587629335992,0.040152112042032034,-75.74523921514006,210.95325981292942,-441.7478069997072,289.1022074400607,-112.90097677993487,0.042356288011972165
-0.007328277677621756,0.28143303237733464,-0.28093483782156903,0.02841209459257595,-1.0552788269245077,0.004571047083200978,-0.07492820007997783,0.10622658592757396,-0.10404342323063975,0.14942166475924154,-0.08857623904094505,0.04048296040839146,-76.53628030088085,211.675656615606,-441.69094842632893,288.85687332920105,-113.809108503284,0.0393686901882207
-0.0074797153270490845,0.2816454601152705,-0.2811428892681061,0.028710920341198605,-1.055457812540919,0.004652673733993339,-0.07571882471366426,0.10621386896790629,-0.10402572326853383,0.14941287431132871,-0.0894928082056583,0.04081332539618021,-77.32712408766272,212.397793683676,-441.63327205308,288.6089355138873,-114.71628076243154,0.03637547348719569
-0.007632733841373305,0.2818578625085761,-0.2813509054109557,0.02900972853403503,-1.0556386294630447,0.004734960134956411,-0.07650925716211028,0.10620119665281827,-0.10400807142480639,0.14940409641821287,-0.09040846106276859,0.041143200481536434,-78.11776855535827,213.1196686700887,-441.5747779914213,288.35839627793854,-115.62248414181313,0.03337662362549834
-0.007787332832174695,0.28207023964671946,-0.2815588863465144,0.029308519196257564,-1.0558212758395515,0.004817905293259716,-0.07729949540069471,0.10618856907168481,-0.10399046777933794,0.14939533111126757,-0.0913231882534859,0.041472579151652214,-78.9082116844604,213.8412792285568,-441.51546635452485,288.1052579286077,-116.52770923555293,0.030372126376162767
-0.007943511906984693,0.282282591619335,-0.28176683217132276,0.029607292353101014,-1.0560057498004032,0.0049015082030694984,-0.07808953740499905,0.10617598630778392,-0.1039729124041942,0.14938657842172426,-0.09223698042578159,0.04180145490489132,-79.69845145608814,214.5626230135669,-441.45533725727284,287.8495227965606,-117.43194664756172,0.027361967569652645
-0.008101270669286386,0.2824949185162134,-0.2819747429820523,0.029906048029862367,-1.056192049456873,0.004985767845571307,-0.07887938115084694,0.10616344843920776,-0.10395540536476917,0.14937783838067697,-0.09314982823489622,0.042129821250904004,-80.4884858519918,215.28369768038846,-441.3943908162575,287.5911932358537,-118.33518699163474,0.024346133094859945
-0.008260608718515063,0.2827072204272927,-0.2821826188754938,0.03020478625190054,-1.0563801729015607,0.005070683188992785,-0.07966902461433849,0.10615095553963604,-0.10393794672075496,0.14936911101908634,-0.09406172234378472,0.04245767171073927,-81.2783128545586,216.0045008850845,-441.33262714978105,287.33027162391306,-119.23742089154955,0.02132460890010346
-0.008421525650058824,0.28291949744265066,-0.2823904599485477,0.030503507044636106,-1.0565701182084077,0.005156253188626695,-0.08045846577188036,0.10613850767899191,-0.103920536526965,0.14936039636778292,-0.09497265342350888,0.042784999816954904,-82.067930446818,216.72503028452053,-441.27004637785575,287.06676036151214,-120.13863898116371,0.018297380994137025
-0.00858402105525925,0.28313174965249865,-0.2825982662982158,0.030802210433551046,-1.0567618834327148,0.005242476786854146,-0.08124770260021238,0.10612610492399875,-0.10390317483403244,0.14935169445746985,-0.09588261215358473,0.04311179911372546,-82.85733661244693,217.44528353637463,-441.2066486222046,286.80066187275014,-121.03883190451242,0.015264435447158498
-0.008748094521412111,0.28334397714717596,-0.28280603802159376,0.031100896444188494,-1.0569554666111594,0.005329352913168044,-0.08203673307643082,0.10611374733865236,-0.10388586168900289,0.14934300531872502,-0.09679158922229175,0.043438063156948495,-83.6465293357753,218.16525829914673,-441.1424340062609,286.5319786050301,-121.937990315906,0.012225758391822439
-0.00891374563176813,0.2835561800171452,-0.28301377521586546,0.0313995651021525,-1.0571508657618132,0.005416880484196742,-0.08282555517800917,0.10610143498462149,-0.10386859713583727,0.14933432898200286,-0.09769957532694984,0.04376378551434921,-84.43550660179116,218.8849522321683,-441.0774026551696,286.2607130290359,-122.8361048800273,0.00918133602425858
-0.009080973965533763,0.2837683583529884,-0.2832214779782971,0.03169821643310777,-1.0573480788841616,0.00550505840372791,-0.08361416688281673,0.10608916792158762,-0.1038513812158385,0.14932566547763568,-0.09860656117416854,0.044088959765583594,-85.22426639614613,219.6043629956117,-441.01155469578725,285.98686763871086,-123.73316627202895,0.006131154605093558
-0.009249779097872033,0.2839805122454035,-0.2834291464062331,0.03199685046277944,-1.0575471039591218,0.00559388556273259,-0.08440256616913507,0.10607694620753319,-0.10383421396801354,0.14931701483583482,-0.09951253748007302,0.044413579502340365,-86.01280670516046,220.3234882504998,-440.944890256683,285.71044495123425,-124.62916517763068,0.0030752004604756578
-0.009420160599903379,0.2841926417852015,-0.2836367805970919,0.032295467216952825,-1.0577479389490627,0.005683360839389474,-0.08519075101567303,0.10606476989898579,-0.1038170954293805,0.14930837708669142,-0.10041749497051017,0.04473763832844169,-86.80112551582847,221.04232565871519,-440.87740946813915,285.4314475069993,-125.52409229321623,1.3459983106367535e-05
-0.00959211803870654,0.28440474706330393,-0.28384438064836237,0.03259406672147318,-1.0579505817978252,0.00577348309910936,-0.08597871940158029,0.10605263905122529,-0.10380002563522919,0.1492997522601771,-0.10132142438123772,0.04506112985994282,-87.58922081582368,221.7608728830096,-440.8091124621521,285.14987786958955,-126.41793832593046,-0.0030540803667279404
-0.009765650977319459,0.28461682817074085,-0.28405194665760103,0.032892649002245464,-1.0581550304307414,0.005864251194559821,-0.08676646930645959,0.10604055371845943,-0.10378300461934202,0.14929114038614427,-0.10222431645809917,0.04538404772523082,-88.37709059350404,222.47912758701352,-440.739999372433,284.86573862575636,-127.31069399377628,-0.006127434060117787
-0.009940758974740215,0.2848288851986488,-0.2842594787224294,0.033191214085234115,-1.0583612827546558,0.005955663965690066,-0.08755399871037815,0.10602851395397245,-0.10376603241418146,0.14928254149432651,-0.1031261619571864,0.04570638556512234,-89.16473283791711,223.19708743524527,-440.67007033440854,284.5790323853951,-128.20235002571124,-0.009206614498488919
-0.01011744158592797,0.2850409182382693,-0.2844669769405315,0.033489761996462794,-1.0585693366579458,0.006047720239755987,-0.08834130559387805,0.10601651981025102,-0.10374910905104893,0.1492739556143386,-0.10402695164499201,0.046028137032960596,-89.95214553880534,223.91475009312043,-440.5993254852221,284.2897617815219,-129.09289716174445,-0.012291635012558644
-0.010295698361803943,0.2852529273809475,-0.284674441409652,0.033788292762014144,-1.058779190010543,0.00614041883134541,-0.08912838793798594,0.10600457133909093,-0.10373223456021956,0.14926538277567655,-0.10492667629855273,0.04634929579471157,-90.73932668661105,224.6321132269614,-440.5277649637345,283.99792947025,-129.98232615303283,-0.015382508861286226
-0.010475528849252388,0.28546491271813085,-0.2848818722275941,0.03408680640802958,-1.058990840663954,0.006233758542403529,-0.0899152437242221,0.1059926685916872,-0.10371540897105624,0.1492568230077176,-0.10582532670558546,0.04666985552905951,-91.52627427248183,225.34917450400653,-440.4553889105249,283.7035381307659,-130.870627761978,-0.018479249230823058
-0.010656932591121606,0.2856768743413683,-0.2850892694922183,0.03438530296070902,-1.0592042864512834,0.006327738162258532,-0.09070187093460902,0.10598081161871037,-0.10369863231210662,0.14924827633971985,-0.10672289366461679,0.046989809927501694,-92.31298628827544,226.06593159241925,-440.38219746789196,283.40659046530465,-131.75779276232214,-0.021581869233456286
-0.010839909126224965,0.285888812342309,-0.28529663330144067,0.034683782446310665,-1.0594195251872536,0.006422356467647418,-0.09148826755167931,0.10596900047037103,-0.1036819046111848,0.1492397428008222,-0.10761936798510716,0.04730915269444266,-93.09946072656518,226.78238216129802,-440.3081907798545,283.10708919912656,-132.64381193924467,-0.024690381906550263
-0.011024457989341931,0.28610072681270193,-0.28550396375323156,0.03498224489115075,-1.0596365546682287,0.006517612222741993,-0.09227443155848353,0.10595723519647408,-0.10366522589544098,0.1492312224200439,-0.10851474048757036,0.04762787754728775,-93.88569558064482,227.49852388068498,-440.23336899215275,282.8050370804923,-133.52867608945803,-0.027804800211486957
-0.011210578711219126,0.2863126178443949,-0.2857112609456144,0.035280690321603324,-1.0598553726722362,0.0066135041791750655,-0.09306036093859742,0.1059455158464647,-0.1036485961914201,0.14922271522628439,-0.10940900200368914,0.04794597821653608,-94.67168884453382,228.21435442157568,-440.15773225224933,282.50043688063795,-134.4123760213041,-0.030925137032600136
-0.011398270818571383,0.2865244855293338,-0.2859185249766646,0.03557911876409997,-1.060075976958989,0.006710031076066812,-0.09384605367612893,0.10593384246946698,-0.10363201552511146,0.1492142212483226,-0.11030214337642735,0.04826344844587301,-95.45743851298242,228.9298714559284,-440.08128070933026,282.1932913937506,-135.2949025548497,-0.034051405176108496
-0.011587533834082833,0.28673632995956244,-0.28612575594450856,0.0358775302451296,-1.0602983652699092,0.0068071916400513355,-0.09463150775572511,0.10592221511431629,-0.10361548392199099,0.14920574051481672,-0.1111941554601392,0.048580281992262,-96.24294258147668,229.6450726566733,-440.0040145143058,281.88360343694296,-136.17624652198262,-0.03718361736904524
-0.01177836727640799,0.2869481512272216,-0.28633295394732267,0.03617592479123821,-1.0605225353281504,0.006904984585303408,-0.09541672116257859,0.10591063382958665,-0.10359900140705647,0.14919727305430364,-0.11208502912067615,0.048896472626036004,-97.02819904624364,230.35995569772183,-439.92593381981175,281.5713758502284,-137.05639876650733,-0.04032178625818661
-0.011970770660172858,0.28715994942454887,-0.2865401190833324,0.03647430242902861,-1.0607484848386215,0.007003408613565384,-0.09620169188243406,0.10589909866361351,-0.10358256800485768,0.14918881889519844,-0.11297475523549161,0.049212014130988344,-97.81320590425626,231.07451825397618,-439.84703878021014,281.25661149649517,-137.93535014424037,-0.04346592440897473
-0.012164743495976047,0.2873717246438779,-0.2867472514508114,0.0367726631851602,-1.060976211488009,0.007102462414174311,-0.09698641790159448,0.10588760966451276,-0.10356618373952162,0.1491803780657939,-0.11386332469374377,0.049526900304463106,-98.59796115323869,231.78875800133835,-439.7673295515908,280.9393132614812,-138.81309152310615,-0.04661604430444005
-0.012360285290389902,0.2875834769776383,-0.286954351148081,0.037071007086348716,-1.0612057129448018,0.007202144664089201,-0.09777089720692726,0.10587616688019667,-0.10354984863477368,0.14917195059425983,-0.11475072839639712,0.049841124957444985,-99.38246279167105,232.50267261671968,-439.68680629177186,280.61948405374767,-139.6896137832318,-0.04977215834412119
-0.012557395545961643,0.2877952065183551,-0.2871614182735089,0.037369334159366004,-1.0614369868593145,0.007302454027918498,-0.0985551277858702,0.10586477035838697,-0.10353356271395572,0.1491635365086426,-0.11563695725632223,0.05015468191464877,-100.16670881879472,233.21625977805027,-439.60546916030114,280.29712680465354,-140.56490781704292,-0.05293427884298185
-0.012756073761214518,0.28800691335864836,-0.28736845292550894,0.03766764443103973,-1.0616700308637113,0.007403389157947715,-0.0993391076264375,0.10585342014662565,-0.10351732600004088,0.14915513583686452,-0.1165220021983948,0.05046756501460824,-100.95069723461722,233.9295171642881,-439.52331831845703,279.97224446832905,-141.43896452935834,-0.056102418030324785
-0.012956319430648969,0.2882185975912329,-0.28757545520254024,0.03796593792825318,-1.0619048425720305,0.007504948694167244,-0.10012283471722556,0.10584211629228381,-0.10350113851564634,0.14914674860672308,-0.1174058541595934,0.050779768109764666,-101.7344260399173,234.64244245542852,-439.4403539292497,279.644840021649,-142.3117748374852,-0.059276588048705
-0.013158132044743807,0.2884302593089181,-0.2877824252031063,0.03826421467794496,-1.0621414195802088,0.007607131264300354,-0.10090630704741882,0.10583085884256896,-0.10348500028304365,0.14913837484589054,-0.11828850408909643,0.05109128506655488,-102.51789323624986,235.35503333251364,-439.35657615742196,279.3149164642069,-143.18332967131389,-0.06245680095283923
-0.013361511089957397,0.28864189860460715,-0.2879893630257547,0.03856247470710879,-1.0623797594661055,0.007709935483831351,-0.10168952260679533,0.10581964784453066,-0.10346891132416762,0.14913001458191313,-0.11916994294837842,0.05140210976549882,-103.30109682595105,236.06728747764143,-439.27198516945043,278.9824768182871,-144.05361997341268,-0.06564306870851527
-0.013566456048728862,0.2888535155712973,-0.28819626876907595,0.03886071804279321,-1.0626198597895282,0.007813359956033925,-0.10247247938573255,0.10580848334506522,-0.10345287166062339,0.14912166784221043,-0.12005016171130548,0.05171223610128668,-104.08403481214319,236.77920257397545,-439.1865811335469,278.6475241288387,-144.92263669912245,-0.06883540319149711
-0.013772966399479288,0.28906511030207915,-0.28840314253170335,0.03915894471210136,-1.0628617180922566,0.007917403271999655,-0.10325517537521299,0.10579736539091912,-0.10343688131369252,0.14911333465407475,-0.12092915136423033,0.05202165798286558,-104.86670519873985,237.49077630575403,-439.1003642196587,278.31006146344777,-145.79037081665126,-0.0720338161864294
-0.013981041616612948,0.2892766828901365,-0.288609984412312,0.0394571547421907,-1.0631053318980688,0.008022064010666708,-0.10403760856682975,0.1057862940286917,-0.10342094030433793,0.1491050150446704,-0.12180690290608676,0.0523303693335258,-105.64910599045066,238.20200635829943,-439.01333459947006,277.97009191231,-146.6568133071685,-0.0752383193857395
-0.014190681170518532,0.2894882334287462,-0.28881679450961845,0.03975534816027276,-1.0633506987127657,0.00812734073884868,-0.10481977695279203,0.10577526930483723,-0.10340504865320771,0.149096709041033,-0.12268340734848354,0.0526383640909866,-106.4312351927864,238.9128904180277,-438.92549244640384,277.6276185882034,-147.52195516489928,-0.07844892438853907
-0.014401884527570394,0.2896997620112775,-0.28902357292237973,0.0400535249936129,-1.0635978160241972,0.008233232011263643,-0.10560167852593082,0.10576429126566601,-0.10338920638063848,0.14908841667006884,-0.1235586557157981,0.052945636207481536,-107.21309081206387,239.62342617245758,-438.8368379356215,277.28264462645984,-148.38578739721862,-0.08166564269952048
-0.014614651150129802,0.2899112687311922,-0.28923031974939306,0.04035168526953001,-1.0638466813022878,0.00833973637056333,-0.10638331127970424,0.10575335995734528,-0.10337341350665788,0.14908013795855404,-0.12443263904526965,0.053252179649843405,-107.99467085541087,240.3336113102201,-438.7473712440248,276.9351731849377,-149.24830102474536,-0.08488848572785623
-0.014828980496546209,0.29012275368204404,-0.28943703508949503,0.04064982901539627,-1.064097291999062,0.008446852347362508,-0.1071646732082032,0.10574247542589947,-0.10335767005098649,0.149071872933134,-0.12530534838709212,0.053557988399588675,-108.77597333077121,241.04344352106804,-438.6570925502568,276.5852074439933,-150.1094870814361,-0.088117464786093
-0.01504486995289568,0.2903342409168548,-0.28964372562693524,0.04094795611046478,-1.0643495412289556,0.00855458039861246,-0.10794472817473566,0.10574361740536221,-0.10334526872010445,0.14906354753425122,-0.12612461494690913,0.05386402562497608,-109.5569917706955,241.75289143391478,-438.5659997470054,276.2327461228617,-150.96933406308426,-0.09136453312111203
-0.015262305831675234,0.2905458976491113,-0.28985044283825956,0.041246066098877064,-1.0646026596414229,0.008662932509802292,-0.1087179393897776,0.10582836612828264,-0.10335860566214906,0.14905499420614268,-0.1265592062335646,0.054176055594916124,-110.33769706183432,242.46176898408982,-438.4740832507875,275.8777628905866,-151.82781916763727,-0.09470490089497818
-0.015481295574929898,0.29075774057731657,-0.290057232963098,0.04154416302624255,-1.064856264342767,0.008771907905812533,-0.10949487162733218,0.10592146410261871,-0.10339506241920145,0.14904846368274458,-0.12680235067204385,0.05448769800512073,-111.1181091036479,243.17019068328113,-438.38138579187034,275.52027299359713,-152.6849597832804,-0.09809141621568174
-0.015701845099156283,0.29096974697276856,-0.29026411882569,0.041842248655042207,-1.0651101579809046,0.008881503880664054,-0.1102747621131926,0.10600319772600005,-0.10344293129599129,0.14904281439982883,-0.1269468190687359,0.05479798742576099,-111.89823175732697,243.87820659696624,-438.28791572315595,275.1602942327471,-153.54075503514397,-0.10150170276724091
-0.015923957008720326,0.2911818880714872,-0.2904711049540851,0.04214032297350098,-1.0653642353578825,0.00899171779134252,-0.1110559547820212,0.10607054935933308,-0.10349306419757041,0.1490371592293895,-0.12703868848896982,0.055106955339233515,-112.6780646815748,244.58584010506277,-438.19367294622305,274.7978389214132,-154.3951984565304,-0.10492508423353841
-0.01614763189778373,0.29139413793825947,-0.290678185169894,0.042438385233159064,-1.0656184383521936,0.009102547241634737,-0.11183744453170105,0.10612493338612451,-0.10354010790445341,0.14903112982904013,-0.12710149715560323,0.05541472514610865,-113.45760651502539,245.2931025119931,-438.0986556364625,274.43291486884874,-155.2482819117921,-0.10835643696523517
-0.016372869409182186,0.2916064749833333,-0.2908853481502967,0.04273643453798804,-1.0658727334999025,0.009213990007245572,-0.11261875569922851,0.10616852253693194,-0.10358149020133693,0.1490246524144881,-0.12714757385443692,0.05572138280541705,-114.23685567629111,245.99999923056598,-438.00286186974586,274.0655272293397,-156.09999679648345,-0.11179329997441656
-0.016599668792531098,0.29181888154309604,-0.29109258078544836,0.04303447008476786,-1.066127100578381,0.009326043974140857,-0.11339969167445561,0.10620327988137551,-0.10361631757583312,0.1490177733899075,-0.12718353923928385,0.05602698344764243,-115.01581053751794,246.70653262158106,-437.9062899569819,273.6956797849147,-156.95033439336038,-0.11523450436662663
-0.016828029157015707,0.29203134313212137,-0.29129986999138535,0.04333249122918396,-1.0663815266781025,0.009438707107239553,-0.11418018224230396,0.10623079451265613,-0.10364460296848142,0.14901057220804909,-0.12721304986070378,0.056331566549347616,-115.7944694481975,247.41270338498396,-437.80893847646,273.323375676123,-157.79928597097054,-0.11867951466577475
-0.017057949576877677,0.2922438477807288,-0.29150720358770543,0.043630497481588586,-1.0666360030686972,0.009551977434617857,-0.11496020993098527,0.10625232430371544,-0.10366679816004229,0.1490031262023132,-0.12723819529736158,0.05663516368915162,-116.57283073114976,248.11851127484144,-437.71080624664313,272.9486177860642,-158.64684280682224,-0.12212810751773473
-0.01728942913280009,0.2924563855222182,-0.291714570651961,0.04392848848085741,-1.0668905235108255,0.009665853037408792,-0.11573977796120635,0.10626887074468433,-0.10368353212776793,0.14899549963441108,-0.12726022106414847,0.0569378013954672,-117.35089267794523,248.82395548040003,-437.6118922930971,272.57140893275596,-159.4929961904021,-0.12558021272623282
-0.017522466926900106,0.29266894800694176,-0.2919219615987726,0.04422646396573234,-1.0671450833263836,0.009780332041473825,-0.116518897050008,0.10628124236176999,-0.10369547340579624,0.14898774243746707,-0.12727990777899967,0.05723950203251702,-118.12865354769163,249.52903483568767,-437.5121958190568,272.19175196107733,-160.33773742202146,-0.12903583368985516
-0.01775706208715228,0.29288152820922536,-0.2921293681240304,0.04452442375009826,-1.0673996788716509,0.009895412609772242,-0.1172975801260866,0.10629010114181021,-0.10370326262890046,0.1489798921829613,-0.12729777263367328,0.05754028414920817,-118.90611156835723,250.23374793864298,-437.4117161802056,271.80964978350806,-161.18105781159932,-0.13249500729841046
-0.01799321376760249,0.2930941201999317,-0.29233678309030375,0.0448223677034912,-1.0676543072276345,0.010011092935330491,-0.11807584022510523,0.10629599535316475,-0.10370748313667151,0.1489719766964676,-0.12731417799179356,0.057840162779123995,-119.68326493942023,250.93809322146507,-437.3104528630118,271.42510539528575,-162.02294867811057,-0.13595778371706974
-0.018230921146888804,0.2933067189658191,-0.292544200393141,0.0451202957363539,-1.0679089660095966,0.010127371234915103,-0.11885368964315772,0.1062993829437211,-0.10370865141863171,0.1489640164313505,-0.12732939098100718,0.05813914979230579,-120.4601118350199,251.6420689941006,-437.20840546604774,271.0381218771144,-162.86340134959772,-0.1394242163080513
-0.01847018342608316,0.2935193202631802,-0.29275161482794515,0.045418207789106574,-1.0681636532435517,0.010244245743476637,-0.1196311395971786,0.1063006486805373,-0.10370721740206958,0.14895602637633876,-0.12734361697753677,0.05843725428076707,-121.23665040714806,252.34567347256797,-437.1055736838806,270.64870239210524,-163.70240716352689,-0.1428943567594142
-0.018710999826289168,0.2937319204974298,-0.2929590219664233,0.04571610382412586,-1.0684183672816043,0.010361714709360466,-0.12040820010300497,0.10630011712480336,-0.10370356923907627,0.14894801750964248,-0.12735701902633267,0.05873448294191417,-122.01287878865195,253.04890479844374,-437.0019572932074,270.25685018031754,-164.53995746731565,-0.1463682528956216
-0.01895336958620354,0.2939445166229563,-0.2931664180460511,0.046013983819884884,-1.0686731067407529,0.010479776390229324,-0.12118487995718671,0.10629806276324844,-0.10369803981389407,0.1489399978795125,-0.1273697295742669,0.059030840434429445,-122.78879509595201,253.7517610529881,-436.89755614095316,269.8625685525746,-165.3760436189255,-0.1498459478628748
-0.019197291959751284,0.294157106059203,-0.293373799873205,0.04631184776667907,-1.0689278704565888,0.010598429049617785,-0.12196118677387104,0.10629471812334003,-0.10369091357694735,0.14893197339709333,-0.12738185791790682,0.05932632969423057,-123.56439743144746,254.45424026785275,-436.7923701340801,269.4658608843567,-166.21065698745625,-0.15332748000753715
-0.019442766213856655,0.29436968662000146,-0.29358116473929907,0.046609695663508255,-1.069182657446981,0.010717670954032489,-0.12273712705268484,0.1062902803992531,-0.10368243304704934,0.14892394841459247,-0.12739349519610538,0.05962095220735153,-124.33968388561763,255.15634043349218,-436.68639923087744,269.0667306101325,-167.04378895371133,-0.15681288309049568
-0.01968979162638388,0.2945822564538729,-0.29378851034871056,0.04690752751579977,-1.0694374668828286,0.010837500370516019,-0.12351270626361248,0.10628491693574264,-0.10367280470574708,0.14891592614575572,-0.12740471792385472,0.05991470824176499,-125.11465253884288,255.8580595059447,-436.57964343352893,268.66518121826465,-167.87543091072047,-0.1603021866503786
-0.01993836748426343,0.29479481399349045,-0.29399583475711333,0.04720534333374261,-1.0696922980640666,0.010957915564601042,-0.12428792893977501,0.10627876980875342,-0.10366220420138277,0.14890790897141817,-0.12741559061897217,0.0602075970425118,-125.8893014629749,256.55939541240025,-436.4721027817766,268.2612162465134,-168.70557426421414,-0.16379541641829592
-0.020188493081807354,0.2950073579128402,-0.2942031363188617,0.04750314313106584,-1.0699471503997349,0.011078914798591437,-0.12506279877196258,0.10627195967488165,-0.10365078087418755,0.1488998986616172,-0.12742616783416325,0.06049961699519702,-126.66362872268682,257.2603460558287,-436.3637773475243,267.85483927811026,-169.534210433051,-0.16729259473448294
-0.020440167719208976,0.2952198870908786,-0.2944104136421725,0.047800926924140286,-1.0702020233912894,0.011200496330116959,-0.12583731870081116,0.10626458901917962,-0.10363866165540823,0.14889189653722257,-0.12743649577733535,0.06079076576276136,-127.43763237663153,257.96090931885755,-436.2546672302439,267.44605393835207,-170.36133084960105,-0.17079374094261957
-0.020693390701216993,0.29543240058068315,-0.2946176655509897,0.04809869473131576,-1.070456916618553,0.011322658410916802,-0.12661149100400879,0.10625674490227927,-0.10362595440859346,0.14888390358773676,-0.1274466136317112,0.061081040399921176,-128.21131047843502,258.6610830670394,-436.1447725530654,267.034863891658,-171.1869269600894,-0.17429887175114672
-0.020948161335971018,0.2956448975832587,-0.2948248910525561,0.048396446572430404,-1.0707118297278475,0.011445399285814891,-0.127385317377012,0.10624850128776549,-0.10361275078319351,0.1488759205573208,-0.127456554647264,0.06137043744904454,-128.98466107754717,259.36086515161287,-436.03409345945266,266.6212728390321,-172.01099022490348,-0.17780800155804782
-0.02120447893398409,0.29585737742529056,-0.29503208930984925,0.04869418246844593,-1.0709667624219512,0.011568717191856133,-0.12815879900653593,0.1062399210159512,-0.10359912864658817,0.14886794800776218,-0.12746634705189824,0.06165895302062101,-129.75768221997063,260.06025341184176,-435.92263011037454,266.20528451587967,-172.8335121188699,-0.18132114273928054
-0.021462342807257343,0.2960698395402483,-0.29523925961815756,0.04899190244117531,-1.0712217144515852,0.011692610357578011,-0.12893193663662567,0.1062310574788611,-0.10358515415416059,0.1488599863646895,-0.12747601481695928,0.061946582860939,-130.53037194888512,260.75924567699957,-435.8103826819009,265.786902690128,-173.6544841315037,-0.18483830590288577
-0.021721752268512293,0.29628228345233276,-0.29544640138517736,0.049289606513078496,-1.0714766856081912,0.011817077002396257,-0.12970473062747398,0.10622195604224034,-0.1035708835098898,0.148852035951594,-0.12748557830296836,0.062233322409122604,-131.30272830518192,261.45783976805444,-435.697351363158,265.3661311606114,-174.47389776723395,-0.1883595001116218
-0.02198270663052704,0.296494708762839,-0.29565351411410334,0.04958729470710842,-1.0717316757178026,0.01194211533608685,-0.1304771810073744,0.10621265525311288,-0.10355636446300014,0.14884409701496024,-0.12749505480572923,0.06251916684529644,-132.07474932792206,262.1560334991007,-435.5835363545911,264.94297375568203,-175.29174454560936,-0.19188473307725631
-0.02224520520556369,0.29670711513856984,-0.29586059738926307,0.04988496704659422,-1.0719866846358403,0.012067723558349517,-0.13124928751832546,0.10620318786540385,-0.10354163757985851,0.1488361697428994,-0.1275044590189342,0.0628041111313332,-132.84643305472878,262.8538246785761,-435.4689378664866,264.51743433201494,-176.10801600148585,-0.19541401132962335
-0.022509247304875413,0.2969195023019921,-0.2960676508639124,0.05018262355515226,-1.0722417122426933,0.012193899858440283,-0.132021049655861,0.10619358171113404,-0.10352673732467722,0.14882825427902174,-0.12751380342644442,0.06308815004538339,-133.61777752212384,263.55121111029723,-435.35355611771695,264.0895167735803,-176.92270368519956,-0.19894734036339595
-0.022774832238282805,0.2971318700228731,-0.29627467424986775,0.050480264256617884,-1.0724967584399636,0.012320642414862642,-0.1327924667036961,0.10618386044049344,-0.10351169297766578,0.14882035073281136,-0.12752309863515515,0.06337127821117924,-134.38878076581622,264.24819059434014,-435.2373913346737,263.6592249907584,-177.73579916272678,-0.20248472476528412
-0.023041959313810333,0.29734421811117423,-0.29648166730869785,0.05077788917499273,-1.0727518231472788,0.012447949395108513,-0.13356353776376328,0.10617404415056124,-0.10349652941503464,0.14881245918742267,-0.1275323536575648,0.06365349012293602,-135.1594408209492,264.9447609277895,-435.1204437503604,263.22656291957674,-178.54729401583268,-0.20602616832412549
-0.023310627837374694,0.29755654641101315,-0.2966886298442411,0.05107549833440387,-1.0730069062995822,0.012575818955441586,-0.13433426178218122,0.10616414991944641,-0.10348126777161643,0.14880457970556935,-0.12754157615171247,0.06393478016653628,-135.9297557223132,265.6409199053772,-435.0027136036218,262.7915345210523,-179.35717984221102,-0.2095716741260352
-0.02358083711251801,0.29776885479553333,-0.29689556169624864,0.051373091759071864,-1.073262007844832,0.012704249240716727,-0.1351046375716568,0.10615419226008962,-0.10346592600376163,0.14879671233399677,-0.12755077262495246,0.06421514263757006,-136.69972350452764,266.33666532002553,-434.8842011384892,262.35414378062336,-180.16544825561525,-0.21312124463659138
-0.023852586440179558,0.297981143162545,-0.2971024627349837,0.05167066947328566,-1.073517127742046,0.012833238384230148,-0.13587466383077396,0.10614418350581854,-0.10345051936751652,0.14878885710689813,-0.12755994860703684,0.06449457175671099,-137.469342202198,267.03199496331024,-434.7649066036233,261.91439470765795,-180.97209088598314,-0.21667488177173594
-0.024125875118500714,0.29819341143082084,-0.29730933285663336,0.05196823150138274,-1.0737722659596405,0.012962784507595812,-0.1366443391605773,0.1061341341379268,-0.1034350608248347,0.14878101404853863,-0.12756910879714037,0.06477306168283198,-138.23860985005038,267.726906625855,-434.64483025184154,261.4722913350281,-181.7770993795553,-0.2202325869589143
-0.024400702442658337,0.29840565953694886,-0.29751617197941066,0.05226577786773331,-1.074027422474018,0.013092885720644213,-0.13741366207881123,0.10612405306399866,-0.10341956138865688,0.14877318317528382,-0.12757825718875837,0.06505060652420061,-139.00752448304766,268.4213980976682,-434.52397233971607,261.02783771874044,-182.58046539898868,-0.22379436118975266
-0.024677067704722604,0.29861788743265766,-0.2977229800402428,0.05256330859672766,-1.0742825972683696,0.013223540121340296,-0.13818263103213313,0.10611394785438974,-0.10340403041606103,0.14876536449717637,-0.1275873971758118,0.06532720034804138,-139.77608413648915,269.11546716843014,-434.4023331272317,260.58103793761455,-183.3821806234655,-0.22736020506542248
-0.024954970193535764,0.298830095082544,-0.2979297569919574,0.052860823712766,-1.074537790331655,0.013354745795717712,-0.13895124440657985,0.10610382494315702,-0.10338847585730128,0.14875755801916943,-0.12759653164279022,0.06560283718870787,-140.54428684609698,269.80911162773833,-434.27991287749614,260.13189609300235,-184.18223674879928,-0.230930118835687
-0.025234409194608825,0.29904228246214154,-0.29813650280089216,0.053158323240250195,-1.0747930016577378,0.013486500817827053,-0.1397195005365306,0.10609368979878543,-0.1033729044673754,0.14874976374209686,-0.12760566304133605,0.06587751105467081,-141.3121306480904,270.5023292653167,-434.15671185649256,259.6804163085429,-184.98062548753654,-0.23450410243248387
-0.02551538399003358,0.29925444955628006,-0.2983432174448637,0.05345580720357708,-1.0750482312446485,0.013618803249696046,-0.1404873977123777,0.10608354706925298,-0.10335732198576172,0.14874198166344088,-0.12761479345531102,0.06615121593449678,-142.07961357925026,271.1951178711954,-434.0327303328701,259.22660272994665,-185.77733856905684,-0.2380821554988049
-0.025797893858407753,0.29946659635769063,-0.2985499009114419,0.05375327562713297,-1.0753034790939606,0.013751651141299979,-0.1412549341870882,0.10607340070529339,-0.10334173328911636,0.14873421177794272,-0.12762392465607783,0.06642394580196628,-142.8467336769746,271.88747523586386,-433.9079685777657,258.7704595248063,-186.57236773966974,-0.24166427741351218
-0.026081938074771382,0.2996787228658209,-0.2987565531964839,0.054050728535289146,-1.0755587452102595,0.013885042530540893,-0.14202210818181388,0.10606325406513444,-0.10332614252100047,0.14872645407809093,-0.1276330581494696,0.06669569462045734,-143.6134889793272,272.5793991504029,-433.7824268646523,258.31199088242823,-187.36570476270995,-0.24525046731265154
-0.026367515910552756,0.2998908290858279,-0.2989631743028881,0.05434816595239817,-1.0758140296006908,0.014018975443234298,-0.14278891789068685,0.106053110003497,-0.1033105532020944,0.14871870855451372,-0.12764219521569767,0.0669664563467024,-144.3798775250797,273.2708874065971,-433.65610546920993,257.85120101368364,-188.15734141863126,-0.2488407241077548
-0.02665462663352259,0.30010291502772235,-0.2991697642395358,0.05464558790279076,-1.0760693322745774,0.014153447893102317,-0.14355536148491724,0.10604297094722115,-0.10329496832383521,0.14871097519629561,-0.1276513369432595,0.0672362249340101,-145.1458973537482,273.96193779703293,-433.5290046692166,257.3880941508752,-188.94726950509812,-0.2524350465015369
-0.026943269507755177,0.3003149807056414,-0.29937632302039174,0.05494299441077323,-1.0763246532430928,0.014288457881772378,-0.14432143711629375,0.10603283895952957,-0.10327939042797171,0.14870325399123413,-0.12766048425774978,0.06750499433503009,-145.91154650562572,274.65254811518145,-433.40112474445425,256.92267454761765,-189.73548083707647,-0.2560334330013659
-0.027233443793595526,0.30052702613723065,-0.2995828506637401,0.05524038550062533,-1.0765799925189854,0.014424003398780633,-0.14508714292017383,0.10602271579463614,-0.1032638216741561,0.14869554492604847,-0.12766963794634079,0.06777275850412746,-146.67682302180987,275.3427161554713,-433.27246597663077,256.45494647872937,-190.52196724692342,-0.2596358819307947
-0.027525148747631602,0.30073905134311896,-0.2997893471915348,0.05553776119659843,-1.0768353501163426,0.014560082421579482,-0.14585247701803725,0.10601260294415103,-0.10324826389737173,0.14868784798655,-0.12767879867858345,0.06803951139942391,-147.4417249442281,276.03243971335127,-433.1430286493114,255.98491424013488,-191.30672058447536,-0.26324239143944933
-0.027818383622670934,0.300951056346472,-0.2999958126288483,0.05583512152291399,-1.0770907260503908,0.014696692915548589,-0.1466174375196668,0.10600250167651501,-0.1032327186567264,0.1486801631577817,-0.1276879670240823,0.06830524698455374,-148.2062503156596,276.7217165853443,-433.0128130478621,255.51258214877453,-192.08973271713631,-0.266852959511482
-0.028113147667720956,0.30116304117261306,-0.3002022470034021,0.05613246650376226,-1.0773461203373258,0.014833832834008942,-0.14738202252501043,0.10599241307051059,-0.1032171872769097,0.14867249042413286,-0.12769714346751423,0.06856995923017671,-148.97039717975449,277.41054456909495,-432.8818194594004,255.0379545425224,-192.87099552996443,-0.2704675839728033
-0.028409440127972498,0.30137500584870053,-0.30040865034516895,0.05642979616330113,-1.0776015329941686,0.014971500118239507,-0.148146230125771,0.10598233804374013,-0.10320167088341799,0.14866482976943315,-0.12770632842139085,0.06883364211528262,-149.73416358105152,278.0989214634109,-432.75004817275413,254.56103578010996,-193.65050092575842,-0.27408626249725926
-0.028707260244786027,0.3015869504034542,-0.3006150226860339,0.05672711052565519,-1.0778569640386424,0.015109692697496143,-0.14891005840676388,0.1059722773768272,-0.10318617043248411,0.1486571811770305,-0.12771552223690263,0.06909628962831817,-150.49754756499343,278.78684506829904,-432.6174994784262,254.08183024105477,-194.42824082514306,-0.27770899261190096
-0.029006010820151012,0.3017989120028383,-0.3008213601678117,0.057024254208118595,-1.0781124041762726,0.01524859874472879,-0.14937528768249292,0.10598079969207037,-0.10316874088888761,0.14857184123170386,-0.12772006881507827,0.06945302361632341,-151.260431786238,279.474154035057,-432.48390965250104,253.6006587829273,-195.2041409650332,-0.28124118269462384
-0.029305159855154105,0.30201090461580465,-0.30102766847550966,0.05732113755188603,-1.0783678534174939,0.0153883850820022,-0.14957451750154724,0.1059963064831631,-0.10315415384897596,0.14844167188371876,-0.12772462061056403,0.06989316863670528,-152.02283308678454,280.16087846035236,-432.34933415665694,253.11748608563664,-195.97819931849858,-0.2846834994273435
-0.029604508832927135,0.3022229160534599,-0.30123395671558495,0.057617785873512656,-1.07862331862018,0.01552911196151467,-0.14967448888651524,0.10600571882762048,-0.10314412003764671,0.14832416081331246,-0.12773260134306583,0.07036343975623507,-152.7848169524383,280.84711234362794,-432.2139351324741,252.63213691678104,-196.75044333220583,-0.2880839836951643
-0.02990397376615562,0.3024349352746038,-0.301440229400752,0.05791424625151825,-1.0788788041280708,0.015670803120796873,-0.14973246661424117,0.10600961057194906,-0.10313634258352851,0.14823018900279988,-0.12774275394550177,0.07084557964110212,-153.54640179089188,281.5328803830126,-432.07775886974093,252.14455582742218,-197.52087699793208,-0.2914630108850551
-0.030203513211706556,0.3026469551673067,-0.30164648761850543,0.058210561957110836,-1.079134311857203,0.015813468729054425,-0.1497697227754691,0.10600994635146965,-0.10312910887672434,0.14815785279629295,-0.12775386456606064,0.07133280412877627,-154.30759167560623,282.2181869505823,-431.94081689586494,251.65472591939738,-198.28949711811993,-0.2948303550878001
-0.03050310353580221,0.30285897130884026,-0.3018527307471541,0.05850676723545609,-1.0793898423946278,0.015957113253850973,-0.1497951620478267,0.10600807076677542,-0.10312156432431857,0.14810263917262825,-0.12776526871243307,0.07182226239827423,-155.0683863460036,282.9030307236116,-431.8031107427908,251.16264315449334,-199.0562981051551,-0.29819135208984915
-0.030802729761974235,0.3030709807848276,-0.3020589574900193,0.05880288778052016,-1.0796453957246357,0.016101738373628143,-0.149813113086014,0.10600473799364638,-0.10311337143262601,0.14806027253203208,-0.12777666500396992,0.07231255988858559,-155.82878425990444,283.5874089847537,-431.66463942059613,250.66830806894316,-199.82127343872685,-0.3015492503319351
-0.031102381778478613,0.30328298150891786,-0.30226516637876927,0.05909894245047804,-1.0799009715930348,0.01624734418994764,-0.14982600825218914,0.10600036204512744,-0.10310444437497121,0.14802733497893897,-0.12778793419950946,0.07280290815974955,-156.58878351920623,284.27131883234716,-431.5254015910063,250.17172301136478,-200.58441614686893,-0.30490618348795556
-0.031402052522004426,0.3034949718785758,-0.3024713559908327,0.059394944954043453,-1.0801565696703437,0.016393929812014183,-0.14983537176290782,0.10599518482899312,-0.10309480603172351,0.14800125178270646,-0.12779903865442124,0.0732928110332709,-157.34838214449468,284.9547574799624,-431.38539613172475,249.67289116732775,-201.3457189939634,-0.3082636193852346
-0.03170173697250045,0.30370695060476327,-0.3026775250317229,0.05969090521478236,-1.080412189620299,0.01654149368210265,-0.14984222524801347,0.10598936309372489,-0.10308452044509318,0.14798013036945437,-0.12780997497763255,0.0737819350442325,-158.10757815151405,285.63772229816806,-431.2446222276417,249.17181618021596,-202.1051745733116,-0.3116225946589092
-0.032001431530702555,0.3039189166236317,-0.3028836723578293,0.05998683040405406,-1.080667831126994,0.01669003377763703,-0.1498472791010512,0.10598300943421679,-0.10307366305320331,0.14796259463584802,-0.12782075334754261,0.07427004776719116,-158.8663695686064,286.3202107916518,-431.1030793360823,248.66850198205546,-202.86277536282148,-0.3149838522659206
-0.03230113360413279,0.30413086904592457,-0.30308979697439353,0.06028272570204376,-1.0809234939045567,0.016839547745493268,-0.1498510367151165,0.10597621114644942,-0.10306230828211735,0.14794764899484864,-0.12783138878137867,0.07475698392811796,-159.62475443762494,287.0022205667141,-430.9607671292573,248.16295270513683,-203.618513762595,-0.31834792930046935
-0.032600841320578354,0.3043428071241624,-0.3032958980239453,0.06057859485172058,-1.081179177699521,0.016990032994637132,-0.1498538582227818,0.10596903911892656,-0.10305052477589294,0.14793457483841085,-0.12784189748212793,0.07524262457193127,-160.38273081105444,287.6837493031447,-430.8176854420214,247.65517262903253,-204.37238212159275,-0.3217152162523621
-0.03290055332564912,0.3045547302288808,-0.30350197477175955,0.060874440559819706,-1.081434882290118,0.017141486761243784,-0.14985600253538175,0.10596155235918915,-0.10303837390713164,0.14792285404956307,-0.1278522952985127,0.07572688330332547,-161.14029674893035,288.364794732727,-430.67383423050524,247.14516614568598,-205.12437275689265,-0.3250859982950145
-0.033200268638230626,0.3047666378300653,-0.30370802659109497,0.061170264786330336,-1.0816906074842643,0.01729390615489852,-0.14985765629075407,0.1059538005922413,-0.10302590966770145,0.14791211325531484,-0.12786259707313732,0.07620969682736739,-161.89745031639646,289.04535462356637,-430.52921354090694,246.6329377351029,-205.8744779676809,-0.32846048456305044
-0.03349998654672086,0.3049785294819962,-0.3039140529493311,0.061466068953229785,-1.0819463531170248,0.017447288191517505,-0.14985895424511747,0.10594582596544685,-0.10301317911807274,0.1479020834497245,-0.127872816380286,0.07669101830949361,-162.65418958195582,289.7254267689182,-430.38382348639425,246.11849194791245,-206.62269004543333,-0.3318388291114478
-0.03379970653433281,0.3051904048105928,-0.304120053395409,0.06176185409490173,-1.0822021190479194,0.017601629816849634,-0.14985999380597834,0.10593766429827518,-0.10300022303894667,0.14789257083597374,-0.12788296544726163,0.07717081266606515,-163.41051261628192,290.4050089793246,-430.23766423013274,245.6018333926482,-207.36900128133104,-0.33522114599822994
-0.03409942822523482,0.3054022635027276,-0.30432602754866783,0.062057620966501734,-1.0824579051582577,0.017756927923264543,-0.14986084545100423,0.10592934606739549,-0.10298707662943438,0.14788343580000143,-0.12789305516918192,0.07764905320745477,-164.16641749144156,291.08409907713633,-430.0907359728385,245.08296672638153,-208.1134039716675,-0.3386075201713826
-0.03439915134567579,0.30561410529715805,-0.30453197508903534,0.062353370122018116,-1.0827137113486054,0.017913179361744084,-0.14986156022048663,0.10592089721523942,-0.102973770183744,0.14787457775819157,-0.12790309517384288,0.07812571923976999,-164.9219022804082,291.7626948927326,-429.9430389436419,244.56189664777344,-208.8558904217967,-0.341998015342751
-0.03469887569590453,0.30582592997681285,-0.3047378957484707,0.06264910197050114,-1.0829695375364317,0.01807038095044398,-0.14986217511437017,0.10591233982740261,-0.10296032971767262,0.14786592424150832,-0.12791309391316297,0.0786007943499481,-165.67696505677443,292.44079426193946,-429.7945733933672,244.03862789189066,-209.59645294902333,-0.34539267969138043
-0.03499860112987202,0.30603773736222434,-0.30494378930353955,0.06294481681656644,-1.083225383653966,0.018228529480802683,-0.14986271698374318,0.10590369270574557,-0.10294677753442552,0.14785742303265118,-0.12792305876718432,0.07907426517935141,-166.43160389459862,293.1183950242927,-429.6453395895737,243.51316522631507,-210.3350838847243,-0.34879155000020506
-0.03529832754054934,0.3062495273059352,-0.3051496555689955,0.06324051488957162,-1.0834812496462696,0.01838762172189668,-0.14986320533866088,0.1058949718554331,-0.10293313272797913,0.1478490365025886,-0.12793299615179202,0.07954612054699868,-167.18581686833983,293.7954950218886,-429.49533781288255,242.9855134482063,-211.07177557591334,-0.35219465466051136
-0.03559805484929967,0.30646129968773445,-0.3053554943922483,0.06353619636463415,-1.0837371354695187,0.018547654423542993,-0.14986365437516422,0.10588619089964084,-0.10291941162640217,0.14784073753126056,-0.1279429116245282,0.08001635082315635,-167.93960205284955,294.47209209864286,-429.34456835424345,242.45567738206913,-211.80652038640045,-0.35560201585727136
-0.03589778299817838,0.30667305441060033,-0.30556130564860734,0.06383186137777266,-1.0839930410894887,0.0187086243185074,-0.14986407443935545,0.10587736143293662,-0.1029056281795141,0.14783250656926206,-0.12795280998503064,0.08048494748220393,-168.69295752339798,295.1481840998301,-429.19303151289176,241.92366187804478,-212.53931069765787,-0.35901365116130657
-0.03619751194434922,0.3068847913972453,-0.3057670892371995,0.06412751003681527,-1.0842489664802248,0.018870528124075074,-0.1498644730854181,0.10586849332246381,-0.10289179429606642,0.14782432952130184,-0.1279626953681094,0.0809519027838373,-169.44588135572138,295.8237688718143,-429.0407275948123,241.38947181059277,-213.2701389094725,-0.3624295746914355
-0.03649724165603049,0.3070965105871745,-0.3059728450774711,0.06442314242925837,-1.0845049116228818,0.01903336254316728,-0.14986485584063253,0.10585959496462273,-0.10287792013581452,0.14781619622154518,-0.12797257132849577,0.08141720954610322,-170.19837162607877,296.4988442619078,-428.8876569115777,240.85311207746525,-213.9989974404433,-0.3658497979645743
-0.03679697210954826,0.3073082119341821,-0.30617857310619445,0.06471875862792892,-1.0847608765047156,0.019197124265135482,-0.14986522675888567,0.10585067350379036,-0.10286401436169379,0.14780809933527622,-0.1279824409169862,0.08188086098410088,-170.95042641131394,297.17340811831383,-428.73381977946457,240.3145875989023,-214.72587872836544,-0.3692743305190763
-0.03709670328719114,0.3075198954042194,-0.3063842732749084,0.0650143586950642,-1.085016861118212,0.01936180996632669,-0.14986558882144319,0.10584173501865558,-0.10285008435698102,0.14780003356763904,-0.12799230674815132,0.0823428505956031,-171.70204378891665,297.8474582901241,-428.5792165187763,239.7739033169936,-215.45077523053249,-0.3727031803730591
-0.0373964351756459,0.3077315609735813,-0.3065899455477322,0.06530994268525135,-1.085272865460332,0.019527416310487024,-0.14986594422737787,0.10583278468093218,-0.102836136411906,0.14779199509357918,-0.1280021710600568,0.08280317208016769,-172.45322183708177,298.52099262734936,-428.42384745332123,239.23106419516753,-216.17367942397843,-0.3761363543624555
-0.037696167764854384,0.3079432086273623,-0.3067955898994997,0.0656055106475456,-1.0855288895318653,0.019693939949051272,-0.14986629460424084,0.10582382689051785,-0.10282217588373131,0.1477839811471299,-0.12801203576659764,0.0832618192821243,-173.20395863476483,299.19400898096933,-428.2677129100066,238.6860752177778,-216.89458380567635,-0.37957385839121816
-0.037995901047176484,0.30815483835814345,-0.30700120631416744,0.06590106262699659,-1.0857849333368716,0.019861377521352384,-0.1498666411610514,0.1058148653905738,-0.10280820733387486,0.1477759897254903,-0.12802190250312043,0.08371878615055675,-173.95425226173265,299.8665052029934,-428.11081321852134,238.13894138976488,-217.61348089270447,-0.38301569761723014
-0.038295635016775575,0.3083664501648744,-0.3072067947834579,0.0661965986657482,-1.0860409968822038,0.020029725654775107,-0.14986698479954524,0.10580590336549206,-0.10279423464522712,0.14776801937580314,-0.1280317726660261,0.08417406671136096,-174.70410079860977,300.53847914652385,-427.9531487110859,237.5896677363755,-218.33036322238908,-0.38646187659103104
-0.038595369669165956,0.30857804405192296,-0.30741235530570277,0.06649211880383123,-1.086297080177098,0.020198980964870834,-0.14986732619519197,0.10579694352428298,-0.10278026112242339,0.1477600690415143,-0.12804164744702856,0.08462765504786397,-175.45350232691982,301.20992866582026,-427.794719722254,237.0382593029284,-219.04522335243047,-0.38991239935983535
-0.03889510500087855,0.30878962002826604,-0.3076178878848577,0.06678762307973454,-1.0865531832328232,0.020369140055445826,-0.1498676658563002,0.10578798817154357,-0.1027662895774763,0.14775213795166076,-0.12805152786270577,0.08507954528749556,-176.2024549291228,301.88085161636104,-427.6355265887536,236.48472115461462,-219.75805386101538,-0.39336726954590817
-0.039194841009213,0.3090011781068017,-0.30782339252966345,0.06708311153081672,-1.0868093060623831,0.020540199518631275,-0.14986800416722415,0.10577903926784947,-0.10275232240285491,0.14774422554108918,-0.1280614147799308,0.08552973159272466,-176.95095668864838,302.5512458549014,-427.47556964935984,235.92905837632742,-220.46884734692105,-0.3968264904059611
-0.03949457769205304,0.309212718303764,-0.3080288692529311,0.06737858419360265,-1.0870654486802585,0.020712155934941252,-0.1498683414200203,0.10577009848114173,-0.10273836163381427,0.14773633139296177,-0.1280713089377144,0.08597820815498834,-177.69900568992514,303.2211092395261,-427.3148492447915,235.37127607251355,-221.1775964296115,-0.4002900648764125
-0.03979431504772845,0.30942424063822493,-0.30823431807093415,0.0676740411039973,-1.0873216111021904,0.020885005873322673,-0.1498686778377037,0.10576116723044765,-0.10272440900153024,0.1477284551973218,-0.128081210965935,0.08642496919070956,-178.44660001840703,303.8904396296988,-427.15336571762685,234.8113793670431,-221.88429374932886,-0.4037579956080998
-0.040094053074911214,0.3096357451316711,-0.3084397390028909,0.06796948229743976,-1.087577793344993,0.0210587458912002,-0.14986901359138344,0.10575224672307636,-0.1027104659783776,0.14772059672123206,-0.12809112140137846,0.08687000893876336,-179.19373776059643,304.5592348863059,-426.9911194122353,234.24937340309393,-222.58893196718094,-0.40723028499305647
-0.040393791772537074,0.3098472318076436,-0.3086451320705239,0.06826490780901427,-1.087833995426396,0.02123337253451808,-0.14986934881293182,0.10574333798626105,-0.10269653381649953,0.14771275578725282,-0.12810104070145814,0.08731332165893897,-179.94041700406513,305.2274928716963,-426.8281106747204,233.68526334304735,-223.29150376522568,-0.41070693518531365
-0.040693531139745845,0.31005870069143177,-0.3088504972976852,0.06856031767353013,-1.0880902173649079,0.02140888233778024,-0.14986968360438602,0.10573444189407587,-0.10268261358065281,0.14770493225793005,-0.12811096925593995,0.08775490163107942,-180.6866358374726,305.89521144971746,-426.6643398528731,233.11905436839396,-223.9920018465531,-0.41418794811715476
-0.040993271175835753,0.31027015180981243,-0.30905583471003756,0.06885571192557936,-1.0883464591797019,0.021585271824089588,-0.14987001804495562,0.10572555919033153,-0.10266870617617178,0.147697126024615,-0.12812090739695445,0.08819474315467485,-181.4323923505828,306.56238848574725,-426.4998072961332,232.5507516796465,-224.69041893536607,-0.4176733255119004
-0.04129301188022829,0.3104815851908285,-0.3092611443347831,0.06915109059957818,-1.088602720890517,0.021762537505187095,-0.14987035219626918,0.10571669050805016,-0.10265481237277131,0.14768933699940526,-0.12813085540754068,0.08863284054875431,-182.1776846342789,307.2290218467228,-426.33451335555685,231.98036049625998,-225.3867477770591,-0.4211630688940293
-0.04159275325244094,0.3106930008636006,-0.3094664262004327,0.06944645372979685,-1.0888590025175748,0.021940675881491033,-0.14987068610632343,0.10570783638602986,-0.10264093282480424,0.14768156510933605,-0.12814081352893295,0.08906918815196777,-182.92251078057677,307.89510940116645,-426.16845838378924,231.40788605655618,-226.08098113829647,-0.4246571795972359
-0.04189249529206588,0.31090439885816645,-0.3096716803366097,0.06974180135038124,-1.0891153040815085,0.022119683442136603,-0.14987101981247183,0.1056989972829331,-0.10262706808849957,0.14767381029219284,-0.1281507819667726,0.08950378032278458,-183.66686888263717,308.56064901920945,-426.0016427350427,230.8333336176531,-226.773111807089,-0.42815565877087414
-0.04219223799875328,0.311115779205345,-0.30987690677388297,0.07003713349536823,-1.0893716256033013,0.02229955666501612,-0.1498713533437,0.10569017358926955,-0.10261321863662874,0.14766607249349273,-0.12816076089640135,0.08993661143975817,-184.4107570347769,309.2256385726126,-425.834066765077,230.25670845539764,-227.4631325928708,-0.4316585073851523
-0.04249198137219802,0.3113271419366202,-0.3100821055436249,0.07033245019869686,-1.089627967104236,0.022480292016819767,-0.14987168672236917,0.10568136563758715,-0.10259938487098337,0.14765835166430863,-0.12817075046737048,0.0903676759018232,-185.1541733324789,309.8900759347858,-425.6657308311834,229.6780158643014,-228.1510363265746,-0.4351657262353299
-0.04279172541212914,0.31153848708404247,-0.3102872766778909,0.07062775149421625,-1.0898843286058504,0.022661885953076975,-0.14987201996556096,0.1056725737111397,-0.10258556713298944,0.1476506477597003,-0.1281807508072808,0.09079696812860345,-185.89711587240188,310.5539589808054,-425.49663529217133,229.0972611574786,-228.83681586070713,-0.4386773159451166
-0.04309147011830138,0.311749814680145,-0.3104924202093164,0.07092303741569142,-1.0901407101299005,0.022844334918198407,-0.1498723530861215,0.1056637980512583,-0.10257176571273598,0.14764296073758354,-0.12819076202505245,0.09122448256071661,-186.63958275238875,311.2172855874307,-425.3267805083569,228.51444966658656,-229.52046406942398,-0.44219327696944843
-0.04339121549048834,0.31196112475787224,-0.3106975361710297,0.07121830799680724,-1.090397111698328,0.023027635345518542,-0.1498726860934782,0.10565503886362078,-0.10255798085665456,0.14763529055791458,-0.12820078421370773,0.09165021366006716,-187.38157207147498,311.8800536331176,-425.15616684155236,227.9295867417672,-230.20197384860342,-0.44571360959675577
-0.04369096152847691,0.3121724173505194,-0.3109026245965778,0.07151356327117145,-1.0906535333332334,0.023211783657338787,-0.14987301899428282,0.10564629632358345,-0.10254421277405085,0.14762763718210212,-0.12821081745274018,0.09207415591012316,-188.1230819298963,312.54226099803384,-424.9847946550592,227.34267775159037,-230.8813381159211,-0.44923831395081193
-0.043990708232062754,0.31238369249168085,-0.3111076855198631,0.07180880327231662,-1.0909099750568536,0.023396776264971136,-0.14987335179292158,0.10563757058071559,-0.10253046164265975,0.14762000057258343,-0.12822086181013037,0.09249630381617427,-188.86411042909577,313.2039055640707,-424.8126643136598,226.75372808299838,-231.55854981092293,-0.45276738999225485
-0.0442904556010466,0.31259495021520617,-0.3113127189750899,0.07210402803370165,-1.0911664368915417,0.02358260956878228,-0.14987368449192248,0.10562886176265587,-0.10251672761336977,0.14761238069251847,-0.12823091734406108,0.09291665190557068,-189.60465567173097,313.8649852148552,-424.63977618361207,226.16274314125076,-232.2336018950988,-0.4563008375198353
-0.04459020363523117,0.31280619055516296,-0.31151772499671837,0.07239923758871279,-1.0914229188597504,0.023769279958238167,-0.14987401709228254,0.10562016997839219,-0.10250301081424083,0.1476047775055695,-0.12824098410437676,0.09333519472794331,-190.34471576168005,314.52549783576166,-424.46613063264414,225.56972834987073,-232.90648735195543,-0.4598386561714398
-0.044889952334418635,0.31301741354580503,-0.3117227036194262,0.07269443197066427,-1.0916794209840182,0.02395678381194898,-0.1498743495937327,0.1056114953210508,-0.10248931135392118,0.14759719097574195,-0.12825106213382484,0.09375192685540613,-191.08428880404873,315.18544131392235,-424.2917280299498,224.97468915059167,-233.57719918708924,-0.46338084542492664
-0.045189701698408545,0.31322861922154555,-0.31192765487807533,0.07298961121279882,-1.0919359432869564,0.024145117497714464,-0.14987468199495318,0.10560283787026846,-0.10247562932455315,0.14758962106726978,-0.12826115146911196,0.0941668428827421,-191.82337290517594,315.8448135382374,-424.11656874618456,224.37763100330403,-234.24573042825838,-0.466927404598809
-0.04548945172699605,0.31343980761693396,-0.3121325788076838,0.07328477534828788,-1.09219248579124,0.024334277372569612,-0.1498750142937498,0.10559419769420984,-0.10246196480424423,0.1475820677445326,-0.1282712521418022,0.09457993742757416,-192.56196617263987,316.5036123993847,-423.9406531534629,223.7785593860032,-234.91207412545543,-0.4704783328528227
-0.04578920241997044,0.31365097876663656,-0.3123374754434021,0.07357992441023187,-1.0924490485195981,0.024524259782830658,-0.1498753464871989,0.10558557485128331,-0.10244831785916837,0.14757453097199622,-0.12828136417908123,0.09499120513052278,-193.30006671526365,317.1618357898297,-423.7639816253546,223.17747979473697,-235.57622335097878,-0.4740336291883742
-0.04608895377711397,0.31386213270541974,-0.3125423448204928,0.0738750584316602,-1.092705631494807,0.024715061064141362,-0.14987567857176706,0.10557696939159981,-0.1024346885453531,0.14756701071416936,-0.128291487604406,0.09540064065535156,-194.03767264312108,317.819481603834,-423.58655453688283,222.57439774355387,-236.2381711995046,-0.4775932924489117
-0.04638870579820079,0.3140732694681362,-0.3127471869743132,0.07417017744553135,-1.092962234739683,0.024906677541519567,-0.1498760105434104,0.10556838135821396,-0.10242107691019905,0.1475595069355728,-0.1283016224380575,0.09580823868910221,-194.7747820675421,318.4765477374645,-423.40837226452174,221.96931876445123,-236.89791078815807,-0.4811573213202167
-0.04668845848299611,0.31428438908971257,-0.31295200194030076,0.07446528148473279,-1.0932188582770783,0.025099105529404007,-0.14987634239765732,0.10555981078817926,-0.1024074829937722,0.1475520196007169,-0.12831176869761068,0.0962139939422203,-195.5113931011181,319.13303208860174,-423.22943518619485,221.3622484073236,-237.55543525658462,-0.4847257143306427
-0.04698821183125547,0.31449549160513945,-0.31315678975396055,0.07476037058208096,-1.093475502129875,0.025292341331701353,-0.14987667412967765,0.10555125771344558,-0.10239390682990274,0.14754454867408565,-0.12832192639833415,0.09661790114867269,-196.2475038577073,319.7889325569484,-423.04974368127256,220.75319223991113,-238.21073776702065,-0.48829846985129777
-0.04728796584272415,0.3147065770494627,-0.3133615504508548,0.07505544477032121,-1.093732166320982,0.02548638124183347,-0.14987700573434043,0.10554272216162233,-0.10238034844711962,0.1475370941201249,-0.12833209555352995,0.09701995506605805,-196.98311245243997,320.44424704403787,-422.86929813057185,220.14215584774823,-238.8638115043645,-0.49187558609618653
-0.047587720517136674,0.31491764545777595,-0.3135662840665937,0.07535050408212768,-1.0939888508733318,0.02568122154278489,-0.14987733720626273,0.10553420415662763,-0.10236680786944508,0.1475296559032342,-0.12834227617482255,0.09742015047571095,-197.71821700172353,321.0989734532416,-422.68809891635385,219.52914483411178,-239.51464967624634,-0.4954570611223223
-0.04788747585421638,0.31512869686521444,-0.31377099063682784,0.0756455485501032,-1.0942455558098765,0.02587685850715049,-0.1498776685398505,0.10552570371924012,-0.10235328511707045,0.14752223398776085,-0.12835246827240449,0.09781848218280068,-198.45281562324777,321.753109689778,-422.50614642232324,218.9141648199698,-240.1632455130988,-0.4990428928297983
-0.048187231853675044,0.3153397313069496,-0.3139756701972417,0.0759405782067792,-1.094502281153587,0.026073288397183342,-0.1498779997293332,0.10551722086756848,-0.10233978020693066,0.14751482833799567,-0.12836267185524528,0.09821494501642523,-199.18690643598993,322.40665366071926,-422.3234410336268,218.29722144392997,-240.80959226822665,-0.5026330789618509
-0.04848698851521263,0.3155507488181845,-0.31418032278354807,0.07623559308461554,-1.0947590269274494,0.026270507464842746,-0.14987833076879298,0.10550875561745048,-0.10232629315319292,0.14750743891817,-0.12837288693126886,0.09860953382970136,-199.92048756021967,323.0596032750001,-422.1399831368531,217.67832036218795,-241.45368321787646,-0.5062276171048898
-0.04878674583851701,0.3157617494341501,-0.3143849484314834,0.07653059321600045,-1.0950157931544644,0.02646851195184245,-0.14987866165218952,0.10550030798279235,-0.10231282396767212,0.14750006569245375,-0.12838311350750464,0.09900224349985086,-200.653557117504,323.7119564434245,-421.9557731200307,217.05746724847546,-242.0955116613061,-0.5098265046885168
-0.04908650382326377,0.3159727331901018,-0.31458954717680376,0.07682557863325036,-1.0952725798576448,0.026667298089699018,-0.14987899237338098,0.10549187797585753,-0.10229937266018413,0.1474927086249539,-0.12839335159021562,0.09939306892828391,-201.3861132307124,324.36371107867427,-421.7708113726281,216.43466779400904,-242.73507092085393,-0.5134297389855365
-0.04938626246911606,0.3161837001213168,-0.31479411905528143,0.07712054936860979,-1.095529387060015,0.026866862099780377,-0.14987932292614167,0.10548346560751187,-0.10228593923884623,0.14748536767971368,-0.12840360118500746,0.09978200504067962,-202.11815402402163,325.01486509531577,-421.58509828555214,215.80992770743785,-243.3723543420076,-0.5170373171119446
-0.04968602177572441,0.31639465026309166,-0.3149986641027021,0.07741550545425122,-1.0957862147846087,0.027067200193354506,-0.14987965330417746,0.10547507088743233,-0.10227252371033252,0.14747804282071197,-0.12841386229692114,0.10016904678706419,-202.84967762292084,325.6654164098082,-421.3986342511483,215.1832527147918,-244.007355293473,-0.5206492360269213
-0.049985781742726686,0.3166055836507402,-0.3152031823548623,0.07771044692227494,-1.0960430630544697,0.02726830857163828,-0.14987998350113843,0.10546669382428428,-0.10225912608009105,0.147470734011863,-0.1284241349305115,0.1005541891418871,-203.58068215421616,326.3153629405099,-421.21141966319897,214.55464855942952,-244.64006716724245,-0.5242654925328066
-0.05028554236974794,0.31681650031959196,-0.31540767384756735,0.07800537380470897,-1.0962999318926496,0.02747018342584647,-0.14988031351062991,0.10545833442587241,-0.1022457463525285,0.14746344121701627,-0.12843441908991415,0.10093742710409537,-204.31116574603595,326.9647026076872,-421.0234549169237,213.9241210019862,-245.27048337866307,-0.5278860832750778
-0.05058530365640039,0.3170274003049905,-0.3156121386166297,0.07830028613350888,-1.0965568213222074,0.027672820937240883,-0.14988064332622197,0.10544999269926868,-0.10223238453116713,0.1474561643999566,-0.1284447147789022,0.1013187556972062,-205.04112652783527,327.6134333335207,-420.834740408978,213.29167582032136,-245.8985973665048,-0.5315110047423184
-0.05088506560228331,0.31723828364229234,-0.3158165766978672,0.07859518394055769,-1.0968137313662094,0.02787621727717964,-0.14988097294145716,0.10544166865092133,-0.10221904061877828,0.14744890352440426,-0.12845502200093445,0.1016981699693784,-205.7705626304012,328.26155304211295,-420.64527653745284,212.6573188094663,-246.52440259302782,-0.5351402532661894
-0.05118482820698302,0.31744915036686583,-0.3160209881271022,0.07889006725766572,-1.0970706620477277,0.028080368607166603,-0.14988130234985747,0.10543336228674749,-0.10220571461749572,0.14744165855401528,-0.1284653407591962,0.10207566499348224,-206.49947218585726,328.90905965949617,-420.4550637018741,212.0210557815715,-247.1478925440505,-0.5387738250213899
-0.05148459147007288,0.31766000051409027,-0.31622537294016007,0.07918493611657047,-1.097327613389841,0.02828527107890094,-0.14988163154493017,0.10542507361221165,-0.10219240652891225,0.14743442945238167,-0.12847567105663393,0.10245123586716844,-207.22785332766847,329.5559511136388,-420.2641023032024,211.38289256585438,-247.76906072901622,-0.5424117160256264
-0.05178435539111322,0.3178708341193551,-0.3164297311728684,0.07947979054893653,-1.097584585415633,0.028490920834326812,-0.1498819605201726,0.10541680263239259,-0.10217911635416145,0.14742721618303173,-0.12848601289598477,0.10282487771293604,-207.95570419064614,330.2022253344534,-420.07239274383176,210.74283500854588,-248.38790068106076,-0.5460539221395763
-0.05208411996965138,0.31808165121805915,-0.31663406286105633,0.0797746305863554,-1.0978415781481925,0.028697314005683212,-0.14988228926907673,0.10540854935204,-0.10216584409398746,0.1474200187094306,-0.1284963662798013,0.10319658567819937,-208.68302291095262,330.8478802538034,-419.8799354275897,210.10088897283796,-249.00440595707852,-0.5497004390668581
-0.05238388520522164,0.3182924518456104,-0.31683836804055393,0.08006945626034535,-1.0980985916106134,0.028904446715553922,-0.14988261778513254,0.10540031377562267,-0.10215258974880413,0.14741283699498056,-0.12850673121047274,0.10356635493535421,-209.40980762610633,331.49291380551074,-419.68673075973646,209.45706033883022,-249.61857013778956,-0.5533512623539851
-0.0526836510973453,0.31850323603742514,-0.3170426467471914,0.0803642676023514,-1.0983556258259939,0.029112315076917607,-0.14988294606183122,0.10539209590736942,-0.10213935331874528,0.14740567100302143,-0.1285171076902427,0.10393418068184322,-210.1360564749862,332.13732392536315,-419.49277914696455,208.81135500347693,-250.2303868278056,-0.5570063873903447
-0.05298341764553064,0.3187140038289277,-0.3172468990167988,0.08065906464374506,-1.0986126808174363,0.029320915193198047,-0.14988327409266797,0.10538389575130361,-0.10212613480370746,0.14739852069683113,-0.12852749572122432,0.1043000581402206,-210.86176759783677,332.78110855112067,-419.2980809973981,208.16377888053336,-250.8398496556959,-0.560665809408157
-0.05328318484927293,0.31892475525555025,-0.3174511248852056,0.08095384741582431,-1.0988697566080472,0.02953024315831448,-0.14988360187114425,0.10537571331127264,-0.10211293420338616,0.1473913860396261,-0.12853789530541312,0.10466398255821623,-211.58693913627297,333.42426562252376,-419.10263672059256,207.51433790050245,-251.4469522740534,-0.5643295234824527
-0.053582952708054465,0.3191354903527322,-0.31765532438824023,0.08124861594981343,-1.0991268532209366,0.029740295056732077,-0.1498839293907696,0.10536754859097285,-0.10209975151730663,0.14738426699456184,-0.1285483064446975,0.10502594920879914,-212.31156923328462,334.0667930812996,-418.906446727534,206.8630380105812,-252.05168835955982,-0.5679975245310411
-0.05388272122134459,0.31934620915592016,-0.31785949756172993,0.0815433702768629,-1.0993839706792183,0.02995106696351256,-0.1498842566450637,0.10535940159397064,-0.10208658674484997,0.14737716352473332,-0.12855872914086797,0.10538595339024047,-213.03565603324157,334.7086888711699,-418.7095114306385,206.2098851746066,-252.65405161305125,-0.5716698073144822
