Joohwan-Seo/mujoco_sysID/Fanuc/Dataset/square_PIH_fanuc_rework_0.csv
q1,q2,q3,q4,q5,q6,dq1,dq2,dq3,dq4,dq5,dq6,t1,t2,t3,t4,t5,t6
-2.608377807292049e-10,1.0406769861256264e-07,-3.3388018675115756e-07,-0.0004584358910043996,1.0026807475814503e-07,0.00011517284750986393,-1.3041889036460244e-07,5.203384930628132e-05,-0.00016694009337557878,-0.2292179455021998,5.013403737907251e-05,0.05758642375493196,-0.00016801836800157423,-25.688406871628516,27.23570541359631,-197.59304785461512,4.105944568548834,21.691323754183372
-7.07732096811566e-10,3.1228300192938765e-07,-9.983103889584381e-07,-0.0013746023822324835,2.9776072048418283e-07,0.0003341923612986064,-2.2344715804118054e-07,0.00010410765165841249,-0.0003322151011036403,-0.4580832456140419,9.87463228630189e-05,0.10950975689437124,0.9593250865082261,-26.439044267666926,27.48769339096636,-194.8457357429579,4.027039218794498,19.60560241610636
5.562454607122824e-07,1.7880252709947798e-07,-1.8476986123919808e-06,-0.002747794537611593,1.5924092333919953e-07,0.0006468239920209422,0.000278476596404547,-6.674023741495483e-05,-0.00042469411171677123,-0.6865960776895548,-6.925989857249165e-05,0.1563158153611679,1.9154969305182445,-27.187235566042343,27.739025071045575,-191.87228336851473,3.9503186529842655,17.720773459992817
2.2262919164820643e-06,-7.404059371347917e-07,-2.7373031558686443e-06,-0.00457730888001519,-7.386365818300427e-07,0.001043819481654849,0.000835023227884891,-0.0004596042321171348,-0.0004448022717383317,-0.9147571712017984,-0.0004489387525846211,0.19849774481695331,2.86815843875166,-27.93271608204961,27.989609803152177,-188.67303501768427,3.8757594572655036,16.01748098774453
5.563045760415817e-06,-2.8874325690104396e-06,-3.523261285994527e-06,-0.006862443355465637,-2.8091632982292844e-06,0.0015168218343623906,0.0016683769219668762,-0.001073513315937824,-0.00039297906506294137,-1.1425672377252238,-0.0010352633581996208,0.23650117635377088,3.8171186161985564,-28.675224132597545,28.239357592390235,-185.24833444682466,3.8033340840927545,14.478234034220353
1.1117859025478594e-05,-6.702295702531728e-06,-4.062617173716173e-06,-0.009602497300587423,-6.455422213206763e-06,0.0020582794433649213,0.002777406632531389,-0.0019074315667606445,-0.0002696779438608229,-1.370026972560893,-0.0018231294574887395,0.2707288045012653,4.7621846778983015,-29.4145014420341,28.488179471844404,-181.5985248897799,3.733010928115843,13.087226881850857
1.9439641686037905e-05,-1.2622813063742288e-05,-4.21334924063606e-06,-0.012796771412957344,-1.20701399870464e-05,0.0026613684916549285,0.004160891330279656,-0.00296025868060528,-7.536603345994312e-05,-1.59713705618496,-0.002807358886919819,0.3015445241450035,5.703162175539166,-30.15029352637928,28.735987854610897,-177.72394906552404,3.664754400474413,11.830176687858456
3.107468479786633e-05,-2.108447405480995e-05,-3.834397050046664e-06,-0.01644456772403053,-2.0035545787212307e-05,0.003319922829364182,0.005817521555914213,-0.004230830495533831,0.0001894760952946979,-1.8238981555365927,-0.003982702900082953,0.3292771688546266,6.639855118659588,-30.882350056358526,28.98269686612561,-173.62494918588067,3.598525001647108,10.69417675602163
4.656648677296001e-05,-3.252031308925637e-05,-2.7856878647985177e-06,-0.020545189574350618,-3.072323649190956e-05,0.00402837060741579,0.007745900987546837,-0.005717919517223211,0.0005243545926240731,-2.0503109251600438,-0.005343845352348627,0.3542238890258042,7.572066088762762,-31.61042519962655,29.228222657232102,-169.3018669632739,3.534279393030749,9.667563945638712
6.64555828152147e-05,-4.736078398460847e-05,-9.281629814596042e-07,-0.025097941590779195,-4.4494048009555917e-05,0.004781677016495307,0.009944548021127344,-0.007420235447676046,0.0009287624416694567,-2.2763760082142888,-0.006885405758823177,0.37665320453975826,8.49959634481397,-32.33427794255833,29.472483698404652,-164.75504361846134,3.4719704674514533,8.739798855578693
9.127937754080366e-05,-6.603363542163287e-05,1.8761960622373954e-06,-0.030102129665504154,-6.169793248499807e-05,0.005575292543096173,0.012411897362794485,-0.009336425718512202,0.0014021795218484999,-2.5020940373624794,-0.008601942237721079,0.3968077633004334,9.422245918744514,-33.05367239196305,29.715401055507737,-159.98481988819853,3.411547418835554,7.9013575525451785
0.00012157198080508998,-8.896378748213649e-05,5.764341321911925e-06,-0.03555706093660904,-8.267384118895378e-05,0.0064051062110719,0.015146301632143155,-0.011465076030251807,0.0019440726298372646,-2.7274656355524423,-0.010487954351977854,0.4149068339878634,10.339813699736387,-33.76837805704781,29.956898647432972,-154.99153603277915,3.3529558112927633,7.143633731273662
0.00015786404675604973,-0.0001165732092800739,1.0872132250290773e-05,-0.04146204377000612,-0.00010774961291411834,0.007267403328343656,0.018146032975479873,-0.013804710898968701,0.002553895464189424,-2.952491416698539,-0.012537885862582282,0.4311485586358776,11.252097506208042,-34.47817011192272,30.196903485910184,-149.7755318433932,3.296137647888483,6.458850301549814
0.00020068260777174134,-0.00014928095418912995,1.7334811343225996e-05,-0.047815701255243856,-0.0001372420151816798,0.008158826899369967,0.02140928050784581,-0.01635387245452803,0.0032313395464676114,-3.176828742618867,-0.014746201133780728,0.4457117855131559,12.158898093235566,-35.182829529655905,30.4353439387485,-144.34092233321581,3.2410323068781626,5.839987616682265
0.00025055071109930194,-0.00018750651547966188,2.5298120481693216e-05,-0.0546007246361762,-0.0001714599147365036,0.009076334159595079,0.024934051663780293,-0.01911278064526596,0.00398165456923361,-3.39251169046617,-0.017108949777411914,0.45875363011255604,13.060102806157781,-35.882143803991724,30.672111275873384,-138.77602144856314,3.1875954708897076,5.280882777384633
0.0003079874369058334,-0.00023166616791385958,3.490679514358137e-05,-0.06179943328230727,-0.00021070078073767376,0.010017175504822137,0.028718362903265737,-0.022079826217098857,0.004804337330944078,-3.599354323065534,-0.019620433000585066,0.4704206726135291,13.955504848902535,-36.57591265825182,30.907145515068315,-133.09152931867933,3.135764427350891,4.775782570875029
0.00037350775379019853,-0.0002821728439085331,4.6304505675394816e-05,-0.06939380796820314,-0.0002552506295851178,0.010978866264992821,0.03276015844218255,-0.025253337997336752,0.005698855265906723,-3.7971873429479395,-0.022274924423722017,0.4808453800853425,14.844890000587458,-37.26394259166072,31.14039099805197,-127.29814909334863,3.085475444590484,4.31948771182038
0.0004476223801198841,-0.000339436011211623,5.963379956470722e-05,-0.07736552411161839,-0.0003053839859017281,0.01195916119748786,0.037057313164842794,-0.028631583651544956,0.0066646469446562,-3.9858580717076197,-0.025066678158305142,0.4901474662475193,15.72803661793347,-37.94604659496984,31.371796088339426,-121.40657053604572,3.036664157688058,3.9072994721281873
0.0005308376511336844,-0.0004038615521900928,7.503604494937325e-05,-0.08569598492011213,-0.00036136385989635054,0.01295603143789447,0.04160763550690015,-0.03221277048923492,0.007701122692333016,-4.165230404246871,-0.027989936997311227,0.49843512020330494,16.604715689398265,-38.62204380323213,31.601312805483516,-115.42745391232927,2.989265942351345,3.534971453516642
0.0006236553917211233,-0.00047585164483046296,9.2651375610542e-05,-0.09436635439692448,-0.0004234417413332541,0.013967643671436223,0.046408870293719415,-0.035995046320185076,0.008807665330584375,-4.335184738406172,-0.031038940718451796,0.505806116770876,17.47469094399032,-39.29175909524523,31.8288964053731,-109.37141419309388,2.943216275872464,3.1986660073464255
0.0007265727947607229,-0.0005558046455551097,0.0001126186377015591,-0.10335759015793713,-0.0004918576103249122,0.014992341311077495,0.05145870151979981,-0.0399765003623234,0.009983631045508557,-4.4956178805063285,-0.034207934495829026,0.5123488198206361,18.337719017167974,-39.955022649563844,32.054504916688344,-103.24900559150221,2.8984510842696065,2.8949148539400964
0.0008400823048716833,-0.0006441149739575696,0.0001350753384639139,-0.11265047601265107,-0.0005668399651470248,0.016028627488933037,0.05675475505548015,-0.04415516420122995,0.011228350381177398,-4.646442927356973,-0.03749117741105628,0.518143088927771,19.193549675537316,-40.61166946721576,32.27809864388318,-97.070706451607,2.8549070747706438,2.6205834967570474
0.0009646715074075013,-0.000741172999558482,0.00016015759717461108,-0.12222565426327521,-0.0006486058672477629,0.017075149686244965,0.06229460126790903,-0.04852901280045619,0.01254112935534859,-4.787589125312065,-0.04088295105036903,0.5232610986559639,20.04192610125976,-41.261538871337386,32.49963964718189,-90.84690450585367,2.812522052840376,2.372839065777744
0.0011008230224957862,-0.0008473649306805284,0.0001880000985569576,-0.1320636576772313,-0.0007373610035874631,0.018130685844026172,0.06807575754414247,-0.05309596556102321,0.013921250691173254,-4.919001706978042,-0.04437756816985012,0.5277680788906043,20.88258523619351,-41.90447399387393,32.71909121003662,-84.58788251781436,2.7712352229974355,2.1491212596803986
0.0012490144039062469,-0.0009630727055358656,0.00021873604886908424,-0.1421449410896392,-0.0008332997664008486,0.019194131811683637,0.07409569070523038,-0.057853887427668595,0.015367975156063326,-5.040641706203948,-0.04796938140669276,0.5317229838287316,21.71525818485062,-42.54032125927185,32.93641730430073,-78.30380432566125,2.730987472710384,1.9471160882282468
0.0014097180425087816,-0.0010886738856132137,0.00025249713486199035,-0.1524499125936496,-0.000936605350421849,0.020264490004683666,0.08035181930126731,-0.06280059003867403,0.016880542996453064,-5.152485752005195,-0.051652792010500166,0.5351790965000142,22.53967067428222,-43.16892987472873,33.151582063029494,-72.00470130102659,2.691721638708187,1.764732145053705
0.0015834010740659803,-0.0012245415514440857,0.00028941348577200886,-0.16295896427783677,-0.001047449867551931,0.021340859154745137,0.08684151577859933,-0.06793383291543598,0.01845817545500925,-5.254525842093583,-0.05542225856504095,0.5381845750307359,23.35554356803791,-43.79015133606741,33.36454927033523,-65.70045923703341,2.653382755088409,1.6000791670215269
0.0017705252910893575,-0.0013710442008187864,0.0003296136384819109,-0.1736525024712483,-0.0011659944788873406,0.02242242504727365,0.09356210851168863,-0.07325132468735031,0.020100076354951032,-5.346769096705769,-0.059272305667704916,0.5407829462642569,24.16259343040985,-44.403838957679056,33.57528187710657,-59.40080567840559,2.6159182826593295,1.4514486598446958
0.001971547058476401,-0.0015285456495129413,0.0003732245059510333,-0.18451097745812958,-0.0012923895439497168,0.023508452150894775,0.10051088369352168,-0.07875072434707749,0.021805433734561192,-5.429237493440636,-0.06319753253118805,0.5430135518105618,24.96053313629347,-45.00984743424202,33.78374155066236,-53.11529770568562,2.5792783190089263,1.3172963908548354
0.00218691723263618,-0.0016974049345746319,0.00042037134897849037,-0.19551491262579518,-0.0014267747868891567,0.024598276053112333,0.10768508707988955,-0.08442964253084523,0.02357342151372853,-5.5019675838328,-0.06719262146972,0.5449119511087792,25.74907252120052,-45.60803244108798,33.98988826556607,-46.85331018470256,2.5434157888565117,1.1962265690117144
0.0024170810838048803,-0.0018779762202109035,0.0004711777513254339,-0.20664493301060505,-0.0015692794793500913,0.025691296624402143,0.1150819255843502,-0.0902856428181358,0.025403201173471786,-5.565010192404937,-0.07125234623046733,0.5465102856449059,26.52791906526647,-46.19825027916849,34.19367994189117,-40.62402449154266,2.5082866143111375,1.086977549570809
0.002662478221249242,-0.0020706087063007,0.0005257655981831686,-0.21788179320851642,-0.0017200226396093367,0.026786971840537886,0.12269856872218075,-0.09631624304489823,0.027293923428867297,-5.618430098955684,-0.07537158012962274,0.5478376080678706,27.29677860452201,-46.78035756959256,34.39507213622208,-34.43641772238168,2.473849864734073,0.9884089164926068
0.002923542521055485,-0.0022756465395493463,0.0005842550579344427,-0.22920640461822142,-0.0018791132475136116,0.027884812199710753,0.13053214990312156,-0.10251891662432303,0.029244729875637088,-5.662305704852503,-0.07954530395213737,0.5489201795864341,28.055356062261225,-47.354211001673775,34.594017789612714,-28.299252396643688,2.440067885981694,0.8994898098320406
0.003200702056203847,-0.002493428727287781,0.0006467645671161342,-0.24059986198644184,-0.0020466504746617566,0.028984375677117792,0.13857976757418097,-0.10889109386921737,0.03125475459084571,-5.696728684110207,-0.08376861357407248,0.54978173870352,28.803356193047026,-47.91966713737368,34.79046703563614,-22.221066661056422,2.4069064088889514,0.8192883781380567
0.0034943790286342236,-0.0027242890539080217,0.0007134108184535153,-0.25204346922653326,-0.002222723929196014,0.030085263165217944,0.1468384862151884,-0.11543016331012024,0.03332312566869052,-5.721803620045713,-0.08803672726712877,0.5504437440500766,29.54048433175446,-48.47658227395825,34.98436707054939,-16.210165001278934,2.374334636940235,0.7469622474521567
0.0038049897030164896,-0.002968555999915008,0.0007843087517999816,-0.26351876448314965,-0.002407413914488094,0.031187114352846837,0.15530533719113307,-0.12213347300349306,0.03544896667323313,-5.737647628308195,-0.09234499264603985,0.5509255938144454,30.26644714006503,-49.02481236563837,35.175662086504644,-10.274609466887533,2.3423253131661403,0.6817499089397145
0.0041329443419496625,-0.003226552663564224,0.0008595715477821505,-0.2750075444173315,-0.002600791700930418,0.03228960400089229,0.16397731946658656,-0.1289983318246081,0.037631397991084455,-5.744389967090922,-0.09668889322116206,0.5512448240227279,30.980953342988183,-49.56421300393954,35.36429326766547,-4.422211414617835,2.3108547663960994,0.6229629366269608
0.004478647142326988,-0.0034985966850444718,0.0009393106239191387,-0.28649188768800543,-0.0028029198099718614,0.033392438576308955,0.17285140018866282,-0.13602201074012377,0.03986953806849408,-5.742171635336975,-0.10106405452072163,0.5514172877083305,31.68371444829505,-50.094639455573926,35.55019884806401,1.3394762261202775,2.2799029370915247,0.5699789552456676
0.004842496172618994,-0.003785000173156024,0.001023635632957082,-0.29795417760751647,-0.0030138523094713583,0.03449535320993393,0.1819245151460025,-0.14320174405577618,0.04216250451897165,-5.731144959755517,-0.10546624974974851,0.5514573168124892,32.37444544219145,-50.61594675567699,35.7333142290732,7.003166162311948,2.2494533830768857,0.5222352858953722
0.005224883310843331,-0.004086069634426259,0.0011126544631359777,-0.3093771239504535,-0.0032336351193827297,0.03559810894689417,0.1911935691121687,-0.1505347306351176,0.04450941508944786,-5.711473171468518,-0.10989140495568563,0.5513778684801212,33.05286545512176,-51.12798985343932,35.91357215348574,12.56184341871493,2.2194932655793354,0.4792232041976873
0.005626194183008526,-0.00440210590459783,0.0012064732400860292,-0.320743783896673,-0.003462306326730648,0.03670049026140415,0.20065543608259767,-0.15801813508578513,0.04690938847502576,-5.6833299731097515,-0.11433560367395909,0.5511906572549913,33.71869839226581,-51.63062380641914,36.090902932396034,18.00877149012523,2.1900133160763886,0.44048275191138886
0.006046808101838234,-0.00473340408241858,0.0013051963300351052,-0.33203758209107004,-0.0036998965087913895,0.03780230281047069,0.21030695941485378,-0.165649088910375,0.04936154497453797,-5.646899097198512,-0.11879509103037089,0.5509062745332716,34.37167352404952,-52.12370401917689,36.26523472039044,23.337497963955606,2.1610077845388664,0.4055980486643658
0.006487098005603015,-0.005080253465657815,0.001408926343997848,-0.34324232980428987,-0.003946429063353333,0.038903371403477945,0.22014495188239025,-0.17342469161961743,0.051865006981371455,-5.602373856609913,-0.12326627728097199,0.5505342965036258,35.01152603281651,-52.60708652133506,36.436493833966864,28.541859613383284,2.132474369737726,0.37419305559798305
0.006947430396907645,-0.005442937489270179,0.0015177641426104619,-0.3543422431802134,-0.004201920544901392,0.04000353816684518,0.2301661956523149,-0.18134201180618217,0.054418899306306896,-5.549956687961769,-0.12774574077402917,0.5500833816836179,35.637997512684066,-53.08062827973616,36.604605107633674,33.61598696214268,2.1044141323608154,0.34592774736391013
0.007428165281303256,-0.00582173366562635,0.0016318088412732709,-0.36532196055768346,-0.004466381005546898,0.04110266088495581,0.24036744219780562,-0.1893980881780852,0.057022349331404466,-5.4898586887350325,-0.1322302303227532,0.5495613590553127,36.25083642050793,-53.54418753905585,36.769492281784316,38.55430832283958,2.0768313917563246,0.3204946531102133
0.007929656105614896,-0.00621691352672895,0.0017511578152656993,-0.3761665588555645,-0.004739814339509997,0.042200611500368426,0.25074541215582,-0.19758993055129961,0.059674486996214166,-5.422299148940526,-0.13671666698154944,0.5489753077063101,36.84979847678978,-53.99762418502255,36.93107841620515,43.35155331145182,2.049733607184344,0.2976157308862072
0.008452249695896101,-0.00662874256833253,0.0018759067045052214,-0.38686156901184315,-0.005022218629955255,0.04329727475795869,0.261296795140603,-0.20591452080179046,0.06237444461976108,-5.347505078139339,-0.14120214522262897,0.5483316287951328,37.434647016255255,-54.44080012429743,37.089286322948865,48.002755841447346,2.0231312445150964,0.27703954332245817
0.00899628619494256,-0.007057480195888097,0.0020061494176328654,-0.3973929904690786,-0.005313586496982904,0.04439254697912065,0.2720182495232294,-0.21436881377778316,0.06512135656382194,-5.265710728617726,-0.14568393351382447,0.5476361105809804,38.0051532886915,-54.87357967507543,37.2440390122888,52.50325660170209,1.997037629362369,0.25853870553967634
0.009562098999316626,-0.007503379672235358,0.002141978135122747,-0.4077473047000981,-0.005613905445587589,0.04548633495349377,0.2829064021870334,-0.22294973817363054,0.06791435874494066,-5.1771571155097655,-0.15015947430234242,0.5468939871865613,38.56109671144437,-55.29582996257153,37.39526014555481,56.84870502312835,1.971468787683243,0.24190757903855864
0.010150014695853207,-0.007966688066969672,0.0022834833111315526,-0.4179114877694028,-0.005923158212413403,0.04657855493689032,0.2939578482682905,-0.23165419736715734,0.07075258800440296,-5.0820915346523385,-0.15462638341290724,0.5461099916982755,39.10226507571916,-55.70742131374625,37.542874488827906,61.03506073963353,1.9464432749098426,0.2269601878516749
0.010760352997635097,-0.008447646207415326,0.0024307536738255196,-0.4278730219272973,-0.006241323110157954,0.04766913174518991,0.30516915089094476,-0.24047907022282683,0.07363518134698348,-4.980767078947257,-0.15908244887227513,0.5452884041497953,39.62845470949434,-56.10822764589385,37.68680836173112,65.05859454971664,1.9219819947062287,0.21352833552413136
0.011393426679442152,-0.0089464886311423,0.0025838762239468746,-0.4376199062352867,-0.006568374368508719,0.04875799793495486,0.3165368409035275,-0.24942121186348748,0.07656127506067746,-4.873442153994673,-0.16352562917538266,0.5444330948824754,40.13947060043108,-56.4981268440539,37.82699007588751,68.9158888856736,1.8981080084635589,0.20145990355450102
0.012049541512693584,-0.009463443539969932,0.002742936231408519,-0.447140666222787,-0.006904282470531562,0.0498450930624118,0.3280574166257165,-0.2584774544138155,0.07953000373082217,-4.7603799937501545,-0.16795405101142147,0.5435475637284701,40.63512648263768,-56.87700112259674,37.96335035800516,72.60383779802507,1.874846336659608,0.190617313794186
0.012728996199916074,-0.009998732755407668,0.002908017229734506,-0.45642436257667734,-0.007249014483473309,0.05093036301325075,0.33972734361124485,-0.26764460771886794,0.08254049916299339,-4.641848176945185,-0.17236600647087347,0.542634975419474,41.11524489151723,-57.24473736677314,38.0958227529931,76.11964646339754,1.8522237532153922,0.18087613898971716
0.013432082308782293,-0.010552571675490473,0.003079201008194162,-0.4654605988666719,-0.007602534382987285,0.05201375939642108,0.3515430544331092,-0.27691946004140233,0.0855918892298282,-4.518118144997272,-0.176759949756988,0.5416981915851684,41.57965719119109,-57.6012274504836,38.22434400298374,79.46083022468224,1.8302685739816096,0.17212384717637855
0.014159084205774818,-0.01112516923297407,0.0032565676015091144,-0.4742395283109147,-0.007964803369841929,0.05309523899576183,0.36350094849626224,-0.28629877874179843,0.08868329665747622,-4.3894647221214,-0.18113449342732216,0.540739799670372,42.02820357914319,-57.94636852701596,38.348854398640256,82.62521317286505,1.809010440482722,0.16425866700904113
0.014910278989539246,-0.011716727854863156,0.0034401952770445627,-0.4827518595875933,-0.00833578017822752,0.0541747632738982,0.3755973918822143,-0.29577931094454313,0.09181383776772407,-4.256165638339296,-0.18548840419279547,0.5397621390681846,42.460733072779526,-58.280063289998196,38.469298099638586,85.61092628046548,1.7884801000358719,0.15718856236039766
0.015685936423997713,-0.012327443423253766,0.00363016051942852,-0.49098886169972705,-0.008715421374833984,0.05525229792337372,0.3878287172292336,-0.30535778419530524,0.09498262119197867,-4.118501056066877,-0.1898205983032322,0.5387673247377605,42.87710348254004,-58.60222020231549,38.585623421729906,88.41640509703872,1.7687091833468858,0.1508303056417118
0.01648631887129998,-0.012957505237479051,0.0038265380125750113,-0.49894236790161384,-0.00910368164793315,0.05632781246047262,0.40019122365113324,-0.31503090711264276,0.09818874657324554,-3.97675310094339,-0.19413013654958314,0.5377572685494536,43.27718137604959,-58.912753691232425,38.697783088297534,91.04038701769082,1.7497299806673177,0.14510864031738732
0.01731168122469393,-0.01360709597755575,0.004029400619119032,-0.5066047786967102,-0.009500514085761042,0.057401279857625984,0.4126811766969743,-0.3247953700383489,0.10143130327201048,-3.831205397548186,-0.19841621891394592,0.536733698576681,43.660842037552975,-59.21158430843755,38.80573444481657,93.48190813602073,1.7315752175731927,0.13995552400317596
0.018162270841400752,-0.014276391668936475,0.004238819357302114,-0.5139690639179757,-0.009905870443559343,0.05847267621069139,0.42529480835341144,-0.33464784569036304,0.10470936909154087,-3.6821426106327553,-0.20267817889915007,0.5356981765327029,44.02796942655764,-59.49863885418111,38.90943963509666,95.74029969334556,1.7142778314020028,0.13530944436791134
0.01903832747558248,-0.014965561648580575,0.004454863375377285,-0.5210287639029292,-0.01031970139869946,0.059541980437754216,0.43802831709086454,-0.3445849898220504,0.10802200903758545,-3.5298499924767497,-0.2069154775700587,0.5346521135314144,44.37845613921775,-59.773850465102754,39.00886573863431,97.81518413647986,1.6978707493557752,0.1311148008086317
0.019940083211490926,-0.015674768532363565,0.004677599923630842,-0.5277779897768434,-0.01074195679337722,0.060609174006422156,0.45087786795422324,-0.35460344189149456,0.11136827412677879,-3.3746129369571425,-0.21112769733888073,0.5335967843339708,44.71220337554381,-60.03715866573923,39.103984868814166,99.70647079672769,1.6823866692490768,0.1273213455467582
0.020867762396887698,-0.01640416818385208,0.004907094324145389,-0.5342114228586425,-0.011172585864430633,0.0616742406868771,0.46383959269838587,-0.3646998257442568,0.11474720025727335,-3.216716540899556,-0.21531453552670624,0.5325333402274716,45.02912091502595,-60.28850938406228,39.19477423208061,101.41435120310862,1.6678578438483136,0.12388367840569794
0.0218215815768249,-0.017153909684477754,0.0051434099384538665,-0.5403243132051628,-0.011611537459897027,0.06273716632821275,0.4769095899686008,-0.3748707503128364,0.11815780715423876,-3.0564451732601206,-0.21947579773319617,0.5314628206678206,45.329127102728485,-60.52785493172168,39.28121614854613,102.939294043175,1.6543158697166196,0.1207607900835587
0.022801749427875537,-0.017924135305149407,0.005386608133257678,-0.546112477310493,-0.01205876024198882,0.06379793865582503,0.4900839255253183,-0.3851128103358257,0.12159909740190562,-2.894082052665064,-0.22361139104589678,0.5303861638061443,45.612148847360245,-60.75515394995486,39.36329803481193,104.28203978508695,1.6417914814433234,0.11791564923506093
0.02380846669290168,-0.018714980479348393,0.005636748244403282,-0.5515722949781202,-0.012514202876228887,0.06485654708783829,0.5033586325130722,-0.39542258709949274,0.12507005557280196,-2.7299088338136137,-0.22772131712003357,0.5293042160066281,45.87812163226052,-60.97037132237996,39.44101235005293,105.44359497489582,1.6303143521024839,0.11531482912862652
0.024841926116447265,-0.019526573777756896,0.00589388753933079,-0.5567007053845757,-0.012977814206546666,0.06591298256874475,0.5167297117727923,-0.40579664920425157,0.12856964746375404,-2.564205203227755,-0.23180566515889006,0.5282177404532298,46.12698953967751,-61.17347805610777,39.514356506660235,106.42522622324338,1.6199129007478765,0.11292817005339513
0.02590231238084106,-0.020359036884473283,0.006158081178225008,-0.5614952023541957,-0.0134495434161947,0.06696723741861141,0.5301931321968969,-0.4162315533581943,0.132096819447109,-2.3972484848099787,-0.2358646048240166,0.5271274249333243,46.35870528816372,-61.36445113279759,39.583332746946546,107.22845389591637,1.610614107714544,0.1107284740197433
0.02698980204309411,-0.02121248457487242,0.0064293821741140105,-0.5659538288654905,-0.013929340174401825,0.06801930519636708,0.5437448311265234,-0.426723845199569,0.1356504979445012,-2.229313255647406,-0.23989837910356285,0.5260338888778351,46.57323028238235,-61.54327333144282,39.647947987603004,107.85504552289974,1.602443338459036,0.1086912286307295
0.028104563472674746,-0.022087024695172007,0.006707841352172687,-0.5700751708104458,-0.014417154768733837,0.06906918057582653,0.5573807147903188,-0.43727006014979264,0.1392295890293382,-2.0606709724776318,-0.24390729716600598,0.5249376897297297,46.77053467412026,-61.709933024807896,39.70821363375534,108.30700894075498,1.5954241766302775,0.10679435730334144
0.0292467567902434,-0.02298275814376859,0.006993507308498752,-0.5738583500288624,-0.01491293822318478,0.07011685923323817,0.5710966587843282,-0.4478667242982919,0.14283297816303284,-1.8915896092083408,-0.24789172722547156,0.5238393287058168,46.95059743284109,-61.864423951553164,39.764145364604836,108.58658518329987,1.5895782670231267,0.10501799329070657
0.030416533807428748,-0.023899778854408932,0.007286426368636494,-0.5773030166405809,-0.015416642402072245,0.0711623377452592,0.5848885085926742,-0.45851035532017215,0.14645953006887089,-1.7223333058592267,-0.25185208944373205,0.5227392560105117,47.11340642369993,-62.00674496617937,39.815762892759636,108.69624113569934,1.5849251690241344,0.10334427520284206
0.03161403796772658,-0.02483817378126378,0.0075866425461290545,-0.5804093406991231,-0.015928220099857913,0.07220561349636834,0.5987520801489129,-0.4691974634274234,0.1501080887462801,-1.5531620292710748,-0.2557888488928341,0.5216378755545694,47.258958490578905,-62.13689976900647,39.86308969946735,108.6386619671767,1.5814822211162567,0.10175716194573246
0.03283940428860292,-0.025798022885971956,0.007894197501383387,-0.5831780031909292,-0.016447625117060237,0.07324668459482167,0.6126831604381723,-0.479924552354088,0.15377747762716593,-1.3843312459030404,-0.25970250860116123,0.5205355492266641,47.38725954139934,-62.25489661846923,39.906152748053515,108.41674335763781,1.5792644169642323,0.10024226519992925
0.03409275930488375,-0.02677939912672303,0.008209130501133205,-0.5856101864049597,-0.01697481232246943,0.0742855497963438,0.6266775081404132,-0.4906881203755367,0.15746649987490866,-1.2160916070152425,-0.2635936027045957,0.5194326007610669,47.49832463272408,-62.36074802807316,39.94498217795483,108.03358353355112,1.5782842935554604,0.09878669774107549
0.03537422101351457,-0.027782368449446492,0.008531478378784358,-0.5877075636979793,-0.017509737701916044,0.07532220843482479,0.6407308543154101,-0.5014846613617309,0.16117393882557712,-1.048688646509825,-0.26746268972330794,0.5183293192404899,47.59217805048597,-62.45447045040681,39.97961098181434,107.49247512845973,1.5785518318236282,0.09737893606942004
0.036683898819775164,-0.02880698978117466,0.008861275495924182,-0.5894722886813386,-0.018052358393883212,0.07635666035936356,0.6548389031302959,-0.5123106658640844,0.16489855856991179,-0.8823624916796445,-0.27131034598358333,0.5172259622693876,47.6688533835655,-62.53608395065387,40.01007466817633,106.79689688350626,1.580074370131149,0.09600869596327746
0.03802189348503671,-0.029853315025645245,0.009198553705271516,-0.5909069838555182,-0.018602632712289204,0.07738890587706274,0.6689973326307732,-0.5231626222352911,0.16863910467366705,-0.717347587089777,-0.2751371592029968,0.5161227588495906,47.72839358689554,-62.60561187209071,40.036410912387055,105.95050520333528,1.5828565309347784,0.09466681970593777
0.03938829707615137,-0.030921389061207723,0.009543342315337478,-0.5920147287191044,-0.019160520156801544,0.07841894570103686,0.6832017955573286,-0.534037017781239,0.17239430503298125,-0.5538724317931236,-0.27894372225616976,0.5150199119870629,47.770851030791,-62.663080496094004,40.058659198368986,104.95712558269693,1.5869001609040128,0.09334517385616639
0.0407831929165674,-0.032011249741095524,0.009895668057058606,-0.5927990473792196,-0.019725981411076128,0.07944678090314843,0.6974479202080145,-0.5449303399439015,0.1761628708605642,-0.39215933005757564,-0.2827306271372923,0.5139176010557819,47.7962875332852,-62.7085186992159,40.076860453994,103.82074391901277,1.5922042847055846,0.09203655654223045
0.04220665553926652,-0.033122927896123276,0.010255555052653928,-0.5932638956907367,-0.02029897832934526,0.08047241287103288,0.7117313113495618,-0.5558390775138755,0.1799434977976607,-0.2324241557585066,-0.286498459134566,0.5128159839422248,47.80477437240154,-62.74195760991444,40.091056682832914,102.54549772607999,1.5987650726084448,0.09073461335825653
0.04365875064162404,-0.03425644733986533,0.010623024786945847,-0.5934136479518703,-0.020879473911806695,0.08149584326901621,0.7260475511787585,-0.5667597218710269,0.18373486714596007,-0.07487613056683762,-0.2902477912307174,0.5117151989916656,47.7963922754934,-62.76343026754807,40.10129059510269,101.13566726398349,1.606575822003685,0.089433761031011
0.045139535042296376,-0.035411824876368334,0.010998096081371617,-0.5932530831839495,-0.021467432269292194,0.08251707400256707,0.7403922003361678,-0.5776887682515017,0.18753564721288446,0.0802823839604116,-0.2939791787427489,0.5106153667754307,47.77123138304413,-62.772971286258205,40.10760524066763,99.59566660015707,1.6156269528706764,0.08812911810583979
0.046649056640245094,-0.03658907031044669,0.011380785070897612,-0.592787371023343,-0.022062818577718444,0.08353610718595987,0.75476079897436,-0.588622717039178,0.19134449476299767,0.23285608030327007,-0.297693154213125,0.509516591696402,47.72939118462779,-62.770616526367775,40.11004364697436,97.93003461638682,1.6259060171573463,0.08681644197390698
0.04818735437601088,-0.0377881864606056,0.011771105184032883,-0.5920220572536337,-0.02266559902284572,0.08455294511285662,0.7691488678828919,-0.5995580750794518,0.19516005656763602,0.38265688485467847,-0.30139022256363834,0.5084189634483764,47.67098042508268,-62.7564027759152,40.10864846480885,96.14342597638122,1.637397721976603,0.08549207162820793
0.04975445819535545,-0.03900916917463178,0.012169067126121435,-0.5909630490062124,-0.02327574073589023,0.08556759022954337,0.7835519096722852,-0.6104913570130914,0.1989809710442757,0.529504123710629,-0.3050708565222548,0.507322558343375,47.59611697933998,-62.73036744492155,40.10346162475741,94.24060206834524,1.650083966454484,0.08415287559590895
0.05135038901539389,-0.04025200734788725,0.01257467886607466,-0.5896165996574957,-0.023893211720554818,0.0865800451105826,0.7979654100192204,-0.6214190866277371,0.2028058699766132,0.6732246743583576,-0.30873549233229314,0.5062274405196194,47.50492769476972,-62.69254827494677,40.09452400722463,92.22642193678847,1.6639438919981204,0.08279620454799416
0.05297515869334408,-0.041516682944336226,0.012987945626686374,-0.5879892934509592,-0.02451798077205953,0.08759031243666593,0.812384838975094,-0.6323377982244858,0.2066333803058565,0.8136531032682265,-0.3123845257523557,0.5051336630416607,47.397548200350926,-62.64298306643232,40.08187512881309,90.10583321757348,1.6789539456838614,0.08141984813612413
0.054628769998023984,-0.042803171020329975,0.013408869878652972,-0.5860880298721264,-0.025150017388768483,0.08859839497447197,0.8268056523399537,-0.6432440379968737,0.21046212598329914,0.9506317894164202,-0.31601830835447753,0.5040412689030206,47.27412268243266,-62.581709426245446,40.065552847794976,87.88386308996853,1.6950879563981092,0.08002199565026621
0.05631121658423131,-0.044111439751168886,0.013837451338400739,-0.5839200078045531,-0.025789291677022496,0.08960429555835336,0.8412232931036636,-0.654134365419456,0.2142907298738835,1.0840110337866475,-0.3196371441270062,0.5029502919406978,47.13480362732251,-62.508764537734564,40.0455930913052,85.56560925920928,1.7123172232959591,0.07860120013052677
0.05802248297014317,-0.04544145046045506,0.01427368696980105,-0.5814927094947138,-0.02643577424979801,0.09060801707369331,0.8556331929559265,-0.665005354643084,0.2181178157001553,1.2136491549196822,-0.32324128638775684,0.5018607576699774,46.9797515314083,-62.424184955474686,40.022029606756675,83.15623098280247,1.7306106160766266,0.07715634560233026
0.059762544517876236,-0.04679315765224285,0.014717570989832583,-0.5788138843535142,-0.027089436119822015,0.09160956244178763,0.8700307738665356,-0.6758535958938965,0.221942010015767,1.3394125705997588,-0.32683093501200156,0.500772684047155,46.80913457998328,-62.32800642672494,39.99489373981983,80.66094015351081,1.7499346865096945,0.0756866171364603
0.061531367417350075,-0.0481665090459888,0.015169094878227606,-0.5758915326219411,-0.027750248587779722,0.09260893460612171,0.8844114497369179,-0.6866756968729754,0.2257619441975116,1.461175865786537,-0.3304062339788536,0.49968608216704563,46.623128296392935,-62.220263741434955,39.96421424111997,78.08499245165768,1.7702537905833582,0.07419147346481386
0.06332890867359746,-0.04956144561429592,0.01562824739111712,-0.5727338889281001,-0.02841818312625689,0.09360613651992465,0.8987706281236943,-0.6974682841535613,0.229576256444757,1.578821846920543,-0.3339672692385845,0.49860095690146905,46.42191516355049,-62.10099061242818,39.93001710358785,75.43367857907057,1.7915302205857717,0.07267062190901227
0.06515511609766665,-0.05097790162344131,0.016095014578667334,-0.5693494057626027,-0.02909321126006164,0.09460117113489325,0.913103712034598,-0.7082280045726943,0.23338359377510817,1.6922415827486683,-0.33751406690237507,0.49751730748430006,46.205684220266136,-61.97021958715039,39.892325432150884,72.71231558665157,1.8137243463734678,0.07112399540276021
0.06700992830126001,-0.05241580467666956,0.016569379806677643,-0.5657467368989338,-0.029775304443571526,0.09559404139098948,0.9274061017966837,-0.7189515266141242,0.23718261400515528,1.8013344318344335,-0.3410465917549427,0.49643512804812007,45.9746306352006,-61.82798199211225,39.851159347177415,69.9262383072207,1.8367947650273821,0.06955173141068027
0.06889327469525267,-0.053875075760228236,0.01705132378208817,-0.5619347207850632,-0.030464433935750355,0.0965847502072235,0.9416731969963249,-0.7296355417793406,0.24097198770526332,1.9060080569352882,-0.3445647460894145,0.495354408117012,45.728955261576154,-61.674307910869274,39.80653592278587,67.08079090492234,1.8606984580478407,0.06795415256534731
0.07080507549223272,-0.05535562929211542,0.017540824582323238,-0.5579223639321709,-0.03116057067347581,0.09757330047334269,0.9559003984900302,-0.7402767659435915,0.24475040011753477,2.0061784264462,-0.348068368862727,0.4942751330595924,45.468864176057124,-61.509226196077634,39.75846916080671,64.18131855212064,1.88539095519543,0.06633174886219845
0.072745241713202,-0.05685737317350302,0.01803785768837588,-0.5537188243259206,-0.031863685143813276,0.09855969504235462,0.9700831104846364,-0.7508719406937996,0.24851655302632145,2.1017698031251797,-0.3515572351687351,0.49319728450597033,45.194568205439175,-61.33276451584344,39.70697000084286,61.23315924433366,1.9108265040453283,0.06468516126747775
0.07471367519857189,-0.05838020884279371,0.01854239602151785,-0.5493333948852562,-0.0325737472558635,0.09954393672381853,0.9842167426849431,-0.7614178346453471,0.25226916657098303,2.1927147203321655,-0.3550310560251087,0.4921208407319581,44.9062824449608,-61.144949434248176,39.65204636651647,58.241635763371896,1.9369582442890012,0.0630151666088325
0.0767102686235846,-0.05992403133226327,0.01905440998349981,-0.5447754869932006,-0.03329072621280148,0.1005260282778456,0.9982967125063559,-0.7719112447347771,0.25600698099098124,2.2789539460278405,-0.35848947846899093,0.4910457770135298,44.60422577216865,-60.94580652558952,39.59370324762158,55.21204779845375,1.9637383857893949,0.06132266363114647
0.07873490551828381,-0.06148872932723439,0.01957386750008754,-0.5400546141236136,-0.03401459038471206,0.10150597240975405,1.0123184473496067,-0.7823489974855619,0.25972875829386344,2.360436434793488,-0.36193208595529197,0.48997206595422554,44.288620360328714,-60.73536052152845,39.53194281752809,52.14966423466814,1.99111838937481,0.05960866011148458
0.08078746029215206,-0.0630741852277228,0.020100734067761982,-0.5351803755873199,-0.03474530718281287,0.10248377176532991,1.0262773869341262,-0.7927279502442037,0.2634332838372221,2.437119268146852,-0.3653583990504067,0.4888996777879322,43.95969119537692,-60.51363548998771,39.466764584808544,49.05971561774847,2.019049149341437,0.05787426093795023
0.08286779826352438,-0.06468027521249095,0.020634972803394616,-0.5301624404204355,-0.035482842935639025,0.10345942892664838,1.040168985686157,-0.8030449923840768,0.2671193678163165,2.5089675834421934,-0.36876787641307557,0.48782858065922896,43.617665600347166,-60.28065504430333,39.39816557768998,45.94738680370522,2.047481176627342,0.05612065706636005
0.08497577569387883,-0.0663068693054401,0.021176544496694028,-0.525010531437125,-0.036227162767745166,0.10443294640841491,1.0539887151772274,-0.8132970464745697,0.2707858466497068,2.575954491655285,-0.37215991605306975,0.48675874088326804,43.26277277110221,-60.03644258080115,39.32614055957402,42.817809801445776,2.0763647816194926,0.054349115277316784
0.08711123982709515,-0.06795383144426663,0.02172540766520597,-0.519734409468393,-0.036978230481459914,0.10540432665478884,1.0677320666081584,-0.8234810694132664,0.274431584255971,2.638060984365964,-0.37553385685737334,0.48569012318696403,42.89524332702636,-59.78102154265495,39.25068227352672,39.67605681608262,2.1056502555619647,0.052560968663940444
0.08927402893376185,-0.06962101955130481,0.022281518611636675,-0.5143438578078688,-0.037736008442205066,0.10637357203665501,1.081394553333348,-0.8335940535190911,0.27805547321535273,2.695275830262079,-0.3788889803725753,0.4846226909330882,42.515308880122014,-59.51441570758851,39.171781713317756,36.527133500202964,2.135288049547224,0.05075760778755839
0.09146397236060123,-0.07130828560647391,0.022844831483258696,-0.5088486668848705,-0.03850045746786761,0.10734068484931242,1.0949717134196892,-0.8436330275845495,0.28165643581101074,2.7475954614991633,-0.38222451283126946,0.4835564063287041,42.12320162568786,-59.23664949671431,39.08942841829426,33.375972419936446,2.1652289500924304,0.048940472444476635
0.09368089058506947,-0.07301547572224475,0.02341529833314951,-0.5032586191843504,-0.03927153672268642,0.10830566731055088,1.1084591122341156,-0.8535950578854169,0.2852334249454071,2.7950238502600273,-0.3855396274094069,0.48249123061923677,41.71915395745146,-58.94774830156288,39.003610789110574,30.227426742222907,2.195424250331188,0.04711104399330557
0.09592459527517636,-0.07474243022053766,0.023992869183006055,-0.49758347443261525,-0.04004920361608793,0.10926852155908956,1.121852345053447,-0.8634772491464558,0.2887854249282726,2.8375723758675893,-0.3888334467007555,0.48142712426933826,41.30339810968796,-58.64773882615024,38.914316421106506,27.086264149239945,2.225825915884707,0.045270838196601604
0.09819488935455621,-0.07648898371146162,0.024577492087273087,-0.4918329550669898,-0.04083341370687574,0.11022924965335275,1.1351470396899306,-0.8732767454619857,0.29231145213351556,2.8752596828127204,-0.39210504539390395,0.48036404713159553,40.87616582848381,-58.33664944076068,38.82153245193642,23.95716098550983,2.2563867445180827,0.04342139853577598
0.10049156707280749,-0.07825496517380237,0.025169113198319864,-0.4860167320068565,-0.04162412061314895,0.1111878535705608,1.1483388591256358,-0.8829907311703779,0.29581055552338864,2.908111530066643,-0.3953534531366072,0.4793019586040209,40.43768807391238,-58.01451054399327,38.725245919902974,20.84469664276138,2.2870605187340307,0.04156428996202055
0.10281441408110484,-0.08004019803716597,0.025767676832398237,-0.48014441074274755,-0.042421275928292375,0.11214433520611514,1.1614235041486736,-0.8926164316818018,0.29928181703918705,2.936160632054489,-0.39857765757171315,0.4782408177771719,39.98819475447388,-57.68135492952915,38.62544412934422,17.753348187178407,2.317802150510052,0.039701093049780756
0.10516320751307298,-0.0818445002656836,0.026373125536115666,-0.4742255177594015,-0.04322482914334926,0.11309869637325846,1.174396715984072,-0.9021511142588114,0.3027243518587141,2.959446491673006,-0.4017766075284422,0.47718058357166154,39.52791449473489,-57.33721815403176,38.52211501936212,14.687485233222565,2.3485678174427234,0.03783339852263978
0.10753771607089707,-0.08366768444318283,0.026985400153159075,-0.46826948730791934,-0.04403472757605409,0.11405093880299196,1.1872542789120484,-0.911592088749614,0.30613730852170457,2.9780152257410863,-0.4049492163524119,0.4761212148667434,39.057074436677006,-56.98213890258614,38.41524753216732,11.651365067774039,2.379315089627058,0.03596280212459946
0.10993770011662983,-0.08550955785973109,0.027604439891009754,-0.4622856485413657,-0.04485091630676912,0.11500106414423313,1.1999920228663794,-0.9209367082741298,0.3095198689253391,2.991919383276801,-0.4080943653575153,0.47506267062058855,38.575900074847226,-56.616159348123894,38.30483197734441,8.649128027892022,2.410003046666139,0.03409089981226632
0.112362911768641,-0.0873699225994575,0.02823018238739555,-0.4562832130273678,-0.04567333812153427,0.11594907396419873,1.212605826005582,-0.9301823698632012,0.31287124819289835,3.0012177569989573,-0.41121090738257343,0.47400490998280775,38.08461512499464,-56.23932550135933,38.190860388418855,5.684793135053899,2.4405923842777995,0.032219283246063934
0.11481309500314035,-0.08924857562956062,0.028862563776234532,-0.45027126265045814,-0.04650193346240544,0.11689496974899817,1.225091617249677,-0.939326515051561,0.31619069441949144,3.0059751884548302,-0.4142976704355882,0.47294789239971946,37.58344142548762,-55.85168754788367,38.07332686822459,2.7622539882956874,2.4710455100404127,0.0303495355606882
0.11728798576069119,-0.09114530889041145,0.02950151875283381,-0.4442587379161007,-0.0473366403852223,0.11783875290442379,1.237445378775417,-0.94836663042541,0.31947748829963923,3.006262367178719,-0.41735346140842733,0.4718915777128128,37.07259887043912,-55.453300169222345,37.95222791973044,-0.11472508176163432,2.501326627896754,0.028483227397038124
0.11978731205761722,-0.09305990938666282,0.030146980638118385,-0.4382544266675241,-0.048177394524912036,0.1187804247569254,1.249663148463017,-0.9573002481256875,0.32273094264228686,3.0021556242882887,-0.4203770698448698,0.47083592625081105,36.5523053731289,-55.04422284485422,37.827562759180516,-2.9425125964469863,2.531401811114672,0.026621913179668444
0.12231079410219248,-0.09499215927927948,0.03079888144167751,-0.4322669532256695,-0.0490241290684023,0.11971998655475681,1.2617410222876282,-0.966124946308329,0.3259504017795632,2.993736720927322,-0.4233672717451299,0.46978089891570163,36.02277685800517,-54.62452013241702,37.69933360863462,-5.717613249010332,2.56123906348372,0.024767127625340613
0.12485814441549055,-0.09694183597840551,0.03145715192343007,-0.42630476796174044,-0.049876774735182816,0.12065743946928294,1.2736751566490359,-0.9748383495630177,0.3291352408762818,2.981092631964525,-0.4263228333902589,0.4687264572630633,35.48422727927894,-54.19426192357658,37.567545965256016,-8.436670960330131,2.590808368608176,0.02292038246974193
0.12742906795675724,-0.09890871223698974,0.03212172165372565,-0.42037613731102363,-0.050735259765523184,0.12159278459643691,1.285461770633349,-0.983438129292114,0.33228486514778793,2.964315325358415,-0.42924251517018547,0.4676725635769885,34.93686866389484,-53.753523673315684,37.43220884498076,-11.096471670074257,2.620081727238256,0.021083163400731242
0.13002326225315877,-0.10089255624509298,0.03279251907171423,-0.4144891342358275,-0.05159950991632239,0.12252602295831666,1.2970971482007703,-0.9919220040516197,0.33539870899429214,2.9435015375980655,-0.4321250753996029,0.4666191809398724,34.38091117647343,-53.302386600695314,37.29333499851198,-13.69394586344571,2.6490331826617686,0.019256927187643935
0.13264041753374653,-0.10289313172480534,0.03346947154183481,-0.40865162914457026,-0.052469448464535245,0.12345715550491129,1.3085776402938791,-1.0002877398561805,0.33847623506028834,2.918752545628622,-0.43496927410642794,0.4655662732973134,33.81656320367504,-52.84093785945382,37.15094109790705,-16.226170834048983,2.677638834257592,0.017443098997153905
0.13528021686746905,-0.10491019802570585,0.034152505408290866,-0.4028712812732322,-0.05334499621809154,0.12438618311594798,1.3198996668612548,-1.0085331504502573,0.34151693322802895,2.8901739356690346,-0.43777387677814633,0.46451380551834826,33.24403145533401,-52.36927067713283,37.00504789236224,-18.690372683813717,2.705876839390041,0.0156430698872424
0.13794233630505237,-0.10694351022080124,0.03484154604739951,-0.3971555305345774,-0.05422607153419556,0.12531310660285044,1.3310597187916584,-1.0166560975476986,0.34452031955432033,2.8578753693273917,-0.4405376580520083,0.4634617434512252,32.66352107965326,-51.8874844617482,36.85568033214392,-21.08392806130319,2.733727403897439,0.013858194471595087
0.14062644502456123,-0.10899281920288531,0.035536517917719716,-0.3915115898397442,-0.05511259034486704,0.12623792671080025,1.3420543597544299,-1.0246544910420332,0.34748593516010506,2.821970347416589,-0.44325940533574354,0.46241005397490115,32.07523578973316,-51.39568487535588,36.702867659960255,-23.40436564011841,2.761172761500559,0.012089788747453922
0.14333220548044562,-0.11105787178126501,0.036237344607884546,-0.38594643789600447,-0.056004466189559475,0.12716064412089312,1.352880227942195,-1.0325262891898541,0.3504133450824143,2.782575971869872,-0.4459379223462177,0.46135870504643206,31.479377998733636,-50.89398387419032,36.54664346941082,-25.64936733948351,2.7881971425244103,0.010339128080692594
0.14605927355587048,-0.11313841077880442,0.03694394888208115,-0.38046681248370046,-0.056901610254667966,0.12808125945238194,1.363534037712433,-1.0402694987697036,0.35330213709830016,2.7398127061520086,-0.44857203255424605,0.46030766574441423,30.876148961029187,-50.382499715375914,36.38704573048831,-27.816769289464883,2.814786732391105,0.008607445342434628
0.14880729871812032,-0.11523417512924218,0.037656252723141756,-0.37507920421458535,-0.057803931419717174,0.12899977326499917,1.3740125811249209,-1.047882175218878,0.35615192053030265,2.69380413455756,-0.45116058252460567,0.45925690630861976,30.265748916816605,-49.86135693052347,36.22411678243185,-29.904562543629886,2.8409296204015364,0.006895929192050176
0.15157592417686538,-0.11734489997474329,0.03837417737322748,-0.36978985077301957,-0.05871133630999945,0.1299161860613511,1.3843127293725375,-1.0553624227505563,0.3589623250428605,2.644676720782887,-0.45370244514114016,0.45820639817596076,29.648377237761768,-49.330686266820706,36.057903294542115,-31.910893542299565,2.8666157393781297,0.005205722501824606
0.15436478704507214,-0.11947031676365054,0.03909764337210519,-0.36460473164071316,-0.05962372935541489,0.13083049828937693,1.3944314341033823,-1.0627083944536226,0.36173299943885295,2.592559566153193,-0.4561965227077188,0.4571561140129063,29.02423257143092,-48.79062459650875,35.888456195862425,-33.83406432988201,2.891836796790976,0.003537920919017834
0.1571735185023374,-0.12161015334840553,0.0398265705930355,-0.359529563304953,-0.06054101285524828,0.13174271034486587,1.404365728632626,-1.0699182923774946,0.3644636104651555,2.537584167880072,-0.45864174991669365,0.45610602774446873,28.39351298243209,-48.24131479589679,35.71583057490249,-35.67253253009967,2.9165861980340964,0.0018935715613772608
0.16000174396042335,-0.12376413408361389,0.04056087827630694,-0.3545697949495155,-0.061463087048603045,0.1326528225740256,1.414112729042972,-1.0769903676041854,0.3671538416357183,2.4798841777187492,-0.46103709667738124,0.4550561145798689,27.756416088392378,-47.68290559530815,35.540085550831265,-37.42491108323417,2.9408589625567956,0.00027367184239102116
0.16284908323076946,-0.12593197992423336,0.04130048506046739,-0.3497306046267407,-0.062389850190199,0.13356083527609558,1.4236696351730571,-1.083922920309735,0.3698033920802287,2.4195951613874094,-0.46338157079797626,0.454006351034983,27.113139189113276,-47.1155514015681,35.361284117790376,-39.08996774981423,2.9646516335887494,-0.0013208315769926982
0.16571515069375659,-0.1281134085238674,0.04204530901131922,-0.34501689590853307,-0.06332119863122936,0.13446674870599892,1.4330337314935584,-1.0907142998170187,0.37241197542591403,2.356854359103834,-0.46567422051517665,0.45295671495167,26.463879387471515,-46.53941209483634,35.179492964179076,-40.66662438546014,2.9879621822237548,-0.002889043713453887
0.16859955546949898,-0.13030813433315103,0.04279526764875816,-0.3404332950133592,-0.06425702690496267,0.13537056307702708,1.4422023878711936,-1.0973629046418132,0.3749793187194734,2.291800447586926,-0.4679141368666567,0.45190718551407244,25.808833700865545,-45.95465280175411,34.99478226893281,-42.153955991874604,3.0107899066483492,-0.00443012206614668
0.1715019015899414,-0.13251586869821871,0.043550277971549194,-0.3359841484056339,-0.06519722781676739,0.13627227856355104,1.4511730602212116,-1.103867182533842,0.3775051613955156,2.224573303862676,-0.4701004559023609,0.45085774326198036,25.148199162242634,-45.36144364701731,34.80722547696242,-43.551189549232554,3.0331353273165265,-0.005943277304034655
0.17442178817204013,-0.13473631995924745,0.04431025648014363,-0.3316735208632225,-0.06614169253823018,0.13717189530375373,1.4599432910493524,-1.1102256305143625,0.3799892542972198,2.1553137712057073,-0.4722323607314025,0.44980837010134583,24.482172909973478,-44.759959485601826,34.61689905603632,-44.857702635473686,3.055000078880375,-0.007427773838641238
0.17735880959180939,-0.1369691935490708,0.04507511919765212,-0.327505194008145,-0.06709031070503446,0.1380694134023778,1.4685107098846284,-1.1164367949116771,0.38243135875424406,2.0841634275387535,-0.4743090834021357,0.44875904931203064,23.810952266068142,-44.15037961795784,34.42388223747834,-46.073021838237246,3.0763867996900034,-0.008882930284637602
0.18031255565901863,-0.13921419209186234,0.04584478168909649,-0.3234826652949384,-0.0680429705182619,0.13896483293348355,1.4768730336046185,-1.1224992713957618,0.3848312457221847,2.011264356603281,-0.4763299066137166,0.4477097655528694,23.134734802445976,-43.53288749055293,34.22825674311514,-47.19682096540376,3.0972990196727634,-0.010308119810864547
0.18328261179232921,-0.14147101550188837,0.046619159079070785,-0.3196091474505284,-0.06899955884877827,0.1398581539432118,1.4850280666552946,-1.1284117050130176,0.38718869498714725,1.9367589222050183,-0.4782941652581859,0.44666050486412795,22.453718395175848,-42.90767038418501,34.03010650094343,-48.228919060417496,3.117741047393813,-0.011702770384387717
0.18626855919466462,-0.14373936108233226,0.04739816606794726,-0.3158875683588716,-0.06995996134436383,0.14074937645254668,1.4929737011676971,-1.1341727902219434,0.3895034944382359,1.8607895458283756,-0.48020124779277945,0.4456112546674349,21.768101266796194,-42.27491909250179,33.82951735199897,-49.16927822876046,3.1377178570858355,-0.013066364909966932
0.18926997502861273,-0.14601892362419291,0.04818171694676727,-0.31232057138306424,-0.07092406253924945,0.1416385004600732,1.5007079169740571,-1.139781270930328,0.3917754394100069,1.7834984879036742,-0.48205059744281004,0.44456200376326344,21.078082016996436,-41.63482759315911,33.626576750897485,-50.01800128213252,3.1572349764169374,-0.014398441267337247
0.19228643259166517,-0.14830939550526162,0.048969725610959615,-0.30891051611706266,-0.07189174596572157,0.14252552594472528,1.5082287815262156,-1.1452359405343537,0.3940043320961749,1.7050276330007796,-0.4838417132360579,0.4435127423260401,20.38385964209898,-40.987592714023634,33.42137346248366,-50.77532920705944,3.176298375741225,-0.0156985922489985
0.19531750149110402,-0.15061046678918122,0.04976210557302984,-0.30565947955863837,-0.07286289426746188,0.1434104528685192,1.5155344497194232,-1.1505356419597987,0.3961899810351122,1.6255182792121479,-0.48557415087015887,0.44246346189695523,19.685633543914008,-40.33341379678089,33.21399725697087,-51.44163846480887,3.1949143595481573,-0.01696646540073954
0.19836274781835364,-0.15292182532459186,0.05055876997436374,-0.3025692576946834,-0.07383738931429186,0.1442932811792683,1.5226231636248135,-1.1556792677053245,0.39833220066694847,1.545110931977484,-0.48724752341498934,0.4414141553745509,18.983603528656438,-39.67249236024731,33.00453860588305,-52.01743812963348,3.213089460793782,-0.018201762767591
0.2014217343226217,-0.15524315684436713,0.05135963159628648,-0.29964136748950104,-0.07481511231799688,0.1451740108132746,1.5294932521340352,-1.160665759887634,0.40043081096137073,1.463945102591193,-0.488861501852514,0.44036481700316044,18.277969796705797,-39.00503176560542,32.79308838102025,-52.50336687249084,3.230830338759123,-0.01940424054765688
0.2044940205836611,-0.15757414506494333,0.05216460287051557,-0.29687704926625585,-0.07579594394891086,0.14605264169799315,1.5361431305196906,-1.1654941102880998,0.40248563711454266,1.3821591116225924,-0.4904158154569876,0.4393154423592745,17.56893292406356,-38.33123688569009,32.57973755856813,-52.90018979750275,3.2481436810412285,-0.020573708656522083
0.20757916318349184,-0.15991447178574386,0.052973595889141405,-0.2942772694713209,-0.07677976445294843,0.14692917375466497,1.5425712999153836,-1.1701633604002735,0.40449650931291764,1.2998898974674822,-0.4919102520187864,0.43826602833590805,16.85669383641282,-37.651313780348055,32.36457693035558,-53.208795138518276,3.265036110237408,-0.021710030204811437
0.21067671587693046,-0.1622638169886989,0.053786522414263634,-0.2918427238108446,-0.07776645376877941,0.14780360690091504,1.5487763467193025,-1.1746726014775166,0.40646326256111576,1.217272830238134,-0.49334465791549026,0.4372165731250425,16.141453776715903,-36.96546937977615,32.14769682413753,-53.43019082323274,3.281514095836825,-0.022813120891633565
0.21378622976078124,-0.16462185893785858,0.054603293887404585,-0.28957384074847037,-0.0787558916448477,0.14867594105331147,1.5547569419253842,-1.1790209745798337,0.408385736570476,1.1344415311871159,-0.4947189380341432,0.43616707619821793,15.42341426729898,-36.27391117761987,31.929186834645986,-53.56550091238937,3.2975838717841315,-0.023882948316706898
0.21690725344155362,-0.16698827427909624,0.05542382143881335,-0.28747078535277315,-0.07974795775594548,0.14954617612988216,1.5605118403861904,-1.1832076706188313,0.4102637757043833,1.051527697848599,-0.49603305554889227,0.4351175382853503,14.702777067363508,-35.576846935479196,31.709135567008584,-53.61596192165074,3.3132513601278033,-0.024919531214019797
0.22003933320157706,-0.16936273813989544,0.05624801589676538,-0.28553346348263525,-0.08074253181906237,0.15041431205258585,1.5660398800117186,-1.1872319303995997,0.4120972289760139,0.9686609350689432,-0.4972870315584412,0.43406796135184794,13.979744126844803,-34.874484400329976,31.487630393985903,-53.58291903377737,3.32852210111358,-0.02592293860986561
0.22318201316339392,-0.1717449242292118,0.05707578779695286,-0.28376152629846235,-0.08173949370823828,0.15128034874973406,1.5713399809084232,-1.1910930446581875,0.41388595009374024,0.8859685920864401,-0.49848094458796205,0.4330183485741029,13.254517537498451,-34.16703103622427,31.264757228325987,-53.46782220878495,3.3434011900281657,-0.026893288908348856
0.2263348354523195,-0.17413450493739827,0.05790704739205105,-0.2821543750868461,-0.08273872356815885,0.15214428615836093,1.5764111444627853,-1.1947903540932336,0.4156297975490942,0.8035756058081207,-0.49961492996028584,0.4319687043134323,12.52729948204485,-33.45469377148409,31.040600311379023,-53.27222219977607,3.357893221043498,-0.027830748907220926
0.2294973403570671,-0.17653115143617873,0.05874170466153485,-0.280711166386007,-0.08374010192624154,0.153006124226538,1.5812524523737972,-1.1983232493902374,0.4173286347419028,0.7216043504195379,-0.5006891790413422,0.4309190340885458,11.798292182142024,-32.73767876245284,30.815242018958635,-52.99776648215285,3.372002238256097,-0.028735532747340642
0.23266906648834462,-0.17893453377865248,0.05957966932180883,-0.2794308173991042,-0.08474350980297143,0.15386586291563123,1.5858630656387636,-1.20169117123687,0.4189823301369906,0.640174493451423,-0.5017039383649465,0.4298693445466136,11.067697845883892,-32.01619117471564,30.588762685278027,-52.646195103916014,3.3857316940604614,-0.02960790079880682
0.23584955093533827,-0.18134432099930783,0.06042085083670219,-0.278312011682274,-0.08574882882025571,0.15472350220249725,1.590242223496827,-1.2048936103276826,0.4205907574466817,0.5594028584151169,-0.5026595086421374,0.42881964343301193,10.335718615446284,-31.290434982546845,30.36124044563427,-52.219336464743265,3.3990844149398276,-0.03044815848696447
0.23903832942000755,-0.18376018121402088,0.06126515842836867,-0.2773532050940606,-0.08675594130757641,0.1555790420816169,1.594389242334639,-1.2079301073565203,0.42215379583323714,0.4794032941067008,-0.5035562436603541,0.427769939559822,9.602556515417241,-30.560612787190117,30.13275109835834,-51.719103031514976,3.412062574703314,-0.031256655061642435
0.24223493644912472,-0.18618178172001076,0.06211250108861932,-0.27655263199272495,-0.08776473040573204,0.15643248256716322,1.5983035145585822,-1.2108002529949449,0.4236713301253278,0.40028655066782276,-0.5043945490778138,0.4267202427731574,8.868413402264665,-29.82692565442612,29.903367986397186,-51.14748699792054,3.4246676751446463,-0.032033782312897774
0.2454389054640006,-0.18860878909572068,0.06296278759070464,-0.27590831166776625,-0.08877508016796905,0.15728382369500202,1.6019845074379402,-1.2135036878549572,0.4251432510426651,0.32216016247935275,-0.5051748811185032,0.425670563919397,8.133490915305785,-29.089572971732522,29.67316189874634,-50.50655589573118,3.436900534046206,-0.032779973236554794
0.24864976898784735,-0.19104086930058933,0.06381592650155064,-0.27541805499186184,-0.08978687565831554,0.1581330655246228,1.6054317619233816,-1.2160401024343317,0.4265694554229974,0.2451283379522109,-0.5058977451732457,0.424620914810399,7.397990429456661,-28.348752325195548,29.44220099180696,-49.79844816526863,3.4487612804010617,-0.033495700653076055
0.2518670587707375,-0.19347768777467514,0.06467182619444228,-0.2750794712793258,-0.09080000304694022,0.15898020814099836,1.608644891445089,-1.2184092370429087,0.42794984644581835,0.16929185626802773,-0.506563694312336,0.42357130818777194,6.662113009955442,-27.604659396189327,29.210550730603018,-49.02536869253105,3.4602493566785135,-0.03418147578306008
0.25509030593212717,-0.19591890953809163,0.06553039486213694,-0.27488997533710435,-0.09181434970237075,0.15982525165637093,1.6116235806948207,-1.2206108817082388,0.42928433384732717,0.0947479711107229,-0.507173327715262,0.4225217576862784,5.92605936917165,-26.85748787770097,28.97827384966061,-48.189584320359636,3.471363527912179,-0.03483784678286628
0.25831904110091947,-0.1983641992902097,0.0663915405303798,-0.27484679469426704,-0.09282980428041686,0.16066819621196382,1.614367584396135,-1.2226448760590414,0.43057283412142755,0.021590321418644365,-0.5077272890230528,0.4214722777964471,5.190029825538032,-26.107429410045803,28.745430333224817,-47.293419340942336,3.482101897347225,-0.03546539724381237
0.26155279455305336,-0.20081322150857975,0.06725517107178348,-0.2749469769959158,-0.09384625680965447,0.16150904197961677,1.6168767260669459,-1.2245111091850174,0.43181527070184395,-0.05009115082438348,-0.5082262646188056,0.4204228838264679,4.454224264570872,-25.354673535588272,28.512077414368513,-46.339250976854466,3.492461928342685,-0.036064744658450554
0.26479109634661036,-0.20326564054752305,0.06812119422002504,-0.2751873975474196,-0.09486359877333839,0.16234778916334366,1.6191508967785007,-1.226209519471655,0.4330115741207723,-0.12021027575189158,-0.5086709818419552,0.41937359186344564,3.7188421018812896,-24.59940767196366,28.278269592433887,-45.329504857728516,3.5024404721883267,-0.03663653885725604
0.2680334764544399,-0.2057211207363406,0.06898951758430476,-0.2755647669948901,-0.0958817231876221,0.16318443800081184,1.6211900539147897,-1.227740094408773,0.4341616821398593,-0.1886847237352215,-0.5090622071418553,0.41832441873408555,2.984082248024656,-23.841817103178123,28.044058668143126,-44.266650499532425,3.5120338014619294,-0.037181460419409396
0.27127946489431254,-0.20817932647708395,0.06986004866400419,-0.27607563912784233,-0.0969005246759746,0.1640189887647416,1.622994219936301,-1.2291028703716707,0.43526553984971844,-0.2554360664761177,-0.5094007441762477,0.4172753819648852,2.2501430749879354,-23.082084987858167,27.80949379561389,-43.15319679331105,3.521237648521941,-0.03770021906080512
0.2745285918566164,-0.2106399223418317,0.07073269486347346,-0.2767164187900354,-0.09791989953969499,0.16485144176422542,1.6245634811519305,-1.2302979323738767,0.4363230997346354,-0.3203898310965315,-0.5096874318601982,0.4162264997419053,1.517222384074179,-22.320392383817815,27.574621550427793,-41.991687510113955,3.5300472487052144,-0.038193552003020104
0.2777803878296219,-0.213102573169413,0.07160736350687263,-0.2774833698845575,-0.09893974582443714,0.1656817973459658,1.6258979865027425,-1.2313254137906433,0.4373343216995871,-0.3834755472610571,-0.5099231423710776,0.4151777908701922,0.7855173749157895,-21.556918288020622,27.33948601281667,-40.78469682869465,3.5384573877756553,-0.03866222232635841
0.2810343837223442,-0.21556694416151795,0.07248396185298701,-0.2783726234593126,-0.09995996338266748,0.16651005589543164,1.62699794636115,-1.2321854960524679,0.43829917305719224,-0.4446267873775354,-0.510108779115168,0.4141292747329228,0.0552246153236009,-20.791839690928057,27.10412886495957,-39.53482489241801,3.546462453151241,-0.03910701731045152
0.2842901109850421,-0.21803270097813413,0.07336239710993246,-0.27938018585917507,-0.10098045393199041,0.16733621783793232,1.6278636313489472,-1.2328784083080913,0.43921762847272106,-0.503781199931234,-0.5102452746614696,0.4130809712503435,-0.6734599883320271,-20.02533164415037,26.868589501318567,-38.244693401659475,3.5540564884218346,-0.039528746765652434
0.28754710172739706,-0.22049950983224728,0.07424257644966409,-0.28050194693121033,-0.10200112110928697,0.16816028363960947,1.628495371177484,-1.2334044270565792,0.44008966986581327,-0.5608805360176305,-0.5103335886482809,0.4120329008385716,-1.4003412205171824,-19.257567340250024,26.63290515088631,-36.91694124782009,3.56123325065876,-0.03992824135847628
0.2908048888344233,-0.2229670375837438,0.07512440702220026,-0.2817336882695067,-0.1030218705206232,0.16898225380834614,1.6288935535131113,-1.2337638757482596,0.4409152862680834,-0.6158706691481829,-0.5103747056681172,0.4109850843683289,-2.1252245860152836,-18.48871820349016,26.397111010173063,-35.554220194911245,3.5679862700097633,-0.04030635093420898
0.294063006080165,-0.22543495183245274,0.07600779596947291,-0.28307109148633175,-0.10404260978689624,0.16980212889459348,1.6290586228708583,-1.2339571243544585,0.441694473636322,-0.6687016084125486,-0.510369633136518,0.4099375431236739,-2.84791633978747,-17.71895399027374,26.161240385722337,-34.15919061449391,3.574308911069984,-0.04066394283984476
0.29732098823924324,-0.22790292101026505,0.07689265043871596,-0.2845097464965108,-0.1050632485851968,0.17061990949211508,1.6289910795391338,-1.2339845889061476,0.44242723462152883,-0.7193275050895135,-0.5103193991502822,0.4088902987607989,-3.568223517493456,-16.948442897980307,25.925324844918173,-32.734517279574895,3.5801944355190987,-0.04100190025027395
0.30057837119631936,-0.23037061447226861,0.07777887759530502,-0.2860451598021256,-0.1060836986858781,0.171435596238649,1.6286914785380442,-1.2338467310017853,0.4431135782945344,-0.7677066528073925,-0.5102250503406456,0.40784337326695713,-4.285953966929082,-16.17735168088272,25.689394373827415,-31.282865222880183,3.5856360655194512,-0.0413211205007713
0.30383469205354685,-0.23283770258683822,0.07866638463496398,-0.2876727627648513,-0.10710387398533187,0.17224918981648818,1.628160428613737,-1.2335440572848015,0.4437535198294737,-0.8138014813628666,-0.5100876497268867,0.40679678891958304,-5.000916380610602,-15.405845771804415,25.453477540810617,-29.806895664735617,3.590627047376893,-0.041622513428501096
0.3070894892360888,-0.2353038568246209,0.07955507879525771,-0.28938791985348156,-0.10812369053448351,0.17306069095297952,1.627398591270967,-1.2330771188913427,0.4443470801468646,-0.8575785443151147,-0.5099082745758151,0.40575056824566763,-5.712920329703421,-14.63408940817546,25.217601664635446,-28.309262015591287,3.595160714977366,-0.04190699972590628
0.31034230259578055,-0.237768749846359,0.08044486736629473,-0.2911859368544409,-0.1091430665630286,0.17387010042094242,1.6264066798458727,-1.2324465108690537,0.44489428551851556,-0.8990085004796751,-0.5096880142725464,0.4047047339814491,-6.421776299458335,-13.862245761143614,24.981792985833167,-26.792605958027824,3.599230552526371,-0.042175509308510994
0.313592673513022,-0.24023205558949468,0.0813356577005686,-0.29306206903334836,-0.11016192249944444,0.17467741903900738,1.625185458620732,-1.231652871567827,0.4453951671369299,-0.938066089453726,-0.5094279682079168,0.4036593090324779,-7.127295726281629,-13.090477066412742,24.746076840055764,-25.25955361288081,3.6028302561352215,-0.04242897969973036
0.3168401449969865,-0.24269344935350187,0.08222735722187317,-0.2950115292359712,-0.11118018098682009,0.1754826476718756,1.6237357419822396,-1.2306968820036024,0.4458497606522906,-0.974730101311403,-0.5091292436878244,0.4026143164341124,-7.829291036525401,-12.318944755500636,24.510477832216168,-23.7127117939129,3.6059537938187622,-0.042668354435197564
0.3200842617842357,-0.24515260788389473,0.08311987343323417,-0.2970294959171999,-0.1121977668945595,0.17628578723050062,1.6220583936246216,-1.229579265196435,0.44625810568049445,-1.0089833406143607,-0.5087929538697049,0.40156977931250176,-8.527575687046937,-11.547809586140968,24.27502001022517,-22.15466435525564,3.6085954634913353,-0.04289458148874714
0.323324570435833,-0.2476092094548631,0.08401311392380628,-0.299111121086978,-0.11321460732602202,0.17708683867219283,1.6201543257986635,-1.2283007854841863,0.44662024528605365,-1.0408125848890488,-0.5084202157312607,0.40052572084610805,-9.221964207545339,-10.777231770592435,24.03972703717915,-20.587968635629128,3.6107499485729084,-0.04310861172242375
0.326560619433048,-0.25006293395048973,0.08490698637469428,-0.30125153816243416,-0.11423063162217494,0.17788580300064846,1.6180244986074974,-1.2268622478133124,0.44693622544399575,-1.0702085377280792,-0.5080121480764558,0.39948216422781996,-9.912272244647156,-10.007371100669767,23.80462236089866,-19.015152003135878,3.6124123708450666,-0.043311397362527426
0.3297919592717475,-0.2525134629445064,0.08580139856366462,-0.30344586971579146,-0.11524577136134227,0.1786826812659039,1.615669919349751,-1.2252644970083346,0.4472060944851661,-1.097165776678638,-0.50756986958367,0.39843913262770797,-10.5983166076748,-9.238387068363329,23.569729379770624,-17.438708504205135,3.6135783402247164,-0.04350389050371106
0.33301814255556833,-0.25496047977854974,0.08669625836872376,-0.3056892351079637,-0.11625996035514381,0.17947747456421684,1.6130916419104266,-1.2235084170216772,0.44742990252956927,-1.1216826960861148,-0.5070944969007735,0.3973966491564679,-11.279915315999602,-8.47043898098179,23.335071603905636,-15.861095620048925,3.614244001154983,-0.04368704164292336
0.3362387240879676,-0.25740366963888106,0.0875914737705489,-0.3079767579980957,-0.11727313464072726,0.18027018403787604,1.6102907661996382,-1.2215949301656475,0.4476077009125752,-1.1437614450659965,-0.506587142791728,0.3963547368295991,-11.956887647848385,-7.703686069818826,23.10067281068484,-14.284731133768236,3.614406075344249,-0.04386179824499159
0.33945326096324585,-0.2598427196315379,0.08848695285376683,-0.3103035737196589,-0.11828523246940559,0.18106081087494075,1.6072684376391007,-1.2195249963284034,0.44773954160896245,-1.163407860781597,-0.5060489143391596,0.395313418532361,-12.629054190407128,-6.938287591423982,22.866557193839817,-12.711990111028836,3.6140619006176813,-0.04402910334145904
0.3426613126566379,-0.2622773188558895,0.08938260380708657,-0.3126648365140776,-0.11929619429181991,0.18184935630891186,1.604025846696038,-1.2172996121758222,0.44782547665987343,-1.1806313972093652,-0.5054809112071617,0.39427271698554894,-13.296236891039738,-6.174402920634898,22.632749505279858,-11.145201997002594,3.613209465679337,-0.044189894164126775
0.3458624411135658,-0.26470715847657195,0.0902783349223022,-0.3150557266132323,-0.12030596273975669,0.1826358216183361,1.6005642284639445,-1.2149198103412284,0.44786555760781366,-1.195445049577334,-0.5048842239683918,0.3932326547121292,-13.958259109421789,-5.412191634617708,22.399275188956945,-9.586647832048904,3.6118474406178356,-0.04434510081475529
0.34905621083814464,-0.2671319317937819,0.09117405459219188,-0.31747145716256375,-0.1213144826047553,0.18342020812634566,1.5968848622894216,-1.212386658604979,0.4478598349448426,-1.207865274665745,-0.5042599324993084,0.39219325400477056,-14.61494567037347,-4.651813587246746,22.16616050613581,-8.038557588387889,3.609975203022435,-0.044495644972163184
0.3522421889810328,-0.26955133431191375,0.09206967130735003,-0.31990728097688775,-0.12232170081364964,0.18420251720013428,1.5929890714440944,-1.209701259065922,0.44780835757907417,-1.2179119071619962,-0.5036091044471679,0.3911545368943071,-15.266122917164802,-3.893428973249234,21.93343265151561,-6.50310762979441,3.607592859611853,-0.044642438637881865
0.3554199454267137,-0.2719650638065273,0.09296509365199909,-0.32235849712141745,-0.12332756640119395,0.1849827502503726,1.588878222840416,-1.2068647473067604,0.4477111723245328,-1.22560807226484,-0.502932793772155,0.39011652511916567,-15.911618765062164,-3.1371983816303715,21.701119859730422,-4.982418296121107,3.6047012633123448,-0.044786382921467416
0.35858905288029364,-0.274372820389638,0.0938602302988377,-0.3248204573108878,-0.12433203047992948,0.1857609087305642,1.5845537267899674,-1.2038782915553445,0.4475683234193004,-1.2309800947351743,-0.5022320393677648,0.38907924009578815,-16.551262754880092,-2.383282837991434,21.4692515018364,-3.4785516142366717,3.6013020257549364,-0.04492836686632029
0.361749086953899,-0.2767743065733258,0.09475499000299117,-0.3272885721200735,-0.12533504620745403,0.18653699413634436,1.5800170368026873,-1.2007430918439035,0.44737985207673675,-1.2340574045928527,-0.5015078637622804,0.3880427028900779,-17.184886106308376,-1.6318438354433127,21.23785817147371,-1.9935091367464763,3.597397525195629,-0.045069266317028234
0.3648996262527496,-0.2791692273316622,0.09564928159513991,-0.32975831699939484,-0.12633656875126184,0.18731100800472417,1.5752696494252882,-1.1974603791681957,0.4471457960743666,-1.2348724396606765,-0.500761271903911,0.38700693418989607,-17.812321770789616,-0.8830433539143119,21.006971760470666,-0.5292299096445219,3.5929909098939152,-0.04520994282877977
0.3680402524609835,-0.28155729016095926,0.09654301397390952,-0.3322252380897111,-0.12733655525132556,0.18808295191328142,1.5703131041169638,-1.194031414648522,0.4468661893848042,-1.233460545158131,-0.49999325003185874,0.3859719542786321,-18.433404483732836,-0.13704386773996013,20.77662552373605,0.912411430170827,3.588086097016312,-0.04535124261973089
0.3711705504273042,-0.2839382051383482,0.09743609609761518,-0.3346849578308081,-0.12833496478059614,0.18885282747930116,1.565148983160346,-1.1904574886944899,0.44654106185282677,-1.2298598705484973,-0.49920476463528346,0.38493778300987086,-19.047970815864304,0.6059916584865128,20.54685413336032,2.329606426799789,3.5826877671608335,-0.045493995566706635
0.3742901082505153,-0.2863116849786989,0.09832843697546002,-0.3371331803584955,-0.12933175830359978,0.1896206363588675,1.5597789116055398,-1.1867399201753572,0.44617043892242336,-1.2241112638437013,-0.49839676150181933,0.3839044397831755,-19.65585922353312,1.3458997857405084,20.317693721921156,3.7206144461558384,3.5768013546268724,-0.045639014244820864
0.3773985173650052,-0.28867744508989435,0.09921994565829469,-0.33956569668563885,-0.13032689863331376,0.1903863802459095,1.5542045572449503,-1.1828800555977148,0.44575434141733017,-1.2162581635716785,-0.4975701648569861,0.38287194352100434,-20.256910097809445,2.082516627921491,20.089181915056706,5.083764185395518,3.570433033580577,-0.045787093011412816
0.3804953726262382,-0.2910352036264787,0.10011053122905114,-0.3419783896628611,-0.13132035038650477,0.19115006087120306,1.5484276306165132,-1.1788792682921818,0.4452927853782242,-1.2063464886111215,-0.4967258765955121,0.38184031264677676,-20.850965812236364,2.8156778905136353,19.861357853438832,6.417455050872469,3.5635897002911854,-0.04593900713462151
0.38358027239630393,-0.2933846815417001,0.10100010279296992,-0.3443672387150576,-0.1323120799377153,0.19191168000133127,1.5424498850328539,-1.174738957610703,0.44478578195938906,-1.1944245260982538,-0.49586477560526354,0.38080956506410185,-21.437870769119804,3.545218920253145,19.634262204338988,7.720158404727782,3.5562789516352966,-0.046095511966834035
0.38665281862957157,-0.295725602637972,0.1018885694677445,-0.34672832435027706,-0.1333020553720836,0.19267123943760564,1.536273116633831,-1.1704605481359405,0.44423333738728615,-1.180542817609742,-0.4949877171841483,0.3797797181371812,-22.017471444267834,4.270974765435902,19.40793716303904,8.990418680427986,3.548509060087393,-0.046257342163251725
0.3897126169584913,-0.2980576936157803,0.10277584037371064,-0.3490578324379271,-0.13429024643718365,0.19342874101495042,1.5298991644598607,-1.1660454889041456,0.44363545298307366,-1.164754043825028,-0.4940955325500371,0.3787507886723944,-22.589616430115765,4.992780246433988,19.18242644439321,10.22685436775809,3.5402889454326267,-0.046425210945631346
0.39275927677957806,-0.3003806841210659,0.10366182462421206,-0.35135205825366755,-0.1352766244940705,0.19418418660075257,1.523329910543376,-1.1614952526427957,0.44299212525071,-1.147112907870228,-0.4931890284434206,0.3777227929010753,-23.15415647720187,5.7104700359359395,18.95777526489537,11.428158867968806,3.531628143454159,-0.046599809411331794
0.3957924113396096,-0.3026943067911142,0.10454643131627579,-0.3536074102887562,-0.13626116246771489,0.19493757809367954,1.5165672800157497,-1.1568113350241584,0.44230334603186566,-1.1276760175443294,-0.4922689868222023,0.37669574646348347,-23.71094453398442,6.423878748369356,18.73403031565185,12.593101219963131,3.5225367718611844,-0.04678180588764436
0.3988116378220636,-0.30499829729898587,0.10542956952173269,-0.35582041382200963,-0.1372438347970103,0.1956889174224675,1.5096132412269923,-1.1519952539358382,0.4415691027284485,-1.106501766626719,-0.4913361646477101,0.37566966439397476,-24.25983578501802,7.132841037924024,18.51123972669749,13.72052669859254,3.51302549373532,-0.04697184533135901
0.40181657743381466,-0.30729239439652434,0.10631114827891894,-0.35798771425293585,-0.1382246173845317,0.19643820654468225,1.5024698058755344,-1.1470485487692328,0.4407893785931281,-1.0836502154630971,-0.49039129376070273,0.37464456110737143,-24.80068768753144,7.8371917045500545,18.2894530231291,14.80935728630936,3.503105478781994,-0.047170548773483256
0.4048068554921055,-0.3095763399559778,0.10719107658509458,-0.360106080194985,-0.1392034875462234,0.19718544744545533,1.4951390291454185,-1.1419727797267085,0.4399641530878231,-1.0591829710245972,-0.48943508084584664,0.37362045038653224,-25.333360006474308,8.536765807275634,18.068721073558354,15.858592019596166,3.492788362680839,-0.047378512809030715
0.407782101511802,-0.3118498790102741,0.10806926338971398,-0.3621724063282499,-0.14018042396118907,0.19793064213619757,1.4876230098482408,-1.1367695271481808,0.4390934023097015,-1.033163066632427,-0.48846820748284814,0.37259734537111894,-25.857714848122143,9.231398784159971,17.84909603141167,16.867307211760785,3.4820862048335357,-0.04759630913155233
0.41074194929293645,-0.31411275979198944,0.10894561758868165,-0.3641837160113251,-0.14115540662175335,0.19867379265329269,1.4799238905672252,-1.1314403908576611,0.4381770994838328,-1.0056548415376012,-0.4874913302821451,0.3715752585475559,-26.37361669234823,9.92092657817729,17.630631269624118,17.83465655384909,3.4710114448099976,-0.047824484112350296
0.4136860370085381,-0.31636473377104984,0.10982004801972411,-0.3661371636524098,-0.14212841678395893,0.19941490105677304,1.4720438578008477,-1.1259869895302086,0.43721521552123066,-0.9767238205423446,-0.4865050811027955,0.3705542017401764,-26.880932423691558,10.605185768310797,17.413381309290035,18.759871095583954,3.4595768577942048,-0.04806355842403276
0.4166140072927451,-0.3186055556912091,0.1106924634590054,-0.3680300368401028,-0.1430994369186588,0.20015396942898014,1.4639851421034902,-1.1204109600796044,0.43620771964063654,-0.9464365938465188,-0.4855100673499441,0.3695341861035476,-27.379531361361984,11.284013705127135,17.197401742843375,19.64225910839245,3.447795509329354,-0.04831402670805218
0.4195255073291864,-0.32083498360534296,0.11156277261910943,-0.3698597582347008,-0.14406845066335683,0.20089099987321207,1.4557500182206566,-1.1147139570669446,0.43515458005201896,-0.9148606972989801,-0.48450687234900747,0.36851522211596555,-27.869285288339675,11.957248650097135,16.982749152347253,20.481205832727746,3.4356807096578166,-0.04857635728604848
0.42242018893961913,-0.32305277890960343,0.11243088414850824,-0.371623887221161,-0.14503544277494382,0.2016259945123603,1.4473408052163579,-1.1088976521302318,0.43405576469940477,-0.8820644932301112,-0.48349605579349114,0.36749731957410847,-28.35006847973409,12.624729917928072,16.76948102347561,21.276173112033323,3.423245967946235,-0.048850991914438646
0.4252977086727998,-0.3252587063764733,0.11329670663262888,-0.37332012132523684,-0.1460003990834701,0.20235895548753796,1.4387598665903452,-1.1029637334349294,0.43291124206031667,-0.8481170520378982,-0.4824781542631416,0.3664804875888364,-28.821757730574156,13.286298021179396,16.557655655767267,22.026698915831695,3.410504946678188,-0.049138345581971166
0.4281577278935657,-0.32745253418676395,0.11416014859662642,-0.3749462973946286,-0.14696330644708797,0.20308988495670222,1.4300096103829512,-1.0969139051453354,0.43172098199877096,-0.813088034695862,-0.48145368180893977,0.3654647345821226,-29.284232383207993,13.941794816442368,16.347332069728743,22.732396754546787,3.397471416487871,-0.04943880634977926
0.4309999128720965,-0.329634033960597,0.1150211185099634,-0.37650039254732237,-0.14792415270829049,0.20381878509327242,1.4210924892653842,-1.0907498869165226,0.4304849566684887,-0.7770475763468928,-0.48042313060126557,0.36445006828510146,-29.73737435448729,14.591063651378185,16.13856991135409,23.392954988792376,3.384159211697537,-0.04975273523342394
0.4338239348733233,-0.33180298078741,0.11587952479288878,-0.3779805248896076,-0.14888292665156527,0.20454565808474684,1.412011000613408,-1.0844734134064928,0.42920314146269495,-0.7400661711426105,-0.4793869716373993,0.36343649573721637,-30.181068162914084,15.233949511925841,15.931429354618771,24.00813603597374,3.370582186809057,-0.05008046612643602
0.43662947024644816,-0.3339591532550262,0.11673527582490204,-0.3793849540065741,-0.14983961796257403,0.20527050613131972,1.40276768656243,-1.078086233808096,0.42787551600662854,-0.7022145584832701,-0.4783456555043822,0.3624240232864482,-30.615200955919565,15.870299169012249,15.725971002490525,24.577775477159033,3.3567541741868077,-0.0504223057648695
0.4394162005145324,-0.33610233347782653,0.11758827995527935,-0.38071208122819106,-0.1507942171889603,0.20599333144450094,1.3933651340421165,-1.0715901114001747,0.42650206518865286,-0.6635636108084713,-0.4772996131931305,0.361412656590606,-31.03966253743848,16.499961324119994,15.522255786985152,25.101781067280527,3.342688943153987,-0.05077853373219954
0.44218381246410987,-0.33823230712406116,0.11843844551573066,-0.3819604496743591,-0.15174671570287948,0.20671413624574025,1.3838059747887426,-1.0649868231173087,0.4250827802256561,-0.6241842230840274,-0.47624925695958714,0.3604024006196584,-31.45434539593355,17.1227867530942,15.320344868775098,25.580131651820874,3.3284001607092746,-0.05114940250402622
0.444931998234777,-0.34034886344233606,0.11928568083524715,-0.3831287440826097,-0.15269710566533667,0.20743292276505843,1.3740928853335803,-1.058278159137457,0.4236176597582502,-0.5841472041252975,-0.4751949812286019,0.3593932596590836,-31.85914473300941,17.738628447598437,15.120299536840337,26.012875993230914,3.313901354053825,-0.051535137531948605
0.44766045540870847,-0.3424517952873095,0.12012989425718941,-0.38421579042239395,-0.153645379992409,0.20814969323968685,1.3642285869657247,-1.0514659224867202,0.42210671097112595,-0.5435231698921118,-0.47413716353615604,0.3583852373142156,-32.25395849274568,18.347341753659848,14.922181108627381,26.400131510407242,3.2992058751014097,-0.051935937365894747
0.45036888710004414,-0.34454089914463026,0.120970994158657,-0.3852205553001642,-0.15459153232341996,0.20886444991271796,1.354215845667845,-1.044551928660383,0.42054995073379575,-0.502382438885127,-0.4730761655054884,0.3573783365155614,-32.63868739185776,18.94878450677514,14.726050831160075,26.742082934636183,3.284326867126657,-0.05235197381424195
0.453057002044091,-0.3466159751551489,0.12180888897217072,-0.38614214515970025,-0.15553555699112523,0.20957719503176808,1.3440574720234424,-1.0375380052593328,0.41894740675685876,-0.46079492976803954,-0.4720123338526376,0.35637255952506425,-33.01323495077986,19.542817163082773,14.531969783520669,27.03898088547934,3.2692772336880074,-0.05278339214095218
0.45572451468627956,-0.34867682713843073,0.12264348720968841,-0.3869798052823694,-0.15647744899395902,0.21028793084765465,1.3337563210942835,-1.0304259916409042,0.4172991187588483,-0.4188300613345851,-0.4709460014168909,0.3553679079432873,-33.37750752574435,20.129302926140163,14.339998781094467,27.2911403701411,3.254069609943082,-0.05323031129897515
0.4583711452708131,-0.350723262615597,0.12347469748896577,-0.38773291859223674,-0.15741720397038225,0.21099665961308964,1.3233152922667657,-1.0232177385831454,0.41560513963867785,-0.376556654933657,-0.46987748821162156,0.35436438271748966,-33.731414341911226,20.708107868880557,14.150198281943966,27.498939209913647,3.2387163364558917,-0.05369282419910615
0.4609966199289452,-0.35275509283151996,0.12430242856226313,-0.38840100427115715,-0.15835481817536426,0.21170338358139076,1.3127373290660522,-1.0159151079614708,0.41386553664868064,-0.3340428394602052,-0.46880710249100116,0.35336198415056697,-34.074867527582164,21.279101050359586,13.962628295652877,27.66281639734799,3.2232294355756164,-0.05417099801340575
0.463600670766819,-0.3547721327763932,0.12512658934738963,-0.3889837161891848,-0.15929028845902046,0.21240810500521243,1.3020254189368998,-1.0085199724366265,0.4120803925632436,-0.2913559590138349,-0.4677351418280998,0.35236071191082824,-34.407782149511455,21.84215462693694,13.777348294951084,27.78327038784101,3.2076205904487782,-0.05466487451239965
0.46618303595279936,-0.35677420120669895,0.12594708896106577,-0.38948084115582726,-0.1602236122474203,0.21311082613529758,1.2911825929901743,-1.001034215152871,0.41024980683806744,-0.24856248332122077,-0.466661894199921,0.3513605650425785,-34.73007624930444,22.397143957576148,13.594417130404876,27.860857329368173,3.191901126707175,-0.05517447043495305
0.4687434598042276,-0.35876112066558946,0.12676383675457603,-0.3898922969978525,-0.16115478752557025,0.21381154921925255,1.280211925714128,-0.9934597294452558,0.40837389675513897,-0.20572792101260395,-0.46558763907497336,0.3503615419774777,-35.04167088087561,22.943947702980424,13.413892948428344,27.896189234121678,3.176081996856503,-0.055699777890147795
0.4712816928735268,-0.3607327175026992,0.12757674235167318,-0.39021813046952597,-0.16208381282256834,0.21451027650034585,1.269116534649581,-0.9857984185548752,0.4064527985485781,-0.16291673583674288,-0.46451264849904506,0.3493636405466442,-35.3424901489147,23.48244791831969,13.235833112843217,27.889932095838947,3.160173767371992,-0.0562407647898473
0.47379749203358323,-0.36268882189340107,0.12838571568868642,-0.3904585150013115,-0.1630106871989182,0.2152070102163328,1.2578995800282187,-0.9780521953509494,0.40448666850662507,-0.12019226589276968,-0.46343718817492957,0.34836685799347183,-35.63246124829155,24.012530139339887,13.060294130186236,27.84280395662563,3.1441866084906183,-0.056797375311170906
0.4762906205623298,-0.36462926785751826,0.12919066705677673,-0.39061374829321444,-0.1639354102359821,0.21590175259830705,1.2465642643732817,-0.9702229820586064,0.4024756840451528,-0.07761664595145733,-0.46236151853194296,0.3473711909871285,-35.91151450431117,24.53408346168067,12.887331578936221,27.75557292708809,3.1281302866726115,-0.05736953038766357
0.47876084822645376,-0.3665538932775007,0.1299915071462732,-0.39068424975907934,-0.16485798202754445,0.21659450586958046,1.2351138320619863,-0.9623127099912283,0.40042004474823273,-0.035250732932449035,-0.46128589578117973,0.34637663563670296,-36.17958341371149,25.04700061326339,12.717000042803106,27.629055163599688,3.1120141596889823,-0.05795712822816168
0.4812079513641519,-0.3684625399160732,0.1307881470930161,-0.3906705578282754,-0.1657784031734496,0.2172852722445924,1.2235515688490703,-0.9543233192862469,0.3983199733714428,0.006845965401959267,-0.4602105729525726,0.3453831875059679,-36.436604686281896,25.551178019646443,12.549353048195096,27.464112806521882,3.0958471742766607,-0.058560044862107974
0.48363171296685376,-0.3703550534333598,0.13158049852662365,-0.39057332711131176,-0.1666966747752695,0.21797405392784985,1.211880801350922,-0.9462567586432832,0.396175716803788,0.048615358481841627,-0.45913580090995126,0.344390841628725,-36.682518286964076,26.046515862278426,12.384443005953063,27.261651883198976,3.079637866288663,-0.059178134710300645
0.48603192275983337,-0.3722312834034869,0.13236847362059226,-0.39039332543602223,-0.16761279843395038,0.21866085311289926,1.2001048964897956,-0.9381149850635516,0.39398754698429705,0.09000083764476582,-0.4580618293404357,0.3433995925246989,-36.917267478284025,26.532918129613087,12.222321157413564,27.022620179532172,3.063394363253238,-0.05981123117968745
0.4884083772816287,-0.3740910833306658,0.1331519851441314,-0.3901314307610458,-0.1685267762493797,0.21934567198133115,1.1882272608976765,-0.929899963589477,0.3917557617695747,0.13094733748822518,-0.45698890771465256,0.3424094342159456,-37.14079886295349,27.0102926610835,12.063037524836677,26.748005083922557,3.0471243892437005,-0.06045914728111712
0.49076087996218754,-0.3759343106647528,0.13393094651562903,-0.38978862797340086,-0.16943861082180856,0.22002851270181864,1.1762513402794041,-0.921613667043502,0.389480685748812,0.17140139382246328,-0.45591728621442285,0.34142036024374156,-37.353062426468355,27.478551183964065,11.906640866209337,26.4388314073492,3.0308352719492557,-0.061121676268768965
0.49308924119965697,-0.377760826816283,0.13470527185763503,-0.3893660055770156,-0.17034830525505804,0.22070937742919047,1.1641806187347143,-0.9132580757651021,0.3871626710029984,0.2113111981926132,-0.4548472166247414,0.34043236368591917,-37.554011579524186,27.937609343179883,11.75317863440955,26.09615918332266,3.0145339518268788,-0.061798592299879496
0.4953932784357348,-0.37957049717097313,0.1354748760532457,-0.38886475227912587,-0.17125586316143213,0.2213882683035397,1.152018618038906,-0.9048351773450641,0.38480209780533037,0.2506266489448601,-0.45377895318704775,0.3394454371746136,-37.74360320006499,28.387386724153597,11.602696940694177,25.721081451418538,2.9982269932053,-0.06248965111356686
0.49767281622949855,-0.3813631911036854,0.13623967480376584,-0.38828615348149176,-0.1721612886682541,0.22206518744936846,1.1397688968818898,-0.8963469663561308,0.38239937526007123,0.2892993988170628,-0.45271275341097517,0.3384595729143874,-37.92179767477575,28.827806868808015,11.455240522448573,25.314722028059673,2.981920597203872,-0.0631945907273298
0.49992768632962936,-0.3831387819918437,0.1369995846875206,-0.3876315876834119,-0.173064586425938,0.22274013697476985,1.1274350500654189,-0.8877954440791599,0.3799549418773876,0.327282899039935,-0.45164887884196153,0.3374747627006972,-38.08855893982804,29.25879728487111,11.310852715115814,24.878233268171527,2.9656206163225933,-0.06391313214991456
0.502157727744946,-0.3848971472282917,0.13775452321968454,-0.38690252280353093,-0.1739657616175026,0.2234131189706472,1.1150207076583525,-0.8791826182240012,0.3774692660819652,0.36453243994047335,-0.45058759578230634,0.3364909979386698,-38.24385452069043,29.680289448656193,11.169575428201524,24.41279382128642,2.949332570553362,-0.064644980109138
0.5043627868131657,-0.3866381682335804,0.1385044089129915,-0.38610051242744126,-0.17486481996942954,0.2240841355099715,1.1025295341098467,-0.8705105026443464,0.3749428466534895,0.4010051880448279,-0.4495291759634669,0.33550826966215147,-38.38765557081418,30.092218801515227,11.03144912523085,23.91960638562182,2.933061664858247,-0.06538982379330305
0.5065427172678065,-0.38836173046767214,0.13924916133918624,-0.3852271919880748,-0.17576176776376473,0.2247531886470775,1.0899652273204183,-0.8617811170458659,0.37237621309736485,0.4366602196832311,-0.4484738971676012,0.3345265685529973,-38.519936909012486,30.49452474018779,10.896512807515464,23.399895463598273,2.9168128078569913,-0.06614733760476948
0.5086973803031483,-0.3900677234410462,0.13998870119107493,-0.384284274885865,-0.1766566118513579,0.22542028041699863,1.0773315176708755,-0.8529964866870071,0.3697699259443361,0.47145855110492396,-0.4474220437965822,0.3335458849605668,-38.64067705535394,30.887150601288774,10.764804001572177,22.854905122202542,2.9005906315636496,-0.06691718192427887
0.5108266446371665,-0.39175604072518994,0.14072295034503088,-0.3832735485556325,-0.17754935966613175,0.2260854128348414,1.0646321670091552,-0.8441586420718875,0.3671245769779689,0.5053631651162401,-0.446373907386932,0.33256620892139155,-38.74985826540006,31.27004364020127,10.636358750017521,22.285896761535763,2.8843995120106722,-0.06769900388463523
0.5129303865723569,-0.3934265799624595,0.14145183192380936,-0.38219687048711226,-0.17844001924027045,0.22674858789519936,1.0518709675951647,-0.8352696186347824,0.36444078938923813,0.538339034260124,-0.4453297870693491,0.33158753017898135,-38.84746656262607,31.643155004657537,10.511211605749962,21.69414689481582,2.868243590599141,-0.06849243815225031
0.5150084900543644,-0.39507924287529106,0.1421752703595249,-0.38105616420599153,-0.1793285992202139,0.22740980757160684,1.039051741003774,-0.8263314564157689,0.36171921785776473,0.5703531405603555,-0.4442899899717297,0.33060983820373663,-38.933491768870994,32.0064397033101,10.389395629217438,21.08094494303112,2.852126796013822,-0.06929710771520559
0.5170608467283367,-0.39671393527474536,0.14289319145664398,-0.3798534152222743,-0.18021510888334355,0.2280690738160327,1.026178336986157,-0.8173461997271555,0.3589605485595304,0.6013744918586355,-0.44325483156481443,0.3296331222129335,-39.00792753267859,32.359856569608986,10.270942388558217,20.447591047364146,2.8360528665443407,-0.07011262467631368
0.5190873559929162,-0.3983305670683661,0.14360552245484634,-0.3785906669527194,-0.1810995581552432,0.2287263885584142,1.0132546322897427,-0.8083158968103918,0.3561654991011841,0.6313741347774343,-0.44222463594982103,0.32865737119075017,-39.07077135539876,32.703368221317106,10.155881962391796,19.795393902424326,2.8200253726556888,-0.07093859104990824
0.5210879250517904,-0.39992905226733255,0.144312192091609,-0.37727001662402715,-0.1819819576274185,0.22938175370623082,1.0002845294370906,-0.7992425994832181,0.35333481838133507,0.6603251643461312,-0.44119973608765417,0.32768257390830197,-39.12202461493462,33.036941016003986,10.04424294503078,19.125668613244862,2.804047739655566,-0.07177459956073157
0.5230624689627185,-0.40150930899288634,0.145013130664368,-0.37589361116336223,-0.18286231857535754,0.23003517114411812,0.9872719554640632,-0.7901283627768819,0.3504692863794994,0.6882027303324534,-0.4401804739695116,0.32670871894365483,-39.1616925870327,33.36054500287033,9.936052453877558,18.43973457891109,2.7881232703099377,-0.07262023444375232
0.5250109106839539,-0.40307125948201294,0.14570827009211526,-0.3744636430827111,-0.1837406529768154,0.23068664273352169,0.9742208606177358,-0.7809752445633154,0.34756971387363395,0.714984040325568,-0.4391672007289336,0.3257357947017858,-39.18978446402733,33.67415387126192,9.831336138765819,17.73891340559959,2.7722551672637072,-0.0734750722434449
0.5269331811179829,-0.4046148300923574,0.14639754397629015,-0.37298234636346833,-0.18461697353020654,0.23133617031239062,0.9611352170145407,-0.7717853051722289,0.344636942087447,0.7406483596213786,-0.4381602766955656,0.3247637894344611,-39.206313370965404,33.977744896237965,9.730118193004479,17.024526851712693,2.756446555129073,-0.07433868261104354
0.5288292191525014,-0.40613995130635366,0.147080887660828,-0.37145199234753906,-0.18549129367298878,0.23198375569491061,0.9480190172592128,-0.7625606069981431,0.34167184226892433,0.7651770079646235,-0.43716007139112534,0.3237926912600018,-39.21129637905146,34.27129888155923,9.632421365881493,16.29789480770008,2.7407005021111326,-0.07521062909870602
0.5306989716985517,-0.40764655773454855,0.14775823829123147,-0.3698748856411265,-0.18636362759992534,0.23262940067127644,0.9348762730251672,-0.7533032140974428,0.3386753152017426,0.7885533532062686,-0.4361669634682795,0.3228224881829093,-39.204754516366606,34.55480010046595,9.538266976385675,15.560333313060577,2.7250200410466645,-0.07609046994904406
0.5325423937257457,-0.4091345881180997,0.1484295348725344,-0.3682533600372497,-0.18723399028111204,0.2332731070075031,0.9217110135970107,-0.7440151917755958,0.33564829065146856,0.8107628019384265,-0.4351813405933468,0.32185316811332165,-39.1867127758294,34.828236234610955,9.447674927907824,14.813152612917971,2.7094081897406577,-0.07697775887879316
0.5343594482944977,-0.4106039853304292,0.14909471832603172,-0.36658977446290447,-0.18810239747965993,0.23391487644527564,0.9085272843759545,-0.7346986061647396,0.3325917267486528,0.831792787172606,-0.4342035992739463,0.3208847188862743,-39.157200120380566,35.09159831151207,9.360663723688031,14.057655256463917,2.6938679704924073,-0.07787204585553309
0.5361501065851956,-0.41205469637801295,0.14975373154465396,-0.36488650895664343,-0.18896886576892574,0.23455471070183712,0.8953291453489692,-0.7253555237918934,0.3295066093111246,0.8516327531305135,-0.43323414463290616,0.3199171282807385,-39.1162494853849,35.3448806408805,9.277250482780556,13.295134239457191,2.678402428712145,-0.07877287786596349
0.5379143479242408,-0.4134866724002892,0.15040651944686992,-0.3631459606822037,-0.18983341254918562,0.23519261146991394,0.8821206695225928,-0.715988011138108,0.32639395110797836,0.8702741372198758,-0.43227339012993693,0.31895038403841197,-39.06389777825824,35.58808075017547,9.197450956318502,12.52687119286423,2.66301465053745,-0.07967979967483863
0.5396521598068855,-0.414899868668667,0.15105302902900575,-0.36137053998366203,-0.19069605606365111,0.2358285804176784,0.8689059413223744,-0.7065981341889144,0.3232547910679096,0.8877103492708315,-0.4313217572327514,0.31798447388223666,-39.000185875336925,35.82119931972498,9.121279543867121,11.754134619619826,2.647707779368446,-0.08059235457321495
0.5413635379168036,-0.41629424458462,0.15169320941587516,-0.35956266648743934,-0.19155681541373007,0.23646261918874764,0.8556890549590086,-0.6971879579764818,0.32009019343471246,0.9039367481113504,-0.43037967503948327,0.3170193855346204,-38.92515861601936,36.04424011774004,9.048749309667803,10.978178181379224,2.632485031249251,-0.0815100851150955
0.5430484861423281,-0.4176697636768479,0.15232701190962095,-0.3577247652563136,-0.1924157105734389,0.23709472940221832,0.8424741127622865,-0.6877595461139377,0.31690124687288646,0.9189506155628789,-0.4294475798544158,0.3160551067353386,-38.83886479421828,36.25720993553785,8.979871998585796,10.200239037025286,2.617349709033326,-0.0824325338412299
0.5447070165892963,-0.41902639359749255,0.1529543900366738,-0.35585926300043363,-0.19327276240287725,0.23772491265273651,0.8292652234840616,-0.6783149603223445,0.31368906352642145,0.9327511279399754,-0.4285259147191793,0.3150916252590952,-38.74135714717184,36.46011852327149,8.914658051589509,9.421536234585059,2.6023052152791752,-0.08335924398929195
0.5463391495904393,-0.4203641061173943,0.15357529959274166,-0.35396858435015344,-0.19412799266068068,0.23835317051060195,0.8160665005715001,-0.6688562599508632,0.3104547780339331,0.945339325140091,-0.4276151289017141,0.3141289289327201,-38.63269234166896,36.65297852644935,8.853116620601968,8.643269158099487,2.5873550638328755,-0.08428976018926221
0.5479449137112632,-0.4216828771203756,0.15418969868574847,-0.3520551481953297,-0.19498142401537152,0.23897950452190592,0.8028820604119519,-0.6593855014906685,0.3071995465034083,0.9567180774118701,-0.4267156773454187,0.31316700565198463,-38.512930957751045,36.83580542350627,8.795255582582827,7.866616030881849,2.5725028900627445,-0.08522362914328269
0.5495243457523649,-0.42298268659654203,0.15479754777664825,-0.3501213640955449,-0.19583308005553354,0.23960391620870194,0.7897160205508521,-0.6499047380832088,0.3039245454498896,0.9668920498923874,-0.4258280200810156,0.3122058433980143,-38.38213746995898,37.00861746467096,8.741081552713576,7.092732476487944,2.557752459721309,-0.08616040028903754
0.5510774907481331,-0.4242635186345889,0.1553988097180472,-0.3481696287655337,-0.19668298529874106,0.2402264070692085,0.7765724978841241,-0.6404160190234272,0.30063097069948225,0.9758676650056057,-0.42495262160376684,0.311245430253282,-38.240380226197054,37.17143561235128,8.690599896577375,6.322750138612006,2.543107676418341,-0.08709962644589847
0.5526044019617863,-0.42552536141310604,0.15599344979057342,-0.34620232263990164,-0.19753116519917857,0.24084697857804283,0.7634556068266226,-0.6309213892585852,0.2973200362631016,0.9836530628160327,-0.424089950218756,0.31028575441716316,-38.08773142429112,37.32428348323836,8.643814741240764,5.557775361010825,2.5285725876980205,-0.08804086444304376
0.5541051408767027,-0.4267682071908727,0.15658143573694022,-0.3442218065210355,-0.19837764615389264,0.2414656321864849,0.750369457458218,-0.621422888883344,0.29399297318340134,0.9902580594330727,-0.42324047735702736,0.30932680422103787,-37.92426708631943,37.46718729230641,8.600728985163894,4.798887928449236,2.514151389721685,-0.08898367572889804
0.5555797771840011,-0.42799205229613624,0.15716273779365686,-0.34223041831390966,-0.1992224555076235,0.24208236932277075,0.7373181536491804,-0.6119225526317706,0.290651028358324,0.995694103562915,-0.4224046768654306,0.3083685681429239,-37.75006703079618,37.60017579886343,8.561344306882535,4.047139869549472,2.4998484305659794,-0.08992762696128925
0.5570283887663342,-0.42919689711487014,0.15773732872034626,-0.34023046985129773,-0.20006562155616964,0.242697191392414,0.72430579116658,-0.6024224093669495,0.2872954633447053,0.9999742313059732,-0.42158302427306626,0.30741103482162685,-37.565214842789445,37.723280254781784,8.525661172424293,3.303554322317798,2.4856682121544136,-0.09087229057759671
