Joohwan-Seo/mujoco_sysID/Fanuc/Dataset/square_PIH_fanuc_rework_1.csv
q1,q2,q3,q4,q5,q6,dq1,dq2,dq3,dq4,dq5,dq6,t1,t2,t3,t4,t5,t6
-2.176996910456843e-10,8.678956951186252e-08,-2.7844680366211666e-07,-0.00038232158062833824,8.361941250061795e-08,9.597754513692851e-05,-1.0884984552284214e-07,4.3394784755931263e-05,-0.00013922340183105831,-0.1911607903141691,4.180970625030897e-05,0.047988772568464254,-0.00011665853360914452,-25.688310685193684,27.23540022848654,-123.01167654644082,4.106029275410848,18.075997632688118
-5.981450095916217e-10,2.5896933115985736e-07,-8.278597947073736e-07,-0.0011399456905240412,2.4693809634891017e-07,0.0002784903368689499,-1.902226592729687e-07,8.608988082399742e-05,-0.00027470649552262846,-0.37881205494785153,8.16593419241461e-05,0.0912563958660107,0.14953951944619664,-26.088835063691434,27.5170321978207,-120.75610196990989,4.028815375352824,16.337901997792518
8.544057046391585e-08,3.23157478912369e-07,-1.3349359960525275e-06,-0.0022653960743203383,8.359243535479784e-08,0.000539005543751135,4.301935773675373e-05,3.209407387625582e-05,-0.0002535381006725769,-0.5627251918981484,-8.167283049705616e-05,0.13025760344109258,0.29857261388296386,-26.48832880524534,27.797072797594577,-118.353495478262,3.953654097587104,14.767162800057372
3.4420128436259715e-07,8.625799877012262e-08,-1.488920908410015e-06,-0.003750758560293913,-8.037364683422197e-07,0.0008698117362246802,0.00012938035694934062,-0.00011844974007112319,-7.699245617874377e-05,-0.7426812429867874,-0.0004436644518485088,0.16540309623677263,0.4470169300051267,-26.88668190881622,28.075374564992355,-115.81000361910918,3.880527219297474,13.347660461880647
8.616575314577204e-07,-6.445165019442843e-07,-9.817997748636321e-07,-0.005587700498961645,-2.803312381937024e-06,0.0012639397578778446,0.0002587281235475616,-0.0003653872503572034,0.00025356056677319154,-0.9184709693338656,-0.0009997879567974022,0.19706401082658215,0.5949029964431966,-27.283785333122633,28.351792701560516,-113.1318849692446,3.8094143598671706,12.064828291657374
1.7234053945677177e-06,-2.06162120668989e-06,4.915146205687781e-07,-0.007767490517454331,-6.294337179791682e-06,0.0017150912208910528,0.0004308739315549985,-0.0007085523523728029,0.0007366571977162051,-1.089895009246343,-0.0017455123989273287,0.22557573150660412,0.742257347091362,-27.67953122280318,28.626185372828434,-110.32549868780319,3.7402931480366313,10.905502860241077
3.0146175531217342e-06,-4.357154716192325e-06,3.23299766813872e-06,-0.010281018553871257,-1.1646947578946403e-05,0.002217573891058185,0.0006456060792770083,-0.0011477667547512174,0.001370741523784971,-1.2567640182084627,-0.00267630519957736,0.2512413350835662,0.8891023269266832,-28.073813094658398,28.898413965496857,-107.39729310821176,3.673139389474788,9.857788793984875
4.819999626264912e-06,-7.722833869308918e-06,7.541332224612715e-06,-0.013118816136019357,-1.9222215247744985e-05,0.0027662432985553604,0.0009026910365715888,-0.001682839576558296,0.0021541672782369975,-1.4188987910740496,-0.0037876338343992913,0.27433470374858754,1.0354559214157641,-28.466525983765997,29.168343301866024,-104.35379438565447,3.6079272338533315,8.910936595329266
7.223748891620134e-06,-1.2349967745243738e-05,1.3711731561064246e-05,-0.016271076869189247,-2.937215019106552e-05,0.0033564499745882843,0.0012018746326776112,-0.00231356693796741,0.0030851996682257654,-1.5761303665849444,-0.005074967471660266,0.29510333801646194,1.181331609346755,-28.85756654987237,29.43584181177736,-101.20159521641517,3.544629340596285,8.055232235735765
1.030951544509119e-05,-1.8429430840914658e-05,2.2035766059323518e-05,-0.01972767709791657,-4.243970734338011e-05,0.0039839917718465425,0.0015428832767355278,-0.0030397315478354592,0.004162017249129636,-1.728300114363662,-0.006533778576157296,0.3137708986291292,1.3267382391078153,-29.246833145032873,29.700781662907684,-97.9473436450756,3.4832170425575195,7.281897386702906
1.416036585144228e-05,-2.6151635423875268e-05,3.280119376388344e-05,-0.02347819670701994,-5.8758796327856746e-05,0.004645070778921799,0.0019254252031755453,-0.003861102291480305,0.005382713852279959,-1.8752598045516846,-0.00815954449223832,0.33053950353762823,1.4716799285846138,-29.63422584399671,29.963038850778513,-94.59773197514758,3.4236605069551014,6.582999263886221
1.8858749319855704e-05,-3.5706503067479106e-05,4.6291794908554387e-05,-0.02751194002759507,-7.865429436556877e-05,0.005336254386043279,0.0023491917342067124,-0.004777433821801919,0.006745300572335473,-2.0168716602875656,-0.00994774901885601,0.34559180356074026,1.6161559889635038,-30.019646439309696,30.222493250323286,-91.15948579830051,3.365928892963018,5.95136915809948
2.4486466423297885e-05,-4.728343538086553e-05,6.278721054821998e-05,-0.03181795681407747,-0.00010244206234323231,0.006054440102133014,0.0028138585517210905,-0.005788466156693212,0.008247707819832797,-2.1530083932411967,-0.011893883988831767,0.3590928580448673,1.7601608727998435,-30.402998403533445,30.47902863128825,-87.63935315691126,3.309990505428955,5.3805288162150084
3.1124640365366604e-05,-6.107128395177882e-05,8.256278543546112e-05,-0.03638506325896176,-0.00013042896407042365,0.006796823761723202,0.0033190869710343603,-0.006893924285456644,0.009887787443620573,-2.283553222442144,-0.013993450863595675,0.37119182979509413,1.9036841467402703,-30.784186821352996,30.73253264012495,-84.04409385421708,3.2558129442490316,4.864623915623105
3.8853690783397743e-05,-7.725831952514706e-05,0.0001058894152894102,-0.04120186301228349,-0.00016291288877764726,0.00756087079510469,0.0038645252090155685,-0.008093517786684119,0.011663314926974542,-2.4083998766608667,-0.01624196235361181,0.38202351669074397,2.0467104892729773,-31.16311829466251,30.982896751363832,-80.38046892588794,3.2033632489889463,4.398363948783198
4.77533100620446e-05,-9.603220044469748e-05,0.00013303339860983002,-0.046256768173527175,-0.0002001827769246816,0.00834429026654666,0.004449809639323426,-0.00938694045977521,0.013571991660209904,-2.527452580621842,-0.018634944073517172,0.39170973572098544,2.1892197138219176,-31.539700823981146,31.23001619173499,-76.65523028636132,3.152608038394177,3.976967900250576
5.7902442117369125e-05,-0.00011757994038863315,0.00016425629319297694,-0.051538020224221444,-0.000242518649404114,0.009145011413866555,0.005074566027662266,-0.010773869971967838,0.015611447291573453,-2.640626025347134,-0.021167936239716204,0.40036057365994715,2.3311868174016177,-31.91384366975513,31.47378984052384,-72.87511056279403,3.103513644480309,3.596115158068972
6.93792635977709e-05,-0.00014208787543351504,0.00019981477750723474,-0.05703371087011689,-0.0002901916402377187,0.00996116244832809,0.005738410740200888,-0.012253967522440942,0.017779242157128894,-2.747845322947724,-0.023836495416802342,0.40807551723076746,2.4725820549123148,-32.28545719724927,31.71412010981536,-69.04681312898754,3.056046240939379,3.2519011551926527
8.226116743490014e-05,-0.00016974163048296727,0.00023996051708576006,-0.06273180276251275,-0.00034346403287320744,0.010791051397068057,0.006440951918564614,-0.013826877524726116,0.02007286978926267,-2.849045946197932,-0.026636196317744373,0.4149444743699826,2.6133710389848206,-32.65445270882075,31.950912808388928,-65.17700235113416,3.010171965637576,2.9407972851936486
9.662474866512863e-05,-0.00020072608509964578,0.0002849400360904629,-0.06862015006900377,-0.00040258930019580616,0.011633148791237882,0.007181790615114244,-0.01549222730833925,0.0224897595023514,-2.94417365324551,-0.029562633661299364,0.4210486970849124,2.7535148650862893,-33.02074226740031,32.18407699308011,-61.272294056713534,2.9658570370162582,2.659614680420106
0.00011254579243026354,-0.00023522533878008448,0.00033499459419658936,-0.07468651886465665,-0.00046781214837303994,0.012486072022009378,0.007960521882567451,-0.017249626840219356,0.02502727905306323,-3.033184397826441,-0.032611424088616885,0.42646161538574817,2.8929702613778674,-33.38423851498497,32.413524811423066,-57.33924623734183,2.9230678642401626,2.405471480451537
0.00013009926405505487,-0.00027342267571257335,0.00039036006894004895,-0.08091860731539487,-0.0005393685646520427,0.013348571203730378,0.00877673581239566,-0.019098668466244438,0.027682737371729795,-3.116044225369112,-0.035778208139501354,0.43124959086050035,3.0316897625795733,-33.74485448986965,32.639171339332265,-53.3843499958423,2.881771150966575,2.175763254553044
0.00014935930108874362,-0.00031550052905815007,0.00045126684366052667,-0.08730406562616957,-0.0006174858692266851,0.01421951639900124,0.009630018516844382,-0.02103892667278836,0.030453387360238858,-3.192729155387352,-0.039058652287321194,0.4354725976354311,3.1696219068534606,-34.10250344622105,32.860934417476216,-49.41402074726439,2.8419339926347664,1.9681362742327273
0.000170399207188489,-0.0003616404447941343,0.0005179397011624739,-0.09383051572732119,-0.000702382771286912,0.015097886074436458,0.010519953049872688,-0.0230699578679921,0.03333642875097363,-3.2632250505758087,-0.04244845103011349,0.439184837717609,3.306711454470136,-34.45709867942355,33.078734489840606,-45.434589683032534,2.803523967199056,1.7804633612859944
0.0001932914477140644,-0.00041202304515843783,0.0005905977232034278,-0.10048557067338974,-0.0007942694293550123,0.015982756668520667,0.011446120262787693,-0.025191300182151783,0.03632901102047694,-3.327527473034272,-0.04594332903405009,0.4424352970421046,3.442899626782667,-34.808553360412496,33.292494447780285,-41.452295506853716,2.766509219250348,1.6108220631697843
0.00021810764689577945,-0.0004668279917311931,0.0006694541959049428,-0.1072568537295094,-0.000893347516003255,0.016873293164395033,0.012408099590857521,-0.02740247328637763,0.03942823635075746,-3.385641528059827,-0.049539043324121325,0.44526824793718256,3.578124363802592,-35.15678038195521,33.50213948261875,-37.473276450457796,2.7308585374899623,1.457474931458992
0.00024491858643121723,-0.0005262339481881047,0.0007547165211659261,-0.1141320171214237,-0.000999810287034602,0.017768740570735776,0.013405469767718885,-0.029702978228455797,0.04263116263049166,-3.437581695957152,-0.05323138551567356,0.4477237031703717,3.7123205984608814,-35.501692219553675,33.70759694957932,-33.503562576685155,2.6965414255379496,1.3188517007434257
0.000273794205361111,-0.0005904185427574073,0.0008465861341415595,-0.12109876042607935,-0.0011138426551932396,0.018668416223217493,0.014437809464946888,-0.032092297284651274,0.04593480648781671,-3.48337165232782,-0.057016184079318716,0.44983782624085855,3.8454205454482753,-35.843200809325744,33.90879624552567,-29.549068376876413,2.6635281660743853,1.1935331848478483
0.0003048036010705552,-0.0006595583304094612,0.0009452584268334854,-0.12814484858069763,-0.001235621268454703,0.019571702827485778,0.015504697854722084,-0.03456989382602694,0.04933614634596292,-3.5230440773091467,-0.06088930663073177,0.45164330213414183,3.9773540023686347,-36.181217444883785,34.10566870265799,-25.61558566895481,2.6317898783274973,1.0802367249006963
0.0003380150312587668,-0.0007338287548049065,0.0010509226778187724,-0.13525812948918153,-0.0013653145929266512,0.020478042172183148,0.016605715094105813,-0.03713521219772264,0.05283212549264356,-3.556640454241945,-0.06484666223597411,0.4531696723486854,4.1080486608103906,-36.51565269487379,34.298147499959974,-21.70877680203014,2.6012985689373314,0.9778030397203646
0.0003734959167187974,-0.000813404110023987,0.001163761988126589,-0.1424265512056905,-0.0015030830003711238,0.02138692944745764,0.017740442730015318,-0.039787677609540266,0.056419655153908246,-3.5842108582544885,-0.06888420372223633,0.45444363763724505,4.237430424847443,-36.84641634247125,34.48616759382801,-17.834168172789724,2.572027176237473,0.8851843433950154
0.00041131284476793426,-0.0008984575020962194,0.0012839532232527368,-0.1496381786762046,-0.001649078860337701,0.022297908110605336,0.01890846402456842,-0.04252669603611621,0.06009561756307397,-3.6058137352570436,-0.07299792998328865,0.45548933157384724,4.36542373442459,-37.1734173477578,34.66966566894007,-13.997144058379263,2.5439496080111077,0.8014336079509348
0.00045153157317001094,-0.0009891608103460828,0.0014116669612834847,-0.15688121001989971,-0.0018034466368746316,0.023210565246120654,0.020109364201038333,-0.045351654124931653,0.0638568690153739,-3.62151567184756,-0.0771838882684653,0.4563285677576598,4.491951891064477,-37.496563833532626,34.848580110049596,-10.202940769917543,2.5170407727907875,0.7256948607689452
0.0004942170343924439,-0.0010856846485669087,0.0015470674470816975,-0.16414399233316856,-0.0019663229897620162,0.024124527372508923,0.021342730611216453,-0.04826191911041296,0.0677002428991064,-3.631391156634426,-0.0814381764436923,0.4569810631941346,4.616937383353828,-37.81576309474531,35.02285099501749,-6.4566411302303965,2.4912766047843857,0.6571944170398235
0.0005394333400434825,-0.0011881983260317247,0.0016903125524703375,-0.17141503700014196,-0.0021378368801878095,0.025039456652807004,0.02260815282551929,-0.051256838732408036,0.07162255269432007,-3.6355223334867013,-0.08575694521289667,0.45746464014904015,4.7403022097255585,-38.130921631385604,35.19242010903604,-2.7631692788358158,2.4666340825229662,0.5952329571562971
0.0005872437853388622,-0.0012968698083465021,0.0018415537423311947,-0.1786830344945937,-0.0023181096807640233,0.025955047469906647,0.023905222647689836,-0.05433574115738865,0.07562059493042861,-3.633998747225859,-0.09013640028810681,0.457795408549821,4.861968196148561,-38.44194520432609,35.35723097965103,0.8727141933382816,2.443091241338859,0.5391783676205957
0.0006377108534517196,-0.001411865678148144,0.002000936046520407,-0.18593686865914547,-0.0025072552897573534,0.02687102333152435,0.025233534056428662,-0.05749793490082089,0.07969115209460612,-3.626917082275886,-0.09457280449666502,0.45798793080885136,4.98185730646627,-38.74873891329871,35.51722893186209,4.446416777566353,2.420627179795661,0.488459271891239
0.0006908962196052028,-0.0015333510956466727,0.0021685980374871235,-0.19316563044872653,-0.002705380249385789,0.027787134073049422,0.026592683076741615,-0.0607427087492644,0.08383099548335828,-3.6143808947905294,-0.099062479814218,0.45805537076253616,5.099891943285758,-39.05120729589317,35.67236116227687,7.9535182478708455,2.3992220602046666,0.442559184682014
0.0007468607547736131,-0.0016614897590084786,0.0023446718134677025,-0.20035863112628183,-0.0029125838680108354,0.028703153329563424,0.027982267584205127,-0.06406933168090295,0.08803688799028958,-3.5965003387776493,-0.10360180931252311,0.4580096282570016,5.215995237506542,-39.349254446201435,35.82257683101844,11.389774527635765,2.378857103375543,0.4010112296317765
0.0008056645288650608,-0.001796443864575221,0.0025292829871152627,-0.2075054148997637,-0.0031289583460340324,0.029618876251090685,0.02940188704572386,-0.06747705278337128,0.09230558682378004,-3.573391886740946,-0.10818723901159852,0.4578614607636301,5.330091324789487,-39.64278415149962,35.96782716983813,14.751121221949692,2.3595145777620736,0.36339336605271233
0.0008673668132664328,-0.0019383740669110675,0.002722550679413333,-0.2145957709904815,-0.0033545889052867196,0.03053411743763952,0.030851142200686004,-0.07096510116792315,0.09663384614903528,-3.545178045358893,-0.11281527962634368,0.45762059327441795,5.44210560749536,-39.93170004515691,36.10806560467239,18.033676815856886,2.3411777831771605,0.32932407569585787
0.0009320260826398467,-0.0020874394386694276,0.002924587518712874,-0.2216197451239204,-0.0035895539216836275,0.031448709072852916,0.032329634686706965,-0.07453268587917994,0.10101841964977042,-3.511987066719455,-0.117482508198454,0.4572958176066969,5.551965000865717,-40.2159057737952,36.24324789070113,21.233745539204573,2.3238310292644284,0.29845846519939695
0.00099970001586863,-0.0022437974302692357,0.0031354996447241095,-0.22856765043517474,-0.003833925060894101,0.03236249923712878,0.033836966614391714,-0.07817899579990414,0.1054560630056178,-3.473952655627162,-0.12218556960523681,0.45689508213792934,5.659598162470442,-40.49530517659088,36.373332257821,24.34781989927438,2.307459608926984,0.27048474415727364
0.0010704454960601074,-0.0024076038293701463,0.0033553867172885104,-0.23543007778216746,-0.004087767416769688,0.033275350382914654,0.03537274009573871,-0.08190319955045526,0.10994353628220034,-3.4312136734963636,-0.1269211779377935,0.4564255728929386,5.7649357042015055,-40.76980247451366,36.49827956433694,27.372582882876156,2.2920497669267967,0.24512104260551076
0.0011443186095220167,-0.0025790127201357517,0.0035843419297518567,-0.2421979054608494,-0.004351139652253594,0.034187137956548784,0.03693655673095459,-0.0857044453828027,0.11447760623167302,-3.383913839340979,-0.13168611774195327,0.4558937868170649,5.867910386346348,-41.039302467234194,36.61805345660147,30.304909830061682,2.277588663881547,0.2221125352118577
0.001221374643639116,-0.0027581764422741285,0.003822452026756646,-0.24886230831758316,-0.004624094142486221,0.035097749152525635,0.03852801705854965,-0.0895818610691885,0.11905504850239466,-3.332201428366874,-0.1364772451163135,0.45530559798842696,5.968457293522247,-41.30371073540402,36.73262053229185,33.14186998208436,2.264064335897915,0.20122884260647095
0.0013016680835863973,-0.0029452455498456273,0.00406979732627112,-0.2554147662549193,-0.004906677119811719,0.036007081787425434,0.04014671997364059,-0.09353455378574933,0.12367264975723738,-3.2762289686680695,-0.14129148866274885,0.45466631744989905,6.066513992490162,-41.562933846014516,36.84195050500917,35.88072770668769,2.2514656500935155,0.1822616831398136
0.0013852526078252008,-0.003140368769828863,0.004326451745672849,-0.26184707212796415,-0.005198928820383283,0.036915043281977096,0.041792262119401784,-0.09756160999161778,0.12832720970086425,-3.2161529365224233,-0.14612585028578226,0.4539807472758307,6.162020672089464,-41.81687955857404,36.94601636790878,38.518943404249605,2.2397822562711616,0.1650227509278308
0.0014721810823383633,-0.0033436929604373175,0.004592482831707038,-0.2681513390295165,-0.005500883632059796,0.03782154974083565,0.04346423725658124,-0.10166209530422723,0.13301554301709403,-3.152133450776171,-0.15097740583825636,0.45325322942927676,6.25492026573961,-42.06545702990498,37.04479455412683,41.05417409874169,2.2290045350214847,0.14934179837050857
0.0015625055535702355,-0.003555363069180792,0.004867951794143475,-0.2743200069631162,-0.005812570243283372,0.038726525120659556,0.04516223561593609,-0.10583505437173717,0.1377344812182187,-3.084333966799844,-0.15584330561178816,0.45248768991195154,6.345158557138357,-42.30857701544735,37.138265091848915,43.48427371788021,2.219123542541074,0.13506490343189848
0.0016562772400469305,-0.0037755220906681448,0.005152913542961147,-0.28034584890409736,-0.006134011792626426,0.03962990047798101,0.04688584323834757,-0.1100795107436765,0.14248087440883592,-3.0129209704905806,-0.16072077467152687,0.4516876786607285,6.432684269945941,-42.54615206506617,37.22641175197406,45.807293067250676,2.2101309524639374,0.12205290386885492
0.0017535465226614336,-0.0040043110241502824,0.005447416728895943,-0.2862219762496729,-0.006465226018697926,0.04053161328918257,0.048634641307251494,-0.11439446674106878,0.14725159296739787,-2.9380636727877603,-0.1656071130357498,0.45085640560077644,6.517449142379257,-42.77809671148739,37.30922218645388,48.021479503578554,2.202018995014723,0.1101799823124017
0.0018543629336171732,-0.004241868830805187,0.005751503787194452,-0.2919418436599933,-0.006806225410101565,0.04143160683563438,0.05040820547786975,-0.11877890332745243,0.15204352914925445,-2.859933705160228,-0.17049969570181922,0.4499967732259049,6.599407987747529,-43.004327649633716,37.386688055533384,50.125276312693444,2.1947803938013206,0.09933238765647609
0.0019587751440322864,-0.00448833239076987,0.006065210984425405,-0.2974992532930216,-0.007157017355143507,0.04232982964771634,0.05220610520755651,-0.12323177998234143,0.1568535986154765,-2.778704816514155,-0.17539597252097144,0.44911140604098193,6.6785187420413035,-43.22476390528882,37.45880514228053,52.1173217980964,2.1884083005735038,0.0894072796105721
0.002066830950215052,-0.004743836459927439,0.00638856846820977,-0.30288835843694334,-0.007517604290994136,0.04322623500205437,0.054027903091382744,-0.1277520345787848,0.16167874189218284,-2.6945525719608563,-0.18029346792531417,0.4482026771690174,6.754742499739115,-43.43932699169078,37.52557345296532,53.99644808638418,2.182896228282272,0.08031168453908802
0.0021785772586288095,-0.005008513626460994,0.006721600319740685,-0.30810366654469057,-0.007887983852016656,0.04412078046684706,0.055873154206878675,-0.13233858326677725,0.16651592576545732,-2.6076540538736244,-0.18518978051126012,0.4472727323963431,6.8280435390219285,-43.64794105283016,37.58699730203184,55.76167965611561,2.178237982781276,0.07196155185527583
0.0022940600695720882,-0.005282494267189685,0.007064324608975144,-0.3131400416759944,-0.008268149016985497,0.045013427490653,0.05774140547163931,-0.1369903203643455,0.17136214461722973,-2.5181875656519273,-0.19008258248442,0.4463235119029704,6.898389337585107,-43.85053299241265,37.64308538059554,57.412231597018625,2.1744275935185025,0.0642809012712651
0.002413324459606642,-0.005565906503706064,0.007416753452390555,-0.3179927063531947,-0.00865808825492892,0.045904141030455786,0.05963219501727694,-0.14170611825818927,0.17621442170770538,-2.4263323386001376,-0.1949696189717108,0.44535676990139333,6.965750580212437,-44.04703258763,37.69385080759037,58.94750760673492,2.171459243570598,0.05720105214091775
0.0025364145627726035,-0.005858876158337636,0.007778893073210683,-0.3226572428378274,-0.009057785669343123,0.04679288921522695,0.06154505158298083,-0.14648482731578638,0.181069810410064,-2.332268242316343,-0.19984870720710177,0.4443740923855836,7.030101159229612,-44.23737258706879,37.73931116288525,60.36709773258117,2.1693271993768732,0.05065992697655555
0.0026633735506360412,-0.006161526709959406,0.008150743864017101,-0.32712959383577694,-0.009467221140539162,0.04767964304157192,0.06347949393171888,-0.15132527581088506,0.18592539540320943,-2.2361754989747786,-0.20471773559801898,0.44337691317248346,7.09141816888625,-44.421488792268185,37.77948850188035,61.67077586607148,2.1680257405319754,0.04460142198379652
0.0027942436112198318,-0.006473979249688001,0.008532300451673781,-0.331406062639523,-0.009886370465899075,0.04856437609837337,0.06543503029189525,-0.1562262698642974,0.19077829382833972,-2.1382344018730226,-0.20957466267995645,0.4423665284007241,7.149681894630131,-44.59932012261871,37.81440935128493,62.858496998193964,2.167549089997992,0.038974838148696345
0.002929065926873952,-0.006796352436491765,0.008923551764503835,-0.33548331271672766,-0.010315205497833668,0.049447064317644215,0.06741115782706006,-0.16118659340188218,0.19562565641502677,-2.038625038602336,-0.2144175159672965,0.4413441096354228,7.204875798136587,-44.770808663465935,37.844104685961724,63.93039424366755,2.167891345096482,0.03373436703441493
0.003067880651146069,-0.0071287624527548825,0.009324481101668529,-0.33935836675510056,-0.010753694279251118,0.05032768574907133,0.06940736213605862,-0.16620500813155883,0.20046466858234646,-1.9375270191864546,-0.21924439070872537,0.44031071571355884,7.2569864988434185,-44.93589969745014,37.868609886901055,64.88677564262022,2.1690464096392628,0.02883862600799117
0.003210726884717681,-0.007471322959837147,0.00973506620470931,-0.343028605174142,-0.011201801176362998,0.051206220355974254,0.07142311678580603,-0.17128025354113247,0.20529255152039086,-1.8351192095207312,-0.22405344855593973,0.4392673034514632,7.30600375262021,-45.094541719271604,37.887964680558646,65.72812074832882,2.1710079275537844,0.02425023812670865
0.0033576426504750467,-0.007824145053674406,0.010155279331223763,-0.34649176411500177,-0.011659487008672155,0.05208264983062273,0.0734578828786828,-0.17641104691863002,0.21010656325722668,-1.7315794704298753,-0.22884291615457833,0.4382147373242382,7.351920428073673,-45.246686434219725,37.902213059950626,66.45507700984305,2.173769218353958,0.019935452373583518
0.003508664867787781,-0.008187337220467916,0.01058508733065585,-0.34974593292029893,-0.01212670917600512,0.0529569574270554,0.07551110865636729,-0.18159608339675443,0.2149039997160433,-1.627084402648593,-0.23361108366648226,0.437153798216334,7.394732480860637,-45.39228874094457,37.91140318805244,67.06845595848102,2.1773232148009347,0.015863800346932633
0.003663829326071286,-0.008561005292513826,0.01102445172218958,-0.3527895511163295,-0.012603421782470092,0.053829127809721274,0.07758222914175239,-0.18683403602295465,0.21968219576686543,-1.5218090980152836,-0.23835630323248658,0.43608519133293977,7.434438926250703,-45.531306699078,37.91558728418701,67.5692292073337,2.181662403090093,0.0120077858847982
0.0038231706577121615,-0.008945252404226806,0.01147332877474317,-0.35562140491063865,-0.013089575757240055,0.054699146916427674,0.07967066582043791,-0.19212355585649005,0.2244385262767947,-1.4159268971545815,-0.24307698738498107,0.43500955335320135,7.471041810053996,-45.66370148243,37.91482149421852,67.958524273046,2.1867787658902147,0.00834260444428811
0.003986722310438451,-0.009340178948414277,0.011931669589067764,-0.3582406232184586,-0.01358511897207895,0.0555670018342246,0.08177582636314472,-0.19746327209373551,0.22917040716229642,-1.309609153909998,-0.2477716074194481,0.4339274588984613,7.504546177908866,-45.78943731859442,37.90916574548604,68.23762022925979,2.192663728549281,0.004845889362623396
0.004154516519218977,-0.009745882532859943,0.012399420181960902,-0.36064667323200505,-0.014089996355547144,0.05643268068698791,0.08389710439026321,-0.20285179222283276,0.2338752964465689,-1.2030250067732169,-0.2524386917340967,0.43283942638165757,7.534960042811922,-45.90848141589356,37.89868358751715,68.40794320120239,2.1993081087673314,0.0014974824038157808
0.004326584277778227,-0.010162457937277231,0.012876521572609958,-0.3628393555470886,-0.014604150003840275,0.05729617253358318,0.08603387927962504,-0.20828770220864443,0.2385506953245278,-1.0963411575417739,-0.25707682414656524,0.431745923297635,7.562294350670866,-46.020803878677654,37.883442019657736,68.47106171098682,2.2067020700212656,-0.001720773754435162
0.004502955309815172,-0.010589997070694853,0.013362909871084783,-0.36481879886193247,-0.015127519288233204,0.058157467275599894,0.0881855160184724,-0.21376956670881112,0.24319414923741303,-0.9897216574219272,-0.26168464219646453,0.4306473710083579,7.586562943571009,-46.12637761206989,37.86351130683636,68.42868188325865,2.2148350790091076,-0.004825223213099278
0.004683658040016159,-0.011028588929337954,0.013858516369001758,-0.3665854542634895,-0.01566004095911777,0.059016555573743495,0.09035136510049346,-0.2192959293215506,0.24780324895848724,-0.8833277007785091,-0.26626083544228385,0.4295441490718016,7.6077825203706,-46.22517821731063,37.83896478475288,68.28264252087389,2.2236958673619602,-0.007830566637826053
0.0048687195649535445,-0.011478319555069302,0.01436326763238325,-0.36814008911692647,-0.016201649246639544,0.05987342877206068,0.09253076246869274,-0.2248653128656734,0.25237563169074617,-0.777317426718488,-0.2708041437608856,0.4284365991585911,7.625972594179557,-46.31718387890923,37.8098786558417,68.03491006032873,2.233272397850766,-0.010750014868748603
0.005058165623963087,-0.011939271994455545,0.01487708559673727,-0.3694837805742862,-0.016752275957954494,0.06072807882925308,0.094723029504771,-0.2304762196931214,0.25690898217700997,-0.6718457286798731,-0.2753133556574756,0.4273250285962015,7.641155446231705,-46.40237524485249,37.77633177740658,67.68757341668184,2.2435518352922452,-0.013595427916727104
0.005252020570094285,-0.01241152625852388,0.015399887664381702,-0.3706179087186512,-0.017311850571141613,0.061580498256406456,0.09692747306559882,-0.23612713203416708,0.26140103382221513,-0.5670640721824842,-0.2797873065935595,0.42620971357668813,7.65335607563267,-46.480735301153416,37.738405443362666,67.24283872771544,2.2545205223343254,-0.016377440758032158
0.0054503073412288435,-0.012895159283274367,0.015931586804036068,-0.37154414936041524,-0.01788030032582158,0.062430680060527335,0.09914338556727925,-0.24181651237524351,0.2658495698271824,-0.4631203208820217,-0.2842248773399832,0.42509090206044103,7.6626021444544055,-46.5522492420441,37.69618316104456,66.70302400707,2.2661639602749117,-0.019105577202969348
0.005653047431463258,-0.013390244891012782,0.01647209165270128,-0.3722644665025229,-0.01845755031054501,0.06327861769333797,0.10137004511720725,-0.24754280386920735,0.2702524243326055,-0.3601585710538142,-0.28862499236171535,0.4239688164053177,7.668923917653085,-46.61690433713021,37.6497504245558,66.07055371606467,2.2784667950411848,-0.02178835299072701
0.005860260862852147,-0.013896853752568128,0.01702130661984426,-0.3727811044917581,-0.01904352354702613,0.0641243050048333,0.10360671569444466,-0.2533044307776732,0.27460748357148923,-0.2583189946176281,-0.29298661824055955,0.42284365574767147,7.672354197308696,-46.67468979682663,37.59919448613698,65.34795326387506,2.291412808427783,-0.024433369151299678
0.006071966157609423,-0.014415053350457924,0.0175791319938998,-0.37309657987335815,-0.01963814107130912,0.06496773620115176,0.10585264737863767,-0.2590997989448976,0.2789126870277699,-0.15773769080000866,-0.29730876214149465,0.42171559815922877,7.672928250722236,-46.72559663738614,37.544604127023135,64.53784344568811,2.304984914662578,-0.02704739657486771
0.0062881803108646404,-0.014944907943062994,0.01814546405109656,-0.3732136729663898,-0.020241322011964782,0.06580890580635466,0.1081070766276087,-0.26492729630253536,0.2831660285983797,-0.05854654651581252,-0.3015904703278317,0.42058480260145187,7.67068373195818,-46.769617546816775,37.48606942924244,63.642934828386245,2.3191651623385168,-0.029636452637844327
0.006508918764071949,-0.015486478529871877,0.018720195166607712,-0.3731354191774616,-0.02085298366542449,0.06664780862774852,0.11036922660365434,-0.2707852934044409,0.2873655577555752,0.03912689446409642,-0.3058308267298526,0.41945141069693004,7.665660596485056,-46.80674675295741,37.42368154978027,62.66602209323361,2.3339347417184695,-0.03220587065273814
0.006734195379168898,-0.016039822817852968,0.019303213928019584,-0.3728651000704485,-0.021473041568566612,0.06748443972441942,0.1126383075484747,-0.2766721439905463,0.29150938070593674,0.13515955350655892,-0.3100289515710613,0.4183155483354508,7.657901008643904,-46.836979894945586,37.35753249849365,61.609978344944025,2.349273997388633,-0.034760362834841074
0.006964022413581989,-0.01660499518901039,0.01989440525110372,-0.3724062342099821,-0.022101409568677885,0.06831879437868081,0.11491351720654575,-0.28258618557871196,0.295595661542069,0.2294329302331901,-0.31418400005563557,0.41717732713069366,7.647449241761394,-46.860313899267446,37.28771492111257,60.477749396404214,2.365162446203636,-0.037304077411441205
0.007198410496175242,-0.017182046669177033,0.020493650497869113,-0.3717625677965082,-0.022737999890918136,0.0691508680701647,0.11719404129662622,-0.28852574008332127,0.29962262338269613,0.32183320673695476,-0.3182951611201249,0.4160368457419437,7.63435157081971,-46.87674686152647,37.21432188860609,59.27234803820802,2.381578800434758,-0.039840650438692615
0.007437368604237164,-0.01777102489809558,0.021100827596862194,-0.3709380651107314,-0.023382723203421923,0.06998065645231236,0.11947905403096135,-0.29448911445927356,0.3035885494965416,0.41225134288839027,-0.32236165625189306,0.4148941910738278,7.618656157697113,-46.886277935006035,37.13744669412338,57.9968483020273,2.3985009960008554,-0.04237325283671693
0.0076809040416003825,-0.01837197410083543,0.021715811165672456,-0.3699368987852606,-0.024035488680174452,0.07080815533104398,0.1217677186816091,-0.3004746013699246,0.30749178440513086,0.5005831627353955,-0.32638273837626525,0.4137494393658141,7.600412929098922,-46.88890722703135,37.05718265864361,56.65437972670404,2.415906225629637,-0.04490463310358567
0.007929022417986722,-0.018984935060590288,0.02233847263559133,-0.3687634399212325,-0.024696204061802063,0.07163336064540814,0.12405918819316968,-0.306480479877429,0.3113307349594378,0.586729432014043,-0.33035769081380495,0.4126026571820774,7.579673447407258,-46.88463570405766,36.97362294638234,55.248121635794774,2.4337709767668105,-0.04743715612451689
0.008181727629668815,-0.019609945092898,0.022968680378361597,-0.3674222480676302,-0.025364775714419308,0.07245626845003074,0.12635260584104632,-0.3125050161538548,0.3151038713851327,0.670595926801158,-0.3342858263086228,0.4114539023113027,7.556490774786266,-46.873465106327316,36.88686039091017,53.781297435135926,2.4520710740203873,-0.04997283845198397
0.008439021841537225,-0.02024703802132074,0.02360629983494373,-0.36591806108092534,-0.02604110868667553,0.07327687489920087,0.12864710593420528,-0.3185464642113702,0.31880972829106613,0.7520934933524229,-0.338166486128111,0.41030322458506957,7.530919330986484,-46.85539787284566,36.796987332837666,52.2571689388243,2.470781725898793,-0.052513380396035925
0.008700905470659699,-0.020896244154620224,0.024251193646214836,-0.36425578488256033,-0.026725106765143534,0.07409517623244612,0.13094181456123655,-0.3246030666497421,0.32244690563555334,0.8311380991825008,-0.3419990392340023,0.40915066662262006,7.5030147453949185,-46.83043707732762,36.70409546981475,50.67903073182369,2.4898775755744538,-0.055060195230940814
0.008967377171416388,-0.021557590265458906,0.02490322178550483,-0.3624404831316481,-0.027416672528191893,0.07491116876146423,0.13323585037834443,-0.33067305541934067,0.32601406964499674,0.9076508754560992,-0.34578288152418,0.4079962645090529,7.472833703974932,-46.798586375662424,36.60827571947878,49.05020457721551,2.509332755378474,-0.0576144357948319
0.00923843382229183,-0.022231099570654524,0.02556224169286365,-0.36047736683010606,-0.02811570739848032,0.07572484885829082,0.13552832543772075,-0.3367546525978097,0.32950995367940955,0.9815581507710204,-0.349517435144213,0.4068400484133018,7.44043379183006,-46.75984996533539,36.50961809586883,47.374033875908964,2.529120944708664,-0.060177018731690804
0.009514070514400974,-0.02291679171301161,0.0262281084109426,-0.358371783877254,-0.02882211169421464,0.0765362129445941,0.1378183460545729,-0.3428460711785424,0.33293335903947324,1.0527914764260329,-0.35320214786716186,0.4056820431516361,7.405873332207007,-46.71423255713259,36.408211599701104,45.65387818641606,2.549215431011359,-0.06274864660095947
0.00979428054182277,-0.023614682744749798,0.02690067472236236,-0.3561292085906983,-0.029535784679294245,0.07734525748199783,0.14010501371089804,-0.34894551586909445,0.3362831557098812,1.121287643277857,-0.35683649253980143,0.40452226870186186,7.369211222823944,-46.66173935933841,36.30414412277701,43.89310781207742,2.569589173477757,-0.06532982805809619
0.010079055393810593,-0.02432478511254514,0.027579791288430126,-0.353755231210093,-0.03025662461248031,0.07815197896334362,0.1423874259939119,-0.3550511838976709,0.33955828303388363,1.1869886903026565,-0.3604199665930325,0.4033607406728968,7.330506770469462,-46.602376074517906,36.197502366668324,42.09509846289879,2.5902148690792397,-0.06792089628926726
0.010368384748944316,-0.025047107644196823,0.028265306789058444,-0.35125554740011666,-0.030984528795708132,0.0789563739048115,0.14466467756686138,-0.3611612658258416,0.3427577503141585,1.2498419049881768,-0.36395209161391195,0.4021974707339348,7.28981952486452,-46.5361489088571,36.08837177569798,40.26322599892412,2.6110650205507566,-0.07052202586584652
0.010662256471283858,-0.025781655536928166,0.028957068063729212,-0.3486359477687306,-0.03171939362166097,0.07975843883882551,0.1469358611697712,-0.36727394636567073,0.345880637335384,1.3097998156930328,-0.36743241297642104,0.4010324670070052,7.24720911281313,-46.46306459391543,35.97683648410822,38.40086126183052,2.632112005920643,-0.07313324816783671
0.010960656608578867,-0.026528430347327138,0.02965492025333757,-0.3459023074164913,-0.032461114620716595,0.08055817030767823,0.14920006864750437,-0.3733874051994865,0.34892609480417924,1.366820176119646,-0.37086049952781247,0.3998657344263578,7.202735073687598,-46.38313042052717,35.86297927718456,36.51136500118404,2.6533281491755107,-0.0757544655109031
0.011263569392583566,-0.027287429982928286,0.03035870694274239,-0.34306057553237745,-0.03320958650737086,0.08135556485781377,0.1514563920023494,-0.3794998178005732,0.35189334470241046,1.4208659420569225,-0.37423594332713367,0.3986972750677698,7.156456697299999,-46.29635428447342,35.746881565982676,34.59808290154167,2.6746857916437197,-0.07838546409847745
0.011570977241519946,-0.028058648695434545,0.031068270303842835,-0.34011676505126154,-0.03396470322623549,0.0821506190347149,0.1537039244681906,-0.38560935625313036,0.3547816805502229,1.4719052405579698,-0.3775583594323137,0.39752708845056584,7.108432865203397,-46.202744743435716,35.62862337518878,32.66434071632843,2.696157363677108,-0.08102592590837192
0.011882860764726288,-0.028842077075574388,0.03178345123899395,-0.33707694238780767,-0.03472635799769954,0.08294332937834464,0.15594176160317127,-0.3917141900699203,0.357590467575557,1.5199113317269382,-0.38082738573202674,0.3963551718148698,7.058721896444709,-46.102311084634486,35.50828334353353,30.7134395141535,2.717715456211359,-0.08367543961266566
0.012199198769521538,-0.029637702049586604,0.03250408952456861,-0.33394721726121274,-0.035494443363336355,0.08373369241909737,0.15816900239762482,-0.3978124870061087,0.3603191427873301,1.5648625632974609,-0.3840426828184058,0.3951815203763586,7.007381398755743,-45.995063402456665,35.38593873607543,28.748651042964344,2.739332891787993,-0.08633351061985481
0.012519968270309392,-0.0304455068773224,0.033230023954468446,-0.33073373262482647,-0.03626885123112951,0.08452170467421849,0.1603847503939272,-0.4039024138678971,0.3629672149499165,1.6067423181931275,-0.3872039338965756,0.39400612756056486,6.954468126121416,-45.88101268528176,35.261665467573216,26.773213217164567,2.7609827946269796,-0.08899957031949068
0.012845144499939029,-0.03126547115195169,0.0339610924833825,-0.3274426547142905,-0.03704947292058332,0.08530736264465563,0.1625881148148186,-0.4099821373146462,0.3655342644570278,1.6455389552679678,-0.39031084472690314,0.3928289852185739,6.900037843604443,-45.76017091063146,35.13553813607986,24.790325732547846,2.7826386593478603,-0.09167298460162177
0.013174700923332333,-0.03209757080125829,0.03469713236958966,-0.32408016322742644,-0.03783619920777498,0.08609066281230719,0.16477821169665222,-0.41604982465329726,0.3680199431035835,1.6812457434320327,-0.393363143595829,0.3916500838257794,6.844145200235742,-45.632551147691174,35.007630065813515,22.80314581362212,2.8042744179492827,-0.09435306171610863
0.013508609253380243,-0.03294177809050631,0.03543798031709899,-0.32065244164867873,-0.03862892037039725,0.08687160163763759,0.1669541650239547,-0.42210364462401134,0.3704239737546618,1.7138607893738458,-0.39636058131113794,0.3904694126651965,6.786843610700016,-45.498167666184074,34.87801335829323,20.814784097618222,2.8258645046705455,-0.09703905953061726
0.013846839469103504,-0.03379806162685844,0.036183472616921245,-0.31716566773048327,-0.03942752623283236,0.08765017555763095,0.16911510786163064,-0.4281417681760654,0.3727461499111284,1.743386959097739,-0.39930293121755484,0.38928695999668433,6.7281851464580456,-45.35703605052427,34.74675895067253,18.82830065919494,2.847383918376747,-0.0997301922400437
0.014189359836065719,-0.034666386365324764,0.03693344528726535,-0.31362600414348346,-0.04023190621128959,0.08842638098405754,0.17126018348110741,-0.43416236923316487,0.37498633517205376,1.7698317934999015,-0.40218998922861215,0.388102713213296,6.668220436852792,-45.20917331812851,34.613936680159604,16.846701179568893,2.8688082821279695,-0.10242563657505044
0.014536136929019124,-0.03554671361621968,0.037687734212454436,-0.31003958930705877,-0.04104194935903122,0.08920021430202925,0.17338854647670204,-0.44016362544745635,0.3771444625945408,1.7932074182123368,-0.4050215738708183,0.3869166589858536,6.606998580646463,-45.05459804073375,34.47961535338186,14.872933263512763,2.890113899615092,-0.1051245375525347
0.01488713565675612,-0.03643900105410298,0.038446175280358624,-0.30641252841116107,-0.041857544411703765,0.08997167186882273,0.175499363868498,-0.44614371894164967,0.37922053395209276,1.813530447948859,-0.4077975263362718,0.38572878339673783,6.544567068332459,-44.89333046754539,34.343862819532255,12.909882907380013,2.911277808168479,-0.10782601380671963
0.015242319289132208,-0.03734320272818054,0.03920860451814492,-0.30275088463997757,-0.04267857983278377,0.09074075001295029,0.17759181618804482,-0.4521008370387827,0.3812146188931477,1.8308218855917493,-0.410517710540002,0.38453907206378296,6.480971715460422,-44.72539264903158,34.20674604612951,10.960371121028812,2.9322778280720154,-0.11052916253549966
0.015601649486218689,-0.03825926907413912,0.039974858226148706,-0.29906067060745406,-0.04350494385914072,0.09150744503346045,0.17966509854324023,-0.45803317297928725,0.38312685400189284,1.8451070162617424,-0.41318201317847614,0.3833475102550814,6.416256607106963,-44.55080856018098,34.06833119622825,9.027150706232565,2.9530926079417688,-0.11323306409341982
0.01596508632953633,-0.03918714692738939,0.04074477310967658,-0.29534784001421877,-0.04433652454671251,0.09227175319945129,0.18171842165882013,-0.46393892662513575,0.38495744176393765,1.8564152966176353,-0.4157903437858932,0.38215408299542114,6.350464053519474,-44.36960422205554,33.928683705933835,7.112903193879897,2.9737016659582043,-0.11593678625944229
0.016332588355314266,-0.040126779537691316,0.041518186408556326,-0.2916182795349488,-0.04517320981628267,0.0930336707497813,0.1837510128889686,-0.46981630515096573,0.38670664943987365,1.8647802396349769,-0.4183426347850807,0.3809587751650088,6.283634556858365,-44.18180782049499,33.787868361105225,5.2202359419838045,2.9940854267704182,-0.11863938820474598
0.016704112589711596,-0.04107810658513571,0.042294936024256664,-0.2878778009447167,-0.04601488749934272,0.09379319389296344,0.18576211719866478,-0.4756635237221947,0.3883748078501689,1.870239295116051,-0.42083884153002216,0.3797615715910674,6.2158067888643584,-43.98744982086677,33.645949372169675,3.3516793962379454,3.0142252539220866,-0.12133992418356265
0.017079614585932608,-0.0420410641974562,0.043074860644407145,-0.2841321334923454,-0.04686144538401725,0.09455031880722911,0.18775099811050638,-0.4814788061602453,0.3899623100752418,1.8728337261856676,-0.42327894233726754,0.3785624571328377,6.147017579184512,-43.7865630778015,33.502990446023745,1.5096845145781246,3.0341034776805254,-0.12403744696738353
0.01745904846316039,-0.0430155849686464,0.043857799864556984,-0.28038691652828707,-0.047712771261024675,0.09530504164075004,0.18971693861389086,-0.48726038559510226,0.3914696100749206,1.8726084820291655,-0.42566293850371256,0.37736141676046364,6.0773019140035505,-43.57918293891192,33.35905485405585,-0.30337964306940746,3.053703418182539,-0.12673101104120554
0.017842366947227573,-0.04400159797885744,0.04464359430702064,-0.2766476923940261,-0.048568752969641624,0.09605735851200643,0.19165924203359108,-0.4930065051055197,0.3928972212318278,1.8696120671304903,-0.42799085430847394,0.3761584356281919,6.006692944547587,-43.36534734155726,33.2142054953938,-2.085228158946646,3.07300940384249,-0.12941967557836967
0.01822952141293744,-0.044999028815552004,0.04543208573666768,-0.2729198995794876,-0.04942927844363529,0.09680726551029098,0.19357723285493417,-0.4987154183472807,0.3942457148235211,1.8638964072692468,-0.43026273699683365,0.37495349914227627,5.935222004956043,-43.14509690179129,33.068504954558605,-3.833662334893385,3.092006785000976,-0.13210250720904257
0.018620461927943394,-0.04600779959589199,0.04622311717352465,-0.2692088661544151,-0.05029423575712424,0.09755475869633885,0.19547025750297628,-0.5043853901699933,0.39551571842848104,1.855516712536259,-0.4324786567444738,0.3737465930239389,5.862918638955016,-42.91847499471136,32.92201555278878,-5.546571602679599,3.110681942823766,-0.13477858259587702
0.019015137298089922,-0.04702782899033794,0.04701653300206715,-0.2655198034791603,-0.05116351317032518,0.09829983410307426,0.1973376850732635,-0.5100146972229722,0.3967079142712536,1.844531337627386,-0.43463870660047155,0.37253770336770653,5.7898106347122855,-42.68552782551345,32.7747993923884,-7.221935267136036,3.1290222934919676,-0.13744699082901687
0.01941349511411387,-0.04805903224743957,0.04781217907709162,-0.26185780019981003,-0.05203699917514072,0.09904248773646508,0.1991789080119749,-0.5156016285508179,0.39782303751223347,1.8310016396751572,-0.436743002407771,0.3713268166954095,5.71592406721088,-42.44630449065117,32.626918393546106,-8.857824082237173,3.147016287755055,-0.14010683565152743
0.01981548179960079,-0.04910132121979827,0.048609902826067045,-0.25822781653205557,-0.0529145825405409,0.09978271557647729,0.2009933427434603,-0.5211444861793518,0.3988618744877105,1.8149918338772204,-0.43879168270008906,0.3701139200061053,5.641283347444685,-42.20085702859127,32.47843432316863,-10.452401660545839,3.1646534059477176,-0.1427572375251263
0.020221042660087604,-0.05015460439118349,0.049409553347878846,-0.2546346788376963,-0.0537961523576898,0.10052051357812161,0.20278043024340686,-0.5266415856926061,0.3998252609058988,1.796568847179625,-0.4407849085744504,0.36889900082216215,5.5659112777161575,-41.94924045975823,32.32940881537141,-12.003925716677392,3.1819241485991494,-0.14539733554530948
0.0206301219331998,-0.05121878690478668,0.05021098150788829,-0.25108307449715306,-0.054681598084767344,0.10125587767258505,0.2045396365560973,-0.5320912568015945,0.400714080004721,1.7758021702716211,-0.4427228635387719,0.3676820472317179,5.48982911230235,-41.69151281536031,32.1799033833687,-13.510749145686598,3.1988200227908337,-0.1480262892139539
0.02104266283970871,-0.0522937705925979,0.051014040029242556,-0.2475775470808592,-0.05557080959143562,0.10198880376844047,0.2062704532544537,-0.5374918439056093,0.40152926067713474,1.75276370814694,-0.44460575333413743,0.36646304792771,5.413056622751578,-41.427735154890456,32.02997942260512,-14.971320937518026,3.2153335244430696,-0.15064328007687633
0.0214586076353923,-0.05337945400589149,0.051818583580382084,-0.2441224918218903,-0.05646367720289884,0.10271928775292778,0.20797239784179444,-0.542841706646795,0.40227177556976335,1.7275276294844462,-0.44643380573160985,0.3652419922436544,5.335612167077473,-41.15797157219576,31.87969820506872,-16.384186928893826,3.2314581167343714,-0.15324751323302432
0.021877897663581232,-0.054475732446808985,0.05262446885870314,-0.24072215139169306,-0.057360091743506085,0.10344732549330045,0.20964501409446595,-0.5481392204587479,0.4029426391605264,1.7001702150986135,-0.448207270303622,0.36401887018633544,5.257512762130784,-40.88228919010862,31.729120864822036,-17.74799039423951,3.2471882048788068,-0.1558382187214673
0.02230047340827072,-0.05558249800102874,0.05343155467034487,-0.23738061198027804,-0.05825994457984643,0.10417291283823156,0.21128787234474405,-0.5533827771098776,0.4035429058208658,1.6707697057075133,-0.4499264181701712,0.36279367246555694,5.178774158450382,-40.6007581437284,31.578308374880347,-19.061472477468044,3.262519107505546,-0.1584146527918097
0.02272627454767798,-0.05669963957151323,0.05423970200608092,-0.23410179968175227,-0.059163127663286845,0.10489604561927374,0.21290056970362978,-0.558570785242243,0.40407366786802495,1.6394061492628833,-0.45159154172020854,0.36156639052109,5.099410916922907,-40.31345155253517,31.42732151565443,-20.323472466656845,3.2774470249021803,-0.16097609906315796
0.023155240008124765,-0.05782704291332631,0.05504877411330626,-0.23088947718558542,-0.06006953357190438,0.10561671965236763,0.21448273022339173,-0.5637016709065432,0.40453605361266953,1.606161248083424,-0.45320295430876784,0.3603370165469439,5.019436486615211,-40.02044548160656,31.276220835259746,-21.532927913857833,3.291969004397945,-0.16352186957636225
0.02358730801812462,-0.05896459066951412,0.055858636564120136,-0.22774724077352798,-0.060979055551765415,0.10633493073939378,0.21603400499992792,-0.5687738780939046,0.4049312254069369,1.571118206028716,-0.4547609899305165,0.35910554351307605,4.9388632831832115,-39.72181889229135,31.12506660207162,-22.68887460248187,3.3060829031756107,-0.1660513057438945
0.024022416162555092,-0.060112162408044234,0.05666915731951568,-0.22467851762163377,-0.06189158755750648,0.10705067466976308,0.2175540722152358,-0.5737858692650553,0.4052603776977725,1.5343615759471136,-0.4562660028705339,0.3578719651846495,4.857702767305238,-39.41765358277192,30.973918749978143,-23.790446364889814,3.319787348810878,-0.16856377920146468
0.024460501436796067,-0.06126963465979908,0.057480206789695995,-0.22168656340638052,-0.06280702429217294,0.10776394722204095,0.21904263712048688,-0.5787361258774227,0.405524735090158,1.4959771076266233,-0.4577183673332282,0.35663627613893656,4.775965522635317,-39.10803411901921,30.82283681684783,-24.83687475300877,3.3330816978460387,-0.17105869256505146
0.02490150030071687,-0.06243688095762033,0.058291657890545114,-0.2187744602134342,-0.06372526124627373,0.10847474416560088,0.22049943196040234,-0.5836231489106268,0.4057255504245579,1.456051596473169,-0.45911847705039577,0.35539847177996403,4.693661332822266,-38.79304775670863,30.67187987678721,-25.82748856496865,3.345965992709683,-0.17353548009691874
0.025345348732396505,-0.06361377187640188,0.059103386096290345,-0.2159451147471627,-0.06464619473601274,0.10918306126230284,0.22192421583981645,-0.5884454593907731,0.40586410287261704,1.4146727331357554,-0.46046674486950306,0.3541585483509861,4.610799257192194,-38.47278435472357,30.52110646681448,-26.76171323092457,3.358440917297692,-0.1759936082839257
0.0257919822814635,-0.06480017507422964,0.0599152694884,-0.21320125683857688,-0.06556972194065941,0.10988889426819258,0.22331677453349674,-0.5932015989138756,0.405941696054829,1.3719289542929032,-0.46176360232333097,0.3529165029448685,4.527387704744478,-38.14733628092343,30.370574508618546,-27.63907006139245,3.370507751531216,-0.17843257633119916
0.02624133612194442,-0.06599595533456697,0.06072718880076714,-0.2105454382489582,-0.06649574093902375,0.11059223893521751,0.22467692024046004,-0.5978901301686625,0.4059596561835689,1.3279092948093494,-0.46300949918217155,0.35167233351246163,4.4434345061637845,-37.816798310896104,30.22034122610823,-28.459175361579018,3.3821683252057566,-0.18085191657417032
0.02669334510451279,-0.06720097460948483,0.06153902746123625,-0.20798003176602542,-0.06742415074500334,0.11129309101295558,0.22600449128418504,-0.6025096374589356,0.4059193302345514,1.2827032414663901,-0.464204902989798,0.35042603886903706,4.358946983602067,-37.48126752045021,30.070463059484315,-29.221739415333968,3.3934249714416884,-0.18325119481175692
0.027147943808033332,-0.06841509206393596,0.062350671629535115,-0.2055072305890986,-0.06835485134217224,0.11199144625035329,0.2272993517602713,-0.6070587272255684,0.40582208414943244,1.2364005884634142,-0.4653502985844505,0.34917761869885766,4.2739320180343405,-37.140843172629964,29.92099557658725,-29.926565342489507,3.404280480040767,-0.1856300105633772
0.0276050665902998,-0.06963816412107227,0.06316201023167897,-0.20312904799933432,-0.06928774371738443,0.11268730039746919,0.22856139113323382,-0.611536028568148,0.4056693010719279,1.189091294882133,-0.4664461876060893,0.34792707355794994,4.188396114039497,-36.79562660005568,29.771993382286016,-30.57354783348254,3.4147380510449725,-0.18798799725243318
0.028064647637868298,-0.07087004450860461,0.06397293499091793,-0.20084731731073674,-0.07022272989336675,0.11338064920721948,0.22979052378424997,-0.6159401937661724,0.4054623796194789,1.1408653442987913,-0.4674930879911625,0.34667440487514306,4.102345461902086,-36.44572108340503,29.62351002667846,-31.162671765276617,3.424801248784556,-0.19032482231866846
0.028526621014891885,-0.07211058430620387,0.06478334045530222,-0.1986636920972903,-0.071159712960279,0.11407148843712235,0.2309866885117928,-0.620269898799634,0.40520273219215,1.09181260672322,-0.4684915334561236,0.3454196149514381,4.015785996972115,-36.09123172685598,29.475597912872473,-31.694010702713395,3.4344739566900877,-0.19264018726194473
0.028990920710866265,-0.07335963199394134,0.06559312402194244,-0.19657964669121625,-0.07209859710622082,0.11475981385103788,0.23214984798719024,-0.624523843868733,0.40489178332011,1.0420227030370275,-0.46944207297091145,0.34416270695776824,3.928723456257631,-35.73226533130978,29.3283082051079,-32.16772528952927,3.4437603331301494,-0.19493382761966652
0.029457480687200756,-0.0746170335017661,0.06640218595804387,-0.19459647694702328,-0.07303928764666798,0.1154456212209003,0.2332799881672452,-0.6287007539123798,0.40453096805071775,0.991584872096483,-0.47034527022357436,0.34290368493120993,3.8411634322580586,-35.3689302662045,29.181690737965045,-32.58406153336884,3.4526647685218936,-0.19720551288027965
0.02992623492253303,-0.07588263226001624,0.0672104294187957,-0.19271530126570574,-0.07398169105282235,0.1161289063284397,0.2343771176661364,-0.6327993791250657,0.4041217303759154,0.9405878406587782,-0.47120170307718184,0.34164255376970204,3.7531114240755796,-35.001336340714154,29.03579392738377,-32.943348989215906,3.4611918439445883,-0.19945504633501845
0.030397117456710816,-0.07715626925095945,0.06801776046219636,-0.19093706187313905,-0.07492571497886259,0.11680966496689035,0.2354412670888942,-0.636818495471604,0.4036655217003302,0.8891196962833494,-0.47201196302012394,0.34037931922533116,3.6645728858666535,-34.62959467510733,28.89066468419194,-33.24599884574261,3.4693462914699085,-0.201682264870168
0.03087006243336844,-0.07843778306135778,0.06882408806089675,-0.1892625263464334,-0.07587126828808428,0.11748789294268283,0.2364724883288109,-0.6407569051991665,0.40316379935019386,0.8372677633528255,-0.4727766546108482,0.3391139878962379,3.575553272716052,-34.253817573013336,28.74634833080918,-33.492501919149205,3.4771329564034215,-0.20388703870203095
0.031345004141030836,-0.07972700993604973,0.06962932411114259,-0.1876922893817315,-0.07681826107792035,0.11816358607711723,0.23747085383119962,-0.6446134373459748,0.402618025122919,0.7851184823509474,-0.4734963949180316,0.33784656721719947,3.4860580840318525,-33.87411839531146,28.60288852175725,-33.683426559130915,3.484556761612845,-0.20606927105671494
0.03182187705268276,-0.08102378383254161,0.07043338343889642,-0.18622677479667651,-0.0777666047038346,0.11883674020801512,0.238436455825963,-0.6483869482459379,0.4020296638769183,0.7327572925274946,-0.47417181295712685,0.33657706544894306,3.3960929045715824,-33.49061143632317,28.460327168566625,-33.81941647166361,3.491622674098485,-0.20822889779700063
0.0323006158637457,-0.08232793647659856,0.07123618380321846,-0.18486623776053077,-0.07871621180208294,0.1195073511913476,0.23936940553147068,-0.6520763220284713,0.4014001821610196,0.6802685180728693,-0.474803549124166,0.33530549166624324,3.305663443217399,-33.10341180294577,28.31870436962663,-33.9011884633478,3.4983356739404066,-0.21036588699829267
0.032781155528410245,-0.08363929741882391,0.0720376458969837,-0.1836107672446957,-0.07966699631133822,0.12017541490283731,0.240269832332273,-0.6556804711126777,0.4007310468826209,0.6277352579175378,-0.475392254627642,0.3340318557448565,3.2147755696220415,-32.712635297323004,28.178058345478703,-33.92953011208899,3.504700725736396,-0.21248023847582584
0.03326343129427665,-0.08495769409221396,0.07283769334501079,-0.18246028868616762,-0.08061887349317669,0.120840927239532,0.24113788293320226,-0.6591983366950247,0.4000237240135404,0.5752392792640276,-0.4759385909192299,0.33275616834734595,3.123435348847738,-32.318398303599274,28.038425380003137,-33.90529736892533,3.510722752622831,-0.21457198326523266
0.0337473787352615,-0.08628295187067318,0.0736362526996755,-0.18141456685626436,-0.0815717599514248,0.1215038841213477,0.24197372049242505,-0.6626288892296139,0.3992796773323535,0.5228609149516351,-0.47644322912404957,0.331478440907848,3.0316490741173237,-31.920817679255144,27.899839767898474,-33.829412095835195,3.5164066129497655,-0.21664118305857863
0.03423293378273354,-0.08761489412847338,0.07443325343407924,-0.1804732089267715,-0.08252557365036702,0.12216428149257937,0.24277752373601866,-0.6659711289001031,0.39850036720186854,0.47067896474643617,-0.47690684947111245,0.3301986856158329,2.9394232977914525,-31.520010651469093,27.76233376879955,-33.70285954437481,3.5217570796604036,-0.2186879295978521
0.03472003275484683,-0.08895334230063802,0.0752286279328398,-0.17963566772548828,-0.0834802339318161,0.12282211532337718,0.24354948605664456,-0.6692240860823179,0.3976872493802785,0.4187706006416036,-0.47733014072453916,0.32891691539891077,2.8467648606776383,-31.116094718896193,27.6259375683257,-33.52668578000271,3.526778822403431,-0.2207123440281472
0.0352086123840446,-0.09029811594423116,0.07602231148056866,-0.17890124517299738,-0.08443566153104826,0.12347738161118665,0.24428981459888693,-0.6723868217965707,0.39684177386443414,0.36721127624545447,-0.4777137996160798,0.3276331439047348,2.753680919767059,-30.70918755919945,27.490679246296242,-33.30199505694928,3.5314763923870824,-0.2227145762124203
0.035698609842712226,-0.09164903280052855,0.0768142422480959,-0.17826909589234324,-0.0853917785916071,0.12413007638215076,0.24499872933381348,-0.6754584281486932,0.39596538376361906,0.3160746403270723,-0.47805853027941814,0.3263473854820517,2.660178974483541,-30.299406942614063,27.35658475229523,-33.029947148482435,3.5358542099629826,-0.22469480401003963
0.036189962766962826,-0.09300590885804612,0.07760436127650022,-0.17773823098317965,-0.08634850867898049,0.12478019569247266,0.24567646212529895,-0.678438028758785,0.3950595142021648,0.2654324545817934,-0.47836504368669364,0.325059655160951,2.566266891516653,-29.88687065176677,27.223677888712388,-32.711754637406166,3.5399165549087,-0.2266532325210924
0.03668260927854409,-0.09436855841639949,0.07839261245899867,-0.177307521951837,-0.08730577679315575,0.12542773562973739,0.24632325579062975,-0.6813247791766851,0.39412559124922597,0.2153545156713238,-0.4786340570876311,0.32376996863236274,2.471952928297522,-29.471696407919033,27.091980301333198,-32.34868017160752,3.5436675593594424,-0.22859009329850702
0.03717648800485985,-0.09573679415096585,0.07917894252074675,-0.17697570478866545,-0.08826350938005902,0.1260726923141911,0.24693936315788123,-0.6841178672831819,0.39316503087404053,0.16590858158577165,-0.47886629345162984,0.3224783422268548,2.377245755162483,-29.054001803744093,26.96151147749798,-31.942033689439437,3.547111203321287,-0.23050564353003172
0.037671538097104905,-0.09711042717831785,0.0799633009965968,-0.17674138418393054,-0.08922163434188526,0.12671506189997667,0.24752504612252757,-0.6868165136759974,0.39217923792502607,0.11716030236745248,-0.47906248091312753,0.32118479289277846,2.2821544762362698,-28.63390424269572,26.83228875179715,-31.493169619691447,3.5502513126818247,-0.23240016519213982
0.03816769924651632,-0.09848926712239706,0.08074564020685904,-0.17660303787347262,-0.09018008104632631,0.1273548405763243,0.24808057470570685,-0.689419972039602,0.3911696051311128,0.0691731552289633,-0.4792233522205273,0.3198893381738128,2.1866886490533224,-28.211520884971602,26.704327319221182,-31.003484060858646,3.553091559618551,-0.23427396417776702
0.03866491169874937,-0.09987312218139296,0.0815259152311066,-0.17655902110529115,-0.09113878033470421,0.1279920245686962,0.24860622611652405,-0.6919275294979513,0.39013751212377995,0.022008384090731553,-0.4793496441889482,0.31859199618595635,2.0908583029238232,-27.78696860002328,26.577640255633764,-30.47441194437112,3.5556354652904307,-0.2361273694000335
0.039163116266390824,-0.1012617991952915,0.0823040838800633,-0.17660757121817905,-0.0920976645290183,0.12862661013988425,0.2491022838207281,-0.6943385069492689,0.3890843244783494,-0.02427505644395765,-0.47944209715704195,0.31729278559401514,1.9946739560394993,-27.360363925514434,26.452238545392092,-29.907424186391307,3.557886404685404,-0.23796073187382616
0.039662254339626925,-0.10265510371405559,0.0830801066656097,-0.17674681232351017,-0.0930566674379145,0.1292585935910595,0.24956903661805,-0.6966522593820448,0.388011392773194,-0.06962055266556237,-0.479501454448102,0.3159917255876355,1.8981466313047246,-26.93182303258236,26.328131115894333,-29.30402483272635,3.5598476134843136,-0.23977442377726224
0.0401622678950878,-0.10405284006639852,0.08385394676894097,-0.1769747600812754,-0.09401572436158587,0.12988797126277338,0.25000677773043495,-0.6988681761714658,0.3869200516656359,-0.11397387888262522,-0.47952846183568193,0.3146888358569297,1.8012878708697406,-26.50146169721209,26.205324878793306,-28.6657482013358,3.561522196791101,-0.24156883749502478
0.040663099502894484,-0.10545481142910962,0.08462557000690785,-0.17728932656146915,-0.09497477209561374,0.13051473953590886,0.25041580390334306,-0.7009856813555468,0.3858116189834439,-0.15728324009686073,-0.47952386701393346,0.3133841365677415,1.7041097493362176,-26.06939527749133,26.083824777578677,-27.99415602684266,3.5629131395705294,-0.24334438464544755
0.041164692331938944,-0.1068608198968902,0.08539494479656981,-0.1776883251819467,-0.09593374893375949,0.13113889483258206,0.2507964145222315,-0.7030042338902899,0.3846873948309835,-0.19949931023876633,-0.47948841907287415,0.3120776483365993,1.6066248856002017,-25.63573869647498,25.96363384119418,-27.290834611378205,3.5640233186259405,-0.24510149509338458
0.04166699015343148,-0.10827066655265671,0.08616204211798827,-0.17816947571390704,-0.09689259466971709,0.13176043361699286,0.25114891074626455,-0.7049233278832593,0.3835486607092281,-0.24057526598017598,-0.47942286797879713,0.31076939220540234,1.5088464532944714,-25.20060643035261,25.844753243326483,-26.557391986008003,3.5648555159445623,-0.24684061595062362
0.042169937342753934,-0.10968415153826676,0.08692683547528628,-0.1787304093462004,-0.09785125059783717,0.13237935239622464,0.2514735946612278,-0.7067424928050252,0.38239667864900434,-0.2804668161466808,-0.479327964060043,0.30945938961588704,1.4107881897908015,-24.764112501580087,25.72718236697311,-25.795455086897892,3.5654124332315247,-0.24856221056587235
0.04267347887966103,-0.11110107412562276,0.08768930085600031,-0.1793686737997188,-0.0988096595128339,0.13299564772099248,0.25177076845354945,-0.7084612936779965,0.3812326903570144,-0.31913222675919894,-0.47920445749836404,0.30814766238391744,1.3124644037231348,-24.326370476608567,25.610918873873874,-25.006666950286586,3.5656967074516954,-0.2502667575060881
0.04317756034687554,-0.11252123278810722,0.08844941668874902,-0.18008173848319917,-0.09976776570848614,0.13360931618633978,0.2520407336072534,-0.7100793312422331,0.3800579163743542,-0.35653234174018383,-0.4790530978261242,0.3068342326736453,1.2138899809950146,-23.887493467817826,25.49595877836866,-24.192683930233038,3.5657109271956102,-0.25195474953103236
0.04368212792712672,-0.11394442527230302,0.08920716379924387,-0.1808669996818512,-0.10072551497534533,0.13422035443228295,0.2522837901255879,-0.7115962420979014,0.37887355524742433,-0.3926305993260046,-0.4788746334295967,0.30551912297158285,1.1150803892383236,-23.447594139242028,25.382296525227495,-23.355172943005314,3.565457649685179,-0.2536266925628111
0.044187128398684695,-0.11537044866995123,0.08996252536466649,-0.18172178577031703,-0.10168285459746261,0.1348287591444042,0.252500235778989,-0.7130116988241079,0.37768078271131034,-0.4273930442329142,-0.478669811058637,0.3042023560606321,1.0160516806961195,-23.006784715656675,25.26992507098568,-22.49580874187134,3.5649394182361878,-0.25528310465221554
0.04469250912944659,-0.11679909949009908,0.09071548686643827,-0.18264336244157647,-0.10263973334814867,0.13543452705439243,0.25269036538094874,-0.7143254100739215,0.37648075088588834,-0.4607883356297266,-0.478439375343033,0.3028839549941122,0.9168204935089388,-22.56517699458414,25.158835968306896,-21.616271225941645,3.564158779995994,-0.2569245149436039
0.045198218069633124,-0.11823017373139001,0.09146603604140845,-0.1836289379435282,-0.10359610148478038,0.13603765494053208,0.25285447009326806,-0.7155371206454697,0.3752745874850884,-0.4927877509758531,-0.4781840683158539,0.3015639430698267,0.8174040513924197,-22.122882360764386,25.049019452890782,-20.718242786600428,3.5631183037786576,-0.25855146264002915
0.04570420374315728,-0.11966346695444814,0.09221416283148828,-0.18467566831510557,-0.10455191074266866,0.1366381396281405,0.2529928367620783,-0.7166466115290666,0.37406339503992075,-0.5233651857886926,-0.4779046289441435,0.30024234380421133,0.717820161702775,-21.68001180263299,24.940464532439325,-19.803405694944406,3.5618205978239414,-0.2601644959702717
0.04621041523772912,-0.12109877435430895,0.09295985933176036,-0.18578066261392462,-0.10550711432800332,0.1372359779899537,0.2531057472859194,-0.717653699930405,0.3728482501360374,-0.5524971494095274,-0.4776017926673273,0.2989191809066017,0.6180872118971833,-21.236675930346287,24.83315907719667,-18.873439533527478,3.56026832731264,-0.2617641711594551
0.04671680219376324,-0.12253589083284878,0.09370311973709389,-0.18694098812760868,-0.10646166690989077,0.13783116694646103,0.25319347801706105,-0.7185582392699171,0.3716302026667614,-0.5801627568420349,-0.4772762909437266,0.2975944782536596,0.5182241644062153,-20.792984994895495,24.727089911581665,-17.930018675586865,3.558464231476899,-0.26335105140482806
0.04722331479215755,-0.12397461107116574,0.09444394028729922,-0.18815367556109328,-0.10741552461150196,0.138423703466189,0.25325629919715226,-0.7193601191584786,0.3704102751026679,-0.6063437167422936,-0.47692885080559505,0.2962682598639958,0.41825054994676036,-20.34904890785793,24.622242906440107,-16.97480981479895,3.5564111401528766,-0.26492570585823594
0.04772990374101391,-0.12541472960186514,0.0951823192108571,-0.1894157241923807,-0.1083686450003482,0.13901358456593507,0.25329447442817893,-0.7200592653496974,0.3691894617789416,-0.631024315643719,-0.4765601944231163,0.29494054987302587,0.3181864593148978,-19.904977261341067,24.518603071452926,-16.00946954848531,3.554111989630412,-0.26648870861689034
0.048236520261373116,-0.12685604088120334,0.09591825666726084,-0.19072410698939016,-0.10932098707770384,0.13960080731095126,0.2533082601796036,-0.7206556396690968,0.36796872820186743,-0.6541913985047233,-0.47617103867782207,0.29361137250809455,0.2180525337091574,-19.460879347689136,24.416154647251407,-15.035642017057697,3.5515698376651175,-0.26804063772382947
0.048743116072038024,-0.12829833936104446,0.0966517546880127,-0.19207577568073225,-0.11027251126719566,0.14018536881507906,0.2532979053324533,-0.7211492399205633,0.36674901037592766,-0.675834345671041,-0.47576209474590847,0.29228075206390336,0.1178699536455482,-19.016864178536,24.314881196806276,-14.05495660235787,3.5487878775276984,-0.26958207417953817
0.04924964337356005,-0.12974141956058544,0.09738281711631887,-0.19346766577342944,-0.11122317940257954,0.1407672662408356,0.2532636507610118,-0.7215400997704886,0.36553121415308465,-0.6959450463485936,-0.4753340676919466,0.2909487128782744,0.017660426535805684,-18.57304050280711,24.214765695675045,-13.069025687413406,3.5457694509761533,-0.2711136009660717
0.04975605483146538,-0.1311850761378056,0.09811144954553071,-0.19489670151080243,-0.11217295471472653,0.14134649679945216,0.25320572895266513,-0.7218282886100917,0.3643162146059201,-0.7145178686864941,-0.4748876560734964,0.28961527930828324,-0.0825538269898825,-18.129516823293613,24.11579062071469,-12.079442479994103,3.5425180600484056,-0.2726358020851548
0.050262303558798044,-0.13262910396059852,0.09883765925638346,-0.19635980076394902,-0.11312180181784083,0.14192305775086575,0.25312436366633506,-0.7220139113964584,0.3631048554263765,-0.7315496265732914,-0.47442355155714583,0.2882804757067912,-0.18275008792586644,-17.686401411445946,24.017938036888342,-11.08777890221576,3.539037377584026,-0.2741492616113057
0.0507683430980577,-0.1340732981775443,0.09956145515308729,-0.19785387985045472,-0.11406968669493384,0.14249694640366456,0.2530197696298301,-0.722097108472882,0.36189794835190886,-0.7470395432528454,-0.47394243854650425,0.28694432639940737,-0.28290515480211315,-17.243802320058244,23.92118968181953,-10.095583548299333,3.53533125639615,-0.27565456276148204
0.05127412740261036,-0.13551745428828255,0.10028284769832908,-0.1993758582741933,-0.11501657668257921,0.14306816011498838,0.25289215227632933,-0.7220780553691325,0.3606962726208997,-0.7609892118692926,-0.4734449938226865,0.2856068556619086,-0.3829953605591701,-16.80182739354373,23.825527047774923,-9.104379712454012,3.531403737027201,-0.27715228698224187
0.051779610817650576,-0.13696136821344718,0.10100184884724753,-0.2009226633803001,-0.11596244045497485,0.14363669629038467,0.25274170752010894,-0.721956962582321,0.3595005744592193,-0.7734025530534071,-0.4729318861978227,0.28426808769814516,-0.482996590277605,-16.360584275528964,23.730931460782784,-8.115663488711736,3.527259054034121,-0.2786430130556891
0.0522847480607936,-0.1384048363641253,0.10171847198044719,-0.20249123491963067,-0.1169072480073391,0.1442025523836216,0.2525686215715111,-0.7217340753390573,0.3583115665998269,-0.784285769665292,-0.47240377618212936,0.28292804661845783,-0.5828842996483143,-15.920180413525816,23.637384156623796,-7.130901944400873,3.522901640761896,-0.28012731622518405
0.0527894942023757,-0.13984765571080454,0.1024327318361218,-0.20407852951725214,-0.11785097063866924,0.14476572589645886,0.25237307079105087,-0.7214096733396295,0.35712992783730513,-0.7936472988107414,-0.4718613156650696,0.28158675641863123,-0.6826335340678718,-15.480723060470691,23.544866353460183,-6.15153136880503,3.5183361325762483,-0.28160576734193127
0.0532938046455406,-0.14128962385177446,0.10314464444136019,-0.20568152503975373,-0.11879358093389149,0.14532621437837767,0.2521552215824516,-0.7209840704849574,0.3559563026192011,-0.801497761250801,-0.47130514761112147,0.2802442409594073,-0.7822189482415821,-15.042319272952803,23.453359320898837,-5.178955598412432,3.5135673685389825,-0.28307893203336665
0.0537976351061892,-0.14273053908094865,0.10385422704271222,-0.20729722485640575,-0.11973505274543281,0.14588401542627083,0.25191523032429836,-0.7204576145870907,0.35479130067601206,-0.8078499083260173,-0.4707359057706589,0.27890052394658044,-0.8816148261775104,-14.605075905985725,23.362844445314906,-4.2145444200205855,3.508600391521771,-0.28454736989431134
0.054300941592868995,-0.14417020045507672,0.10456149803609542,-0.20892266198944298,-0.12067536117424567,0.14643912668409423,0.25165324333989947,-0.7198306870640374,0.35363549669160377,-0.8127185665186151,-0.47015421440643196,0.27755562891169566,-0.9807951014563394,-14.169099604208787,23.273303291292027,-3.259632052820795,3.5034404467659064,-0.2860116337017133
0.054803680386678696,-0.14560840786031615,0.10526647689612699,-0.21055490314899772,-0.1216144825503179,0.14699154584248098,0.2513693969048522,-0.719103702619717,0.35248943001578315,-0.8161205797773657,-0.4695606880361122,0.2762095791933692,-1.079733377665165,-13.734496789437394,23.184717659065445,-2.315515710447357,3.498092978907102,-0.2874722686538365
0.05530580802126213,-0.14704496207813583,0.10596918410496832,-0.21219105264846017,-0.12255239441270058,0.14754127063831948,0.2510638172917147,-0.7182771089098372,0.35135360442066815,-0.8180747497312247,-0.46895593119134166,0.2748623979192495,-1.178402948887675,-13.301373644513781,23.09706963788463,-1.3834542438376922,3.492563627495576,-0.2889298116346149
0.055807281262964324,-0.14847966485052483,0.10666964108077312,-0.21382825619629797,-0.12348907548908797,0.14808829885429675,0.2507366208510993,-0.717351386194494,0.3502284879024024,-0.8186017739189048,-0.4683405381936975,0.27351410798863585,-1.276776820149053,-12.86983609344072,23.01034165523989,-0.4646668656120377,3.486858221052408,-0.2903847905039332
0.056308057091221164,-0.1499123189444814,0.10736787010583243,-0.21546370456062286,-0.12442450567498387,0.1486326283184083,0.25038791412841827,-0.7163270469782897,0.34911451252965636,-0.8177241821624383,-0.4677150929479485,0.27216473205576974,-1.3748277277206697,-12.439989777811526,22.92451652192687,0.43966804345509974,3.48098276971289,-0.29183772341438474
0.05680809267925203,-0.15134272821575892,0.1080638942545129,-0.21709463710304977,-0.12535866601248977,0.14917425690343591,0.2500177940154318,-0.7152046356387554,0.34801207434023756,-0.8154662712134494,-0.46708016875294645,0.2708142925138136,-1.4725281591976116,-12.011940029579716,22.83957747294866,1.3284140454345972,3.4749434565172885,-0.293289118155224
0.05730734537512338,-0.15277069767184662,0.10875773732108691,-0.2187183451786524,-0.12629153866875067,0.14971318252639498,0.2496263479356754,-0.7139847280438504,0.3469215332870022,-0.8118540378013203,-0.466436328130454,0.26946281147952933,-1.5698503732709224,-11.585791840239096,22.755508204282258,2.2004776734095284,3.468746627418052,-0.2947394715239428
0.05780577268324892,-0.15419603353416522,0.10944942374755515,-0.2203321753990778,-0.12722310691409502,0.15024940314795232,0.24921365406277066,-0.7126679311592978,0.34584321323411965,-0.8069151102126897,-0.46578412267216995,0.26811031077866826,-1.6667664191259937,-11.16164982651301,22.67229290556002,3.054809376636918,3.462398780080595,-0.296189268726046
0.05830333224639004,-0.1556185432994582,0.11013897855156433,-0.22193353275614136,-0.12815335509990536,0.1507829167718165,0.24877978157055972,-0.7112548826464903,0.34477740200459245,-0.8006786785317795,-0.465124092905168,0.26675681193208306,-1.7632481554086645,-10.739618192675824,22.589916288740053,3.8904043826617674,3.4559065515621175,-0.2976389828033692
0.058799981828217926,-0.15703803580036158,0.11082642725452388,-0.22351988360348315,-0.12908226863625719,0.15131372144410163,0.24832479091394286,-0.7097462504516814,0.34372435147977587,-0.7931754236708964,-0.46445676817591763,0.26540233614256975,-1.8592672687114133,-10.319800689654025,22.508363612861462,4.706303476468055,3.449276704959389,-0.299089074091392
0.059295679296496415,-0.15845432126513587,0.11151179581002683,-0.22508875849412338,-0.1300098339693632,0.15184181525266652,0.2478487341392428,-0.7081427323871493,0.3426842777514773,-0.784437445320117,-0.46378266655300787,0.2640469042824484,-1.9547952915428284,-9.90230057107544,22.427620704999132,5.501593696877069,3.4425161151221504,-0.3005399897058345
0.05979038260694215,-0.15986721137654586,0.11219511053268093,-0.22663775487201265,-0.1309360385588605,0.15236719632643028,0.2473516552228699,-0.7064450557049907,0.34165736132704455,-0.7744981889446331,-0.46310229474864245,0.26269053688188776,-2.049803619754647,-9.48722054645522,22.347673977552443,6.275408950525646,3.435631753534002,-0.30199216305881793
0.06028404978781619,-0.1612765193298742,0.11287639802745629,-0.22816453961592767,-0.13186087085497833,0.15288986283466624,0.2468335904370169,-0.7046539766641705,0.340643747387678,-0.7633923719575115,-0.4624161480589248,0.2613332541179795,-2.1442635294118944,-9.074662731725073,22.268510442016854,7.02693054387743,3.428630672466051,-0.303446013404813
0.06077663892529833,-0.16268205989005705,0.11355568511965633,-0.22966685143431712,-0.13278432027562412,0.15340981298627537,0.24629456874107244,-0.7027702800914217,0.33964354610002184,-0.7511559091947251,-0.46172471032289697,0.25997507580456564,-2.238146193102307,-8.664728597327038,22.19011771940308,7.755387633837935,3.4215199885127303,-0.3049019454165369
0.06126810814969315,-0.16408364944793014,0.11423299878561816,-0.23114250310995357,-0.1337063771834246,0.153927045029041,0.24573461219740778,-0.7007947789365514,0.3386568329809106,-0.7378258378182232,-0.4610284539002437,0.2586160213828218,-2.331422695692077,-8.257518914108132,22.11248404748098,8.460057597658427,3.414306865620995,-0.3063603487909271
0.06175841562251347,-0.16548110607557548,0.11490836608424808,-0.2325893835934967,-0.13462703286275962,0.15444155724886618,0.24515373641016133,-0.6987283138226735,0.33768364931496386,-0.7234402417715631,-0.4603278396675179,0.2572561099125971,-2.424064049544822,-7.853133697261716,22.035598285034837,9.140266322925726,3.4069984977258407,-0.3078215978852956
0.062247519524484714,-0.1668742495807592,0.11558181408949716,-0.2340054599453191,-0.135546279496825,0.1549533479689952,0.2445519509856215,-0.6965717525918522,0.3367240026245419,-0.7080381759111911,-0.45962331703269055,0.2558953600645114,-2.5160412092305613,-7.451672148572936,21.959449913327976,9.795388418543359,3.3996020911061775,-0.3092860513836105
0.06273537804451029,-0.1682629015604524,0.11625336982387995,-0.23538877912518885,-0.13646411014476054,0.15546241554922083,0.24392926001278753,-0.694325989846597,0.33577786719139296,-0.6916595899348813,-0.458915323967774,0.2545337901128085,-2.6073250857599426,-7.053232597230606,21.884029034978774,10.424847347715069,3.392124846574724,-0.3107540519929833
0.06322194936963564,-0.16964688545342763,0.11692306019313824,-0.23673746962964304,-0.13738051871887896,0.15596875838507876,0.24328566256267364,-0.6919919464876157,0.334845184629147,-0.6743452522270865,-0.4582042870592141,0.253171417928963,-2.6978865603872895,-6.657912439474716,21.809326370458148,11.028115484043742,3.384573941615069,-0.3122259261701916
0.06370719167604547,-0.171026026591924,0.1175909119221495,-0.23804974297712117,-0.13829549996203036,0.15647237490703084,0.2426211532049099,-0.6895705692481896,0.3339258645056332,-0.6561366737390608,-0.4574906215756942,0.25180826097603753,-2.7876964980331307,-6.26580807735097,21.735333252420332,11.604714091957264,3.376956512577321,-0.3137019838782069
0.06419106312112584,-0.17240015225237498,0.11825695149217716,-0.2393238950411603,-0.13920904942513626,0.15697326357963842,0.2419357225401875,-0.6870628302254943,0.33301978501383167,-0.6370760320195613,-0.45677473155294346,0.2504443363037859,-2.8767257603828607,-5.877014856845371,21.662041618081535,12.154213232768411,3.3692796370419433,-0.31518251837253497
0.06467352183662002,-0.17376909170519328,0.11892120507955736,-0.2405583072321798,-0.14012116344492645,0.1574714229007274,0.24122935774709278,-0.6844697264091545,0.33212679369010084,-0.6172060955097477,-0.45605700989509157,0.24907966054449673,-2.9649452187235843,-5.491627005671226,21.589443999861135,12.676231597767012,3.361550316457805,-0.3166678060171589
0.06515452592290377,-0.17513267626360784,0.1195836984959137,-0.24175144752860694,-0.14103183912191058,0.15796685140054656,0.2405020431418756,-0.681792279207278,0.3312467081781676,-0.5965701482135707,-0.455337838492064,0.24771424990957075,-3.052325766585028,-5.109737570977787,21.51753351449857,13.170436269830908,3.353775459157694,-0.31815810612986073
0.06563403344440318,-0.1764907393315482,0.12024445712998813,-0.2429018713583119,-0.14194107429861552,0.1584595476409202,0.23975376074970228,-0.6790315339701798,0.3303793170372114,-0.5752119148524836,-0.45461758835246613,0.24634812018682403,-3.138838332253555,-4.73143835724721,21.44630385085747,13.636542415126028,3.345961863849692,-0.3196536608566611
0.06611200242617508,-0.17784311645057216,0.1209035058911726,-0.24400822233153335,-0.14284886753811823,0.15894951021439724,0.2389844908859512,-0.6761885595119681,0.32952438059223293,-0.5531754866107272,-0.4538966197513603,0.2449812867385091,-3.224453891229907,-4.3568198646388545,21.37574925662316,14.074312906546657,3.3381162036787035,-0.3211546950749947
0.06658839085166732,-0.17918964534583243,0.12156086915482213,-0.24506923282668283,-0.14375521810290284,0.15943673774339734,0.23819421274611957,-0.6732644476301317,0.3286816318247607,-0.5305052475747405,-0.4531752823922984,0.2436137645000438,-3.309143478702396,-3.985971228034378,21.30586452409566,14.483557880622984,3.3302450109466717,-0.3226614163253295
0.06706315666167316,-0.18053016597107888,0.12221657070942578,-0.24608372443061768,-0.1446601259340687,0.15992122887935623,0.23738290500292428,-0.6702603126232316,0.32785077730182344,-0.5072458019674313,-0.45245391558293296,0.24224556797943778,-3.3928782021065484,-3.6189801570279627,21.23664497527357,14.864134229696177,3.322354662574739,-0.324174014770798
0.06753625775449155,-0.18186452055269242,0.12287063370570778,-0.24705060823516795,-0.1455635916309157,0.16040298230187103,0.23655054640919473,-0.667177290806769,0.3270314981410002,-0.48344190227512773,-0.45173284842349515,0.24087671125740506,-3.475629253840967,-3.2559328770959386,21.168086446416844,15.215945031229348,3.3144513663843354,-0.3256926631844212
0.06800765198730191,-0.18319255363274697,0.12352308060772628,-0.24796888499189196,-0.14646561643093048,0.16088199671784734,0.2356971164051749,-0.6640165400272724,0.3262234510092524,-0.45913837836200483,-0.4510124000073915,0.23950720798815048,-3.5573679242067007,-2.896914072170116,21.100185272268188,15.538938916187224,3.3065411482677813,-0.3272175169634667
0.06847729717875965,-0.1845141121110962,0.12417393314603258,-0.24883764512721931,-0.14736620219019678,0.16135827086064897,0.23482259572887137,-0.6607792391746174,0.3254262691531483,-0.4343800676636731,-0.45029287963314385,0.23813707140081697,-3.6380656146341095,-2.5420068288263558,21.032938270103973,15.833109378478891,3.2986298403120244,-0.3287487141704086
0.06894515111281586,-0.18582904528648134,0.12482321227294858,-0.24965606862031614,-0.1482653513642505,0.16183180348925214,0.23392696702810653,-0.6574665876925679,0.3246395634580045,-0.4092117465484109,-0.44957458702686703,0.23676631430158002,-3.7176938512566626,-2.1912925822875735,20.966342723775277,16.098494027513144,3.2907230699325156,-0.3302863756000407
0.06941117154376178,-0.18713720489665633,0.12547093812001536,-0.2504234247461786,-0.1491630669893994,0.16230259338740488,0.23301021547295975,-0.6540798050875019,0.3238629235333955,-0.3836780629312424,-0.44885781257445595,0.23539494907637426,-3.7962242988863584,-1.8448510644275729,20.90039636789001,16.335173785969182,3.282826250066549,-0.3318306048720595
0.06987531620249639,-0.18843844515752686,0.1261171299576602,-0.251139071686624,-0.15005935266452466,0.16277063936279335,0.23207232936730393,-0.6506201304352668,0.32309591882242195,-0.3578234702227058,-0.44814283756263223,0.23402298769423735,-3.8736287754393515,-1.5027602539459917,20.835097372274667,16.54327203493386,3.2749445704683433,-0.3333814885486851
0.07033754280401273,-0.18973262280129904,0.12676180615712435,-0.2518024560120055,-0.15095421253338062,0.16323594024621585,0.23111330075817135,-0.6470888218860888,0.3223380997320754,-0.33169216269073126,-0.447429934427982,0.2326504417112549,-3.9498792668540066,-1.1650963288727958,20.77044432684517,16.722953708600176,3.2670829901403495,-0.33493909627653656
0.07079780905609616,-0.19101959711363392,0.12740498415468834,-0.25241311203662664,-0.15184765126740682,0.16369849489076602,0.23013312604170932,-0.6434871561674433,0.32158899878200087,-0.30532801231056167,-0.4467193670131034,0.23127732227508987,-4.02494794253661,-0.8319336215427544,20.706436227001774,16.874424340762364,3.2592462309280785,-0.3365034809522593
0.07125607266922519,-0.19229922996980348,0.1280466804182262,-0.2529706610509749,-0.15273967404906474,0.16415830217102617,0.2291318065645143,-0.6398164280847826,0.32084813176892946,-0.27877450717410573,-0.44601139082896923,0.2299036401300792,-4.098807171362662,-0.5033445761671587,20.64307245965322,16.99792906537916,3.2514387722979183,-0.33807467891117043
0.07171229136766352,-0.1935713858698435,0.12868691041611427,-0.2534748104340279,-0.15363028655570996,0.16461536098227192,0.22810934921916134,-0.6360779500200034,0.3201149989440385,-0.252074691526522,-0.44530625332260493,0.22852940562287968,-4.171429538253515,-0.17939970911322334,20.5803527899625,17.0937515735078,3.243664847309965,-0.33965271013820886
0.07216642290172907,-0.19483593197269855,0.12932568858851526,-0.25392535264901633,-0.1545194949440083,0.16506967023968921,0.227065767032775,-0.6322730514275309,0.31938908620049195,-0.22527110749419782,-0.44460419414917396,0.22715462870864522,-4.242787861340625,0.1398324280142802,20.518277348893108,17.162213028940574,3.235928439790645,-0.3412375785005567
0.07261842506122411,-0.19609273812935432,0.1299630283210521,-0.25432216412614556,-0.15540730583490342,0.16552122887760465,0.2260010797475169,-0.6284030783278849,0.3186698662684207,-0.19840573856461421,-0.4439054454475657,0.22577931895771586,-4.312855209721172,0.45428528240944743,20.456846621625026,17.203670944898136,3.228233282702451,-0.3428292720011117
0.0730682556900079,-0.19734167691495152,0.13059894192088134,-0.2546652040358953,-0.15629372629914057,0.16597003584873024,0.2249153143918953,-0.6244693927985986,0.31795679991461984,-0.1715199548748881,-0.443210232118579,0.2244034855628,-4.381604921800893,0.763894331156802,20.396061436894698,17.21851802415483,3.2205828577011966,-0.34442776305211054
0.07351587270169156,-0.19858262365987622,0.13123344059516986,-0.2549545129566194,-0.15717876384335017,0.1664160901234235,0.22380850584183182,-0.6204733724623496,0.3172493371442684,-0.1446544603620549,-0.44251877210480256,0.22302713734662954,-4.44901062421179,1.068597109330371,20.335922957302778,17.20718096498647,3.212980395864019,-0.34603300876813625
0.07396123409643246,-0.19981545647982057,0.1318665344319739,-0.25519021144026827,-0.15806242639669277,0.16685939068896366,0.22268069737045065,-0.6164164099721726,0.3165469184020157,-0.11784924182441142,-0.4418312766713003,0.2216502827700683,-4.515046251284565,1.368333235067599,20.276432670621766,17.1701192353431,3.205428879565398,-0.34764495127764483
0.07440429797880363,-0.2010400563048078,0.13249823238351358,-0.2553724984801472,-0.15894472229806522,0.16729993654884495,0.22153194118558622,-0.612299912493622,0.3158489757698266,-0.0911435199394819,-0.441147950686222,0.2202729299406526,-4.579686065047878,1.6630444316015645,20.217592382122575,17.107823817657156,3.1979310454711953,-0.34926351805231803
0.0748450225767117,-0.20225630690717533,0.13312854225183166,-0.255501649884708,-0.15982566028386616,0.16773772672208803,0.22036229895403558,-0.6081253011837603,0.3151549341590358,-0.06457570228040763,-0.4404689929004738,0.21889508662154408,-4.642904675719435,1.9526745462488009,20.159404207929143,17.020815926702504,3.1904893886156804,-0.3508886222533407
0.07528336626133493,-0.20346409492850903,0.13375747067681992,-0.25557801656144563,-0.16070524947631737,0.16817276024256977,0.21917184231161285,-0.6038940106668568,0.31446421249412787,-0.038183338368796206,-0.4397945962256003,0.2175167602408729,-4.704677062646832,2.237169566365017,20.101870569398635,16.909645702918727,3.183106167520288,-0.35252016309380835
0.07571928756805112,-0.20466330990552242,0.1343850231265916,-0.25560202271504223,-0.16158349937233546,0.16860503615837266,0.21796065335809345,-0.5996074885066909,0.3137762248858353,-0.012003076798310343,-0.4391249480090503,0.2161379579014504,-4.7649785956499295,2.516477632294718,20.04499418851407,16.77489088361331,3.175783410307682,-0.35415802621639975
0.07615274521832345,-0.20585384429487316,0.13501120389017404,-0.25557416396396127,-0.1624604198329475,0.16903455353115432,0.21672882513616756,-0.5952671946753663,0.31309038179122844,0.013929375540472091,-0.4384602303060218,0.2147586863908299,-4.823785056710437,2.790549047353947,19.9887780842667,16.617155454446785,3.168522921760111,-0.3558020840854988
0.07658369814251055,-0.20703559349691028,0.13563601607249118,-0.255495005379747,-0.16333602107324172,0.1694613114355377,0.2154764620935529,-0.590874601018557,0.31240609115856366,0.039579292107124825,-0.43780062014710663,0.2133789521916935,-4.881072661949538,3.0593362848988193,19.933225569994775,16.437068283595078,3.161326291266203,-0.35745219639285253
0.07701210550356545,-0.20820845587834452,0.13625946159160068,-0.2553651794533325,-0.1642103136528437,0.16988530895852277,0.21420368052744873,-0.5864311907171219,0.31172275955475,0.0649129632072729,-0.43714628980098225,0.21199876149254365,-4.936818083829439,3.3227939925434793,19.878340251637958,16.235281740970215,3.154194901596867,-0.3591082104759644
0.07743792672158654,-0.2093723327938346,0.1368815411781475,-0.25518538399269663,-0.16508330846690655,0.17030654519892013,0.21291060901054507,-0.5819384577450406,0.31103979327340037,0.08989773031791248,-0.436497407031431,0.21061812019867715,-4.9909984735111035,3.5808789936044025,19.82412602685582,16.01247030486226,3.1471299384467573,-0.36076996174830045
0.07786112149918221,-0.2105271286064819,0.13750225437699057,-0.2549563799562439,-0.16595501673760255,0.17072501926680697,0.2115973887978325,-0.577397906323645,0.3103565994215394,0.11450201822638678,-0.43585413534799683,0.20923703394341986,-5.043591483297123,3.8335502858563206,19.77058708495347,15.769329158345556,3.140132400675605,-0.3624372741404155
0.0782816498476092,-0.2116727507072262,0.13812159955095688,-0.25467898922630217,-0.1668254500061018,0.17114073028300616,0.2102641742134914,-0.5728110503721378,0.3096725869831548,0.1386953649708644,-0.43521663424962553,0.2078555080996002,-5.094575289086297,4.080769037698145,19.717727907547488,15.506572777767097,3.1332031111799203,-0.36410996055122413
0.07869947211364355,-0.212809109533135,0.13873957388667266,-0.25435409232715467,-0.16769462012502315,0.17155367737858865,0.208911133017172,-0.5681794129544121,0.3089871678578945,0.16244844957373528,-0.4345850594606703,0.2064735477912394,-5.143928612764669,4.322498581833285,19.66555326990141,15.224933515609578,3.126342728324901,-0.36578782330838433
0.07911454900714157,-0.21393611858457942,0.13935617340241932,-0.25398262609202893,-0.16856253925134052,0.17196385969439953,0.2075384467490101,-0.5635045257222082,0.3082997578733348,0.18573311756286073,-0.4339595631586824,0.20509115790543644,-5.191630744456856,4.558704406579938,19.614068242851474,14.925160179989454,3.119551757863147,-0.36747065463704937
0.07952684162924709,-0.21505369444128875,0.13997139295795805,-0.2535655812834708,-0.16942921983972742,0.1723712763806084,0.2061463110527575,-0.5587879283546658,0.30760977776936627,0.20852240427908356,-0.4333402941934473,0.20370834310442643,-5.237661564561125,4.789354144932766,19.563278195239704,14.608016613018943,3.112830565267057,-0.3691582371360253
0.07993631150119997,-0.21616175677727745,0.1405852262662648,-0.2531040001715272,-0.17029467463632095,0.17277592659628396,0.20473493597644143,-0.554031167994355,0.3069166541533702,0.23079055597181736,-0.4327273982967655,0.20232510783778984,-5.282001565492188,5.014417561504599,19.513188796766592,14.274280270223743,3.1061793884000144,-0.37085034426050373
0.08034292059369998,-0.21726022837463724,0.14119766590711477,-0.2525989740741514,-0.171158916672886,0.17317780950899356,0.20330454625000166,-0.5492357986798913,0.3062198204249862,0.252513048687887,-0.4321210182825219,0.20094145635479185,-5.324631873056699,5.23386653748371,19.463806021171123,13.924740803170268,3.0995983504518634,-0.372546740810472
0.08074663135677876,-0.21834903513618778,0.14180870334245357,-0.2520516408642272,-0.17202195926135924,0.17357692429442723,0.20185538153939106,-0.5444033807752653,0.30551871766939825,0.2736666049620807,-0.4315212942366291,0.1995573927168298,-5.365534267388058,5.447675053744872,19.415136149643708,13.560198647414543,3.0930874730638944,-0.37424718342395735
0.08114740675013209,-0.21942810609697988,0.14241832893348996,-0.25146318244758503,-0.1728838159887522,0.17397327013604716,0.2003876966766616,-0.5395354803960438,0.3048127955181963,0.2942292083210931,-0.43092836369647397,0.19817292080996782,-5.404691203369794,5.655819172259218,19.367185774374402,13.1814636178405,3.0866466895698004,-0.37595142107421636
0.08154521027386327,-0.22049737343464512,0.14302653195944395,-0.25083482221635367,-0.17374450071239128,0.17436684622476223,0.19890176186559602,-0.5346336688326193,0.30410151297699534,0.3141801156156866,-0.430342361819543,0.19678804435753786,-5.442085830479132,5.858277015949028,19.319961802138018,12.78935351341019,3.0802758582794496,-0.3776591955700835
0.08194000599958824,-0.22155677247858654,0.1436333006378822,-0.25016782248195574,-0.17460402755547316,0.1747576517586278,0.19739786286248337,-0.5296995219707135,0.30338433921912433,0.33349986719896785,-0.4297634215409451,0.19540276693278572,-5.477702011986371,6.055028747136701,19.27347145781578,12.38469273329855,3.073974775734233,-0.37937024205855224
0.08233175860185159,-0.22260624171800528,0.14423862214657185,-0.2494634818920124,-0.17546241090291237,0.1751456859425709,0.19587630113167592,-0.5247346197093622,0.30266075434481865,0.3521702949716706,-0.4291916737195975,0.19401709197154252,-5.511524343448919,6.24605654473843,19.227722287754272,11.968310906335518,3.0677431898645944,-0.3810842895288255
0.0827204333898028,-0.22364572280875855,0.1448424826467828,-0.24872313283537592,-0.17631966539745814,0.1755309479881407,0.19433739397560576,-0.5197405453766333,0.3019302501054753,0.37017452831824244,-0.42862724727288454,0.19263102278490085,-5.543538170443616,6.431344580353585,19.18272216286219,11.541041535624428,3.061580812982272,-0.3828010613169981
0.08310599633908075,-0.22467516057904524,0.14544486730796807,-0.2479481388394552,-0.17717580593605742,0.17591343711328444,0.19278147463897927,-0.5147188851433508,0.30119233059264905,0.3874969979603573,-0.42807026929964587,0.19124456257187616,-5.5737296054852035,6.610878993400615,19.13847928134637,11.103720660151597,3.055487334542555,-0.3845202756105722
0.08348841412385458,-0.2256945030339155,0.14604576033375125,-0.2471398919639408,-0.1780308476664402,0.1762931525421485,0.1912088923869102,-0.5096712274351233,0.30044651289158475,0.4041234377572114,-0.427520865191394,0.18985771443203386,-5.602085544083823,6.784647865448033,19.095002170992274,10.657185535144482,3.049462433614779,-0.3862416459520054
0.08386765414896817,-0.2267037013586015,0.14664514498914963,-0.24629981019497157,-0.1788848059839036,0.17667009350490462,0.18962001255679398,-0.5045991623429921,0.29969232769919524,0.420040884484601,-0.426979158731707,0.18847048137806316,-5.628593679899496,6.9526411938882955,19.05229969089418,10.202273332877967,3.043505791002281,-0.3879648817405336
0.08424368458213571,-0.22770270992066757,0.14724300362896264,-0.2454293348437169,-0.17973769652827118,0.17704425923760117,0.18801521658376963,-0.4995042810330395,0.29892931990650207,0.4352376756273325,-0.4264452721837859,0.187082866348279,-5.65324251895687,7.114850865098463,19.0103810325462,9.739819865567618,3.037617100956476,-0.3896896887315033
0.08461647438613504,-0.2286914862709782,0.14783931772725398,-0.24452992795327297,-0.1805895351810036,0.17741564898203924,0.18639490199965872,-0.4943881751553129,0.2981570491456624,0.4497034452219663,-0.4259193263662082,0.18569487221903397,-5.676021392888693,7.271270627228308,18.969255720207315,9.270658331927644,3.031796082433507,-0.391415769532476
0.08498599335094567,-0.2296699911434831,0.1484340679078576,-0.24360306971769446,-0.1814403380624375,0.1777842619856733,0.18475948240531606,-0.48925243625243975,0.2973750903018045,0.4634291177892519,-0.4254014407169523,0.1843065018170225,-5.696920471182163,7.42189606275149,18.928933610459296,8.795618088908068,3.026042489845752,-0.39314282409539436
0.08535221212577841,-0.23063818845381975,0.1490272339758376,-0.24265025591689873,-0.18229012152912913,0.1781500975015362,0.18310938741637117,-0.4840986551683256,0.29658303398998925,0.4764069003978666,-0.42489173334580793,0.1829177579314599,-5.715930772407494,7.566724560911194,18.889424890880473,8.315523450061729,3.02035612326425,-0.3948705502040867
0.08571510225094318,-0.23159604529673444,0.149618794949833,-0.2416729953710923,-0.1831389021712798,0.17851315478818844,0.18144506258238524,-0.47892842145734243,0.29578048699770354,0.4886302729032221,-0.42439032107532665,0.1815286433261199,-5.733044174413414,7.705755290184447,18.850740077764925,7.831192511925649,3.0147368380327055,-0.39659864395646527
0.08607463618950217,-0.2325435319423233,0.15020872909521973,-0.24067280741827798,-0.1839866968102208,0.17887343310969087,0.17976696927949404,-0.47374332279442677,0.2949670726933755,0.5000939764071514,-0.4238973194705055,0.18013916075121397,-5.748253423479683,7.838989170884245,18.812890012821782,7.3434360097362665,3.009184553757768,-0.3983268002407282
0.08643078735865548,-0.23348062183109636,0.1507970139580227,-0.23965121941830553,-0.18483352249593568,0.17923093173560106,0.17807558457665293,-0.46854494438652183,0.29414243140147894,0.5107939999862345,-0.42341284285743197,0.17874931295509705,-5.761552142421697,7.966428848010491,18.775885858796467,6.853056203729242,3.0036992626446963,-0.4000547132049187
0.08678353016080677,-0.23440729156786796,0.15138362639951242,-0.2386097642868288,-0.185679396504598,0.17958564994099263,0.17637140107564692,-0.4633348683858058,0.29330622074486434,0.5207275657383575,-0.4229370043311539,0.1773591026957845,-5.772934837647062,8.088078664453526,18.739739093962037,6.360845797207943,2.998281037152025,-0.40178207671930294
0.08713284001425692,-0.23532352091447828,0.15196854263142245,-0.23754997806243117,-0.18652433633610413,0.17993758700649717,0.17465492672507382,-0.4581146733051592,0.29245811595502025,0.5298931121988293,-0.4224699157530703,0.17596853275226543,-5.782396905168752,8.203944634646694,18.704461505436292,5.867586887495097,2.9929300369433642,-0.40350858483085167
0.08747869338347403,-0.23622929278135094,0.1525517382517245,-0.23647339751007315,-0.18736835971158047,0.18028674221836838,0.17292668460855581,-0.4528859334363305,0.291597810151026,0.5382902761790055,-0.4220116877381697,0.17457760593559865,-5.789934635583891,8.314034418754265,18.67006518128781,5.3740499508134,2.9876465151187936,-0.405233932209388
0.08782106780888899,-0.23712459321789348,0.1531331882809005,-0.2353815577639094,-0.1882114845708454,0.18063311486856792,0.1711872127074794,-0.44765021827126417,0.29072501458800964,0.54591987308188,-0.4215624296324708,0.17318632509977766,-5.795545218031031,8.418357297474573,18.63656250140089,4.8809928620712295,2.982430823713023,-0.406957814584754
0.0881599419361662,-0.23800941140174758,0.15371286719865243,-0.23427599001240837,-0.1890537290698075,0.18097670425487264,0.16943706363861016,-0.4424090919270607,0.28983945887596957,0.5527838757505098,-0.421122249481047,0.17179469315235182,-5.799226743142839,8.516924147526995,18.603966127078998,4.389159950459369,2.977283418451557,-0.4086799291745534
0.08849529554490015,-0.23888373962689766,0.15429074898099215,-0.2331582192285955,-0.18989511157778158,0.18131750968100221,0.1676768043669728,-0.43716411257503734,0.28894089116985805,0.5588853919064356,-0.4206912539870402,0.17040271306479138,-5.800978205014216,8.609747417883742,18.572288989371582,3.89928109169502,2.972204862760721,-0.41039997510191994
0.08882710957668902,-0.2397475732906464,0.15486680713765588,-0.2320297619481226,-0.19073565067470577,0.18165553045676738,0.1659070158944324,-0.43191683187436125,0.28802907833185726,0.5642286402364425,-0.4202695484620915,0.16901038788258482,-5.800799502209135,8.696841106797182,18.541544276120256,3.4120708376789155,2.967195831031593,-0.412117653802886
0.08915536616253793,-0.24060091087946783,0.1554410147497895,-0.23089212409774845,-0.19157536514824303,0.1819907658982375,0.1641282929244553,-0.4266687944107225,0.2871038060668045,0.5688189251870853,-0.4198572367686343,0.16761772073505757,-5.798691437832015,8.77822073966434,18.51174541772532,2.9282275842610472,2.9622571111417546,-0.41383266942289126
0.08948004864954506,-0.24144375395374887,0.15601334450785298,-0.22974679887669372,-0.19241427399075206,0.1823232153279273,0.16234124350357132,-0.421421537140513,0.28616487903174365,0.5726626105273662,-0.41945442125451426,0.16622471484490134,-5.794655718691723,8.85390334776077,18.48290607164337,2.4484327777408454,2.9573896062430025,-0.41554472920201135
0.08980114162682526,-0.2422761071314308,0.15658376874969418,-0.2285952646932121,-0.19325239639611289,0.1826528780750021,0.16054648864010104,-0.4161765888409716,0.285212120920593,0.5757670917408112,-0.4190612026804138,0.1648313735374048,-5.788694953588445,8.923907447866208,18.45504010563441,1.9733501606577906,2.9525943358268956,-0.417253543848536
0.09011863095062676,-0.2430979780705643,0.15715225949874403,-0.2274389831585942,-0.19408975175639404,0.18297975347550086,0.15874466190075168,-0.4109354695667474,0.2842453745249298,0.5781407673089417,-0.4186776801405708,0.1634377002493759,-5.780812650754806,8.988253022795517,18.428161579783588,1.5036250573585694,2.9478724360834745,-0.418958827900511
