Joohwan-Seo/mujoco_sysID/Fanuc/Dataset/square_PIH_gravity.csv
q1,q2,q3,q4,q5,q6,dq1,dq2,dq3,dq4,dq5,dq6,t1,t2,t3,t4,t5,t6
0.2917024002198635,-2.2410159929703357,-1.1665329470414563,0.026071813073595042,-0.30554967605546646,0.6160269768382123,0.0,0.0,0.0,0.0,0.0,0.0,0.0,32.780343543756594,11.39948213137254,-0.038991652514442865,2.9509161726070663,-0.00021297674498887975
-0.3377144195322004,0.5356779591540789,1.6549201934755815,0.8885139013314558,-1.0878318949531656,0.10524127945979722,0.0,0.0,0.0,0.0,0.0,0.0,0.0,-38.511338333180014,10.440453167135743,1.2002749898148641,3.797064079104654,-0.000396648147648726
0.8086958544138177,-0.4620387758874134,0.9810091431238146,-1.4028559931355158,0.4403236244146623,0.07098359181597991,0.0,0.0,0.0,0.0,0.0,0.0,0.0,26.93848091803897,0.12197251933241304,0.21737423801278707,-1.6565928670055416,0.00018969543533670086
-1.4714132109435991,0.17169479940637206,-0.41385222728349985,0.40670172524295634,-0.32561536100867755,-0.06009245154726739,0.0,0.0,0.0,0.0,0.0,0.0,0.0,-31.756409682016297,23.43863895968928,0.345555800352943,2.2518301259894855,-0.0002486335850558907
0.7185035735974503,0.6165114795938487,-0.3753669559107344,1.8075329638878284,1.0267254557571333,-0.3930470852652873,0.0,0.0,0.0,0.0,0.0,0.0,0.0,-47.519688456803365,15.477301199669505,-1.8539785666698068,2.668219191046075,-0.00041145236857875744
-0.811730190765878,-0.3708028381133233,-0.7611168477944037,0.6574713312487777,0.5483751073180867,-0.9996609490376467,0.0,0.0,0.0,0.0,0.0,0.0,0.0,-4.044535510434235,26.357607685672985,-1.293762665299723,3.379674153859649,-0.0006924021929961555
-1.1667855051081804,1.7279490780307787,-0.5535376762115889,-0.2720261816633909,1.526740362663099,1.8910153774033969,0.0,0.0,0.0,0.0,0.0,0.0,0.0,-47.15718642194199,-9.974831764328485,-0.647858642157248,2.9953509427256026,0.00045475237123501766
-0.11118605111959723,0.40525717898610847,-0.17162881932637217,1.111875399394357,-0.1482531679671579,1.299724452311244,0.0,0.0,0.0,0.0,0.0,0.0,0.0,-45.466935577779886,24.17870768073173,0.4140973738704358,1.1767300171093726,0.0005553308946802948
0.00022304840502861673,-0.22005311833783237,1.1091661766417165,0.5319184186492271,-0.1385424182858956,0.30767246779595503,0.0,0.0,0.0,0.0,0.0,0.0,0.0,9.87939977464728,4.20234079930005,0.045300783402553675,1.3896601398074573,-0.00010224646662147958
0.09516768303501603,0.2601795574897005,-0.9317143662888585,-0.2821507535360316,0.5602020569539017,0.4623230444785807,0.0,0.0,0.0,0.0,0.0,0.0,0.0,-27.85421149416028,14.530418963272544,0.18408683655481178,3.2628068104647605,-0.0003762103168682973
0.6958815456254672,-1.5709621088886587,0.8175586231068185,-0.6162487128613398,0.379284914778044,-0.26898944417899456,0.0,0.0,0.0,0.0,0.0,0.0,0.0,80.14665950476179,-22.547055154483377,-0.572910691051709,-3.3108973912201467,0.0006141115319377999
-0.44696274567616756,-0.14970397907046495,0.6023338305696669,-0.4507914047362241,-0.39595911231455,-0.5917079999143469,0.0,0.0,0.0,0.0,0.0,0.0,0.0,-8.482652449754871,18.602156564340728,-0.5791999583795662,3.572429927973676,-0.00058306934071084
0.7751088898355998,-0.7786620007200462,-0.49801430704159233,0.03201816298842189,0.05032681548203305,-0.43217347510950965,0.0,0.0,0.0,0.0,0.0,0.0,0.0,16.255953965873143,25.2985724659507,-0.1163441707199056,3.881576279415299,-0.0006560039269998541
-1.2003513834057158,-0.1624255196321297,-0.2555905117983757,-1.8549149600607202,-1.3890583174516429,-0.7124630259863378,0.0,0.0,0.0,0.0,0.0,0.0,0.0,-13.313098066236302,24.153393738891907,-3.8281061385482564,-0.5829154617454635,0.00023825162751478501
-1.2488093334061847,-0.8596459821080373,0.6130296357664687,0.5615658042650155,0.1711000119381316,0.6703855120472028,0.0,0.0,0.0,0.0,0.0,0.0,0.0,45.41883677932612,-0.7714077767156482,-0.04590295922551649,-0.3596615314452456,5.739572533139392e-05
0.6621721064780911,0.8807048583051007,0.02175784699729208,-0.8954486573128903,-0.47109767335909347,0.31893845599630044,0.0,0.0,0.0,0.0,0.0,0.0,0.0,-62.329524955119396,18.893436251967888,-0.9971458608982567,0.08272417823693345,-0.0002688261433214656
-1.2250798583620248,-0.2877253417985621,-0.7454644163323672,0.10064522887933938,0.5349936617091383,-0.768413610865993,0.0,0.0,0.0,0.0,0.0,0.0,0.0,-8.293469152442764,26.121171329840028,-0.2909130186861457,4.078155762492505,-0.0006839010225851427
-1.188822967365829,-0.4612303149588697,0.3558287859970712,0.17725706020242316,1.772898044783945,0.7472711298825625,0.0,0.0,0.0,0.0,0.0,0.0,0.0,16.756757753932508,10.262559568967689,-0.562308992559351,-3.488159643998504,0.00026889835915056004
-0.02456362903257935,1.4603043645157534,0.5246143033697543,-0.4293839317776595,-0.13783335661254706,-0.1803838320857552,0.0,0.0,0.0,0.0,0.0,0.0,0.0,-75.18736864146219,18.109230457467763,-0.20116388076892663,1.7396584512627378,-0.0003343402333537693
0.5429864496102395,0.12275470524129467,0.4486297215792127,-0.08071604112708286,-0.4056735163933161,0.5273365457391231,0.0,0.0,0.0,0.0,0.0,0.0,0.0,-30.58278773331638,25.064284266537012,-0.23166064737894937,4.081701946570911,-0.0004047913999669639
0.6357947388523897,-0.32021370914699876,1.3776151848426377,1.070659558196059,-0.01638787161963649,0.7383415395463849,0.0,0.0,0.0,0.0,0.0,0.0,0.0,25.8127599115235,-6.214633232282963,-0.000624696290027732,-0.18204627704776666,-6.303578810930646e-05
-1.0949990146952056,0.10866412955529997,0.09015707993835173,0.796202413520482,0.31806146876668984,0.47028992273812475,0.0,0.0,0.0,0.0,0.0,0.0,0.0,-31.802393222092938,27.092586169701722,-0.9971534101583069,2.7515164525807663,0.00014592866531182302
0.8068802995293242,-0.014269108630318035,-2.1663359107890816,0.6835264626018486,0.6585280954664523,0.9385471453276315,0.0,0.0,0.0,0.0,0.0,0.0,0.0,12.842237425053424,-10.474483917646776,0.9197190024430683,0.7169214994008328,-0.00025580698110561073
1.5561286524323208,0.4913986177885337,0.005578666817526991,-0.6719613077545342,-1.8123649069537935,-0.08798777550505056,0.0,0.0,0.0,0.0,0.0,0.0,0.0,-45.33790139887615,19.521964090249668,-2.274114100695729,-2.5417709676886826,0.00024253757259096176
0.3836234840743871,-0.2670305357044803,-0.645945869663405,0.10887949815496373,0.3096240676565032,-0.9395252142109296,0.0,0.0,0.0,0.0,0.0,0.0,0.0,-9.966130518490766,26.656159171487147,-0.23206356314688986,4.075103971738656,-0.0006555204695155581
-1.5045738544500527,0.10490290089669407,-0.47575169998995404,0.07393381498780847,0.7885740888729829,-1.1872467952742296,0.0,0.0,0.0,0.0,0.0,0.0,0.0,-29.441191019372035,24.947415852173922,-0.2752853972717691,4.011309554192385,-0.000552972862734924
-0.9463696835941401,-1.051674906132584,0.5578689010886877,-0.16293107090316045,-0.2863673997681156,0.33022534127575964,0.0,0.0,0.0,0.0,0.0,0.0,0.0,53.61857394761756,-2.840166041593859,0.011661104400153208,1.008999264979746,-0.0001124843179649837
-0.8055722881078445,0.2614871314314554,0.28309840893129495,0.4216050102895082,-0.39016276929878496,-1.4155169934583867,0.0,0.0,0.0,0.0,0.0,0.0,0.0,-40.28496664067893,26.887884240827198,0.5345606109170803,3.498400714469849,-0.0005874569562462906
0.40326290544360444,-0.008761364205462828,-0.3118150209297078,-0.1665567740327505,0.791299110800741,0.61399280766662,0.0,0.0,0.0,0.0,0.0,0.0,0.0,-24.514683055560333,26.56531073358498,0.3546620770112284,3.5888073341879085,-0.00036849405297145754
0.09408219784132305,0.6126365158603377,-0.4026989550006419,0.06731925990913659,-1.0022188854061598,-0.07127694678279704,0.0,0.0,0.0,0.0,0.0,0.0,0.0,-44.75877165305019,12.902195197241259,0.0625295322756332,-1.7770701789859888,0.0002847543328683422
-0.09654182174477641,0.879769547028296,1.0693971291037967,-0.42115064437199373,-1.5537028727581552,0.5381427267170591,0.0,0.0,0.0,0.0,0.0,0.0,0.0,-66.32903100381536,22.928372931499098,-1.7507756041820528,0.8362984252788426,-0.00031317833517929827
-0.18321147057055376,-0.572449704333542,-0.019451336214334335,-0.18822923984590942,-0.5038713775371936,-2.187788086073383,0.0,0.0,0.0,0.0,0.0,0.0,0.0,10.282212053266285,22.218785245397054,-0.4106918471906285,4.047410477377537,0.00019154832061946125
0.6582561648665298,-1.3357977950162423,0.5513303310180298,1.0204603970293644,0.5194463247871225,2.0584398301234255,0.0,0.0,0.0,0.0,0.0,0.0,0.0,68.37616642814838,-11.999473033409595,0.5588306729503131,-2.516962335531468,-0.0004583004871201446
-1.0033318643293618,1.1263494090663906,-1.5238720987678736,0.8062606809375232,-1.4133699922832723,-1.2933583163834674,0.0,0.0,0.0,0.0,0.0,0.0,0.0,-30.39406392270062,-20.945157453333394,-2.51087291879338,-2.306785945081404,0.0005907952820043416
-0.47149591147586645,0.00015352117176730627,0.9339298716014961,0.38735496342383113,-1.0469453807900033,0.4641457358826503,0.0,0.0,0.0,0.0,0.0,0.0,0.0,-13.77512309597342,15.312320387365972,0.7360688695986412,3.9896222301034356,-0.00025851117823449954
-1.5787356757738387,0.9699277555285092,0.7763224881465928,0.051028167750359114,0.5303979792398594,0.7960309848425413,0.0,0.0,0.0,0.0,0.0,0.0,0.0,-73.76825418924875,27.13137175936808,-0.2156964755057904,3.8714478295461063,-0.0001457864931593278
-0.12260992859492481,-1.086862239848541,0.2946951927573637,-0.11629637696523275,0.5541299398436212,0.4470469283756434,0.0,0.0,0.0,0.0,0.0,0.0,0.0,51.68549960368412,0.01956799124925368,0.025809964454429964,-1.469287603512913,0.00013372776996659064
0.38752246700740434,-0.3884871718782893,0.09926971974734673,-0.11723178193667627,0.5578058988606894,-0.938784493960847,0.0,0.0,0.0,0.0,0.0,0.0,0.0,2.1273065910403632,21.12170713735615,0.12419499181556165,2.0376572212191766,-0.00028219477622656863
0.7962798477978542,0.6535080823235955,0.017547212782145633,0.021832200735113706,0.01456380755078835,-0.6164694002164576,0.0,0.0,0.0,0.0,0.0,0.0,0.0,-57.46928605343861,23.677474646459185,-0.09316536070463488,3.3380787114521766,-0.0005640950452392712
0.6310508353113944,-0.7219141212646188,-0.13942966014056787,1.3776993527336292,-0.8210053978314896,1.1939723192184617,0.0,0.0,0.0,0.0,0.0,0.0,0.0,18.800732476673808,20.422920928308972,2.4451795785518695,2.101829001913792,0.0006102988366096795
0.6500925934940385,-0.9742241474612343,-0.5139560534592216,0.04166615127832838,-1.5678880979626817,-0.4108349592228656,0.0,0.0,0.0,0.0,0.0,0.0,0.0,27.259995556611152,21.259007021214842,0.05072960961375644,1.8346672944356595,-0.0003079645828908406
0.9007457050625727,-0.09854840604550041,0.28419504662644474,0.3751950984090183,-0.2663265956137451,0.9802087477090858,0.0,0.0,0.0,0.0,0.0,0.0,0.0,-17.22414320594703,24.429873017148207,0.26931881743606406,3.8231021233921663,0.0001761506313393557
-0.6217915241397458,-0.07935998328429614,-0.9315792833788777,-0.05610754561595967,0.20126231802471667,0.8696678290348271,0.0,0.0,0.0,0.0,0.0,0.0,0.0,-14.58539959749801,20.69290116478363,-0.04463145058650195,3.2621200295068133,-0.00013675046482691106
0.6640324212084847,-0.6003519967265136,1.767165180341766,-1.1532193171417457,-0.8952465288526463,-0.5448763146898266,0.0,0.0,0.0,0.0,0.0,0.0,0.0,53.395271793701234,-19.579517320165436,2.127757573877055,1.495452644873967,-0.000274773098849046
0.8834065478627435,0.43363642800171115,-0.3074544724774304,0.7993562294119987,-0.008934437156869894,-0.03589789708726481,0.0,0.0,0.0,0.0,0.0,0.0,0.0,-44.78833091175352,21.989344255585276,-0.039299394465158566,2.0869834921540233,-0.0001526134965621189
0.48612136484558566,0.5553131072275445,-0.1346725110235347,0.48970449754083695,-0.755337057355624,0.4278516238040799,0.0,0.0,0.0,0.0,0.0,0.0,0.0,-49.43873619251935,20.38527372379942,0.9436295912923092,0.24238704834296598,0.0001773451023083794
-0.002000425009377236,-0.8077161396118593,-0.6686286318791246,0.3395525064729754,0.6228896539508436,0.7479950026998875,0.0,0.0,0.0,0.0,0.0,0.0,0.0,17.201681566732095,25.494893916913487,-0.8965269821256091,2.782750175471584,6.73482627427946e-05
0.049877307346684996,0.3104804724967135,-1.1314616855330681,-1.211863197068901,-0.9915370812109722,-0.9268886201173713,0.0,0.0,0.0,0.0,0.0,0.0,0.0,-21.190783404815352,5.0652133863110045,-0.41859704887004223,-3.3064380842640895,0.0005453571422999737
1.7152258890825518,-0.13118909189236147,0.3380351631743154,0.6296812737416392,0.4203120187314647,-1.4581243204265009,0.0,0.0,0.0,0.0,0.0,0.0,0.0,-13.001480937019489,22.06905294138239,-0.9627221207757508,1.944430597141256,-0.0004892564900529361
0.0048207710976664025,-0.45881756218919484,0.07284973468866038,1.0932998469088664,-0.4715433900890076,-0.6038680503943622,0.0,0.0,0.0,0.0,0.0,0.0,0.0,4.802083668774534,22.094363060107014,1.3826464074548666,2.3948209786980534,-0.0004604600989308594
-1.052913497502897,-1.2901952290224465,-0.9939481250966646,-0.4273504920441562,-0.5765748129757876,-0.7123422605919796,0.0,0.0,0.0,0.0,0.0,0.0,0.0,30.634015376183402,25.141216379912574,-0.9870449154576012,3.6500771495848934,-0.0005467413253325004
-1.3268815994476337,-0.3750548540218668,0.30651414061037663,0.5393623474710819,0.1963127715939574,0.7184258199682547,0.0,0.0,0.0,0.0,0.0,0.0,0.0,3.6855756430467386,18.85318230929672,-0.3952243862319574,2.179591378361051,0.00013252675622305032
-2.1718621482570537,1.068309739714872,-0.7336662877576261,-0.13585304530372008,0.5928538707209413,-0.8479825190201521,0.0,0.0,0.0,0.0,0.0,0.0,0.0,-48.72578094269511,-1.0094475493707744,-0.045215094612840276,1.460443141063943,-0.00024027148086661065
0.8093015503788911,0.4828135256825619,-1.8284562979552328,-1.2963837843312263,0.373799247145534,-0.42852430015230936,0.0,0.0,0.0,0.0,0.0,0.0,0.0,-9.727406520404795,-15.645334136717464,-0.9527968822489989,0.40793332526260495,-3.7514129529570006e-05
0.6767847391847174,0.17861039323740469,1.1741818082289468,1.3775222788191568,0.06319378926901908,1.2169532836087782,0.0,0.0,0.0,0.0,0.0,0.0,0.0,-21.125570479278494,12.41369473849749,-0.14997125999904784,0.21122246930045918,0.00037341373926585986
0.4393038016201419,0.4182104751470688,-0.7032379831094241,0.7861833276326934,0.3660654149053806,0.6468051053084167,0.0,0.0,0.0,0.0,0.0,0.0,0.0,-37.183760213391494,15.203768080552852,-0.48667387850661936,2.5003128605842972,1.9858631034042062e-05
-1.1404646373129983,0.7771336111159624,0.17184495647335252,-0.0522106608419105,1.2807157241750358,0.7853397838662776,0.0,0.0,0.0,0.0,0.0,0.0,0.0,-63.17440634838322,23.885362825719312,0.0752151353471871,3.2039423245831404,-0.00018268956910411083
0.6322219255495387,0.3008294367572778,-1.4029357016901258,-0.3851042852781121,1.4882556023427078,-0.046963201391798826,0.0,0.0,0.0,0.0,0.0,0.0,0.0,-19.175480483242886,3.584530824258537,-0.18975462021172212,4.0146874621166155,-0.0005980829084236139
0.7037041901701343,-0.07766955196690359,0.6968265715343096,-0.34328665642388057,0.01649542940017507,-0.8378340853243702,0.0,0.0,0.0,0.0,0.0,0.0,0.0,-11.341495316863773,17.352133235207113,-0.06070823446997084,2.7160155458749013,-0.00037888281903811216
-0.4192702987620438,0.8671097643018112,0.566423732059221,0.5255521443070659,0.06720754089139443,-0.12283760799700448,0.0,0.0,0.0,0.0,0.0,0.0,0.0,-69.83878884412424,26.921419484444232,-0.22661360958398835,3.4668555123232068,-0.00042499422933017783
-0.7645934211002348,0.7914897418230572,-0.29276123749776267,-1.1274871069199282,-0.18200365036475769,-0.45132773418250055,0.0,0.0,0.0,0.0,0.0,0.0,0.0,-54.98259061701985,15.09252555909243,-0.33692414954649097,0.1529310084598725,-3.9764587775659166e-05
0.16883616995917602,1.368167103055614,0.16017468241013885,-1.0966716587703353,-0.3509465812589081,0.0319356987804539,0.0,0.0,0.0,0.0,0.0,0.0,0.0,-67.90858123046529,11.798297832616795,-0.4644039656886697,-0.6953574493948649,-9.535649201808383e-06
0.6794424965801952,0.6318151708595134,0.2159820053769538,-0.5421385730339233,-0.720786581912678,0.07683330638898728,0.0,0.0,0.0,0.0,0.0,0.0,0.0,-57.015287874117234,24.243792764476193,-1.3689840875300248,1.3224396767909763,-0.00036736493137778936
-0.4888435782845113,0.9575224125249202,-0.6982281468949463,1.247086076954766,-0.08194651759574577,1.0163475489735692,0.0,0.0,0.0,0.0,0.0,0.0,0.0,-46.59852875046447,0.3850189930306751,-0.024022594354584002,-0.44607289258860616,-5.174347955577696e-05
0.47599079558017143,-0.6389794512770135,0.3974472629108414,1.4736450359323614,-0.8668925110421747,-0.8773399883490858,0.0,0.0,0.0,0.0,0.0,0.0,0.0,24.612975317314657,10.97924531576669,1.5810698438580455,2.8251826960210016,-0.0005762711583351399
-0.17907468658869083,-0.4293171650709928,-2.0584069737943724,-0.2875163581361936,0.6409043536864805,0.3895043091915391,0.0,0.0,0.0,0.0,0.0,0.0,0.0,21.623814342589025,3.7578670768939864,-0.03417311641349626,2.2668167910799584,-0.00023394664783674135
0.39197039104351683,-0.7761419786052008,-0.5552597337786479,-0.5940327353958544,0.22300203394921003,0.8789274799255669,0.0,0.0,0.0,0.0,0.0,0.0,0.0,15.799047484266955,25.654755741061535,0.40345039866421417,3.0393798618638117,-0.0004727730468079283
-0.19620824985960297,2.4566856003919897,-0.035918719781429194,-0.2772883883651126,0.7672674660201073,-0.09444815797133438,0.0,0.0,0.0,0.0,0.0,0.0,0.0,-20.294886464610308,-17.3402189745982,-0.5339355647984823,-0.5424002414413849,0.0001443599569438403
-0.29466800360559586,-0.16138611325187158,0.07711244789188373,0.021323086642845695,0.4595303369029883,0.908372181146615,0.0,0.0,0.0,0.0,0.0,0.0,0.0,-14.148681773348681,24.930149810645887,-0.14841750657313768,3.145626800592238,-7.297112828442975e-05
-0.5807949961235139,0.36264775847246344,0.008401226606227863,1.0368736823603926,-1.1870715141369803,-0.2531735042509079,0.0,0.0,0.0,0.0,0.0,0.0,0.0,-42.427598495200606,23.439475554474015,3.019704114244742,-0.5871622910053507,0.00023325100034377044
-0.4347763972118343,-0.955320345503075,0.21077836901803837,-0.7116009407971537,1.094865477062947,-0.6457244655004292,0.0,0.0,0.0,0.0,0.0,0.0,0.0,43.369318346089095,4.553497509717401,0.9044153445601253,-2.794291784770223,0.0004954756727259535
-0.6621509388175012,-0.49709933562070124,0.49070733281563533,-0.8902464733949533,1.8752808525387472,0.8909342621301554,0.0,0.0,0.0,0.0,0.0,0.0,0.0,21.341459529391514,7.485566611090276,1.636862558649885,-3.696868025605793,-0.00018004879944388819
0.2414402481435114,-0.003033841212485121,-0.0376060731935175,-0.5571508564468856,1.035418884701638,-0.7834454045700017,0.0,0.0,0.0,0.0,0.0,0.0,0.0,-23.692991453433418,25.413773011636373,1.769353583197521,1.8990172163072998,-0.0002057407332367589
0.9700828462089941,1.0091521446158127,-0.9564261587438614,-0.6181917860301169,-0.4340978706554459,0.08856113559042646,0.0,0.0,0.0,0.0,0.0,0.0,0.0,-39.05692181457523,-8.871095684031623,0.4209248122996734,-2.7622605958971578,0.000476416472011576
0.9366598544663793,0.9952501120575779,0.22058702982243564,0.30181536175446444,0.4506365161502439,0.31168290281357164,0.0,0.0,0.0,0.0,0.0,0.0,0.0,-69.86135247550452,22.382608355777258,-0.4578489773902574,3.77318067457513,-0.00033437034011285505
0.19313268337781242,0.7731962135650091,-0.03345183843232181,1.874449316624129,-0.17742694128489933,-0.24428769374900872,0.0,0.0,0.0,0.0,0.0,0.0,0.0,-60.10731771247338,20.984534145980692,0.5023521567708947,-1.3596363537048375,0.00033901974008054836
-1.4146042052990966,-0.36750198070596035,-0.2525692275538873,-0.9630301394876195,0.5368893133661925,1.096121353479108,0.0,0.0,0.0,0.0,0.0,0.0,0.0,-3.859971989278252,25.997565016403943,1.647769856583843,1.7611205589146621,-0.00056121426051714
-0.5262792431400167,0.6709071610221558,-0.6202123567097491,-0.7627738222137086,1.2314434640352694,-0.15391156506552556,0.0,0.0,0.0,0.0,0.0,0.0,0.0,-46.932966102111344,12.334265784832763,0.7156854971148284,3.9945615308932165,-0.0006831171988852525
-0.47987712496966356,1.0805723615991283,0.10988511048696158,0.7811689021733771,-0.3130006810942952,-0.23418102758013185,0.0,0.0,0.0,0.0,0.0,0.0,0.0,-66.95721165310916,16.86894576296691,0.4569341654120653,0.523053177436763,-1.3370493217923496e-05
0.7360095845418382,-0.32526762785742647,0.512539931966763,-1.147497937394806,1.275257204335312,0.028506816109722388,0.0,0.0,0.0,0.0,0.0,0.0,0.0,7.043335320006874,12.828388052285533,2.3649750913111234,-2.5906265464314666,0.00016634013332339492
-0.25617779841871685,0.14355772536400763,0.8308098413604823,0.015195387450464738,0.803088457936984,0.10986800846809203,0.0,0.0,0.0,0.0,0.0,0.0,0.0,-23.067248913676288,16.35685305160952,-0.12312395668709888,0.33017400786135376,-4.1261501352904406e-05
1.2696015893918435,0.9763226270536871,-0.19574449800849333,-0.5493003965446752,-0.45349525295262394,0.5182324321550151,0.0,0.0,0.0,0.0,0.0,0.0,0.0,-58.59555830558308,11.743229444796157,-0.40259738251590815,-0.43619235402965373,-8.122222563300419e-05
-0.516842829383306,-0.5082609720611686,1.3427739338432634,-0.27449625186516596,-1.9444988060590658,-1.764728098892835,0.0,0.0,0.0,0.0,0.0,0.0,0.0,34.663099645177226,-5.281012718880631,0.3169989745935381,4.07307677538995,-0.00025706122579938206
-0.7900674615442492,-1.1131941316306495,1.370406176041159,-0.6663805970531352,1.4260579680943735,-0.01269399453046141,0.0,0.0,0.0,0.0,0.0,0.0,0.0,74.90646622655728,-22.54976199403616,-1.9162186657368938,-2.853506065392816,0.0005874574997264403
-0.07425423877060591,-0.21548022190675173,-0.15912310485379544,0.6839063640770617,1.4047395791598956,-0.1843702979486626,0.0,0.0,0.0,0.0,0.0,0.0,0.0,-9.605318544815038,23.431409420506558,-2.643394209924324,0.297332867751118,8.781216335407294e-05
0.3846086319757127,-0.048288879404584734,-1.0282361327433711,1.3497070858241442,-0.11001674302032356,-1.3203374365343732,0.0,0.0,0.0,0.0,0.0,0.0,0.0,-13.082636735498452,17.40722657744569,0.23081014582553983,0.12461048104991201,-0.0002918605525515372
-0.8383792247610216,0.8359387813614234,1.0417395304952135,-0.05636786791450987,0.7383059291187595,0.24181883785418196,0.0,0.0,0.0,0.0,0.0,0.0,0.0,-66.14927745241707,24.451018107957143,0.04064481297162245,2.403956919281981,-0.0003271717215200254
0.784935236184442,0.9937755431555358,0.3881764348449752,0.7363131853883633,-0.9619431803249544,0.054728238014791965,0.0,0.0,0.0,0.0,0.0,0.0,0.0,-68.5730058831496,21.142455342906896,1.7902871545952495,-0.4871458096149883,0.0002724760459020814
1.38314676324979,-0.18330514507578918,0.47370235780064596,1.3904074011047216,0.09897005092826598,1.6572801797030596,0.0,0.0,0.0,0.0,0.0,0.0,0.0,-7.769741305815303,19.789202073278922,-0.33173767104211904,0.3330674048231743,0.0004839184861482049
0.44050858417699745,-0.13781376258835973,0.3151918993023088,0.428787419472871,-0.02258522998925928,-0.06383122637749353,0.0,0.0,0.0,0.0,0.0,0.0,0.0,-13.821724554688211,23.266056256697922,-0.058824591886303124,3.3978563754991367,-0.000413461959954637
-0.12540699243033804,1.5562000543309167,-0.4560294399146975,-0.10864515150721286,-0.4312858784898911,0.012945978443554135,0.0,0.0,0.0,0.0,0.0,0.0,0.0,-47.204266294075495,-10.366893782139563,0.12814491564804237,-3.136692757075361,0.00048011033140702396
0.982848531250146,-0.4310566002079237,0.027476902807297438,0.8937552078331911,-0.885210423359912,1.3126769310744821,0.0,0.0,0.0,0.0,0.0,0.0,0.0,2.7738533300759705,22.697769140036016,2.158016681688708,2.867409046385629,0.0005889759191157751
-1.4204216797578113,0.3937637667531418,0.5931928742833793,-0.09824306049651943,0.05480265762572942,-0.48416155438019237,0.0,0.0,0.0,0.0,0.0,0.0,0.0,-46.734518585248814,26.06308492499422,-0.0900942902765719,3.955082637000258,-0.0006722224599230789
-1.051940561266958,-0.49995118324488824,0.6045912250025927,-0.4637866826547778,0.5961562790152748,1.4556332704471686,0.0,0.0,0.0,0.0,0.0,0.0,0.0,21.539501284588564,7.429689680745082,0.41788791984744983,-0.6926821410269091,-0.00017400390128308185
0.27710187603102415,-0.2619626121676949,0.9290910633492683,-0.7304800692786689,1.0631737467798827,-0.22560204154412375,0.0,0.0,0.0,0.0,0.0,0.0,0.0,12.36245788660211,4.047859133841323,0.855936733669035,-2.781711970095395,0.00040830817391279695
0.055655163898750165,0.4517130546726447,0.6732251014206952,1.0076825851705011,0.4308662037174137,1.1182736596861667,0.0,0.0,0.0,0.0,0.0,0.0,0.0,-49.133005458100456,25.381212414530797,-1.47358559622943,1.5665746508348928,0.0005865779710068075
-0.3429576333246039,1.0408363730750303,-0.05304993877506836,0.6541500411024264,1.012417090993714,-0.10331541653799747,0.0,0.0,0.0,0.0,0.0,0.0,0.0,-65.51952574212503,16.60231337230621,-1.0144497614838608,3.8866241046251933,-0.000534006337710391
0.6627278780212302,0.4316933113489476,1.4565866914914731,-0.5236139403550394,-0.6783264692538311,0.19065701508718816,0.0,0.0,0.0,0.0,0.0,0.0,0.0,-35.726898822701926,13.030781462923535,-0.720446181262258,3.6400553394764694,-0.0005919484118070972
0.08815884591784641,0.20331329226898376,-0.3621654869531675,1.6026714419201207,0.9833299800691538,0.10901140441481574,0.0,0.0,0.0,0.0,0.0,0.0,0.0,-33.01003993573126,22.893932426241903,-2.881194768962028,1.7700603206167682,8.894759330591029e-05
-1.9335332581473947,-0.2367988745171238,-0.5383370404972972,-0.81159454151254,0.0735908077668929,-0.1486764438218946,0.0,0.0,0.0,0.0,0.0,0.0,0.0,-11.93254808872345,26.94791321529744,0.13371410668049785,2.7814154343479807,-0.0006089562593147024
-0.30344855324632913,0.6314220310273789,0.4738694487549647,-0.19055327046029635,-1.144300645340823,0.37352853226842514,0.0,0.0,0.0,0.0,0.0,0.0,0.0,-57.156541181592324,24.40368095773332,-0.8101933662260444,1.06026367123013,-0.00021566292610564197
0.2886571308381493,-1.2963232931472959,0.8817912204379408,-0.22922233514526608,-1.779835040920341,0.39718315247141023,0.0,0.0,0.0,0.0,0.0,0.0,0.0,67.78071639553512,-11.917885441534498,0.5843699053659206,3.772523637104314,-0.0003297355086746556
0.6669352722078241,0.01929849788139223,-0.503348612696222,-0.2658879976382262,0.23337619912879695,0.17351226961423144,0.0,0.0,0.0,0.0,0.0,0.0,0.0,-24.99712649313355,25.43135690571696,0.1205059193396463,3.814064276865496,-0.0006055117755835449
0.8727500390946741,0.7908560766003879,-0.00391054660668518,0.15945273168683552,-1.5628307080949329,-0.5839888196840793,0.0,0.0,0.0,0.0,0.0,0.0,0.0,-55.26348667375331,15.399777579462281,0.37748650414706875,-2.9080213677699938,0.0004851753002519388
-0.46835695373546166,0.8393579769549016,-0.6671257564223572,-0.3660082670684038,-1.382917181782141,-0.3402568302216807,0.0,0.0,0.0,0.0,0.0,0.0,0.0,-42.56483052721234,0.7308451093382757,-0.09966361044864981,-3.97985029465145,0.0006645963369045216
0.9821033575077239,0.05551511362445738,-0.17674745096730327,-0.6235027676663804,0.2908071540139709,0.6800939151930573,0.0,0.0,0.0,0.0,0.0,0.0,0.0,-28.894603698879674,27.24224141471777,0.5785243885398386,3.3790645100211147,-0.0005852855862780171
-0.8163268025058077,-0.31565724950227825,-0.4831894196904818,0.17002513005453238,0.5774561354595873,0.9580806706460667,0.0,0.0,0.0,0.0,0.0,0.0,0.0,-7.697327392249595,27.048358310899843,-0.484600540455813,3.7175926440535374,4.350637812111646e-05
0.006645508561018217,-1.0166553215096688,-1.6558504780892336,0.8766511761587739,-0.47327756073379873,0.3736160913639772,0.0,0.0,0.0,0.0,0.0,0.0,0.0,27.32420203824523,22.469546063836844,1.0962243714123043,0.7596276314405732,0.00024617921140601684
1.0458450600657867,-0.22701195385693318,0.25121278506654837,1.1304456030067298,0.6600670209558167,-0.6047925195837717,0.0,0.0,0.0,0.0,0.0,0.0,0.0,-7.152695553865537,21.62290596135087,-2.065601515866078,0.06879323378997437,-7.111033460471816e-05
0.7490488718057626,-0.11826015930243482,0.21959449770869585,0.26761063811657293,-0.1754388449758183,-0.32958282196289024,0.0,0.0,0.0,0.0,0.0,0.0,0.0,-16.575115162374143,24.906259082676947,0.07464077900884239,3.916643689121253,-0.0006261684056972638
-1.4252260022592562,0.552949658133522,-0.30141404139734806,-0.5296267374980359,1.5818769789424558,-0.291175504810325,0.0,0.0,0.0,0.0,0.0,0.0,0.0,-49.0115890091738,20.075812161320023,1.2974224508094714,3.0710012246346015,-0.0005576802379492207
1.3488377493461456,-1.069231377800407,0.6840083165518016,0.5083296786126831,0.7759075505565742,-0.3411818824455838,0.0,0.0,0.0,0.0,0.0,0.0,0.0,61.26346080646985,-10.014771045871269,0.2721154719586709,-3.2927780610080335,0.0005424130995881349
1.05717055284107,-0.6088805078866142,0.06169142929262281,-0.6965141935098682,-0.4137780334061897,-0.8202840071370686,0.0,0.0,0.0,0.0,0.0,0.0,0.0,14.220022687990788,19.992389371028363,-0.8985955811400381,3.2856116759382417,-0.00041819613194193916
1.592112589232535,-0.5641937487108917,-1.414829180661868,0.7243993906157503,-0.07812291235975058,-0.367713602014413,0.0,0.0,0.0,0.0,0.0,0.0,0.0,12.197347237051083,19.90973172020696,0.08354093951186861,1.7810229398444037,-0.0002600769337722658
0.4461301020837149,0.610941156820699,-1.3638707535012713,0.9621901528446666,0.05494088302845651,0.36181724726617626,0.0,0.0,0.0,0.0,0.0,0.0,0.0,-23.78808790949457,-7.987042741753606,0.0982460909270601,-0.7146921493520211,-9.131117343576592e-05
1.232500035620993,-2.9016783016074985,0.0510467405836503,1.6945707656682096,0.16573916593574353,0.9779855268605945,0.0,0.0,0.0,0.0,0.0,0.0,0.0,39.39073605192971,-27.205648606699484,0.6458715441123828,0.3640842816229928,-0.0006822006087503496
0.7269532042442957,-0.1497241957506764,-1.4960869498464284,0.4258100964628561,0.08658575542702827,1.7074572186740913,0.0,0.0,0.0,0.0,0.0,0.0,0.0,0.9476030419678111,9.173047862499478,-0.05558168904792769,1.1748575248655126,0.00016993059798461885
-0.2824131464469119,-0.290590886375874,-0.42079498249825714,-1.059720801600243,-0.6826528657189033,0.105523471192704,0.0,0.0,0.0,0.0,0.0,0.0,0.0,-8.333481772246397,26.318123225337587,-2.2961694906170527,1.2087198275067994,-0.0005111976015532704
-0.9365239262687576,1.313684311615117,-0.7475220140574096,-1.0157715982411246,-0.5159696399564483,-0.5932531932106156,0.0,0.0,0.0,0.0,0.0,0.0,0.0,-44.45780381445294,-10.855517234457606,0.8393966410723608,-2.67371630258787,0.00042535567440549205
-0.3162055121627195,0.17615933070376624,-0.5306435919217422,-0.30202528326884626,1.1693024144214033,1.70442156314918,0.0,0.0,0.0,0.0,0.0,0.0,0.0,-31.641355762341835,23.06911418146172,0.7726059028862234,3.620026173143751,0.00023573308246827018
0.1066363631074132,-1.4693473098693968,0.5737420308717965,0.895661093492649,-0.34542762525382104,-1.1175828980120415,0.0,0.0,0.0,0.0,0.0,0.0,0.0,71.48621165807445,-14.025926827053258,-0.4611220346135405,0.1392202808029861,0.0001243840299149923
0.6096493394661765,-0.26092531004503455,0.4430346979181923,0.7329095603162905,1.0151401474212436,0.24804049959517407,0.0,0.0,0.0,0.0,0.0,0.0,0.0,0.5900292837893123,15.762984187610156,-1.8438538130210116,-1.0303683693856174,0.0003698149605244616
1.5735032289276887,-0.670115931782777,-1.3551651768857238,-0.7769469157988286,-0.031797187760866326,0.6009120153871879,0.0,0.0,0.0,0.0,0.0,0.0,0.0,14.05900836503271,22.926640721281125,-0.1342485386172751,2.183363023065714,-0.0005055275361927902
-0.8621803338150189,0.8089916074733499,-0.40075651761955655,-0.32069644270729614,-1.2833729603248125,-1.3950326324844349,0.0,0.0,0.0,0.0,0.0,0.0,0.0,-48.461813606300595,7.850163106292479,-0.47680910896404427,-3.293522810248959,0.0004096223150586997
0.6146982718340388,1.1820007518155078,0.009759083010150077,-1.2598690283406881,0.3036471618496688,0.19643897197547988,0.0,0.0,0.0,0.0,0.0,0.0,0.0,-66.34830978388268,13.633403118372039,0.43992345989931975,1.5964908559678506,-0.0003731030412690295
0.19918731383601,-0.03144399632312853,1.0327296074364027,2.189666502842699,1.8450289456019082,-0.5676949342106395,0.0,0.0,0.0,0.0,0.0,0.0,0.0,-6.860166096501193,10.216313351298421,-1.5301206203482014,-3.14340902549315,0.0005131900162731462
-0.2511634795760233,0.428016101956798,0.31885743419496887,0.5691991762779633,1.2574266934503635,-0.36093823166217787,0.0,0.0,0.0,0.0,0.0,0.0,0.0,-47.419220672892,24.91801031962678,-2.188768070228315,1.4855974261167795,-0.0001986378608256345
-0.020845230395642317,-0.9647211523717808,0.4450250634091919,0.16655423940186345,-0.8106679788160497,-0.30428774038260453,0.0,0.0,0.0,0.0,0.0,0.0,0.0,44.02512378536068,4.196328012601221,0.06101241582839415,3.3851363893194626,-0.0005602301110108066
-0.7064467000473432,0.23889545059331102,0.22440097292598016,-0.17552447023593085,-0.9605659091846619,-0.26651030058631764,0.0,0.0,0.0,0.0,0.0,0.0,0.0,-37.60011122813272,25.472412050898555,-0.7003592281079983,2.2679218490074753,-0.000402645851102168
0.6580947651467036,-0.41917002850311136,-0.1557395044230372,-0.3220764992250815,-0.11761701682932146,0.22740758137494643,0.0,0.0,0.0,0.0,0.0,0.0,0.0,-0.7609183571818603,25.616399383831656,-0.25214212287219195,3.8604863443877653,-0.0006315365543462792
-0.032483250491830234,-0.2221048994046056,-0.04086454090511667,-0.4612559519636119,-0.5420215564977173,-0.7310017173076537,0.0,0.0,0.0,0.0,0.0,0.0,0.0,-11.819062599900716,26.01541347432424,-1.0282006722148003,3.4805187516232365,-0.0005044947589771809
-0.8877715092439363,-0.009292833149379126,1.127306444916885,-0.8156801458247744,-0.24343132650694474,0.6220568705275993,0.0,0.0,0.0,0.0,0.0,0.0,0.0,-7.21634550897342,9.297577059678348,-0.336306254797571,2.047542200000091,-0.0003434992216334587
-0.2422670801405159,0.876995796808301,0.6513028693364572,0.9008330736551111,-0.10607821445604373,1.1015018623209447,0.0,0.0,0.0,0.0,0.0,0.0,0.0,-70.38885340812703,27.09349121099634,0.2638125606759214,2.3737969786332727,0.0005439808516757294
-0.2747127638398776,-0.305094797700246,-1.0688681950994308,-1.311076653508929,-0.6278907204855201,0.1254157474275191,0.0,0.0,0.0,0.0,0.0,0.0,0.0,-1.9938521857156855,20.770547344484356,-1.7052498061520778,-1.05235972457383,-0.00013921550530548998
0.77282985539308,-0.5671769726416851,-0.5493280328302069,-0.8134254822184901,0.39910612010731394,0.5210754572988042,0.0,0.0,0.0,0.0,0.0,0.0,0.0,5.41574124433011,26.83393089964367,1.0805160547149018,2.5707414511539497,-0.0006599479883004911
-0.5737398340751979,0.5294977422608523,-0.9997439796865413,0.644045890271741,0.7416237813281727,0.2937556728140506,0.0,0.0,0.0,0.0,0.0,0.0,0.0,-33.910347581724906,6.1509885509721185,-0.07297885511853512,2.871695350112062,-0.0003300338239959899
0.06641695109529243,0.04412831300086327,0.8367688690459458,0.09101591699134137,0.3151950309945448,-1.5898983021484385,0.0,0.0,0.0,0.0,0.0,0.0,0.0,-16.996310179585873,15.999885368043433,-0.1610589039660617,1.8220425763807109,-0.00018210826633688337
1.5579364106695222,1.1523552082007393,-0.38891120929764855,1.715391532106471,2.0438786729200054,0.4484497527148393,0.0,0.0,0.0,0.0,0.0,0.0,0.0,-54.90850470514779,2.906371430559904,-0.10632416135104406,3.6620566140110613,-0.0003466554692108659
-0.3667767747613527,-0.36660563124393647,-0.2690211573763322,-1.9135713904116938,-0.607692635339715,-0.3103915197515416,0.0,0.0,0.0,0.0,0.0,0.0,0.0,-3.910893722835231,26.000793577669487,-2.1595687424409924,-0.8992217260755564,2.789092260391257e-05
0.8924157539192978,-2.0465363815828996,-0.7855261333303781,0.7988736818547125,0.32244025458910097,-0.15259276390723356,0.0,0.0,0.0,0.0,0.0,0.0,0.0,45.824394785809304,4.671152873856958,-0.30855677944705173,-0.4108918437728233,0.00011725546379764973
0.6202928062175248,-1.0802578027426544,0.5225506895367598,-0.09396506985681019,0.47713306447432063,-0.647006909206836,0.0,0.0,0.0,0.0,0.0,0.0,0.0,57.19839630972419,-5.662410568471069,-0.0020142646113039363,-2.0011885639906453,0.0003356114118716613
-0.6202224256355525,1.6628078379481428,1.0341977762138395,0.590501584189758,-0.22113706048707027,0.34303198402226576,0.0,0.0,0.0,0.0,0.0,0.0,0.0,-80.6844215060191,23.18615885513954,0.32906504656442237,2.161836877160903,-1.0568814927003345e-05
-0.2831396827151062,0.20539747923717988,0.26137311000491154,-0.7953008882145358,-0.8439347431653718,0.045286221283078056,0.0,0.0,0.0,0.0,0.0,0.0,0.0,-36.0020982628189,25.767785963006588,-2.2679332480649808,2.0788980512414774,-0.0005590710728693438
-0.7150041688706696,-0.2719036869543173,0.42426662158558665,0.10734980912130088,1.0010187121531144,0.26882763857734154,0.0,0.0,0.0,0.0,0.0,0.0,0.0,1.5816396397936636,15.376946484886368,-0.3714683783480389,-0.52695133249488,0.00010422388389647042
-0.20548143969221125,0.6479450438337514,-0.384021748317841,-1.0049243354645232,-0.11676759754896873,-0.9164384343351499,0.0,0.0,0.0,0.0,0.0,0.0,0.0,-49.86066515713715,16.329011768136475,-0.2385927627204298,0.7116854472799421,1.2234692199242225e-05
0.11959453978003752,0.5002492852027802,0.0717814994386063,-0.8701735282458416,1.2658413355148312,1.2081218712038198,0.0,0.0,0.0,0.0,0.0,0.0,0.0,-50.727995230576866,24.457143487714383,2.6567857760714406,2.350748901320765,-0.000426271510249876
0.6971174619450468,0.1421271583619285,0.7133231256544869,-0.5030669052831619,0.40551432860288134,-0.6205174559783381,0.0,0.0,0.0,0.0,0.0,0.0,0.0,-26.883336867749176,20.25481709359071,0.5726495985702769,1.9052440893229203,-0.0002865381952972257
-0.5785522953648148,1.1914398276109006,0.5719765847047162,-1.2375334423514222,-0.2667838941613298,0.6649982611530771,0.0,0.0,0.0,0.0,0.0,0.0,0.0,-76.53924742827296,23.6070896855296,-0.8638022867794366,0.42608832717434364,-0.0005210733545260027
-0.3755118103332611,1.3463970531261986,-0.7422486628626984,1.4569762541587856,-0.6913317843105531,0.41519103348722447,0.0,0.0,0.0,0.0,0.0,0.0,0.0,-44.97718770853032,-10.83450155342438,-1.2814052393933304,-2.4530626765104193,-1.702155121874327e-05
-0.38501164451437364,0.12054288517376088,-0.018928139229010998,0.8509665891435836,-0.1536410642548653,-1.9306439592351603,0.0,0.0,0.0,0.0,0.0,0.0,0.0,-32.64967964670605,27.258050141987535,0.3930602308037605,2.5621378098560443,-0.0005740811760086562
2.670164043436275,0.11215379386443203,0.24886031329295194,0.7050233720866279,0.5401375332876744,0.10347688866316217,0.0,0.0,0.0,0.0,0.0,0.0,0.0,-30.704093030101387,25.79391132443482,-1.4418637702605865,2.369610725662019,-7.819092795768867e-05
-0.7153689544070801,0.8261283117141336,0.005425921962941161,-0.6397663843154575,0.4839373338898456,-1.2947039203466453,0.0,0.0,0.0,0.0,0.0,0.0,0.0,-62.85765137384175,21.551522268472503,0.7152448551070032,3.385934531708541,-0.00019909891597524876
-0.10307150247555628,1.0212375151680513,-0.20271123025130078,-1.0621963080243109,-1.1828741282850668,0.012689475480265281,0.0,0.0,0.0,0.0,0.0,0.0,0.0,-57.79957989900568,9.488521434469371,-1.147629111295766,-3.318005417101462,0.00039001642234293143
-0.25875421318741637,0.38741383597694407,1.8466172275720691,-1.0605810781705536,0.13698831658581986,1.2992842182989768,0.0,0.0,0.0,0.0,0.0,0.0,0.0,-20.086215346835843,-0.24327283717638437,0.04824789501011964,-0.3353792356999632,-7.882889855415076e-05
-0.021047127569046396,-0.38651599061338726,0.33281086246689706,-0.40777611113321505,-0.7418979308550128,-1.6456348297211045,0.0,0.0,0.0,0.0,0.0,0.0,0.0,3.745358602261953,19.399685250936834,-0.9064071106657148,3.918674842024058,-8.376885875494011e-05
-0.7075876169624732,-0.18947381231754132,0.2741823225080498,0.28818218274745255,-1.200225283895696,-0.4607843588326785,0.0,0.0,0.0,0.0,0.0,0.0,0.0,-9.999079207603497,22.365932332347484,0.8748081177633928,2.9871006891575025,-0.0005000315154894963
0.8258889282149018,0.2918032030323047,0.29273421596804544,1.3615180064862633,0.10177161624815026,0.6725891412076108,0.0,0.0,0.0,0.0,0.0,0.0,0.0,-42.29960336615017,27.209978246626292,-0.4311772524545209,0.8483434334317934,0.0005719732434640301
0.42244495906825996,-0.2491583839125215,-0.2966931457330472,-0.5312089007740916,0.2845944640122781,0.18159211167768152,0.0,0.0,0.0,0.0,0.0,0.0,0.0,-11.525176273205847,27.22693391755674,0.48468820730996764,3.4491811935141605,-0.0006770187883995415
-0.29339183081254794,0.4521286494131107,-0.496344151451987,-0.6256529814643813,0.12933971005341927,-0.7291174579251765,0.0,0.0,0.0,0.0,0.0,0.0,0.0,-42.40453182943587,18.630923156362787,0.1267556981253947,2.3545954354667114,-0.00033462234719672246
-1.016658966407939,-0.42150033927873864,-0.7506665892406648,-0.788156172905987,-0.5250362722130533,0.5774913308225726,0.0,0.0,0.0,0.0,0.0,0.0,0.0,-0.7720931121016739,25.748645486707424,-1.4576542137412316,1.7053848534273301,-0.0005491022741337392
-0.9186539491363708,0.017302436574580478,0.5180481745571317,-1.542214231204336,0.3267195578092681,0.04352446815867378,0.0,0.0,0.0,0.0,0.0,0.0,0.0,-21.67591919899271,22.225159667042945,1.1524697149270149,-0.5350379543444184,-0.00023737552978397858
-0.6011511893160542,-0.31216566276406404,0.40004601809731394,0.6323551875089374,-0.8263413731199778,-0.5781351509047923,0.0,0.0,0.0,0.0,0.0,0.0,0.0,-0.17855397912571766,19.339964793813433,1.281180398190959,3.6725065367576883,-0.000646255253899497
-1.0217019442608837,-1.2802894529493978,-0.4260409176247715,0.21528576395328367,0.15638186819646954,-0.09187398821873144,0.0,0.0,0.0,0.0,0.0,0.0,0.0,40.429349665669776,15.199853562117676,-0.1631452287214997,2.1206011207172195,-0.00029192868906256775
0.3544555126079541,1.095416340571074,-0.11002871147033721,-0.2979638618894323,0.40500171063498275,0.5511023123277773,0.0,0.0,0.0,0.0,0.0,0.0,0.0,-64.31928593384433,13.813747884189185,0.13065606724784498,2.799832542346458,-0.0003001418104255915
0.8114476927695814,0.330319519231897,0.9457590531611806,0.13105561032448668,1.2370884571998069,-1.1264865721842698,0.0,0.0,0.0,0.0,0.0,0.0,0.0,-33.30404184884188,16.08425730899634,-0.506621295606175,-1.1514832064290736,0.0001143814121935538
-0.9685222792243281,-0.5044971697089462,-0.4898862114453721,0.7637055153105856,0.18421626860311605,-0.11668670272675133,0.0,0.0,0.0,0.0,0.0,0.0,0.0,2.0832205879834027,27.112100558680776,-0.6026719125666735,2.9045549730921616,-0.0002780272169479181
0.9135993574628213,0.15272053004018826,0.7460593838990283,-0.463121528846729,-0.7299197264714405,-0.08092816595744501,0.0,0.0,0.0,0.0,0.0,0.0,0.0,-28.654800727271542,21.42032003307225,-1.0991827155078928,3.8009293624151095,-0.0006944469695915334
0.10119079956745967,-0.05967621640898157,0.3311935640004393,-0.5107834023874381,0.2505130086070296,-0.16259301098776946,0.0,0.0,0.0,0.0,0.0,0.0,0.0,-18.61086415325097,23.589454113736885,0.36767793739467663,2.821024207366495,-0.0005558861840296858
-0.1342767269163405,1.0222353493099965,0.5768737577549359,-1.9667691340697608,-1.7803269503583916,0.13374089663841587,0.0,0.0,0.0,0.0,0.0,0.0,0.0,-70.41316255329397,22.070792722501583,-3.3044635651777314,-1.43281537623748,-0.00014663852372009956
-1.2552455598534458,-1.1119228851429965,0.5647023107161706,0.7641567660238198,-0.6984057262525853,-0.31231979435517465,0.0,0.0,0.0,0.0,0.0,0.0,0.0,56.02996316530771,-3.7038881131919954,-0.18426197592377352,2.3859268326457466,-0.00040740934857042
-0.10610722401920854,0.9379030251549372,0.5502261053071364,-1.0550574757302311,-1.3177089039170127,-0.0832832955037963,0.0,0.0,0.0,0.0,0.0,0.0,0.0,-68.2923550917557,22.762912478592433,-3.254185873908633,-1.033627226387928,-6.582684567746355e-05
0.35006596032512693,1.1622948707556167,-0.32998529058961507,-0.7995252934380765,0.36327870911429255,-0.009351787455494085,0.0,0.0,0.0,0.0,0.0,0.0,0.0,-58.36746960596736,6.121230798628657,0.07579079865080703,1.664257602688667,-0.00026784881363139945
0.021456322425766873,0.5460749367467818,0.35378485860278186,-0.8522985767595165,1.049594275375234,0.12363944834322277,0.0,0.0,0.0,0.0,0.0,0.0,0.0,-54.32342260564915,25.730882212432597,2.557382683655839,2.001885939222687,-0.000576229840327791
0.16443326370058603,-0.33991925079278285,-0.4052313235625543,0.8479925315552168,-0.8856070924839123,1.6914271110920904,0.0,0.0,0.0,0.0,0.0,0.0,0.0,-5.056471741802519,25.718475247148056,2.3048852541144327,1.5074784962081562,0.0005733499142488441
0.6538985354400931,0.9948688143146527,0.6993208308438618,0.8408577124200749,-0.3342945234303514,-0.03954335268873872,0.0,0.0,0.0,0.0,0.0,0.0,0.0,-73.86558227273991,26.39929027842815,0.8877184675231765,2.081962759208519,-9.681455855270471e-05
-0.31949532927686747,-0.07213165704935742,0.015394346170493876,-0.4118424847531055,-0.39521325715246003,0.23885223089654284,0.0,0.0,0.0,0.0,0.0,0.0,0.0,-20.988379870348542,26.681571241765,-0.7350103787987079,3.597793627517886,-0.0006389977492042842
0.48683187268947253,0.6315253256282163,0.028938042173786233,-0.7079874528180765,-0.6214616726117081,0.28436429109782785,0.0,0.0,0.0,0.0,0.0,0.0,0.0,-55.22944937681001,22.47169248328215,-1.352726204805959,0.7340809402110189,-0.00035174706169627257
-0.5620038131848719,-0.6014052349589369,1.0770394438835011,0.6786783373733681,0.7815944830403633,-0.03771441037771837,0.0,0.0,0.0,0.0,0.0,0.0,0.0,41.732522595623394,-7.867648734747247,0.20465825241448532,-3.119456127973305,0.0004534523023975723
-0.4195358254693159,-0.4958271039104367,1.7496661509562301,-0.6679714932723707,0.0095174920706748,0.06979793489811115,0.0,0.0,0.0,0.0,0.0,0.0,0.0,48.1342781554947,-19.3707485577381,0.041136350597459626,-2.043976967940493,0.0004375953448873173
0.21202660988295574,-1.0850825918198044,0.2509161763339392,-0.4003742729495387,0.664632683246835,-0.7476785989920514,0.0,0.0,0.0,0.0,0.0,0.0,0.0,50.67865649005773,0.9810715632367693,0.2051398825631126,-1.770871520575307,0.0003068657869869096
0.7675926828242989,0.9295829102511164,0.30419900451820114,0.6382450035433628,1.0500315317562992,0.4627473682092926,0.0,0.0,0.0,0.0,0.0,0.0,0.0,-68.98510748296472,23.75106866882352,-1.7948342804540456,3.415806757285459,-5.5990783185855264e-05
-0.28219813308644803,1.0795654271026076,0.6164737484621345,-1.1758339200911532,0.06297369785269565,0.34196611867809423,0.0,0.0,0.0,0.0,0.0,0.0,0.0,-75.81345250202484,25.753892843920443,0.17363378469008092,1.5260581356458411,-0.0006015989209344763
-1.2579404086399055,0.536887205130798,0.14010691091674796,0.3878575079462854,-0.45772750328536377,0.5394500096003951,0.0,0.0,0.0,0.0,0.0,0.0,0.0,-53.32184063722384,25.19012606384201,0.5356991392175088,2.4434571075383023,-1.3815504129599532e-06
0.16572454103010364,1.303868510850144,-0.23613658390381978,-0.07587534471454632,0.1916964623708249,-0.6435751591144383,0.0,0.0,0.0,0.0,0.0,0.0,0.0,-59.69502336425463,4.542813138805691,-0.001689529177499878,0.9058579193967722,-0.0001518903589120199
1.26510776892549,-0.15948310159567233,0.5816268050977597,0.5535134386628682,-0.4434159137659493,-1.4214635554818693,0.0,0.0,0.0,0.0,0.0,0.0,0.0,-8.205481488319437,18.879213990062905,0.6113298123593193,3.5170465878262007,-0.0005757670097490397
0.9766863653953689,-1.1085808179736825,0.4863869080811527,-0.736167638766018,-1.953850363001405,-0.32460548978617304,0.0,0.0,0.0,0.0,0.0,0.0,0.0,52.94090453657947,-0.6957558928352334,0.06386179615916246,3.8351827474660034,-0.0006392440863343118
2.3259467654976587,-0.5821028494014608,0.2955179528438884,0.40708819388254486,0.1326045354469104,0.4888502762278366,0.0,0.0,0.0,0.0,0.0,0.0,0.0,18.17386745644549,14.784901341729343,-0.204234815533758,1.97121341869568,-3.7178465578574516e-05
0.15207565577998317,-0.6666485077662859,-0.014895637020515665,0.1329311492582896,0.6970650374776052,0.5445622515169368,0.0,0.0,0.0,0.0,0.0,0.0,0.0,19.288418655571885,17.54380490536374,-0.36771360587867946,0.8825776358212751,-1.1965578655792619e-05
0.5204688197841295,-0.07638362555126674,-0.21402200394655432,0.34821739744208974,0.8033295018652915,0.5959239983068626,0.0,0.0,0.0,0.0,0.0,0.0,0.0,-20.572716562652435,26.509657908548462,-1.1050198844346852,3.060539979567894,-2.893230075362574e-05
0.7253881509127298,1.923001861516683,-1.1837930684678806,0.615400104145937,-0.6434909152517334,0.5137640093090972,0.0,0.0,0.0,0.0,0.0,0.0,0.0,-28.230396260872652,-26.366984647252657,-1.328555130972028,-2.7663180673094,-9.205763204245265e-05
-1.0538110037076904,1.1816569334186384,1.2334217754907661,1.4023743835079259,-0.4013841985119572,-0.4099312738820824,0.0,0.0,0.0,0.0,0.0,0.0,0.0,-79.44702407272482,26.740119551416267,1.5604266762636145,0.7158050927208306,-6.045090104578321e-05
1.0671249871500172,0.7392849351544378,0.21419829593089834,-0.1919514821347102,0.380068293246431,1.169661269754303,0.0,0.0,0.0,0.0,0.0,0.0,0.0,-63.2013603093143,25.535342881138163,0.15474086348187566,4.002643183770287,-4.8593911920469246e-05
-2.1590314051869393,-0.5090978662122226,0.6896956393876464,0.6275813398114732,-0.2118556095698331,0.12868330513423215,0.0,0.0,0.0,0.0,0.0,0.0,0.0,21.563775222821228,7.859783232960314,0.150722458168089,1.985958869600252,-0.00018564601838927386
-0.866071328472933,1.6167212983115655,-0.7034301949467371,-0.6152972809186205,-0.978073163028874,0.6312064867053703,0.0,0.0,0.0,0.0,0.0,0.0,0.0,-40.443479504190385,-17.166627490197367,1.402755353318164,-3.7695796223887985,0.0005210793071845909
0.9300997121416581,-0.23864167545410023,0.5454781909760202,-0.3160350097537619,0.8858927424925199,0.03352906945413997,0.0,0.0,0.0,0.0,0.0,0.0,0.0,1.1255026361689393,13.992351558676239,0.6227822807563613,-0.4975040352992277,-4.951733412195125e-06
0.025021526733057686,-0.23809516467499348,-0.863051107481192,-0.6201810011654655,0.46999658561948676,-0.9481433461664306,0.0,0.0,0.0,0.0,0.0,0.0,0.0,-9.270285000941712,24.35774983570952,0.8011458360190401,3.504375910669302,-0.00039280505279792877
-0.31531542437611004,1.9898351635671752,0.9832250343681523,-0.8610822761859762,0.36606083798446865,-0.9212253596744827,0.0,0.0,0.0,0.0,0.0,0.0,0.0,-71.01254441466557,17.76714059590678,0.5564255039368617,2.578304369218273,-0.00028302306476257755
0.4033919436142327,-0.8446062699525378,-0.15792071544152095,0.25546241161470135,-0.06688572063472098,0.3354350120143387,0.0,0.0,0.0,0.0,0.0,0.0,0.0,24.704306917041343,19.39027995628081,-0.03179100114914332,3.2400999052622037,-0.00026874593318291715
-0.23052347158383993,-0.4832368335070516,-1.2088326200986723,-0.3623503260039966,-0.6921761052171601,-0.5407531907773742,0.0,0.0,0.0,0.0,0.0,0.0,0.0,8.127756504644331,20.00490444051429,-0.775100170421297,0.4723951143250291,-7.226664501291946e-05
0.446370710754997,0.5598253814125728,0.264671092657726,-1.9545662524202019,0.48893068265821554,-1.0224652999549573,0.0,0.0,0.0,0.0,0.0,0.0,0.0,-55.54344221642957,26.265746743229414,1.7523627845216154,-0.7375012032336956,0.0004178859255623557
-0.15966429789666667,0.5948486507446333,-0.2139787500225454,-0.6243561282850758,1.294054879536548,0.14756139616392824,0.0,0.0,0.0,0.0,0.0,0.0,0.0,-52.21756023920755,21.220035490975384,1.5300281130563949,3.486457415733822,-0.0006418838685648964
0.7801918077937662,-0.5823593251115065,0.0024338520074633652,-0.15869996253297047,1.6136965273528479,1.6562936391774885,0.0,0.0,0.0,0.0,0.0,0.0,0.0,17.69091511476549,15.279974580787675,0.44721927032788894,-2.409325970626062,-0.00030210541574304806
-0.13214130613944863,1.1438607023999816,-1.3213556328411356,-0.06632040815851964,-0.20327245377458447,-0.33408074174451313,0.0,0.0,0.0,0.0,0.0,0.0,0.0,-31.93161975705108,-19.857826814102246,0.13196166811177265,-3.6485512052356603,0.0006168577733819403
1.0251988491694852,-0.028382122540258455,0.7454398767397036,0.2810016512724602,-1.3137368166229972,-0.10848206286890885,0.0,0.0,0.0,0.0,0.0,0.0,0.0,-14.756869135520308,17.936873432543347,0.7090984306306554,3.492904384528722,-0.0004958842935860464
-1.9186467982673303,-1.0628283760854842,-0.30438401117121594,-0.18851882927323765,1.1340917072354992,-0.4705919478229249,0.0,0.0,0.0,0.0,0.0,0.0,0.0,37.566625386186566,13.512370788740771,0.4245401502798557,-1.3208522269347047,0.00022149152558148533
-0.5048898479060057,1.6263630107976939,0.2168978690689501,-0.536099031979406,-1.0955308067206369,0.6851875718365024,0.0,0.0,0.0,0.0,0.0,0.0,0.0,-61.45415184509465,3.857327689104821,-0.31536846516835126,-3.344811685735424,0.00016145076841267425
-0.6689881967310479,0.015657822524869948,0.45431969991308085,1.1886839326126541,-1.3012243871265217,-0.9642163710357483,0.0,0.0,0.0,0.0,0.0,0.0,0.0,-20.716029576496517,21.360028612665594,3.286249705714096,2.050388452219872,-0.0005739663842385667
0.7060778394334735,-0.9661216092396624,-1.0029813084402517,0.3119107276114901,-0.36822732641875566,-1.3809513518204675,0.0,0.0,0.0,0.0,0.0,0.0,0.0,21.27062432679178,26.994951783223716,0.3444669327556552,3.589580870147574,-0.00055206759219667
0.9119412275119381,-0.22758491761405414,-1.0620313566439756,-0.19037058260991369,-0.8274949170181707,0.6455342343923118,0.0,0.0,0.0,0.0,0.0,0.0,0.0,-2.8751687890277564,17.37733334234871,-0.4595165384692058,-0.40810721506996916,-5.1986649773905214e-05
0.027703547788692974,-0.15217583645946675,0.011266002627086776,-0.5961430921853311,-1.3109563955890908,0.3654560545892289,0.0,0.0,0.0,0.0,0.0,0.0,0.0,-13.64888296949291,23.908572229689142,-2.2918857762323164,1.5067859510950452,-0.0004597619816202325
-0.6980509337090155,-0.9417673383857009,0.7095145768247111,1.2411518314846517,-0.5501943767170182,1.0761474265168527,0.0,0.0,0.0,0.0,0.0,0.0,0.0,51.73542422604913,-4.250594736900997,-0.16041011779436637,2.049621933052703,-5.174684120601292e-05
0.45020275670623255,-0.5951982016571019,0.5479940776458174,1.5110656418478658,0.2957436425094058,-0.6713535604666806,0.0,0.0,0.0,0.0,0.0,0.0,0.0,24.972816047617325,8.602043395887208,-0.4983134965652215,-0.9919340047922811,0.0001161616099225049
-0.8229098596928035,0.2853368120264699,-0.5571893101091335,0.7902302718061157,0.37997855408030845,0.23057815386539812,0.0,0.0,0.0,0.0,0.0,0.0,0.0,-35.57915017100614,20.84943201649441,-0.7736283319685651,2.9225796150620678,-0.00015051385269693185
0.8549183008121798,-0.1918464757404883,-0.267189614268741,0.496300124339355,0.30031756786663616,-0.569386153536425,0.0,0.0,0.0,0.0,0.0,0.0,0.0,-14.769037295062851,27.269383856127718,-0.6772571988023031,3.5310367900043946,-0.0006213534852179681
-0.5223530058064471,1.2691928326496082,-0.44146816237112746,0.3984772531974769,-1.0321858414200553,0.49962473550187253,0.0,0.0,0.0,0.0,0.0,0.0,0.0,-50.65259258728499,-3.8880376909775194,-0.17602294490569054,-3.7615239743600304,0.0003143733988131281
0.9509075992042869,-0.3644546187095194,0.07394796268032698,-0.21393076603017241,0.457644799794073,-0.13370206749882046,0.0,0.0,0.0,0.0,0.0,0.0,0.0,-0.29830915470380415,22.273685104653275,0.24743289984748829,2.489462960198561,-0.000442534382454729
-1.2200167259315224,0.6833063890489874,-1.2527705358479038,0.22571936174392784,-0.3332305362692023,0.01623791986246779,0.0,0.0,0.0,0.0,0.0,0.0,0.0,-26.99976712222108,-8.167574743261628,-0.06756890083818373,-2.6058723686330607,0.0003575842763495346
0.42250055835704947,1.8106849246475663,-0.8557930105005976,1.068678391897964,1.3641120863814458,-1.1660013400685438,0.0,0.0,0.0,0.0,0.0,0.0,0.0,-37.17746904995056,-19.140319147266627,3.181782735377886,1.4780402387799831,0.00013942872619598923
-1.1619300608619374,0.9461960521693931,-0.8402170625679353,0.7039744370670631,0.2786322587147884,0.5967358625070504,0.0,0.0,0.0,0.0,0.0,0.0,0.0,-43.64824756523875,-2.172500768265648,0.17493929667587166,0.4587928126607226,-0.00012152095327111478
-1.0490678232313055,-0.3593370057809288,0.3832643852660303,-0.8326721605652248,-0.15420557747318142,-0.02163973353483395,0.0,0.0,0.0,0.0,0.0,0.0,0.0,3.4192426802163656,18.283254306764086,-0.40063957037337905,2.4382495804442628,-0.0005419993826548675
-0.2187048717843012,-1.331405799414553,0.670506996437045,-0.6684368697298151,-0.6941403718732881,0.37601624322870886,0.0,0.0,0.0,0.0,0.0,0.0,0.0,68.15071240162428,-11.826862880300846,0.7179484269414375,1.3520188003439806,-8.685832975530161e-06
-0.6121164492237503,1.4499134705910555,-1.5300296946641134,0.6188904520067665,0.3250217025877648,-0.3983697261975606,0.0,0.0,0.0,0.0,0.0,0.0,0.0,-30.957539212086814,-26.035555802199653,0.8428463428285206,-2.917333983765883,0.0004528932380905015
0.5765082836700894,0.24141761872148504,1.0091540541639985,-1.2258178254796066,-0.3513826189902025,0.4954542344501313,0.0,0.0,0.0,0.0,0.0,0.0,0.0,-29.913205323679612,17.643471492229356,-0.9851840604923229,1.9200706033007418,-0.0005733107049166186
1.05001081315316,-0.43903072211906463,-0.1690264971416393,-0.9672835016720408,-0.09999860463254477,-0.6757839746828093,0.0,0.0,0.0,0.0,0.0,0.0,0.0,0.3973866713421681,25.485563443567003,-0.3878487824431254,2.3442356097116157,-0.000294025166771239
1.5257443974836642,0.12709555309357584,0.20056776807417684,0.18547671368004914,-0.2724898704077586,-1.7556711684506092,0.0,0.0,0.0,0.0,0.0,0.0,0.0,-32.64381149554212,26.87638828165219,0.09135363843369848,3.957875817879337,-0.00032908926547536854
0.00563608269856727,-0.9396271729644277,-1.5155973990266802,-0.15484907591362876,0.7596379020183988,0.773289985035723,0.0,0.0,0.0,0.0,0.0,0.0,0.0,22.399944468588583,25.0149227810985,0.2712312671315808,4.007623883641468,-0.00028665192201046685
1.1876453391199335,1.4834492650355817,1.177628660416979,0.7414611863425631,0.4654832266654645,-1.1326416848942313,0.0,0.0,0.0,0.0,0.0,0.0,0.0,-84.06389868126568,26.818497312158165,-1.2677628183132215,3.1355825588715973,-0.0006947457303749793
-1.6319756407358352,0.2734533752758838,0.7423797314610535,2.0306198587410353,0.025914717223575308,-0.19584462700861457,0.0,0.0,0.0,0.0,0.0,0.0,0.0,-37.10781193614052,23.04109815271664,-0.03956636737166935,-1.673132430420531,0.00043710443842556734
-0.8325008458020451,-0.15595946394039042,1.1067756819866639,-0.8927599696042577,-0.019835172120437602,-0.2758191800699755,0.0,0.0,0.0,0.0,0.0,0.0,0.0,5.035078687695949,5.439067735498602,-0.04104907175375473,0.8586281216565528,-0.00017844980427836332
0.0953290828338686,-1.0131225897727176,-1.6483564969199573,0.1516826982670289,0.2535781420984085,2.02103913319441,0.0,0.0,0.0,0.0,0.0,0.0,0.0,25.54896114227837,24.142044478096615,-0.21537511839060802,3.7741010085856486,0.000569988832137186
0.9868919712549955,1.0250569582749183,1.329240205368033,-0.005354008999661169,-0.4988231816351344,-0.4065847536223003,0.0,0.0,0.0,0.0,0.0,0.0,0.0,-73.65059119485412,25.219941761663623,-0.11930302126413395,4.028852061954888,-0.0006813161327382106
0.7992988165862609,0.6216562165742978,1.473460234347658,-0.45024789066539067,0.3499165919063084,1.2532029579035042,0.0,0.0,0.0,0.0,0.0,0.0,0.0,-46.87414934463204,14.58580751397007,0.33589369781031464,1.2288315638583622,-0.00015906299690859882
-0.2722057314177398,1.2047961432127783,0.9950614461898397,1.650325088027623,0.262265158843974,-1.0181974422182447,0.0,0.0,0.0,0.0,0.0,0.0,0.0,-80.29762984753131,27.066123650474402,-1.0294872270233224,-0.08643423058715416,-0.0003248671377358292
0.3877604397870194,-0.11197493015740173,-0.777180407278134,0.597964225577443,-0.048627709033077164,1.245238451654171,0.0,0.0,0.0,0.0,0.0,0.0,0.0,-15.111177816904675,23.083806313122565,0.014772868143117124,2.5434950791217608,0.00037837303336364647
0.715190261884115,-0.6909280658224001,0.8090080546764411,1.1075911077648974,0.5949367454272726,1.4752210457584816,0.0,0.0,0.0,0.0,0.0,0.0,0.0,39.855284821920286,-1.9581555933146877,-0.14933573831026975,-2.1875838610247325,-0.0001049558963723829
-1.6128995650452318,-1.3081396832445489,0.7126805168090972,0.35321952326682254,0.4152416459239441,-1.0795680814483883,0.0,0.0,0.0,0.0,0.0,0.0,0.0,71.71342133331585,-15.687603261972338,0.29601777059016,-3.0254574098683378,0.00048676208358899853
0.6931147043259491,1.140568468898923,-0.6076998381543353,-0.7323870232932564,1.068449062005811,0.035005384735246725,0.0,0.0,0.0,0.0,0.0,0.0,0.0,-52.857020844718036,1.1510113892293798,-0.40981285126966305,3.282829934623466,-0.0004380441403206703
0.27392601410027,-0.05328458341680219,-1.1407693618870136,0.4080431425450022,1.8443795507784075,1.0701898182983913,0.0,0.0,0.0,0.0,0.0,0.0,0.0,-11.379516640031513,15.991094938489956,-0.7776796222735957,3.0280604629028485,0.00012736048771477826
-0.04265109066452791,1.032667069975155,0.671552149430559,-0.6326821801932135,-0.5584447046489934,-0.5480445635278105,0.0,0.0,0.0,0.0,0.0,0.0,0.0,-73.99608982866394,25.329267381281532,-1.2900239385443402,1.8586339643819585,-0.0002959275213911816
-0.0337342775540596,-1.7597320880487708,0.4612119051932826,0.910177703958913,-0.5552248905051838,0.5020251060442923,0.0,0.0,0.0,0.0,0.0,0.0,0.0,73.59031708265657,-17.305831696946694,-0.9924274641475077,0.42746768362930787,-0.00031953556589492393
1.5958663684881786,-2.3249891672151213,-2.9110528795562587,0.5375662326655356,-0.9003012245581543,0.5029699871107669,0.0,0.0,0.0,0.0,0.0,0.0,0.0,19.474453227306345,21.44715910930893,1.2909923476625251,0.04593754838244468,0.00024616879994576735
-0.5890734185900539,0.05617446741702708,0.45259315204230166,0.17521278813289567,-0.04477432283955055,0.043639275112840686,0.0,0.0,0.0,0.0,0.0,0.0,0.0,-25.758834757149963,24.06849609423668,-0.07432680416100224,3.797356479072551,-0.0004943705974386793
-0.5233758013838749,-0.15320453968171738,-0.021551895601433838,-0.9687360851660163,-0.03526492341680331,-0.1545407287164527,0.0,0.0,0.0,0.0,0.0,0.0,0.0,-16.292781470843405,26.61079261118198,-0.18276461027705992,2.323129546155407,-0.000563203464934936
0.4146523814067366,-0.7864197711623562,-0.7224080115111214,-1.151666198078934,1.0011806300132484,-1.3104897344520763,0.0,0.0,0.0,0.0,0.0,0.0,0.0,16.85667482306661,25.00626389775388,3.1061127493165426,0.6780425672577524,0.0003819644818556789
-1.1059259011941263,-0.12115475646247875,0.8247851637076373,0.36630895184730194,-0.637643854445899,0.5943216434865567,0.0,0.0,0.0,0.0,0.0,0.0,0.0,-6.47968473111823,14.975829384571465,0.44995574374972314,3.784989778039761,-0.00016594665330493807
-0.6008363923500388,0.21983564032318453,0.030902767913983123,1.8024651821716464,-0.16259213186749988,-1.5136222752388104,0.0,0.0,0.0,0.0,0.0,0.0,0.0,-38.304156352589786,27.252231413586827,0.6606629729093649,-1.0386159073146972,-0.00047317148793180053
-0.147794733257517,0.16194492263810803,-0.9248189763827805,0.08306217741244996,-0.21259529608214034,1.834832507483768,0.0,0.0,0.0,0.0,0.0,0.0,0.0,-22.202874217605906,14.441399665597123,-0.019094884569913845,1.0940815621818434,0.0001477766046762835
-1.7656679893877638,0.21965515064643382,-0.04662584714155932,0.003114861562661676,-0.13872842088345405,0.334616901789617,0.0,0.0,0.0,0.0,0.0,0.0,0.0,-37.89623882366051,26.85452089425172,-0.1085648352778939,3.7740145579052857,-0.00042941396275028576
-0.09486769788893554,-0.985171557440461,0.835897973839739,0.03507732157358849,-0.39279162870518,1.0831509595064899,0.0,0.0,0.0,0.0,0.0,0.0,0.0,56.82598316409914,-7.969636170932835,0.014515564159371205,0.5845340855324856,-4.996262233547544e-06
0.44416994021463235,0.13833303038180544,-0.1804975949514128,-0.6917581732718087,0.30525409784764923,0.851412023177052,0.0,0.0,0.0,0.0,0.0,0.0,0.0,-33.32828495357581,26.91698094286098,0.6638180664679135,3.2510669840551607,-0.000532954088502624
0.4361065694572613,-0.5444320175540991,-0.9332926999536296,0.1503179786114951,0.03603034714747055,0.16694129940284175,0.0,0.0,0.0,0.0,0.0,0.0,0.0,4.8014702106004234,26.35387517337727,-0.12508695028023803,3.810520090651088,-0.00044927528306212827
0.04812965787092618,0.47887948949076065,-0.24220998974279295,-0.40829052719916076,-0.946535167314859,-0.5384057077572401,0.0,0.0,0.0,0.0,0.0,0.0,0.0,-44.281081752506026,19.112058498904076,-1.0725762588265697,-0.5451596622665491,0.00010079687170572171
-1.0239619462581881,1.0042707638597361,-0.6335481024373095,-0.24089523553064965,0.10886488557830937,-0.19734985757190998,0.0,0.0,0.0,0.0,0.0,0.0,0.0,-49.32138351225601,1.5500673058111936,0.0003213749463209063,0.17946136359070675,-2.5824697196599744e-05
-0.9817669529579837,-0.2762258070682324,0.7200994035266596,0.7986187292664565,0.07130550591473692,-1.0127808135918266,0.0,0.0,0.0,0.0,0.0,0.0,0.0,4.957120820839066,12.239318872234973,-0.15740982824188463,1.3069928962938868,-0.000326696676541699
0.3830486597056026,-0.7577195156733028,0.737959227466612,0.09793226865963767,0.1880301183571904,0.8934173474763263,0.0,0.0,0.0,0.0,0.0,0.0,0.0,42.3324169696191,-1.6228999682374532,-0.01413864955365748,-0.46345469420766205,1.906462315542229e-05
0.29162562693194055,0.06743494574178892,-1.0242992380585916,-0.9974266959304464,1.0256796343143268,1.1319471958702922,0.0,0.0,0.0,0.0,0.0,0.0,0.0,-18.346921461232004,16.00814732796609,1.3310899107287193,3.648266599448638,-0.00023262997277084807
0.12561093032791976,1.5072442587937713,-0.38624171175253363,0.005631387605472957,-0.463416875538628,-0.807530086161997,0.0,0.0,0.0,0.0,0.0,0.0,0.0,-49.913927203260606,-7.471466426309435,0.03303078428967858,-2.9055895002492607,0.00047021142037185354
-0.04989333611584065,0.669485321759463,-1.6606276695291886,0.025007460877353446,1.0281824051916948,-1.7138439376209829,0.0,0.0,0.0,0.0,0.0,0.0,0.0,-21.81780017409828,-12.715351501460551,0.1390485937365783,1.0919170727342968,-5.3184008167186936e-05
0.2503568233122915,0.9838028167488748,-1.5402765990387177,1.0227808374107494,-1.010009582325235,-0.304635205128021,0.0,0.0,0.0,0.0,0.0,0.0,0.0,-27.04985797321413,-20.05205025566628,-2.371483946900253,-2.9412230698797774,0.0003965473758213989
0.21616839750106848,-0.2593130444899827,0.05774848748920245,1.6543623816557198,-0.9095018130396298,-0.8929920830616347,0.0,0.0,0.0,0.0,0.0,0.0,0.0,-7.148149936886994,23.41206232174531,3.077446932305874,0.8103263780029261,-0.0003807498670962417
0.26378909367816306,1.4973735958226948,-1.188313844043998,0.6646800332992502,1.4718977001395182,-0.339712616464602,0.0,0.0,0.0,0.0,0.0,0.0,0.0,-38.8722947778118,-18.458966409417854,2.3440044779840155,1.5125057820604482,-0.0003144955098117741
0.7049585295084102,0.22927060321203963,-0.36035654669974276,-0.06373188089995845,0.7337910371457524,0.7418687064460324,0.0,0.0,0.0,0.0,0.0,0.0,0.0,-36.495586790478775,24.91060729007144,0.05093981850271612,4.058803611087665,-0.0002585397681183488
-0.40454426142555955,-0.5484198454650662,-0.32651262790901336,0.5748460422358693,-0.25060144881435037,1.070905805804374,0.0,0.0,0.0,0.0,0.0,0.0,0.0,5.34832147848892,26.000071354125552,0.4472664826013565,3.481059824234869,0.00036875976667294363
0.024596086816165316,0.3930923764658317,-0.5768494325812105,-0.08948267753307029,0.6022779323469343,0.8989122191724248,0.0,0.0,0.0,0.0,0.0,0.0,0.0,-39.951035749348975,19.315717471240216,0.053338427196195,3.824116557599133,-0.00014679206654846788
0.9170247717885707,1.9878769413216433,0.8692235004484605,1.2208412310841672,0.3065627956889634,-0.7329408208944488,0.0,0.0,0.0,0.0,0.0,0.0,0.0,-68.01472585567254,14.726296058203891,-0.5258247464335082,1.7012957842061511,-0.0003473517169956253
0.8211846145568782,-0.611729211351575,0.05148367206472281,-1.3165123869334723,0.18953434083471488,0.9501719192077664,0.0,0.0,0.0,0.0,0.0,0.0,0.0,14.926425691091907,19.41792541514932,0.5669558947817751,0.32357397483636796,-0.0005343344362173097
-0.4560999593534765,-0.43790823219130826,-0.9514042064365607,0.03849930605996853,0.46938851873792364,0.9330509526183701,0.0,0.0,0.0,0.0,0.0,0.0,0.0,0.14666363951254907,25.67848421715263,-0.16141723805160596,4.100066073363293,-7.357920411163454e-05
0.5488301039490774,0.330013362499236,-0.3397975628952402,-1.2912230027787064,-0.2657466511339232,-1.0982536644477856,0.0,0.0,0.0,0.0,0.0,0.0,0.0,-40.13585645931937,22.93290748656139,-0.8370971269993542,0.1878422075880115,0.0002702514441217385
-1.2371643118381015,2.229409489502944,1.8393977853357542,-0.5558164040363394,-0.49565955441581133,-0.5795734283466625,0.0,0.0,0.0,0.0,0.0,0.0,0.0,-71.73247889909618,25.233894311798608,-1.0430871434763573,2.095559813196596,-0.0003269133759729037
0.03508494120714594,0.29110298196600115,-1.32744932098966,0.5127187524617148,0.22142759883297414,-0.7809120417512306,0.0,0.0,0.0,0.0,0.0,0.0,0.0,-17.40066914676601,2.3499867989677794,0.02588739706183282,0.7343777489560643,-0.000115127197697934
-1.3949150407554496,0.8102361925778038,0.5086643933926294,0.27322347102924355,0.39668395176661964,-0.006962556797038765,0.0,0.0,0.0,0.0,0.0,0.0,0.0,-67.6746276615794,27.01213526064885,-0.5139470116147287,3.9537653733603797,-0.0005069786165312617
1.8348949686475065,-0.6957085896073414,1.038777839891003,0.3733816522086604,0.7341380083889995,-0.06128336513380276,0.0,0.0,0.0,0.0,0.0,0.0,0.0,47.73631720137314,-9.632126038516267,0.18088718739111737,-3.176727826742713,0.0004710329859928253
0.6152361176021142,-2.5355979902958925,-1.1147069549710378,0.8903973652543269,1.3255447069970558,-1.6040590097535152,0.0,0.0,0.0,0.0,0.0,0.0,0.0,33.21135222667226,-1.6743744427268457,-0.47318989356337426,-3.84542954812712,0.00022039095440717915
-1.7940930860347983,0.7915304173246004,-0.889235280254373,0.5231110917831084,-0.29691163620566935,-0.7386665270566798,0.0,0.0,0.0,0.0,0.0,0.0,0.0,-38.73333287136188,-1.1584234509905311,-0.05497557790110567,-1.5673314980447124,0.00026751620677772925
0.3148164030158158,-0.12495976956088412,0.5238666028691181,0.9489505999725264,0.3435685186469853,0.6863539252457607,0.0,0.0,0.0,0.0,0.0,0.0,0.0,-10.600994742620456,19.313928059850557,-0.9484132217986425,0.9592978216147223,0.00035689740718680696
1.2256775079066626,-0.5885679339829427,0.1864717354010783,0.08112234780975108,0.25749274196962096,0.3189301720278832,0.0,0.0,0.0,0.0,0.0,0.0,0.0,16.670027741803068,16.593613714855252,-0.14190253564090402,2.096264726390582,-0.0002139875584639822
0.18095261382185118,-1.2607093815499268,-0.21376362464043674,-0.1779868037097675,-0.27107042381724317,-0.5614528817879441,0.0,0.0,0.0,0.0,0.0,0.0,0.0,43.385207162741224,11.93930746203601,-0.1537602994636524,2.899924380616927,-0.00048736711730709703
-0.10670246738217093,1.4227509019906248,-1.0490087905440082,-1.1290614879142749,0.5986772926248823,-0.5525380742858336,0.0,0.0,0.0,0.0,0.0,0.0,0.0,-38.44344866319035,-18.29829487254893,-1.6016563395757446,0.29993889211119606,-7.760281012780812e-05
-0.2444574260191879,-0.395250603976965,0.5474365435959337,0.5199982889748352,-0.18252923482483785,1.3123132858828301,0.0,0.0,0.0,0.0,0.0,0.0,0.0,9.434915717815253,14.170145745473846,0.15986550429539131,2.6628812132050443,0.0003050412284322235
-0.7189033427261737,0.01744074172810938,-0.8961048923470178,-0.7149054920938237,-0.8171290999644176,1.270662060567906,0.0,0.0,0.0,0.0,0.0,0.0,0.0,-15.884683131208469,16.425954729267662,-1.2518864413701483,-1.0746948378533778,-0.00030959554422960167
-0.24808725999189282,-0.5669910075432952,-2.198221953195043,0.010109639203563175,0.5959725169970141,-0.3469287608894091,0.0,0.0,0.0,0.0,0.0,0.0,0.0,28.62924587418169,3.6115458195031493,0.008323887298419312,2.095458951487465,-0.0003516974480302845
-0.23304618205367028,-0.6153785986623419,2.3728423493685926,-0.5534896960458189,-1.1169787609127322,-0.16889095326633086,0.0,0.0,0.0,0.0,0.0,0.0,0.0,59.12337898838158,-24.61041215208161,2.013634690610224,-0.9494703079821623,0.0002696685279697242
1.2438217900135005,-0.32962915684433003,-0.8436366196894527,0.8798346061267136,0.6123648680841796,-0.7246031870186749,0.0,0.0,0.0,0.0,0.0,0.0,0.0,-5.089168316668793,25.196597713706232,-1.647590786930509,3.025274219122255,-0.0006053644209380593
-1.2175189047504111,0.7835610590400193,0.08573423564019908,-0.8166469399276126,-1.7216984971330511,-1.9325996445734281,0.0,0.0,0.0,0.0,0.0,0.0,0.0,-56.951026652598316,17.39188855178812,-2.3271271907892617,-2.9322026955924088,0.0004533985280197328
-0.34437162265439986,0.6989705188290783,-1.09434491587127,1.0898931997347006,0.14141099344370892,1.5887722050302475,0.0,0.0,0.0,0.0,0.0,0.0,0.0,-32.88711389639431,-2.9908609637446553,0.12470710410996713,0.1488754737479281,-0.00010607829058406626
-0.5885594918666389,0.10656246574695301,0.5254343680245966,0.04778580972108194,-0.2287272385180434,0.17635403982263376,0.0,0.0,0.0,0.0,0.0,0.0,0.0,-28.563960820108978,23.97485800534151,-0.06372040618246638,4.028354898881473,-0.0005149601083412978
0.833282958298589,-0.6558111899605089,1.1075777189727833,-0.47058597464170826,-0.46591496227845586,-0.7934166058715415,0.0,0.0,0.0,0.0,0.0,0.0,0.0,42.78158559616547,-6.4317348826606295,0.17961626382548626,1.1845987828309896,-0.0002100081899886197
-0.7341163244824008,-0.14045043628987608,0.3104658011361334,-0.50592909800042,-0.385902381996528,0.0038294907188415233,0.0,0.0,0.0,0.0,0.0,0.0,0.0,-13.938536409583435,23.532707197477606,-0.7644208555677582,3.668846897292278,-0.0006922058803713327
-0.5697456828536702,0.8618187863655944,0.9691621143261694,0.216695880033329,-0.6283747234815529,1.5731288378374209,0.0,0.0,0.0,0.0,0.0,0.0,0.0,-68.95266196780811,26.239318867963988,0.4059106082533686,3.484012312364433,0.00041460083644939694
0.18410820000548506,-1.380957190357271,0.5828179802140417,0.3398810355531323,0.6983338931716583,-0.5010885603580916,0.0,0.0,0.0,0.0,0.0,0.0,0.0,71.87883845489962,-15.02204219301029,0.3784077805805808,-3.5744838616748638,0.0006069821413718923
-0.577123197460613,0.7202846597558108,0.5830781933186195,-0.5204085485159867,-0.05805140348524648,-0.8851267920844363,0.0,0.0,0.0,0.0,0.0,0.0,0.0,-64.18071311832786,27.34995360310201,-0.21561415498243747,3.4908589546859616,-0.00041924018642686134
0.42993227125363315,-0.07685684084591161,-1.6848338617991478,1.4535075341839265,0.7113696077850586,0.21928015562704584,0.0,0.0,0.0,0.0,0.0,0.0,0.0,3.8218863892134047,2.142176120997411,0.09945797357674674,2.665256824448313,-0.0003578013006147046
-0.4724811368166182,-0.245386023928831,-0.21597214437919454,-0.15290650333823685,-1.4577139312006182,0.0033237832025035533,0.0,0.0,0.0,0.0,0.0,0.0,0.0,-8.11997112990152,23.612478063008766,-0.7342616373071952,0.577444178336135,-0.0001370185803108992
1.0031509535453889,-0.28014836188506714,-1.2015005268254573,-0.3944721011715983,0.8854831450589412,-0.3051637522565738,0.0,0.0,0.0,0.0,0.0,0.0,0.0,-2.8437202961923393,20.255746855416962,0.6749653780614339,3.9830921171006963,-0.0006946217133783072
-0.08448173960237416,-1.2652128174827144,1.6107185226232976,0.09551511301798087,0.5850416751501577,1.1161402041490673,0.0,0.0,0.0,0.0,0.0,0.0,0.0,82.37252510609137,-26.97604931234985,0.3179419092803934,-3.8839512877204108,-9.28573004840283e-05
-0.024682556926127572,-0.319188940758566,0.37296310705901914,0.292402408857203,-0.818220015636215,0.12367168602507768,0.0,0.0,0.0,0.0,0.0,0.0,0.0,-0.4130278104033487,19.95561681711261,0.5809124086338534,3.982101773037855,-0.0004592181569313958
0.7230744493712756,-0.5382289620684934,1.1196678665721915,0.8001317436323042,-0.4387710934610689,-1.0944599677454192,0.0,0.0,0.0,0.0,0.0,0.0,0.0,34.80563481302186,-3.951557814006044,-0.101923077765872,1.5122842941623076,-0.00018804530157245924
1.7864685633989443,-0.06453745502463042,-0.7971784422464466,0.5629053188971981,-0.4254127598401869,-0.835155310596862,0.0,0.0,0.0,0.0,0.0,0.0,0.0,-15.669676824088716,20.927266850560223,0.600261116528799,1.2183575093926216,-0.00028654517160675574
-0.082085099463906,-0.07403532565957956,-0.16906478759688104,0.07386698515699873,-0.06616801138464622,-0.05718469609453637,0.0,0.0,0.0,0.0,0.0,0.0,0.0,-21.550193686863388,27.352528482292186,-0.09366665506872168,4.0420466620744655,-0.0005985639672508106
-0.6310524387902008,-0.42070565915373453,0.8670629561680823,0.6334580872978823,1.3750740478394812,-1.2579860543913495,0.0,0.0,0.0,0.0,0.0,0.0,0.0,24.10959096768225,0.8256889902983833,-0.6916136183644688,-3.6882366903382855,0.00037454749788862207
0.2953878328176853,-0.8068439296827862,0.2372875612596179,0.035680436149012,0.5071873933360873,0.556215973584243,0.0,0.0,0.0,0.0,0.0,0.0,0.0,33.47646005598447,9.186350902376065,-0.09311048371797334,0.0794357684621384,4.264511310836036e-06
-0.7327988506480295,1.1391524072183432,1.3870736570687159,-0.30539381003673916,-0.6395243732245083,-0.7201132281893438,0.0,0.0,0.0,0.0,0.0,0.0,0.0,-77.1331798318917,25.46323092689382,-0.8201845339276439,3.6478438847740478,-0.0005593204200444735
0.2568955689443993,-0.42414454618723535,0.12940787347233806,-1.848990635965899,1.9394318395326164,-0.08195269773197462,0.0,0.0,0.0,0.0,0.0,0.0,0.0,7.738343691440086,17.375424209545237,3.1600753506092665,-1.668221349991089,2.8367205874513246e-05
-0.4647786231897019,-0.14443064765309035,0.8946628040732993,0.8824580735792384,-0.3885265880064812,0.03034058117785204,0.0,0.0,0.0,0.0,0.0,0.0,0.0,-2.243804098317188,12.064038973819155,0.5723909991335925,2.5651164801489603,-0.0002382724720354501
-0.6333587565109842,-0.9548286146319644,0.5153739207432708,0.6017825355959515,0.351962724590958,-0.09937260688402695,0.0,0.0,0.0,0.0,0.0,0.0,0.0,49.19858022721944,-1.291502002416296,-0.08994454479322601,-1.0891421949494533,0.0001857886736829073
-0.02829261381253589,0.6113146647319466,-0.7272506630702865,0.48047170834250635,0.8122462246688653,0.7726869265301655,0.0,0.0,0.0,0.0,0.0,0.0,0.0,-43.127713769532576,11.334631779388008,-0.34028556380839625,3.4767413550333197,-0.00010346043369913183
-0.45718869076967866,0.6361676648566239,0.25027013817883875,-1.168637646123313,-0.7732360460561822,-0.03617716122217817,0.0,0.0,0.0,0.0,0.0,0.0,0.0,-57.842551951705346,24.865087086099685,-2.486944132138659,-0.014041929116796581,-0.0002628490822305096
-0.6055665341304475,0.44907049756710804,0.34793186637304707,-1.3685195399505072,1.1262482786153087,0.3653213854057374,0.0,0.0,0.0,0.0,0.0,0.0,0.0,-48.76091784431553,25.147935188898305,3.5901183926483116,0.7273605946434114,-0.0005966415695279892
0.050786745819039414,0.5250994326288699,1.5265667077834661,0.627774604225479,-0.2569045403780786,-0.6693598843294667,0.0,0.0,0.0,0.0,0.0,0.0,0.0,-40.45406262070571,12.917055627288615,0.2803599894350385,2.611527261504058,-0.0004743941409036667
0.6545364641611106,0.43176955050168886,-1.0283022165242628,-0.816892371661102,-0.5854428130159238,-0.8675727194740142,0.0,0.0,0.0,0.0,0.0,0.0,0.0,-27.075002059239083,4.374846953522473,-0.19143104911104422,-1.9961147951640241,0.00033628603318391903
-0.20020555871358756,0.8353902881056086,1.9996951288558482,-0.614315950247344,1.1557697824365485,0.8431159972177685,0.0,0.0,0.0,0.0,0.0,0.0,0.0,-45.91334560048322,4.2369042872634335,0.8195268850255963,-2.9161932736758587,-4.213712180023421e-05
1.5451630076053477,-1.3786552361531883,0.3524139400974579,0.12835585695048188,-0.992956971406636,-1.2105312432655013,0.0,0.0,0.0,0.0,0.0,0.0,0.0,60.38417473865529,-3.549054402132711,-0.052161062011866544,3.0403478492784135,-0.0003813587795442608
-1.2866098562837547,-0.3104435884617116,0.18669973532899872,-0.6685146090734454,0.11657614358648845,-0.6874895388223545,0.0,0.0,0.0,0.0,0.0,0.0,0.0,-3.239816788632191,22.30761951731753,0.18129161322797252,2.5853350629630425,-0.00035961397542066953
1.4485769422400443,0.38708294232981105,1.2488316995843365,-0.2392643049070063,0.26231981861242043,1.354876687895368,0.0,0.0,0.0,0.0,0.0,0.0,0.0,-34.93151128350028,14.61986440128558,0.09233548269236153,1.7010946628729382,-2.2862459495121e-05
0.6756057211228781,-0.6631316704521463,-0.9781886248834972,0.4747842427702613,0.6820689491917813,-1.2238261267939785,0.0,0.0,0.0,0.0,0.0,0.0,0.0,10.054549164831936,26.621610109607808,-1.2220264848689832,3.497610162950709,-0.0006452141413004764
0.19919147120458885,-0.7665719066898098,1.0851969605585918,0.7759276814328833,0.07394988061872819,-0.3875658274596874,0.0,0.0,0.0,0.0,0.0,0.0,0.0,51.55348034426917,-10.484577714511428,0.08157399384532897,-1.101960936493831,0.00017095280419682224
-0.16114797776639284,0.6986666216231966,-0.07720058000742841,-0.5096787125138734,-0.06236946945162798,-0.5068243453392086,0.0,0.0,0.0,0.0,0.0,0.0,0.0,-57.22581702199879,21.36154585961738,-0.16049983337129592,2.3744647650116306,-0.00040096490392188544
-0.42475039928071967,1.0355067827079718,-0.1356101973698328,0.09729836696220323,0.5402838635468359,-0.9879651528364942,0.0,0.0,0.0,0.0,0.0,0.0,0.0,-63.73994018090213,14.985711138481062,-0.12418115623364723,3.3098238058663956,-0.000508163787989957
1.3420885223324435,0.38292438323842165,-1.5855150989196851,-0.24325059093502577,0.15778786314653223,0.09592386075327926,0.0,0.0,0.0,0.0,0.0,0.0,0.0,-12.854963810247703,-7.232270680941226,-0.017148167866243777,-0.9296822243790809,0.00016710020000587286
-0.5673563619341787,0.1914385680727279,-0.12447434578532852,-0.6615761903686502,0.661303030199861,-0.7622982814549356,0.0,0.0,0.0,0.0,0.0,0.0,0.0,-36.052196420677404,26.610387676961487,1.386927619536181,3.214012755461665,-0.0004204524708204538
0.35162950279034755,-0.6593020076629518,0.7354874160315097,-0.3474779353553963,-0.3310779741006561,0.08815195275326267,0.0,0.0,0.0,0.0,0.0,0.0,0.0,33.45290568924575,3.0527913872452306,-0.09845053961654061,1.9539202706703636,-0.00029919381518490884
0.5277604516273441,-0.740687338890926,-0.4529378456431594,0.7343674746734873,-0.06778836368491727,1.2201080643726026,0.0,0.0,0.0,0.0,0.0,0.0,0.0,14.652230290667259,25.356872455969302,0.0982298962041665,2.9951040045529274,0.0005177970205261229
-0.1848360227767627,0.32950707404262386,-0.9239414408590065,-0.7256729129620179,0.9814738374760128,0.39375474916657927,0.0,0.0,0.0,0.0,0.0,0.0,0.0,-30.37607189666351,13.200967277260913,0.6802108758924645,3.7758914022502275,-0.0005147482756036048
0.006752917367671355,0.1523762083419481,-0.9979238590988605,0.6456299238221141,0.22443448668546356,-1.2812434413550633,0.0,0.0,0.0,0.0,0.0,0.0,0.0,-21.559081146673957,14.344283908371041,-0.26187155015481994,2.1400244749066646,-0.0003782056537948719
-0.12087030378394446,1.5865080976056283,0.7502602369297097,-0.10500046565865107,-0.040753545118388496,-0.24540462281924388,0.0,0.0,0.0,0.0,0.0,0.0,0.0,-77.92030077512683,20.303258696331827,-0.08809146071357662,2.610630815306722,-0.0004413094793178085
0.5143566178745641,-0.4336606074163434,0.8084687787430549,0.32147734719443144,1.214637275037631,-0.3048231484228019,0.0,0.0,0.0,0.0,0.0,0.0,0.0,23.863913764355125,1.7422100925377606,-0.4275946154543908,-3.2041627775875554,0.0005474131137811061
0.5534769259199408,-0.058729549861974366,0.014511803578940642,-0.03699630763161836,-0.3502501400526193,-1.709217315423937,0.0,0.0,0.0,0.0,0.0,0.0,0.0,-21.877231380179225,26.8014756102232,-0.16565043631729143,3.9474531430641395,-0.00021189958049414037
1.02962588903677,0.9980681170599646,-0.6267362230434418,0.5354187023512655,-0.25617673097660437,-0.9700523020693463,0.0,0.0,0.0,0.0,0.0,0.0,0.0,-48.071308418300916,0.500750226139747,-0.02333503467661035,-1.2231198663833616,0.00019370849113165
0.669050339890719,-0.2018038010189408,-0.24572032814267275,-0.22535836964854816,0.18846817982865957,0.3952038879709254,0.0,0.0,0.0,0.0,0.0,0.0,0.0,-14.237460961310209,27.297261583632014,0.06036062817622187,3.9618037234325385,-0.0005426788018074447
0.4474230626012517,-0.38214902562131303,0.27357160499658206,1.412422943894422,0.8114915534705412,-0.24743811581718667,0.0,0.0,0.0,0.0,0.0,0.0,0.0,4.340226085339462,18.57416265190815,-2.345439108360181,-1.4625964829052682,0.00037594516349592766
-0.443197201982424,0.6686257583505275,1.0404745567266729,-0.4885596308619234,0.25897244216767706,0.07111999945493036,0.0,0.0,0.0,0.0,0.0,0.0,0.0,-58.32106284802829,23.82757203346465,0.3655580935070064,2.8836945969550563,-0.0005765485219231259
0.7065353365634653,1.6456995774552858,0.39476317599339505,0.35576136244255374,-0.9680881171924893,-0.5372363563923103,0.0,0.0,0.0,0.0,0.0,0.0,0.0,-65.28141817414442,7.727367943917772,0.33673287983159794,-2.525186889577335,0.0004253377358880428
-0.230796675951816,-0.12789485596654668,0.06845049454308234,-0.6839123478525185,-0.42114221122588913,0.18775877372382455,0.0,0.0,0.0,0.0,0.0,0.0,0.0,-17.14867750140529,26.02874983708938,-1.1274908171840465,3.176449037696856,-0.0006908283685205241
-0.04188769758675537,-0.15406639001573227,0.9734617866001589,-0.20330710994198303,-0.9937298648620795,-0.6635160510825833,0.0,0.0,0.0,0.0,0.0,0.0,0.0,-0.8997790148593505,11.266643980293983,-0.3461247684602934,4.049946238113742,-0.0006681611789315367
-0.38858724966569963,-0.04374913290177867,0.73293185982798,0.09759965231349702,-0.1301947911188879,-0.22998418126484915,0.0,0.0,0.0,0.0,0.0,0.0,0.0,-13.669373495081796,17.73307450280606,-0.04421503062338972,3.2640845042099222,-0.0005213608640539536
-0.5773573001663362,-0.23259129622205418,-0.9653148406610053,-0.5814875200253246,-1.152985412832502,-0.818702514980687,0.0,0.0,0.0,0.0,0.0,0.0,0.0,-3.5465657970044306,18.32773202046589,-1.6035269132851662,-1.475291167948014,0.0003273346548784417
1.0513531441122916,-0.07844481834071998,-0.3061184138628459,0.06559673679450476,-0.5608300734951224,-1.1791140856341589,0.0,0.0,0.0,0.0,0.0,0.0,0.0,-20.028851628790303,26.08391534650564,0.028270523965245542,2.8876951403641744,-0.00040886586227500965
-0.4839045891219607,-0.46784189537643006,-0.1566435557037508,0.326407916152611,-0.7777274022534664,2.0090838283944854,0.0,0.0,0.0,0.0,0.0,0.0,0.0,2.6006649265440784,24.7545421277826,0.7774576156824217,3.520380398669828,0.0006074525421037036
-0.20537322066126965,-0.02858650615216613,-1.016282745480386,1.1601195373749928,-0.6830406621812092,-0.4143623950172579,0.0,0.0,0.0,0.0,0.0,0.0,0.0,-12.782023547364062,15.973786537178995,1.2832724768831898,-1.4634055439144853,0.0002770260195887886
0.2821881330325765,-1.1923049765994862,-1.063585409335333,-0.3675111754741767,-0.499272752433241,-0.3962295694059903,0.0,0.0,0.0,0.0,0.0,0.0,0.0,27.727524552605686,26.366892379151675,-0.8065867876011189,3.588967693479649,-0.0006313403838853482
0.0537625758981828,-0.5222503563875999,-0.02456120539547098,-0.6433887558708217,1.3086020792734168,-0.562290050150525,0.0,0.0,0.0,0.0,0.0,0.0,0.0,11.757014909132,18.315577679714156,2.010162566849018,-1.145162339384937,0.00021746707501613116
-1.1407662604853002,-0.36584739377336634,0.5930845543131946,0.6742761123868695,-0.4513865550679172,0.07662609646011162,0.0,0.0,0.0,0.0,0.0,0.0,0.0,7.828654073284973,14.220887446277608,0.5911640171536807,3.1245143795410915,-0.00030913207746563476
-0.1665555075562246,0.12869249415390527,0.9182084501480798,-1.3847198220455779,0.22904383543781026,-0.1752962593197379,0.0,0.0,0.0,0.0,0.0,0.0,0.0,-22.686032467794686,16.8270620353283,0.6301559356765184,-0.140814905237872,-0.00013042940555485494
-1.193890419506828,0.23215571522865305,0.4567260367993961,0.4067709308758133,-0.5074045624322439,0.3194747265208362,0.0,0.0,0.0,0.0,0.0,0.0,0.0,-37.56127510191489,25.813496847301373,0.667461319642114,3.6576722024584107,-0.00022841151224906042
-0.721748570165622,0.28721316001545194,-0.2927318001219858,-0.2731774210067738,-0.5683656896606368,0.889192409483687,0.0,0.0,0.0,0.0,0.0,0.0,0.0,-37.52489041777116,22.69067422343771,-0.5907461229732058,1.5758011858237104,-0.00020344169949892965
-0.3363099397240355,-0.6557900733423032,0.1696252143513527,-0.08384936227966137,0.8877777465703018,0.32620391884434957,0.0,0.0,0.0,0.0,0.0,0.0,0.0,23.389141575534467,12.959765043997663,0.10366227351493318,-0.5884416513541351,3.879826222219496e-05
0.19688695345382343,0.3736714502360301,0.2824931031287029,0.486126479905869,-0.39650657438076803,-0.03764976282449733,0.0,0.0,0.0,0.0,0.0,0.0,0.0,-46.52328608743191,26.9366173406633,0.6372207859393016,3.1905891065052536,-0.000340969986778461
-0.9001212934262182,-2.120661826917901,0.06947826786874543,0.7572538458670368,-0.9649421100930837,0.45506169418745324,0.0,0.0,0.0,0.0,0.0,0.0,0.0,63.39983876167095,-15.098413642128987,-1.2979880428229587,1.762529677271825,-0.0003997912675144377
-1.2837783833417173,-0.5877643632095351,0.6247563571185059,0.6951310468012702,-0.6168330833378114,0.8571196611092614,0.0,0.0,0.0,0.0,0.0,0.0,0.0,24.898497961655913,8.32732507963605,0.5029270869845375,3.127041115064075,3.9519601452342804e-05
0.6853173838891361,-0.9482652833978353,-0.17685702553337218,0.7387192632199341,-0.5425461951941815,0.6788706026907054,0.0,0.0,0.0,0.0,0.0,0.0,0.0,29.482847124216075,18.213066903390107,0.9633076253899462,3.342373120329455,9.318146909198521e-05
-0.10983820233484867,0.7582483824361944,0.650926862120405,1.847605284695617,-0.17477414367642344,-1.0836109949103008,0.0,0.0,0.0,0.0,0.0,0.0,0.0,-65.82297779080542,27.336879142317443,0.7136449399863978,-1.1752516418768968,-0.00020199555286048998
0.48326564033496,-1.6016947782654112,0.6786801386996569,-0.17220523956532163,2.0486439030951633,1.199543607206967,0.0,0.0,0.0,0.0,0.0,0.0,0.0,76.31783534242895,-18.793230057625674,-0.3341197861376617,-1.5548443853102913,4.3758522328074534e-05
-1.4724698386784565,-1.0352969288027836,-0.20245389389185792,0.9775629066422206,0.8319711155271335,1.476750668138845,0.0,0.0,0.0,0.0,0.0,0.0,0.0,36.25102756733866,14.074553202055217,-1.7358745137301297,-1.2053979680793696,0.0002769639927495682
0.11164794512936248,-0.5977465074462385,-0.12748176737979217,-0.0878427075070472,1.1502633370920916,-1.0252893986954696,0.0,0.0,0.0,0.0,0.0,0.0,0.0,14.602586093389249,19.09149631029043,0.1915615444493224,-0.21024821138023775,5.821045015547144e-05
-0.6570066753385664,-0.6690378127755376,-0.19745278061028326,-0.6382538627206499,-1.052494991471861,-0.49729076756236507,0.0,0.0,0.0,0.0,0.0,0.0,0.0,14.578475738811642,22.35951661531678,-1.9752378472458076,3.0760704692034446,-0.0005225165675344368
0.7540670501681083,-1.1798891438469454,1.840629381111575,-0.2857200506727511,0.16102054236967578,0.6920359701324655,0.0,0.0,0.0,0.0,0.0,0.0,0.0,81.25842350426362,-27.41459442278874,-0.07535838561859762,-3.940076665638049,0.0004294190750180338
1.1695791521918293,-0.5366119310938391,-0.7975149942515782,0.21337716942422472,-0.2167410983307236,0.10898373784574938,0.0,0.0,0.0,0.0,0.0,0.0,0.0,4.031920307947971,26.7434256016842,0.07272765222955421,3.5588083739954035,-0.00041470688926545374
-1.0433903207794548,0.48797233423306974,0.16765562421921557,-0.0855287180076188,-1.1216408546538639,0.4139575884279271,0.0,0.0,0.0,0.0,0.0,0.0,0.0,-49.04400136371528,23.404716129778773,-0.4079958397985568,0.5208768749164712,-9.885939237341823e-05
-0.5554512022948237,-1.7600207622754205,-0.2927496150219846,0.023085572372596144,0.2434559903606951,-0.7773795636080822,0.0,0.0,0.0,0.0,0.0,0.0,0.0,57.3648866664564,-1.083964875957708,-0.014191420426344761,-0.5730459521611548,9.301768813089681e-05
-0.9588682942681603,0.2032354809890051,0.4880286584534719,-0.446553497523498,0.09112912362215533,0.7402365644467513,0.0,0.0,0.0,0.0,0.0,0.0,0.0,-35.303634997373045,25.191941413443832,0.05588150008217607,3.4350825351723504,-0.000463262173650808
-1.1945351983478185,-1.0751188128744793,0.006943486342203352,-1.7596358894921265,1.4206509082473215,-0.5006611330233234,0.0,0.0,0.0,0.0,0.0,0.0,0.0,42.2600693218152,9.142796391807952,1.8825288541783043,-3.639049350906037,0.0006184489626459844
-0.3908412822156515,-0.018987033784856597,-0.7489354799896859,0.9412962040013103,-0.07426872003693558,0.14130148809445556,0.0,0.0,0.0,0.0,0.0,0.0,0.0,-19.41251212506362,22.051858366711564,0.1336043166992663,1.5932036551863806,3.360387386081021e-05
-1.087481539288606,0.07579526990443486,-0.22269635361016338,0.040720218227682965,0.9424271790220513,0.36567952663567416,0.0,0.0,0.0,0.0,0.0,0.0,0.0,-29.065572317799443,26.245555559765172,-0.23838722981854982,3.282498123577792,-0.00034117260822730255
1.498482640869402,-0.6505298748778824,-0.4267946026303058,0.5926721378172167,-0.1806188236981286,0.9939925206787928,0.0,0.0,0.0,0.0,0.0,0.0,0.0,10.12117979200989,25.99204701950774,0.3100435388094569,3.4309019109230654,0.00033281687429331797
0.4791651061250093,-1.0169611216659458,-1.1096006080321867,0.9567680225716497,0.5045547204606206,-0.3378480512561326,0.0,0.0,0.0,0.0,0.0,0.0,0.0,22.827760543282054,26.974851942399034,-1.681179186327002,2.2459462303022386,-0.0002856892212779183
-0.04495777642010095,-0.9276908954957763,0.5827200184432025,0.6650288951456782,-1.6800186901342435,-0.20346842945266444,0.0,0.0,0.0,0.0,0.0,0.0,0.0,45.28947109106336,1.731223646250685,0.14657529488955195,4.053256077782185,-0.00065077720608131
-0.45651693942753396,-0.25800292831513916,-0.6284722337318925,0.45504126870056966,-0.47424954913479705,-1.8222000934953415,0.0,0.0,0.0,0.0,0.0,0.0,0.0,-9.201821638201427,25.393299932688812,0.6725755369472524,2.380397841910245,-0.00037563849559263396
-1.027194788327846,-1.4935017052806303,-0.10037600899771681,-0.6933682245822836,0.4951599677793208,-0.6171295060936414,0.0,0.0,0.0,0.0,0.0,0.0,0.0,57.24398157856827,0.3032831550027133,0.20485374331714679,-1.4294924498674426,0.00025025332378225684
0.5893059372456712,0.8415720727845768,0.020281657276178353,-0.5704590231176538,-0.29076017192754344,-1.132419870256141,0.0,0.0,0.0,0.0,0.0,0.0,0.0,-61.81541464581454,19.893800769681718,-0.4985575787655263,1.39439138597365,-3.8696909433255655e-05
0.10141530615247343,-1.1418816845016624,-0.0033417769312818614,0.6837814893316696,-1.7300601341253186,0.6354427930115594,0.0,0.0,0.0,0.0,0.0,0.0,0.0,43.34154348982391,9.683761543713354,1.035907611943377,3.4697825337158,-8.217545522337666e-05
-0.5267520575011405,0.7705609866252987,-1.233721181725129,0.13503193547994927,-0.3390810470206956,-0.2651590225332831,0.0,0.0,0.0,0.0,0.0,0.0,0.0,-29.077289022108502,-9.933880879420428,-0.029583500506867366,-2.851513722401511,0.0004617972120691538
-0.8276364991997163,0.6567575813039355,-0.27070133293080867,0.1448836331112126,0.8487971930493092,1.4121415676456301,0.0,0.0,0.0,0.0,0.0,0.0,0.0,-54.207386042531574,20.264093662463587,-0.3343039646519161,4.076644625614202,0.00028746789199673994
-1.3354807050469186,-0.3107669608638103,0.19416434848292638,-1.225459343188665,0.8738849445862841,-0.3671111649739931,0.0,0.0,0.0,0.0,0.0,0.0,0.0,-1.4826850982841826,20.568069944040545,2.559293837990526,-0.742355304380125,4.983221426657636e-05
0.012666842650274152,-1.6603310489746819,0.15022128339860966,0.14570666511223918,0.8761923668105533,-0.07382511019781277,0.0,0.0,0.0,0.0,0.0,0.0,0.0,69.1991013471567,-11.968198787410897,0.135666665532277,-3.682201600480349,0.0005596716917604105
1.445226388303892,-1.0222746157653162,-0.41742616393662496,-0.044966756000523626,-0.727329668514464,-1.5355946307413013,0.0,0.0,0.0,0.0,0.0,0.0,0.0,28.52044090758165,21.435452289676476,-0.19477463680353485,4.073213567712685,-0.0003294215716976301
-0.585343837212107,-1.3698046351981972,1.0456284595528518,0.23849397437989595,0.16418698863828718,-0.7030772770844826,0.0,0.0,0.0,0.0,0.0,0.0,0.0,79.42502310404245,-22.676046782584915,0.2017908298262192,-3.3892382916262473,0.0005882992284764188
-0.9128110079009352,0.4706109653660687,-0.1651619174494416,0.42343094905620576,-1.1495975714629656,-0.5575085725089053,0.0,0.0,0.0,0.0,0.0,0.0,0.0,-44.37605906388363,19.636473290775847,1.1549512344472075,-0.9936605098523152,0.00015474418626748587
-0.6714755820925236,-1.0742027291509249,1.7831648302621148,0.12091769700749462,-0.6795671221899875,1.9347633505898842,0.0,0.0,0.0,0.0,0.0,0.0,0.0,76.74063689727694,-25.361644017253507,-0.19088349692643958,-2.319602229365824,-0.00035153670981824536
-0.09885983038520814,-1.251090521248057,-0.4149844647061034,0.754993974908363,0.2611477075181943,0.7829395119043493,0.0,0.0,0.0,0.0,0.0,0.0,0.0,39.68489909667381,15.482158357666732,-0.5424347853344507,1.1506391996727618,0.0002511434783914468
0.9577160679825556,0.570929753589828,0.3563597042742102,-0.4748966788185885,1.8988143071699453,1.3747689941340884,0.0,0.0,0.0,0.0,0.0,0.0,0.0,-52.50092457625199,22.673956309119703,1.6381491237070749,-0.32123486740823104,-0.0003135511621623621
1.496081111262537,-0.17910281200325134,0.21113652143471168,0.5779295529127499,-0.5893706175086388,-0.918599140075436,0.0,0.0,0.0,0.0,0.0,0.0,0.0,-12.403634205229732,24.186175232376396,1.0643856011490542,3.512625505740238,-0.0006880307761851778
-0.8622146227890609,-0.6851316490427912,-1.420853288191296,0.6762689615060089,1.0890630093282236,0.23677267935796872,0.0,0.0,0.0,0.0,0.0,0.0,0.0,15.272690533911998,22.37221347478648,-1.7545614703462673,3.5424320265474747,-0.00022910660736252808
-0.9624140617916535,0.33473639498236263,0.6818300875568982,-0.3480404017379203,-0.22613166389471845,-0.4420939309847072,0.0,0.0,0.0,0.0,0.0,0.0,0.0,-42.261961319693484,24.799473058738954,-0.39654027826897115,3.850819685303037,-0.0006651723972621593
0.2579268966351095,0.728412022803882,-0.7473242871019505,-1.39378521490557,-1.4495603059004507,0.08794479099278368,0.0,0.0,0.0,0.0,0.0,0.0,0.0,-41.73589533880371,4.546209502691282,-0.38278193573975006,-4.0496611293491735,0.0005365710570917059
-0.39469012112832275,0.5743525614504515,0.0909548638918367,0.5557981254826768,-0.8801672412874532,-1.2248797944771288,0.0,0.0,0.0,0.0,0.0,0.0,0.0,-52.86876033077888,22.87322281648415,1.392641189197408,0.4966824126116798,-0.0002792838397445152
-1.0664413695139354,1.0532697639961008,-0.23756187184196273,-1.2639160907220326,-0.2362140859748236,-0.010219297715242881,0.0,0.0,0.0,0.0,0.0,0.0,0.0,-59.41743631651031,10.125410154609076,-0.26277796511378193,-0.5906428994886341,2.4001123182237905e-06
0.5073847159505819,1.0201094180589585,-0.5402209454472228,0.4510230968571973,1.4723425239790109,0.537730806331825,0.0,0.0,0.0,0.0,0.0,0.0,0.0,-55.06915808170346,6.79355647750581,-0.019717765039692584,4.090093055839861,-0.00035107920353438793
-0.4855467866762158,-0.15334799747200575,0.49952747008935017,0.3505488819987971,0.2667588566154099,-0.7935866636193017,0.0,0.0,0.0,0.0,0.0,0.0,0.0,-8.82403831877886,19.15018186980723,-0.38076241083133255,2.2974492105884474,-0.0004284525162650543
-0.21156075043114778,-0.021867271615076032,-1.407517327314019,-0.764326512210679,0.789759992920225,0.05429983549569994,0.0,0.0,0.0,0.0,0.0,0.0,0.0,-7.001144165069164,9.806266082843305,0.3563029301146665,3.250451323602628,-0.000516257584396107
0.042646579091275186,-0.6970033076183969,-0.6548283151283162,-0.6136877508106298,-0.9286221347672478,-0.6688993931247627,0.0,0.0,0.0,0.0,0.0,0.0,0.0,12.608383324853303,25.551737140042086,-1.9855768139077008,2.1476587322621956,-0.0002911619926266873
0.9951713063039791,-0.10872159779135887,-1.1762379049821614,-0.734020270806362,-0.7237188106173117,0.9150870318962471,0.0,0.0,0.0,0.0,0.0,0.0,0.0,-5.706792286517865,13.493723024576301,-0.9194721980513291,-1.2807033982990275,-0.00018835333210609484
0.2578896926561735,0.47628788287428253,0.8276403475838525,0.9144269464634711,-0.11631859870238344,-1.1203274701518142,0.0,0.0,0.0,0.0,0.0,0.0,0.0,-49.70508465054616,24.670476381663814,0.28864118644577375,2.5008619231990306,-0.0006471045185381108
-1.6544963481890016,-0.7012849063924378,-0.583835053220749,0.6952558841183878,0.13799600754355154,-0.4327956217560921,0.0,0.0,0.0,0.0,0.0,0.0,0.0,11.721478360085735,26.623142791828506,-0.44666800295251446,3.0356282165794406,-0.0004851305243816495
-1.1077291335546333,-1.7023311811118902,0.41436762833994245,-0.5832645800334615,-0.49766790993019605,0.7782215803616334,0.0,0.0,0.0,0.0,0.0,0.0,0.0,71.93034424529405,-15.03081670683677,0.6101304395874885,0.11237514223864942,0.00018524588715451706
-0.9555948908026599,0.5786364410020933,0.6277698394112222,1.1651517910594735,1.3123960306009321,0.6386957779939868,0.0,0.0,0.0,0.0,0.0,0.0,0.0,-54.139025163320866,23.93300701401923,-3.6883681633705776,0.2188433504667895,0.0005648545868179866
-0.6146143374214188,0.7243080870810247,-0.6830317664645649,0.6048938828938804,0.003467399868680387,0.5301740076131128,0.0,0.0,0.0,0.0,0.0,0.0,0.0,-44.268131896564505,7.259381403604735,-0.016547684641635634,0.5631272244355667,5.864345397753323e-06
-0.2742163403628816,0.3630946085497381,-0.9170206041470665,0.4225902517301834,0.8970569833103994,0.9312140775022654,0.0,0.0,0.0,0.0,0.0,0.0,0.0,-31.931314219639436,12.918883605256024,-0.40694738481460846,3.743974675367089,-8.3666856787179e-06
-0.43597014670731077,0.6841631438468732,-0.36151763007180937,0.13536027374753845,-0.10172040494132711,1.7546302724853957,0.0,0.0,0.0,0.0,0.0,0.0,0.0,-51.003432961421545,15.796998126385516,-0.028079469832025833,1.6679439878989868,0.00021515211213658791
1.0927119474376115,0.8807855498416866,-0.31628511350713645,0.14330322378769714,0.31164737616279214,-0.5441448124264661,0.0,0.0,0.0,0.0,0.0,0.0,0.0,-57.172679697430716,13.733536089242985,-0.10703709919343593,2.584626555757273,-0.0004399183791427008
-0.3671008920618546,-0.4716503763550243,1.0377322018487447,-0.4849603968352801,0.8473612138087084,-0.01688398047546764,0.0,0.0,0.0,0.0,0.0,0.0,0.0,31.646850988470668,-4.098702595317249,0.08184366795577133,-2.9243073615592685,0.0004307533096631899
0.5863373708016327,0.3001724081799335,-0.14849210955402523,-1.7122209011282217,0.03314054406011787,-1.2045530397737692,0.0,0.0,0.0,0.0,0.0,0.0,0.0,-41.39806449130224,25.84356437354794,0.13630223489182205,-0.4620277719945638,0.0004632097847576122
-1.0240732986643317,-0.1838358671641226,0.5410833723663958,-0.6882955428185564,1.2855408607181484,-0.4540573567704554,0.0,0.0,0.0,0.0,0.0,0.0,0.0,-2.125653162236166,14.175020046752326,1.8074849733448595,-1.9447642062856056,0.00031512274676126495
0.7174513131686855,-0.6092348045522503,1.4300648217285694,-0.29601808408973745,-0.9865899917908836,0.044574981074128855,0.0,0.0,0.0,0.0,0.0,0.0,0.0,45.40581933203672,-11.176982715871901,0.5006561516392116,2.078382216954738,-0.00025458473787742797
-1.1961531666984966,-0.5358859015027158,-0.0894557210327357,0.13350941947629508,-0.2728491090694915,-1.3922080562120698,0.0,0.0,0.0,0.0,0.0,0.0,0.0,7.092720482622296,23.647249822240017,0.030649467592737928,4.012906930596086,-0.0004919145786736329
0.2729560592945999,-0.07459254121453718,-0.9583519768666454,-0.18980152900051522,-0.8901673112269766,-0.16090783593904767,0.0,0.0,0.0,0.0,0.0,0.0,0.0,-10.323813286707693,16.158091075603974,-0.45321675116461607,-0.8580783661281028,0.00010979154033774474
1.5669868374303628,-0.0154920099112716,-0.11817565563801467,0.21270627642865284,-0.020084981319212984,-0.5107351272040291,0.0,0.0,0.0,0.0,0.0,0.0,0.0,-24.93995980949402,27.378116325363095,-0.0940421422716857,3.98350738303394,-0.0006779315075410366
