Joohwan-Seo/mujoco_sysID/Fanuc/Dataset/square_PIH_fanuc_new_real_1.csv
q1,q2,q3,q4,q5,q6,dq1,dq2,dq3,dq4,dq5,dq6,t1,t2,t3,t4,t5,t6
5.220844099009034e-06,0.46178045750330554,-0.3926965915407687,-8.598816262733991e-06,-0.19999124582861044,4.317879809850545e-05,0.0026104220495045166,-0.009465147921932487,0.001245078977731339,-0.004299408131366996,0.004377085694782344,0.021589399049252722,-0.026573311818713065,20.44562620698609,-32.711332202532255,-19.73209475680317,-10.0332511664445,19.13529700790517
1.5600559663435536e-05,0.46174267130433577,-0.39269157290750095,-2.5980620095724502e-05,-0.19997377917313916,0.00012745763642636217,0.005189857782213251,-0.018893099484878707,0.0025093166338685724,-0.008690901916495256,0.008733327735645197,0.04213941916392836,-0.02935310688202473,20.478471773547852,-32.67714962052443,-19.688315132021405,-10.155980957343505,18.31052222836336
3.109110698202502e-05,0.4616860547213103,-0.39268396847755327,-5.23240011009535e-05,-0.19994775268373732,0.0002508555533913636,0.007745273659294741,-0.028308291512746494,0.0038022149738471296,-0.013171690502614498,0.013013244700917494,0.06169895848250073,-0.032406029102973535,20.512571619819845,-32.642210838275915,-19.643671598746526,-10.279219912129845,17.524078781748344
5.16456714050563e-05,0.46161063423722,-0.39267372078600016,-8.779670548577211e-05,-0.19991331831943454,0.0004114840419060444,0.010277282211515637,-0.03771024204516364,0.005123845776548087,-0.017736352192409308,0.017217182151390356,0.08031424425734038,-0.035735303364632764,20.547883116867098,-32.6065145839506,-19.598200053546766,-10.4029007665514,16.774185452946785
7.72185935253229e-05,0.46151643730242253,-0.3926607722216952,-0.00013255611606934035,-0.19987062737630187,0.0006075427400778731,0.012786461060133302,-0.047098467398724884,0.0064742821524672,-0.022379705291784117,0.021345471566327007,0.09802934908591437,-0.03934390763010468,20.58436690355183,-32.57006052537447,-19.551934994115484,-10.526961946436474,16.05914404976468
0.00010776530278170582,0.4614034923365172,-0.3926450650260315,-0.00018674971002267693,-0.19981983051107885,0.0008373153229618603,0.015273354628191457,-0.05647248295269307,0.007853597831829817,-0.027096796976668287,0.02539843261150971,0.11488629144199364,-0.0432345786457019,20.621986564675936,-32.53284917954819,-19.50490959300289,-10.651347044862751,15.377335528189
0.00014324225432929145,0.46127182872882466,-0.39262654129296176,-0.000250515495396414,-0.1997610777607603,0.0010991655859726947,0.017738475773792815,-0.06583180384625291,0.00926186653489003,-0.03188289268686854,0.02937637515928169,0.13092513150541718,-0.047409819189165585,20.660708339302808,-32.49488183109678,-19.45715576826259,-10.776004347691643,14.727216299008925
0.00018360686902710904,0.4611214768376322,-0.39260514297012983,-0.00032398242744004094,-0.19969451855858913,0.0013915337109952457,0.020182307348908787,-0.0751759455962172,0.010699161415954235,-0.03673346602181347,0.03327960108557523,0.1461840625112755,-0.05187190648779587,20.70050085645449,-32.456160458732356,-19.40870425106074,-10.900886402969473,14.107314707265772
0.00022881747640132342,0.4609524679883457,-0.3925808118609828,-0.0004072708056685204,-0.19962030174685616,0.0017129327066530127,0.02260530368710719,-0.08450442464323955,0.012165554573496058,-0.04164418911423973,0.037108405866487296,0.16069949782888351,-0.0566229014913615,20.741334895637515,-32.416687668898795,-19.35958465030732,-11.02594963011857,13.516227676406503
0.0002788332604481481,0.46076483447067806,-0.39255348962774383,-0.0005004926525865551,-0.19953857558686663,0.0020619450145948843,0.025007892023412345,-0.09381675883381935,0.013661116619478763,-0.046610923459017344,0.040863079994764656,0.17450615397093577,-0.06166465873612092,20.78318316988667,-32.37646663585333,-19.30982551437827,-11.151153965219319,12.952617509401158
0.0003336142081468608,0.46055860953498867,-0.3925231177951405,-0.0006037520749373651,-0.19944948776639748,0.0024372192740423756,0.027390473849356344,-0.1031124678446869,0.015185916301678861,-0.05162971117540499,0.04454391023457121,0.1876371297237458,-0.06699883658036693,20.826020129228205,-32.33550104751969,-19.25945439000401,-11.276462539031355,12.415208839451559
0.00039312106055913027,0.46033382738787765,-0.3924896377547937,-0.0007171456083015001,-0.19935318540493527,0.0028374672372032585,0.02975342620613473,-0.11239107355552448,0.016740020173417948,-0.05669676668206749,0.048151180731109945,0.20012398158044153,-0.07262690762960831,20.869821782660935,-32.29379505651289,-19.20849787840522,-11.40184138471302,11.90278572326773
0.0004573152663964165,0.46009052318712684,-0.39245299077018236,-0.0008407625458318587,-0.1992498150569552,0.0032614608285040517,0.03209710291864312,-0.1216521003754036,0.01832349230566474,-0.061808468765179286,0.051685173990044464,0.21199679565039664,-0.07855016920169815,20.914565536924727,-32.2513532357998,-19.15698168876061,-11.527259172482538,11.41418887022066
0.000526158937942502,0.45982873303607125,-0.39241311798210843,-0.0009746852518736226,-0.1991395227134748,0.0037080293409240492,0.03442183577304272,-0.13089507552779872,0.0199363940369711,-0.066961353020882,0.05514617174019238,0.2232842562099987,-0.0847697537096522,20.960230050492214,-32.20818053851623,-19.10493068909384,-11.652686968721225,10.94831300099625
0.0005996148092232645,0.4595484939774741,-0.3923699604145941,-0.0011189894611821486,-0.19902245380209152,0.004176056763028191,0.03672793564038125,-0.14011952929856442,0.02157878375715932,-0.072152104654263,0.05853445569163194,0.23401371105207078,-0.09128663886324109,21.006795101359046,-32.16428226150707,-19.052368954668196,-11.778098017251764,10.504104329676371
0.0006776461963206274,0.45924984398697244,-0.3923234589811519,-0.0012737445644179044,-0.1988987531856912,0.004664479230595893,0.039015693548681424,-0.14932499525083429,0.02325071672108875,-0.07737755161787792,0.06185030820015968,0.24421123378385118,-0.09810165761025037,21.054241467343303,-32.11966401220626,-18.999319813978317,-11.903467540735614,10.080558163459365
0.0007602169597322275,0.4589328219661516,-0.3922735544913735,-0.001439013880565214,-0.1987685651599953,0.0051722825970286525,0.041285381705800046,-0.15851101041041227,0.024952244889199792,-0.08263465807365473,0.0650940128479494,0.2539016832163797,-0.10521550775506569,21.10255081772368,-32.07433167850894,-18.945805892428254,-12.028772560325866,9.676716614505423
0.0008472914686827441,0.45859746773530186,-0.39222018765778977,-0.001614854916890799,-0.19863203345009675,0.005698500116991488,0.04353725447525832,-0.16767711542487365,0.02668341679186863,-0.08792051816279256,0.06826585494927957,0.26310875998141786,-0.11262876120640691,21.151705615154412,-32.028291401326506,-18.891849153784314,-12.15399173188436,9.291666418651852
0.0009388345672970355,0.4582438220259033,-0.39216329910295994,-0.001801319617028812,-0.19848930120611813,0.006242210238002751,0.04577154930714569,-0.17682285469927514,0.0284442774149085,-0.09323235006900649,0.07136612198930856,0.2718550605056315,-0.1203418728179421,21.20168902689379,-31.981549549547218,-18.837470939490032,-12.27910519723024,8.924536855990874
0.0010348115425492486,0.45787192647288116,-0.3921028293667523,-0.001998454597751157,-0.19834051099811198,0.006802534494934086,0.0479884876261066,-0.18594777651108335,0.03023486810382619,-0.09856749036117256,0.07439510400307467,0.28016212846566746,-0.12835518879551336,21.252484844471752,-31.934112697152493,-18.782692005929185,-12.40409444902851,8.574497768538246
0.0011351880939059105,0.45748182360666784,-0.3920387189137829,-0.0022063013749553484,-0.19818580481030962,0.007378635502617987,0.05018827567833094,-0.1950514331066704,0.03205522648468918,-0.10392338860209564,0.07735309390117397,0.2880505038419507,-0.13666895465304946,21.304077411006524,-31.885987602267694,-18.72753255972092,-12.528942208058048,8.240757670445376
0.0012399303045846789,0.45707355684510487,-0.3919709081409835,-0.0024248965793768674,-0.1980253240348138,0.00796971504198498,0.052371105339384244,-0.2041333807814872,0.03390538639968109,-0.10929760221075943,0.0802403877479146,0.2955397696834966,-0.14528332270618244,21.356451555448864,-31.83718118794699,-18.67201229112875,-12.653632311714295,7.922561946421581
0.0013490046143539453,0.45664717048521325,-0.3918993373852723,-0.0026542721625089152,-0.19785920946481947,0.00857501223536651,0.05453715488463324,-0.2131931799458119,0.03578537785562368,-0.11468779156602384,0.0830572849971564,0.3026485966907643,-0.15419835909832386,21.409592533104842,-31.787700524514303,-18.616150405663422,-12.778149612709303,7.619191134236611
0.0014623777938018356,0.4562027096948577,-0.3918239469313044,-0.002894455593189538,-0.19768760128743845,0.009193801806803622,0.05668658972394516,-0.22223039517777554,0.037695226983924544,-0.12009171534031134,0.08580408869051165,0.30939478571855633,-0.16341405035867262,21.463485971844214,-31.73755281329934,-18.559965653956734,-12.902479887026898,7.329959287367905
0.001580016920006367,0.45574022050432733,-0.3917446770192833,-0.0031454700452942836,-0.19751063907619423,0.009825392423395996,0.05881956310226568,-0.23124459526519311,0.039634956010572694,-0.12550722605237266,0.08848110562210303,0.3157953082961869,-0.17293030949547014,21.518117823461168,-31.68674537162751,-18.50347635998142,-13.026609750280082,7.054212414041629
0.001701889353541587,0.4552597497978522,-0.39166146785281336,-0.003407334576951773,-0.19732846178324695,0.010469125113911166,0.06093621676761001,-0.2402353532375682,0.04160458323495098,-0.13093226582874465,0.09108864647364073,0.32186634525758495,-0.18274698163092543,21.573474319698683,-31.635285618933388,-18.446700447689242,-13.15052658169439,6.791326989092811
0.0018279627167574557,0.45476134530507323,-0.3915742596067806,-0.0036800643016797925,-0.19714120773140056,0.011124371761050474,0.06303668160793438,-0.24920224638949712,0.04360412301636642,-0.1363648623640097,0.09362702592319118,0.3276233235696537,-0.19286384918671795,21.6295419324993,-31.583181063885313,-18.389655466137345,-13.27421845501541,6.540708535237755
0.001958204873274037,0.4542450555924801,-0.391482992435246,-0.0039636705518206715,-0.19694901460593925,0.011790533663936618,0.0651210782582906,-0.2581448562965686,0.04563358576731867,-0.14180312507043968,0.09609656273065685,0.33308095144307226,-0.2032806366309319,21.686307338081093,-31.53043929241681,-18.33235861316996,-13.397674075702003,6.301790270511656
0.002092583908633247,0.4537109300548306,-0.39138760647934073,-0.004258161034636786,-0.19675201944633391,0.01246704016754818,0.06718951767960499,-0.26706276882473823,0.04769297795263397,-0.14724524140805745,0.09849757980267058,0.33825325180578114,-0.21399701479879665,21.743757384478293,-31.477067956574395,-18.27482675772026,-13.52088272382634,6.0740318187768
0.0022310681120539747,0.4531590189065625,-0.39128804187515337,-0.00456353998140994,-0.19655035863785528,0.013153347355979452,0.06924210171036385,-0.2759555741340515,0.049782302093687746,-0.15268947338657687,0.10083040423932156,0.3431535942156353,-0.22501260480073487,21.801879062217992,-31.42307476409877,-18.217076460794583,-13.643834202156116,5.856917980351943
0.0023736259592388367,0.4525893731732075,-0.3911842387615993,-0.004879808289872122,-0.19634416790312553,0.01384893680654971,0.07127892359243106,-0.28482286667749424,0.051901556777026146,-0.1581341542310911,0.10309536736487343,0.347794725285129,-0.23632698153205545,21.860659477836656,-31.3684674686667,-18.159123995198783,-13.766518788941681,5.649957559951609
0.0025202260961831756,0.4520020446828162,-0.39107613728826573,-0.005206963660279655,-0.19613358229363673,0.014553314401925074,0.07330006847216951,-0.2936642451956635,0.05405073666677397,-0.16357768520376617,0.10529280474440406,0.3521887976876825,-0.24793967679918866,21.92008582996663,-31.31325386072816,-18.100985364063966,-13.888927194976283,5.452682249256115
0.002670837323939148,0.4513970860574004,-0.39096367762322515,-0.005545000725427989,-0.19591873618126054,0.015266009197548534,0.07530561387798626,-0.3024793127078742,0.05622983252028641,-0.16901853257416702,0.1074230561880878,0.3563473978117293,-0.2598501820777238,21.980145387749246,-31.257441758879622,-18.042676318226633,-14.011050524536016,5.264645561558547
0.0028254285842898913,0.4507745507043999,-0.390846799960812,-0.005893911174890376,-0.19569976324977123,0.01598657234180002,0.07729563017537144,-0.3112676765002488,0.058438831206564505,-0.17445522473119388,0.10948646574465505,0.3602815721257431,-0.2720579509176798,22.040825471353408,-31.20103900172107,-17.984212372515916,-14.13288023984417,5.085421816054687
0.002983968946290799,0.45013449280817736,-0.390725444529358,-0.006253683873750262,-0.19547679648640043,0.016714576046428797,0.07927018100045384,-0.3200289481112722,0.06067771572701031,-0.17988634942994272,0.11148338168539516,0.3640018523143887,-0.2845624010114797,22.102113434399463,-31.144053440150806,-17.92560882099828,-14.254408128735484,4.914605169456014
0.0031464275936368994,0.44947696732154685,-0.39059955159888166,-0.006624304976084504,-0.1952499681734406,0.01744961260491513,0.08122932367305033,-0.3287627433152408,0.06294646523814801,-0.18531055116712114,0.11341415647991834,0.3675182792431672,-0.2973629159400194,22.16399664810809,-31.08649293005614,-17.86688075122796,-14.375626275228225,4.751808692714511
0.0033127738128171853,0.44880202995733887,-0.3904690614887297,-0.007005758033442414,-0.19501940987991107,0.01819129345652761,0.08317310959014292,-0.3374686821039814,0.06524505507598194,-0.19072652867895465,0.1152791467647568,0.3708404258062401,-0.31045884661204187,22.226462487008625,-31.028365325361463,-17.808043057549433,-14.49652703273576,4.5966634907517445
0.003482976982018536,0.4481097371800045,-0.39033391457516625,-0.007398024098554027,-0.19478525245329953,0.018939248293946734,0.08510158460067538,-0.34614638866717196,0.06757345678170301,-0.19613303255580697,0.11707871330576372,0.37397741870956197,-0.3238495124117923,22.289498316059777,-30.96967847140248,-17.74911045349604,-14.617102999677671,4.448817863183183
0.003657006560743579,0.44740014619726143,-0.3901940512989093,-0.007801081824490053,-0.1945476260113892,0.019693124212424758,0.08701478936252166,-0.35479549137155497,0.06993163812849065,-0.20152886296801278,0.11881322095516007,0.3769379592390119,-0.33753420206961293,22.353091479048032,-30.910440198595495,-17.690097483326973,-14.737346997269103,4.307936504123182
0.003834832080108459,0.4466733149517828,-0.3900494121726109,-0.008214907559485419,-0.19430665993418123,0.02045258489854654,0.08891275968243993,-0.36341562273929745,0.07231956314918969,-0.20691286749768265,0.12048303860398148,0.37973034306089104,-0.35151217426980563,22.417229288140724,-30.850658316375792,-17.63101853274313,-14.85725204929055,4.173699739245318
0.004016423133788039,0.44592930211293136,-0.3898999377882816,-0.008639475437628398,-0.19406248285592004,0.021217309856746417,0.0907955268397896,-0.3720064194257197,0.07473719216466974,-0.21228393907148926,0.12208853913059026,0.3823624790999395,-0.3657826580096979,22.481899014486352,-30.790340607382035,-17.571887838820412,-14.976811363655615,4.045802798358575
0.004201749369577546,0.4451681670685382,-0.38974556882465616,-0.009074757465607758,-0.19381522265722836,0.021986993671822247,0.09266311789475375,-0.3805675221965846,0.07718448181270074,-0.2176410139896806,0.12363009934583957,0.38484190753791425,-0.38034485272346635,22.54708787976017,-30.72949482186528,-17.512719499197306,-15.096018315613346,3.923955121841102
0.004390780481541097,0.44438996991672797,-0.38958624605450176,-0.009520723605701343,-0.19356500645735755,0.022761345305769766,0.09451555598177573,-0.38909857590511404,0.07966138507720034,-0.22298307004679216,0.12510809993540684,0.38717581697375936,-0.39519792818383814,22.61278304856622,-30.668128672303965,-17.45352748055218,-15.214866432435743,3.807879699351011
0.0045834862027188715,0.4435947714577902,-0.3894219103518663,-0.009977341855180831,-0.19331196060655806,0.023540087427338725,0.09635286058888691,-0.3975992294688764,0.08216785131772941,-0.22830912473974405,0.12652292539975113,0.3893710607844797,-0.41034102419439716,22.678971621614814,-30.606249828208576,-17.39432562640386,-15.333349379454667,3.6973124393076175
0.004779836298366015,0.44278263318609684,-0.38925250269926803,-0.01044457832229926,-0.19305621067857387,0.024322955772786734,0.09817504782357156,-0.40606913584666526,0.08470382629912941,-0.2336182335592146,0.1278749639920938,0.39143417272400466,-0.42577325008477745,22.745640629600913,-30.543865911101754,-17.335127664267752,-15.451460947325504,3.5920015677070642
0.004979800559697587,0.4419536172820659,-0.3890779641948256,-0.01092239729902001,-0.19279788146326432,0.0251096985363779,0.09998213066578594,-0.41450795201547597,0.08726925222121161,-0.23890948836037582,0.12916460765477183,0.39337138179558334,-0.4414936840206133,22.812777027717466,-30.480984489659633,-17.27594721219834,-15.5691950404054,3.4917070549034563
0.005183348798115028,0.44110778660417055,-0.3888982360593288,-0.011410761330638534,-0.19253709695935578,0.025900075789241087,0.10177411920872036,-0.42291533894766503,0.08986406774842169,-0.24418201580926194,0.1303922519542694,0.395188626431594,-0.4575013721397179,22.880367690744514,-30.417613075004276,-17.21679778474741,-15.68654566614538,3.3962000690507077
0.005390450839890761,0.4402452046809938,-0.38871325964324993,-0.011909631282440972,-0.1922739803673254,0.02669385892526722,0.10355102088786625,-0.43129096158836716,0.09248820803941597,-0.24943497590121907,0.1315582960151937,0.3968915680130663,-0.47379532752553144,22.948399408658496,-30.353759116136096,-17.15769279836618,-15.803506925403248,3.3052624549613467
0.00560107652128861,0.4393659357033274,-0.38852297643369693,-0.012418966403537075,-0.19200865408241855,0.027490830132786637,0.10531284069892476,-0.4396344888332289,0.09514160477649618,-0.2546675605480513,0.13266314245342636,0.3984856037597068,-0.49037452902850065,23.016858882713983,-30.28942999549779,-17.09864557627813,-15.920073003594673,3.2186862371966596
0.005815195684098748,0.4384700445163144,-0.3883273280613072,-0.012938724387998354,-0.19174123968780124,0.0282907818908262,0.10705958140506873,-0.44794559350650826,0.09782418619485941,-0.2598789922306396,0.1337071973086506,0.39997587901978027,-0.5072379199456731,23.085732721953427,-30.224633024661316,-17.039669352848342,-16.036238162605798,3.136273146258122
0.0060327781715668405,0.43755759661163524,-0.38812625630708397,-0.013468861433426278,-0.19147185794784838,0.029093516488801853,0.10879124373404661,-0.45622395233957863,0.10053587711162822,-0.26506852271396164,0.13469086997642699,0.40136729898782686,-0.5243844065684007,23.155007440105443,-30.159375440131917,-16.9807772774738,-16.15199673339861,3.057834166802804
0.00625379382469803,0.4366286581197355,-0.38791970310917473,-0.01400933229706945,-0.19120062880156843,0.029898845568555633,0.11050782656559459,-0.4644692459498676,0.10327659895463306,-0.2702354318215859,0.1356145731399664,0.4026645398768909,-0.5418128566077158,23.224669452835343,-30.093664399262053,-16.921982418018192,-16.267343109246795,2.983189106855919
0.006478212478917233,0.43568329580209497,-0.38770761056959285,-0.014560090349603155,-0.19092767135616498,0.03070658968769701,0.11220932710960159,-0.47268115882025236,0.10604626979092611,-0.2753790262668521,0.13647872270172712,0.40387205957068867,-0.5595220975065802,23.294705075316607,-30.02750697627063,-16.86329776381372,-16.382271739544876,2.9121661870415987
0.006706003961068136,0.43472157704353714,-0.3874899209608828,-0.015121087626679318,-0.1906531038807351,0.031516577903256925,0.11389574107545175,-0.4808593792789274,0.10884480435501037,-0.28049863853808105,0.1372837377149446,0.40499410777995815,-0.5775109146478927,23.365100520093073,-29.960910158362672,-16.804736228251247,-16.49677712413885,2.8446016488988755
0.006937138086734034,0.4337435698445776,-0.38726657673272924,-0.01569227487834988,-0.19037704380010473,0.03232864737470912,0.11556706283294903,-0.4890035994797548,0.11167211407677362,-0.28559362583528225,0.1380300403151849,0.4060347357260985,-0.595778049466828,23.435841895207986,-29.893880841945325,-16.746310650979616,-16.61085380813268,2.7803393813933455
0.007171584657864455,0.43274934281381144,-0.387037520518511,-0.01627360161646178,-0.19009960768880074,0.03314264298545738,0.11722328556521047,-0.4971135153831007,0.11452810710912027,-0.29066336905594825,0.1387180556519993,0.40699780537413194,-0.6143221974757691,23.506915202573275,-29.826425828936706,-16.688033799733475,-16.724496377126172,2.7192305647766872
0.007409313460692248,0.4317389651603371,-0.3868026951418004,-0.01686501616011705,-0.18982091126515926,0.03395841698192936,0.11886440141389655,-0.5051888267371599,0.11741268835529821,-0.2957072718276365,0.13934821182074378,0.40788699823598895,-0.6331420062098363,23.57830633656168,-29.758551823165284,-16.629918371808778,-16.837699452847758,2.661133330985706
0.0076502942639265084,0.4307125066862176,-0.38656204362280855,-0.01746646567928735,-0.18954106938557003,0.03477582862945764,0.1204904016171301,-0.5132292370597632,0.12032575949592043,-0.30072475958514944,0.1399209397946165,0.40870582376413933,-0.6522360731007151,23.65000108280003,-29.69026542685596,-16.571976995203727,-16.95045768914564,2.6059124398105125
0.007894496817207386,0.4296700377789763,-0.3863155091847772,-0.0180778962366678,-0.1892601960388561,0.03559474388416695,0.12210127664043915,-0.521234453620663,0.12326721901568419,-0.30571527869022563,0.1404366733569566,0.40945762735465685,-0.6716029432862509,23.72198511714881,-29.621573137202276,-16.51422222944263,-17.06276576830637,2.553438970097333
0.008141890849809473,0.4286116294041277,-0.3860630352603176,-0.018699252827851308,-0.18897840434078841,0.03641503508012278,0.12369701630104381,-0.5292041874242867,0.1262369622297923,-0.3106782955917535,0.14089584903383862,0.4101455979779137,-0.6912411073630285,23.79424400485174,-29.552481343021455,-16.45666656609909,-17.174618397671786,2.5035900252857815
0.008392446069581058,0.4275373530977418,-0.3858045654976974,-0.019330479419900532,-0.18869580652873444,0.03723658063103129,0.1252776098857918,-0.537138153192946,0.12923488131008343,-0.3156132960246126,0.14129890602699038,0.4107727754542529,-0.7111489990889134,23.8667631998427,-29.48299632149243,-16.399322429034438,-17.286010306528105,2.4562484526131954
0.008646132162107125,0.42644728095904083,-0.3855400437670757,-0.019971518988391206,-0.18841251395644032,0.03805926474581364,0.12684304626303436,-0.5450360693504908,0.13226086531087897,-0.32051978424533695,0.14164628614705527,0.4113420573911761,-0.731324993042324,23.93952804419755,-29.41312423497353,-16.342202174366612,-17.396936243243868,2.4113025753497763
0.008902918790084565,0.42534148564302804,-0.3852694141666866,-0.020622313552996964,-0.1881286370889459,0.03888297715740927,0.12839331398871928,-0.5528976580063906,0.1353148001945565,-0.32539728230287845,0.14193843374721427,0.4118562057978142,-0.7517674022447862,24.012523767720268,-29.342871127901972,-16.285318090184084,-17.50739097263501,2.368645937457986
0.009162775592898497,0.4242200403531476,-0.38499262102897286,-0.02128280421168263,-0.18784428549763155,0.03970761286419269,0.12992840140696674,-0.5607226449402292,0.13839656885685947,-0.3302453293428315,0.14217579565717925,0.4123178533917109,-0.772474475753126,24.085735487654667,-29.272242923770946,-16.228682396018787,-17.617369273537143,2.328177060098067
0.009425672186389258,0.4230830188339744,-0.38470960892666894,-0.021952931173569737,-0.18755956785539643,0.04053307188341719,0.13144829674537972,-0.5685107595865947,0.1415060511519547,-0.33506348094355465,0.14235882111756448,0.4127295096122494,-0.7934443962274619,24.159148208511517,-29.201245422186247,-16.172307242091424,-17.7268659365688,2.2897992094283817
0.009691578162799919,0.42193049536393373,-0.38442032267883447,-0.022632633790535137,-0.18727459193196716,0.04135925901612596,0.1329529882053304,-0.576261735020348,0.14464312391724898,-0.33985130848270034,0.14248796171463982,0.4130935663543835,-0.8146752774809864,24.23274682200629,-29.129884296001933,-16.116204708342146,-17.835875762067943,2.253420175175239
0.009960463090894822,0.42076254474804925,-0.3841247073568385,-0.0233218505876006,-0.1869894645893362,0.042186083622997354,0.13444246404745192,-0.5839753079422514,0.14780766099797715,-0.3446083985327325,0.14256367131546724,0.41341230343569724,-0.8361651620173445,24.30651610709819,-29.058165088533094,-16.060386803258883,-17.944393558188843,2.2189520594712238
0.010232296516239933,0.41957924231071936,-0.38382270829029536,-0.02402051929216876,-0.18670429177732936,0.043013459410615774,0.13591671267255492,-0.5916512186649387,0.15099953327157367,-0.34933435228407894,0.14258640600341893,0.4136878938092102,-0.8579120185612639,24.380440730126768,-28.986093210848118,-16.004865462515248,-18.052414139145228,2.1863110754845354
0.010507047961636288,0.41838066388852096,-0.38351427107295166,-0.024728576862158017,-0.1864191785293012,0.04384130422768331,0.13737572269817774,-0.5992892110992096,0.1542186086718404,-0.354028784994629,0.14255662401407435,0.41392240853376566,-0.8799137395879222,24.45450524504014,-28.913673939138533,-15.949652547429393,-18.159932323588315,2.1554173553840856
0.010784686927698227,0.41716688582303973,-0.3831993415685258,-0.02544595951308671,-0.18613422895795823,0.04466953987070988,0.13881948303096964,-0.6068890327406284,0.15746475221292316,-0.3586913254643464,0.1424747856714913,0.4141178215132874,-0.902168138856393,24.52869409371062,-28.840912412167825,-15.89475984325486,-18.26694293310929,2.126194767206382
0.011065182893568422,0.4159379849537269,-0.3828778659164996,-0.026172602744154363,-0.18584954625130853,0.04549809189874121,0.14024798293509727,-0.6144504346564096,0.16073782601310938,-0.3633216155338269,0.1423413533248457,0.41427601401566555,-0.924672948952382,24.602991606333987,-28.767813628799104,-15.840199057313914,-18.373440790855778,2.0985707402105094
0.011348505317762134,0.41469403861078175,-0.38254979053786264,-0.026908441363365728,-0.18556523266873767,0.04632688945670427,0.14166121209685578,-0.6219731714725723,0.16403768931845922,-0.3679193096056823,0.14215679128543304,0.4143987789815281,-0.9474258188452938,24.677382001908793,-28.69438244560203,-15.785981816983515,-18.479420720254723,2.0724760983267125
0.01163462363913345,0.41343512460805903,-0.3822150621408101,-0.027653409511741105,-0.18528138953720963,0.047155865106969626,0.14305916068565755,-0.6294570013613456,0.16736419852628262,-0.37248407418768753,0.14192156576402468,0.41448782513267896,-0.9704243114645711,24.75184938879349,-28.62062357453936,-15.732119667543731,-18.584877543832718,2.0478449013227022
0.011923507277956578,0.4121613212360014,-0.3818736277263931,-0.028407440686654455,-0.1849981172475925,0.04798495466874868,0.14444181941156373,-0.6369016860288077,0.170717207208474,-0.37701558745667546,0.14163614480857106,0.41454478088952545,-0.9936659013001032,24.826377765337995,-28.546541580734015,-15.678624069898007,-18.689806082127657,2.024614293329078
0.012215125637115609,0.4108727072545959,-0.3815254345941237,-0.02917046776433888,-0.184715515251108,0.04881409706496145,0.14580917957951586,-0.6443069907027408,0.17409656613471614,-0.3815135388422122,0.14130099824224412,0.41457119810638515,-1.017147972031371,24.900951020588856,-28.47214088031656,-15.62550639817426,-18.794201152684465,2.002724358382279
0.012509448103396445,0.4095693618863545,-0.38117043034753256,-0.02994242302159714,-0.18443368205590438,0.04964323417622774,0.1471612331404182,-0.6516726841206877,0.1775021232955651,-0.3859776286291305,0.14091659760181077,0.41456855563314676,-1.040867814189895,24.975552935064762,-28.397425738354443,-15.572777937215577,-18.898057569130092,1.9821179826591548
0.012806444048874873,0.4082513648093181,-0.38080856289968174,-0.030723238156753225,-0.18415271522375173,0.05047231070165047,0.14849797273921353,-0.6589985385181918,0.1809337239254268,-0.3904075675780432,0.1404834160763294,0.4145382627113651,-1.0648226228594222,25.050167181602717,-28.322400266863305,-15.520449879968991,-19.001370140321676,1.9627407230926144
0.013106082832395052,0.4069187961500837,-0.38043978047863086,-0.03151284430987922,-0.1838727113668594,0.05130127402607546,0.1498193917600897,-0.6662843296172065,0.18439121052543572,-0.39480307656299746,0.14000192844616183,0.4144816622124935,-1.08900949541816,25.124777326272046,-28.247068422900433,-15.468533324780223,-19.10413366956398,1.944540682072285
0.013408333801132946,0.40557173647685435,-0.38006403163285835,-0.03231117208233016,-0.18359376614481482,0.05213007409352666,0.15112548436894718,-0.6735298366146593,0.18787442288624673,-0.399163886225472,0.13947261102229297,0.4144000337255983,-1.1134254293273058,25.199366829356578,-28.171434006742608,-15.41703927260246,-19.206342953891674,1.9274683879478036
0.01371316629223945,0.40421026679251204,-0.37968126523663687,-0.03311815155561807,-0.18331597426164292,0.052958663286529775,0.15241624555325214,-0.6807348421711558,0.19138319811074914,-0.40348973664395527,0.13889594158595076,0.414294596501558,-1.1380673199699398,25.273919046403343,-28.095500660146975,-15.365978624126509,-19.3079927834125,1.9114766810656456
0.014020549634558238,0.40283446852771243,-0.37929143049536346,-0.03393371230965483,-0.18303942946298588,0.05378699631105062,0.15369167115939394,-0.6878991323998112,0.19491737063671283,-0.4077803770183787,0.13827239932851965,0.41416651226042245,-1.1629319585443003,25.348417229337894,-28.019271864697927,-15.315362176839619,-19.409077940708567,1.8965206050829455
0.014330453150413558,0.40144442353400206,-0.3788944769508447,-0.03475778344039225,-0.18276422453340238,0.05461503008678722,0.15495175792766042,-0.6950224968551956,0.19847677225937554,-0.41203556536871294,0.13760246479174126,0.4140168878682983,-1.1880160300153288,25.422844527645218,-27.942750940238223,-15.265200622020116,-19.509593200292095,1.8825573033136518
0.014642846157463437,0.4000402140769573,-0.3784903544865368,-0.03559029357688638,-0.182490451293786,0.055442723642566874,0.15619650352493927,-0.7021047285223815,0.20206123215397975,-0.41625506824706665,0.13688661980819583,0.41384677788982815,-1.2133161111282802,25.497183989616936,-27.865941043387675,-15.215504541674411,-19.609533328113713,1.8695459198737816
0.014957697970613935,0.3986219228293451,-0.37807901333274024,-0.0364311708978117,-0.18221820059890187,0.05627003801661098,0.15742590657524871,-0.7091456238060817,0.20567057689826762,-0.42043866046265965,0.13612534744205912,0.41365718702205023,-1.238828668488071,25.571418563663453,-27.788845166148032,-15.166284405423095,-19.708893081120152,1.8574475054034694
0.015274977903990327,0.39718963286430536,-0.37766040407175033,-0.03728034314744984,-0.1819475623350416,0.057096936161441285,0.15863996668819616,-0.7161449825198666,0.20930463049494175,-0.4245861248190697,0.13531913193012984,0.4134490724151548,-1.2645500567079546,25.645531099691652,-27.711466134595547,-15.117550567342308,-19.807667206860074,1.8462249271538063
0.015594655272961246,0.39574342764855447,-0.37723447764296214,-0.0381377376511762,-0.18167862541779536,0.05792338285321208,0.1598386844854592,-0.7231026078754513,0.21296321439409918,-0.4286972518631814,0.13446845862312284,0.4132233458853968,-1.2904765166310255,25.71950435054877,-27.633806607662823,-15.069313262766546,-19.905850443135243,1.8358427832364073
0.015916699396212004,0.3942833910356104,-0.37680118534793083,-0.03900328133046679,-0.1814114777899409,0.05874934460526244,0.16102206162537844,-0.7300183064720425,0.2166461475156458,-0.43277183964529164,0.1335738139272243,0.41298087602517963,-1.3166041736278935,25.793320973530886,-27.555869076008268,-15.021582605058754,-20.003437517696337,1.8262673208428861
0.0162410795978635,0.3928096072590389,-0.3763604788553874,-0.03987690071744649,-0.1811462064194491,0.05957478958569262,0.1621901008257484,-0.7368918882857353,0.22035324627169764,-0.43680969348985194,0.13263568524590533,0.412722490215091,-1.3429290359738602,25.866963531958092,-27.47765586097697,-14.974368582353426,-20.10042314798116,1.817466358250737
0.016567765209633278,0.391322160925721,-0.37591231020620947,-0.04075852196899919,-0.18088289729760512,0.06039968753877752,0.16334280588488825,-0.7437231666589534,0.22408432458897573,-0.44081062577635166,0.13165456092199107,0.41244897654244955,-1.3694469933087288,25.940414496815286,-27.39916911365055,-14.927681054278153,-20.196802040894465,1.8094092104402666
0.01689672557303542,0.3898211370091411,-0.37545663181834704,-0.04164807088045893,-0.18062163543724516,0.06122400971003894,0.16448018170107082,-0.7505119582899233,0.22783919393119997,-0.4447744557298695,0.13063093017998306,0.41216108563070886,-1.3961538151823665,26.01365624845934,-27.32041081398905,-14.881529748659016,-20.292568892628044,1.802066618155694
0.01722793004161619,0.3883066208426968,-0.37499339649170405,-0.042545472898900615,-0.1803625048711079,0.06204772877480667,0.1656022342903845,-0.7572580832221757,0.2316176633214882,-0.4487010092208423,0.12956528306863282,0.4118595323838622,-1.4230451496889711,26.086671078392587,-27.24138277006329,-14.835924258214847,-20.387718388519858,1.7954106802511793
0.017561347983222387,0.3867786981130287,-0.3745225574129745,-0.04345065313604786,-0.18010558865030035,0.06287081877010627,0.16670897080309974,-0.7639613648340673,0.2354195393647652,-0.4525901185736213,0.1284581104037654,0.4115449976498002,-1.4501165221929417,26.15944119110374,-27.1620866173811,-14.790874037245445,-20.48224520295217,1.789414789169936
0.017896948782299603,0.385237454853372,-0.3740440681604342,-0.044363536380814673,-0.17985096884287766,0.06369325502971904,0.1678003995386081,-0.7706216298283177,0.23924462627018694,-0.4564416223834066,0.1273099037113518,0.4112181298063874,-1.4773633341491001,26.231948705975146,-27.08252381830403,-14.746388398318445,-20.576143999286714,1.7840535694117445
0.0182347018422176,0.3836829774369289,-0.373557882708687,-0.04528404711149701,-0.179598726532536,0.06451501412226673,0.16887652995899938,-0.777238708221554,0.24309272587358463,-0.4602553653411676,0.1261211551708304,0.41087954627385076,-1.5047808620199667,26.304175659258316,-27.002695661559375,-14.702476508959528,-20.669409429837387,1.779302818850792
0.018574576587620278,0.3821153525702612,-0.3730639554333671,-0.04621210950762936,-0.17934894181741864,0.06533607379218054,0.16993737270133902,-0.78381243333386,0.24696363765993268,-0.4640311980661783,0.12489235755867657,0.41052983495690426,-1.5323642562926332,26.376104006116677,-26.922603261844174,-14.659147388350437,-20.762036135878958,1.7751394527723348
0.01891654246679769,0.38053466728670454,-0.37256224111579545,-0.04714764746152098,-0.1791016938090342,0.06615641290342028,0.17098293958870528,-0.7903426417783228,0.25085715878584497,-0.46776897694581043,0.12362400419222198,0.4101695556198748,-1.5601085405977089,26.447715622736375,-26.84224755952404,-14.61640990403916,-20.854018747691974,1.7715414505026437
0.019260568954077774,0.37894100893980337,-0.37205269494759124,-0.04809058458948547,-0.17885706063128676,0.06697601138581617,0.17201324364004342,-0.7968291734505761,0.25477308410210314,-0.4714685639822465,0.12231658887372365,0.4097992411979435,-1.5880086109327018,26.51899230850575,-26.76162932042659,-14.574272768666406,-20.945351884643124,1.768487804512665
0.019606625552235555,0.3773344651967667,-0.3715352725352388,-0.04904084424277705,-0.17861511941961739,0.06779485018391111,0.17302829907889097,-0.8032718715183321,0.25871120617621995,-0.4751298266457891,0.12097060583468464,0.4094193990474706,-1.6160592349920733,26.58991578826307,-26.68074913572874,-14.532744536712531,-21.036030155300534,1.7659584718813193
0.01995468179491761,0.3757151240319449,-0.37100992990460874,-0.049998349518245964,-0.17837594632025652,0.06861291120818758,0.17402812134102658,-0.8096705824109026,0.2626713153150418,-0.47875263773445803,0.11958654968042778,0.4090305121382343,-1.6442550516061254,26.660467714613173,-26.59960742194003,-14.491833601268695,-21.126048157584144,1.763934328009665
0.020304707249079793,0.3740830737203275,-0.370476623505434,-0.05096302326872513,-0.17813961648958668,0.06943017728856814,0.17501272708109175,-0.8160251558087036,0.26665319958739253,-0.4823368752395809,0.11816491533492463,0.40863304019028274,-1.6725905702907464,26.73062967031291,-26.51820442098058,-14.45154819083614,-21.215400478950418,1.7623971224822217
0.020656671517436262,0.372438402831062,-0.36993531021574044,-0.051934788113159325,-0.1779062040936149,0.07024663213008409,0.17598213417823366,-0.8223354446327424,0.27065664484676216,-0.4858824222170977,0.11670619798588198,0.4082274207579718,-1.7010601709099482,26.800383170726118,-26.436540200354788,-14.41189636615717,-21.30408169661125,1.761329436976641
0.02101054424091789,0.3707812002209938,-0.36938594734623237,-0.052913566446487946,-0.17767578230755474,0.07106226027061137,0.17693636174081406,-0.8286013050340842,0.27468143475404255,-0.48938916666431065,0.11521089303008882,0.4078140702636435,-1.729658103453003,26.869709666347404,-26.35461465342043,-14.372886017081404,-21.39208637778723,1.760714645127267
0.021366295101138345,0.36911155502822723,-0.36882849264463174,-0.0538992804492916,-0.1774484233155167,0.07187704704057793,0.1778754301102283,-0.8348225963832964,0.27872735080031247,-0.4928570014018249,0.1136794960190264,0.40739338498328304,-1.7583784879278919,26.938590545395417,-26.27242749975374,-14.334524859470676,-21.47940907999442,1.7605368742529321
0.021723893822866096,0.3674295566657075,-0.3682629042999724,-0.05489185209721247,-0.1772241983103072,0.0726909785245507,0.1787993608638759,-0.8409991812598692,0.28279417232967446,-0.4962858239604368,0.11211250260474517,0.40696574198638574,-1.787215314372653,27.007007136475856,-26.189978285610444,-14.296820432145878,-21.566044351365115,1.76078096886298
0.022083310176500743,0.36573529481482425,-0.36768914094684807,-0.055891203170157944,-0.17700317749333516,0.07350404152461502,0.17970817681732276,-0.8471309254416116,0.2868816765621455,-0.4996755364727367,0.11051040848601182,0.4065315000321617,-1.8161624429860912,27.074940711313136,-26.107266384481758,-14.259780093878925,-21.651986731002015,1.7614324558599699
0.02244451398055213,0.36402885941903623,-0.3671071616696149,-0.05689725526129635,-0.1767854300746257,0.07431622352546323,0.18060190202569315,-0.8532176978940214,0.29098963861660304,-0.5030260455692063,0.10887370935473029,0.40609100042410473,-1.8452136043792338,27.14237248755183,-26.024290997746952,-14.223411020432845,-21.73723074936587,1.7624775113610107
0.022807475104120786,0.362310340677517,-0.3665169260065473,-0.05790992978585355,-0.1765710242729404,0.07512751266111295,0.18148056178432798,-0.8592593707596277,0.29511783153378807,-0.5063372622785979,0.10720290084264092,0.40564456782486036,-1.874362399948755,27.209283631627468,-25.94105115542133,-14.187720201653033,-21.82177092869637,1.7639029290633559
0.023172163469378275,0.36057982903882235,-0.36591839395394854,-0.058929147989718336,-0.1763600273160038,0.07593789768317942,0.18234418262874466,-0.8652558193473078,0.29926602629936727,-0.5096091019323951,0.10549847846830183,0.40519251103323645,-1.9036023023735078,27.275655261705687,-25.85754571699934,-14.152714438612438,-21.905601783466256,1.7656960900834897
0.023538549054046138,0.3588374151945792,-0.36531152597021443,-0.05995483095786466,-0.1761525054408351,0.07674736793062965,0.18319279233393176,-0.8712069221215762,0.303433991867055,-0.5128414840731621,0.10376093758435698,0.40473512372511466,-1.9329266562351592,27.341468450690783,-25.773773372393112,-14.118400340813386,-21.98871782086856,1.7678449342019118
0.02390660189387216,0.3570831900731955,-0.36469628297985085,-0.06098689962259786,-0.17594852389418492,0.07755591330094953,0.18402641991301089,-0.8771125606918465,0.30762149518179666,-0.5160343323665992,0.10199077332509549,0.40427268515993925,-1.9623286787638325,27.406704229302782,-25.68973264296654,-14.08478432344874,-22.071113541336466,1.7703379324493282
0.024276292085102753,0.35531724483359217,-0.3640726263774448,-0.06202527477163212,-0.1757481469330763,0.0783635242226583,0.18484509561529622,-0.8829726198016661,0.31182830120301436,-0.5191875745171279,0.10018848055430704,0.4038054608543813,-1.991801460709493,27.47134358922197,-25.605421882662913,-14.051872604724899,-22.152783439096332,1.7731640609726678
0.024647589786950315,0.3535396708589563,-0.363440518031589,-0.0630698770560058,-0.17555143782544944,0.07917019162910771,0.18564885092378167,-0.8887869873179252,0.316054172927916,-0.5223011421868405,0.09835455381343823,0.40333370322470335,-2.0213379673397545,27.535367486302516,-25.520839279227708,-14.01967120324899,-22.233722002753225,1.7763127761222486
0.025020465224054482,0.3517505597505162,-0.36279992028875924,-0.0641206269978411,-0.17535845885090934,0.07997590693350627,0.18643771855208346,-0.8945555542200394,0.3202988714148686,-0.5253749709176545,0.09648948727005474,0.4028576521992772,-2.050931039564606,27.598756843852087,-25.43598285552485,-13.9881859354827,-22.313923715908984,1.7797739907042889
0.025394888688936215,0.349950003321338,-0.36215079597714556,-0.06517744499795414,-0.1751692713015761,0.08078066200511155,0.18721173244086547,-0.9002782145891076,0.32456215580683684,-0.5284090000565189,0.0945937746666146,0.4023775358026409,-2.0805733951884697,27.661492555979414,-25.350850470946686,-13.957422413264878,-22.393383057812706,1.783538051345309
0.025770830544443762,0.3481380935901439,-0.3614931084104358,-0.06624025134332119,-0.174983935483037,0.08158444914653638,0.1879709277537732,-0.9059548655970456,0.3288437833548868,-0.5314031726835293,0.09266790926955773,0.4018935707124165,-2.1102576302898375,27.723555491007414,-25.26543982291622,-13.927386041405072,-22.472094504043348,1.7875957169176444
0.026148261226189566,0.3463149227751525,-0.3608268213915523,-0.06730896621440681,-0.17480251071539957,0.08238726107211708,0.18871534087290132,-0.911585407495697,0.33314350944175636,-0.5343574355428122,0.09071238381871696,0.4014059627903486,-2.1399762207286797,27.784926494952487,-25.179748448482037,-13.898082015350067,-22.55005252722477,1.7919381379774608
0.026527151244977204,0.3444805832879407,-0.36015189921634133,-0.0683835096923589,-0.17462505533444544,0.08318909088729441,0.18944500939381864,-0.9171697436059222,0.3374610876054919,-0.5372717389760469,0.08872769047705602,0.40091490758866544,-2.1697215237816008,27.8455863950683,-25.093773726004496,-13.869515318925352,-22.627251597772048,1.7965568371690954
0.02690747118921755,0.3426351677273273,-0.359468306677215,-0.0694638017660759,-0.17445162669288397,0.08398993206896023,0.19015997212017324,-0.9227077803066667,0.3417962695631525,-0.540146036858499,0.08671432078073979,0.4004205908329073,-2.199485779904661,27.905516003454114,-25.0075128769327,-13.841690722153356,-22.703686184670033,1.8014436905515065
0.02728919172733335,0.3407787688732793,-0.35877600906674584,-0.07054976233915079,-0.17428228116170488,0.08478977844672486,0.19086026905789988,-0.9281994270240108,0.34614880523458097,-0.5429802865374473,0.08467276558954241,0.3999231888823164,-2.2292611146236507,27.964696120726767,-24.920962967672292,-13.814612779150288,-22.77935075628319,1.8065909098047608
0.027672283610151453,0.3389114796808389,-0.35807497218121337,-0.07164131123669656,-0.1741170741316297,0.08558862418506252,0.19154594140905068,-0.933644596220202,0.35051844276624294,-0.5457744487728856,0.08260351503759861,0.39942286916882835,-2.259039540551413,28.023107539754278,-24.834120911540793,-13.788285826103198,-22.85423978119647,1.811991025276412
0.02805671767328199,0.33703339327407356,-0.3573651623241031,-0.07273836821205736,-0.17395606001466069,0.08638646376629384,0.19221703156526918,-0.9390432033826707,0.3549049285551336,-0.5485284876803942,0.08050705848450383,0.39891979061565946,-2.2888129595317848,28.080731049452083,-24.746983470813458,-13.762713979328879,-22.928347729087587,1.8176368698294276
0.028442464839483844,0.3351446029400475,-0.3566465463095576,-0.0738408529534095,-0.17379929224572715,0.08718329197436672,0.1928735831009272,-0.9443951670130323,0.3593080072727522,-0.5512423706760742,0.07838388446676879,0.39841410403643734,-2.3185731649094987,28.137547438639125,-24.659547258854428,-13.737901133416159,-23.001669071629603,1.8235215634551636
0.028829496121015732,0.33324520212281533,-0.3559190914657793,-0.0749486850902564,-0.17364682328442788,0.08797910387939828,0.19351564076594308,-0.949700408616077,0.3637274218891444,-0.5539160684234462,0.07623448064963384,0.39790595251577726,-2.348311843925348,28.193537499954054,-24.57180874233585,-13.713850959452929,-23.074198283424234,1.8296384986164789
0.02921778262197233,0.3313352844174378,-0.3551827656383853,-0.07606178419982083,-0.17349870461686936,0.08877389482294261,0.19414325047829906,-0.9549588526887484,0.3681629136970128,-0.5565495547822179,0.07405933377924873,0.39739547177216616,-2.378020580235705,28.248682033829176,-24.48376424354154,-13.690566903339349,-23.145929842965195,1.835981326287788
0.02960729554060488,0.32941494356401957,-0.3544375371937135,-0.0771800698133385,-0.17335498675759892,0.08956766040395056,0.1947564593162749,-0.9601704267091135,0.37261422233589486,-0.5591428067588298,0.07185892963522339,0.3968827905039758,-2.407690856555442,28.302961852522365,-24.39540994275488,-13.668052184188468,-23.21685823363145,1.842543942660285
0.029998006171625707,0.3274842734417689,-0.3536833750220807,-0.07830346142225589,-0.17321571925163182,0.09036039646538933,0.19535531551041424,-0.9653350611253256,0.3770810858164089,-0.5616958044586933,0.0696337529835551,0.39636803071938753,-2.4373140574231034,28.35635778420414,-24.306741880730087,-13.646309792815341,-23.28697794470967,1.849320476482039
0.030389885908496186,0.3255433680630797,-0.3529202485409916,-0.07943187848433596,-0.17308095067657195,0.09115209908149129,0.19593986843523933,-0.9704526893445825,0.38156324054456736,-0.5642085310400379,0.0673842875299376,0.3958513080509765,-2.4668814720871115,28.40885067710046,-24.217755961245107,-13.625342490315951,-23.356283472446204,1.8563052770042276
0.030782906245697645,0.32359232156763557,-0.3521481276982993,-0.08056524042967453,-0.17295072864482502,0.09194276454560261,0.19651016860072915,-0.9755232477220805,0.3860604213461573,-0.5666809726692886,0.06511101587345752,0.3953327320556668,-2.496384297511593,28.460421403687835,-24.128447953735172,-13.605152806736756,-23.424769321127368,1.8634929025057307
0.031177038780984795,0.3216312282165356,-0.35136698297531693,-0.08170346666663032,-0.17282509980590366,0.09273238935860409,0.1970662676435757,-0.9805466755499681,0.3905723614911882,-0.5691131184778994,0.06281441946068365,0.39481240650073696,-2.5258136415003896,28.511050864940884,-24.038813496005385,-13.585743039835915,-23.492430004188375,1.8708781093699796
0.03157225521762126,0.319660182386443,-0.35057678538988013,-0.08284647658767146,-0.17270410984882334,0.09352097021787714,0.19760821831823203,-0.9855229150462997,0.395098792718406,-0.5715049605205691,0.0604949785401542,0.39429042963652317,-2.5551605259375627,28.560719994630297,-23.94884809702141,-13.56711525393713,-23.559260045349966,1.8784558416889154
0.03196852736659679,0.317679278563755,-0.3497775064993604,-0.083994189575141,-0.1725878035045888,0.09430850400679001,0.19813607448776543,-0.990451911343992,0.39963944525987405,-0.5738564937347737,0.05815317211726753,0.39376689445643853,-2.58441589014271,28.609409763669507,-23.858547139776487,-13.549271278876692,-23.62525397978237,1.8862212213700502
0.03236582714882585,0.31568861133879544,-0.34896911840362915,-0.0851465250069441,-0.17247622454876962,0.09509498778467981,0.19864989111452885,-0.9953336124797847,0.40419404786561974,-0.5761677159015468,0.05578947790958157,0.3932418889448962,-2.613570594339186,28.65710118450882,-23.767905884233148,-13.532212709044705,-23.690406355296652,1.8941695387239055
0.03276412659732717,0.313688275400029,-0.34815159374797244,-0.08630340226215899,-0.17236941580416457,0.09588041877730721,0.19914972425066227,-1.0001679693832073,0.40876232782834676,-0.5784386276074487,0.05340437230252686,0.39271549631369895,-2.642615423233261,28.703775315575257,-23.67691947033888,-13.515940902520938,-23.754711733562097,1.9022962435099193
0.03316339785938405,0.3116783655282979,-0.34732490572595603,-0.08746474072657431,-0.17226741914355348,0.09666479436776207,0.19963563102843637,-1.0049549358655543,0.41334401100821244,-0.5806692322076622,0.05099833030553872,0.39218779522743,-2.6715410897020986,28.74941326575608,-23.58558292111304,-13.500456980306009,-23.818164691349814,1.9105969364201052
0.03356361319868494,0.30965897659108016,-0.3464890280822407,-0.08863045979815463,-0.17217027549253625,0.09744811208779879,0.20010766965044927,-1.00969446860887,0.4179388218576699,-0.5828595357901595,0.048571825508613185,0.3916588600183567,-2.7003382385883326,28.79399619892499,-23.4938911458042,-13.485761825648325,-23.8807598218017,1.9190673609804985
0.03396474499744432,0.3076302035367703,-0.34564393511534797,-0.0898004788924364,-0.17207802483245765,0.09823036960958145,0.20056589937968755,-1.014386527154945,0.4225464834463741,-0.5850095471408857,0.0461253300392919,0.39112876089133275,-2.728997450598893,28.837505338507974,-23.40183894311593,-13.471856083467253,-23.942491735724296,1.9277033958515433
0.03436676575850324,0.3055921413889816,-0.34478960168037565,-0.09097471744785622,-0.1719907062034175,0.09901156473781979,0.20101038052946174,-1.0190310738943262,0.42716671748615187,-0.5871192777099074,0.04365931452008076,0.39059756411916496,-2.757509246305643,28.879921972088887,-23.30942100449966,-13.458740159872908,-24.00335506290703,1.9365010475092777
0.03476964810740969,0.3035448852408709,-0.34392600319166355,-0.09215309493101317,-0.17190835770736487,0.09979169540227756,0.201441174453226,-1.0236280740553418,0.4317992443560346,-0.5891887415784755,0.04117424802630702,0.3900653322288862,-2.785864090245227,28.921227456050516,-23.216631917511936,-13.44641422178277,-24.06334445346406,1.9454564432900086
0.03517336479447827,0.30148853024948463,-0.34305311562540886,-0.09333553084186709,-0.17183101651127602,0.10057075965063628,0.2018583435342921,-1.028177495693143,0.4364437831273536,-0.5912179554269575,0.03867059804441969,0.3895321241793573,-2.8140523951154552,28.96140322025088,-23.123466169235627,-13.43487819663546,-24.122454579199378,1.9545658247820603
0.035577888696829166,0.2994231716301271,-0.34217091552223106,-0.09452194471887428,-0.17175871885041455,0.10134875564169749,0.202261951175446,-1.032679309678764,0.44110005158889715,-0.5932069385035919,0.036148830430737695,0.3889979955306012,-2.842064526065463,29.0004307727325,-23.02991814976164,-13.424131772201742,-24.180680134994233,1.9638255415488157
0.03598319282040612,0.2973489046507507,-0.34127937998968677,-0.09571225614406233,-0.17169150003167324,0.10212568163890799,0.20265206178847647,-1.0371334896882018,0.445767766272129,-0.5951557125940223,0.03360940937065035,0.3884629986052525,-2.8698908050767047,29.03829170446192,-22.935982155731082,-13.414174396492966,-24.238015840216672,1.9732320451680512
0.03638925030197337,0.2952658246263677,-0.34037848670473386,-0.09690638474804547,-0.1716293944369967,0.10290153600419297,0.20302874078362376,-1.0415400121915168,0.4504466424764669,-0.5970643019915722,0.031052797338274568,0.3879271826424894,-2.897521515431765,29.074967694097595,-22.84165239393364,-13.405005277766751,-24.294456440151787,1.982781883573124
0.03679603441109128,0.29317402691348377,-0.3394682139161446,-0.09810425021498191,-0.17157243552688356,0.10367631719208256,0.20339205455895615,-1.0458988564419571,0.4551363942946214,-0.5989327334682173,0.028479455056573035,0.38739059394479697,-2.9249469062679747,29.11044051278523,-22.746922984962925,-13.396623384630226,-24.349996707453062,1.9924716956824866
0.037203518552070644,0.29107360690455353,-0.33854854044686866,-0.09930577228747435,-0.1715206558439677,0.10445002374411835,0.2037420704896823,-1.050210004465106,0.4598367346379935,-0.6007610362462216,0.025889841457937633,0.38685327601789543,-2.952157197212491,29.14469202897623,-22.651787966923866,-13.389027446240345,-24.404631443612878,2.002298206304218
0.037611676265905454,0.2889646600224574,-0.3376194456963444,-0.10051087077141516,-0.1714740870166772,0.10522265428352666,0.20407885691740657,-1.054473441048054,0.46454737526213075,-0.6025492419703999,0.023284413645242114,0.3863152697041501,-2.979142583095638,29.177704213269063,-22.55624129919294,-13.382215952601413,-24.458355480452553,2.012258221303312
0.03802048123218412,0.28684728171500024,-0.33668090964275993,-0.1017194655407771,-0.17143275976297048,0.1059942075101462,0.20440248313933426,-1.058689153728599,0.46926802679224067,-0.604297384680973,0.020663626853368065,0.38577661330976687,-3.0058932387390644,29.209459143270013,-22.46027686622643,-13.376187154959393,-24.511163681630435,2.0223486230195995
0.03842990727097899,0.2847215674494313,-0.3357329128452624,-0.10293147654235106,-0.17139670389414807,0.10676468219559831,0.20471301939743328,-1.0628571327844718,0.4739983987487613,-0.6060055007869821,0.01802793441120801,0.38523734272606214,-3.032399323815252,29.239939008471843,-22.363888481417113,-13.370939066292948,-24.563050944167713,2.0325663659250073
0.03883992834471411,0.28258761270698607,-0.33477543644611646,-0.10414682380043153,-0.17136594831873977,0.10753407717868847,0.20501053686755866,-1.0669773712225918,0.47873819957298747,-0.607673629040233,0.015377787704149397,0.38469749154508165,-3.0586509877747545,29.26912611514723,-22.267069890994932,-13.366469461900502,-24.614012199990857,2.0429084725092266
0.0392505185600112,0.28044551297744935,-0.33380846217281096,-0.10536542742145101,-0.1713405210464657,0.10830239136102814,0.20529510764854608,-1.0710498647683508,0.48348713665275206,-0.6093018105097396,0.01271363613704311,0.38415709116983243,-3.084638374837556,29.297002891255666,-22.169814777971524,-13.362775880083312,-24.66404241749039,2.0533720293834112
0.03966165216951376,0.2782953637537395,-0.33283197234011463,-0.10658720759856428,-0.17132044919227038,0.1090696237028669,0.20556680475127986,-1.0750746118549275,0.48824491634816175,-0.6108900885566378,0.010035927097660075,0.3836161709193774,-3.110351629044761,29.323551891360417,-22.07211676612475,-13.359855622923888,-24.713136603094433,2.0639541835919846
0.040073303573689247,0.2761372605265142,-0.3318459498520799,-0.10781208461618337,-0.1713057589804291,0.10983577321912495,0.20582570208774092,-1.0790516136126325,0.493011244017386,-0.6124385088095441,0.00734510592063931,0.3830747581290318,-3.1357808993668055,29.348755801553754,-21.973969424021835,-13.3577057571592,-24.761289802857014,2.074652139122978
0.04048544732260933,0.27397129877879767,-0.3308503782039949,-0.10903997885446404,-0.17129647574872525,0.11060083897561673,0.20607187446003994,-1.0829808738582851,0.49778582404249827,-0.613947119140332,0.004641615851930732,0.38253287824588983,-3.160916344864302,29.37259744438803,-21.875366269078643,-13.356323115148253,-24.80849710405978,2.0854631536079524
0.04089805811770821,0.2717975739806284,-0.3298452414842841,-0.11027081079374464,-0.1712926239526978,0.11136482008545653,0.20630539754944063,-1.086862399084623,0.502568359855369,-0.615415969640302,0.001925898013735898,0.3819905549198981,-3.18574813989751,29.395059783809685,-21.776300771653105,-13.355704295933254,-24.85475363682645,2.096384535202738
0.041311110813518966,0.26961618158372896,-0.3288305243763569,-0.11150450101893808,-0.17129422716995787,0.1121277157056379,0.20652634790537755,-1.0906961984497414,0.5073585539636086,-0.6168451125967227,-0.0008016086300502451,0.3814478100906836,-3.2102664793804223,29.416125930094147,-21.676766359169513,-13.355845666393806,-24.90005457574929,2.1074136396407543
0.04172458041938791,0.2674272170161958,-0.3278062121604038,-0.11274097022387751,-0.17130130810457367,0.11288952503377857,0.20673480293447308,-1.0944822837665698,0.5121561079765606,-0.6182346024697182,-0.0035404673078937615,0.3809046640703341,-3.2344615840753628,29.43577914477899,-21.57675642027275,-13.35674336249331,-24.944395141526233,2.11854786745096
0.042138442101167024,0.26523077567721104,-0.3267722907151411,-0.11398013921561648,-0.171313888591522,0.11365024730502321,0.2069308408895574,-1.0982206694923768,0.5169607226313427,-0.619584495869483,-0.006290243474169358,0.3803611356223182,-3.258323705923908,29.45400284559277,-21.476264309008645,-13.35839329061681,-24.987770602608624,2.1297846613329363
0.042552671182884416,0.2630269529317744,-0.32572874651950323,-0.11522192891868409,-0.17133198960120638,0.11440988178909667,0.20711454085869568,-1.1019113727183125,0.5217720978189351,-0.6208948515338031,-0.00905050484219866,0.37981724203672695,-3.281843133409918,29.470780611377023,-21.375283349029477,-13.360791128999468,-25.03017627685778,2.14112150368177
0.04296724314839287,0.26081584410545644,-0.3246755666542826,-0.11646626037929582,-0.17135563124403994,0.11516842778750068,0.20728598275422563,-1.1055544131589807,0.5265899326103156,-0.6221657303058624,-0.01182082141677652,0.37927299920200624,-3.3050101969504118,29.48609618699855,-21.273806837820555,-13.36393232924477,-25.071607533210095,2.1525559142558843
0.043382133642996486,0.2585975444791723,-0.3236127388037173,-0.11771305476952046,-0.1713848327750923,0.11592588463084737,0.20744524730180947,-1.1091498131420467,0.53141392528264,-0.623397195112319,-0.014600765526182953,0.3787284216733448,-3.327815274309967,29.499933488250704,-21.171828050947767,-13.367812117931503,-25.11205979334962,2.1640854479812437
0.04379731847505549,0.25637214928397656,-0.3225402512570264,-0.11896223339140372,-0.17141961259879968,0.11668225167632311,0.2075924160295028,-1.1126975975978777,0.5362437733454657,-0.6245893109416303,-0.017389911853678375,0.37818352273787353,-3.350248796034249,29.512276606738858,-21.069340246321048,-13.372425498308553,-25.15152853338694,2.1757076928854575
0.04421277361756918,0.2541397536958781,-0.32145809290989236,-0.12021371768104894,-0.17145998827373662,0.11743752830527676,0.20772757125684388,-1.116197794049215,0.5410791735670191,-0.6257421448226128,-0.020187837468479977,0.37763831447682433,-3.372301250898288,29.523109814749724,-20.96633666847325,-13.377767252076431,-25.190009285543887,2.187420268155969
0.04462847520973711,0.25190045283067636,-0.32036625326589135,-0.12146742921265538,-0.17150597651744906,0.11819171392092634,0.2078507960839657,-1.1196504326008796,0.5459198220005039,-0.6268557658032186,-0.022994121856217194,0.3770928078247907,-3.3939631913650574,29.53241757010038,-20.862810552851276,-13.383831941254591,-25.227497639842817,2.1992208223163057
0.04504439955849858,0.24965434173881734,-0.31926472243787046,-0.12272328970251441,-0.17155759321134678,0.11894480794617879,0.20796217438073358,-1.1230555459295102,0.5507654140104508,-0.6279302449295144,-0.025808346948864316,0.37654701262622536,-3.4152252390498576,29.540184520965227,-20.758755130116867,-13.390613910133208,-25.26398924579936,2.2111070315150507
0.0454605231400504,0.24740151540027067,-0.31815349114927227,-0.1239812210129641,-0.17161485340565508,0.11969680982155739,0.20806179077591055,-1.1264131692733317,0.5556156442991049,-0.6289656552248485,-0.028630097154148455,0.3760009376893033,-3.4360780901860384,29.546395510677797,-20.65416363045497,-13.398107287308441,-25.29947981411846,2.2230765979221454
0.045876822601343105,0.24514206871942676,-0.3170325507354066,-0.1252411451563025,-0.17167777132442394,0.12044771900323194,0.2081497306463526,-1.1297233404219549,0.5604702069328529,-0.6299620716691905,-0.03145895938443119,0.37545459083727406,-3.456512521087513,29.551035582505328,-20.54902928788712,-13.406305987799872,-25.333965118391653,2.2351272482275073
0.04629327476155558,0.24287609652001435,-0.3159018931446692,-0.12650298429865975,-0.17174636037059407,0.12119753496114678,0.20822608010623575,-1.1329860997062062,0.5653287953686846,-0.6309195711786327,-0.03429452308506239,0.37490797895741956,-3.4765193936035015,29.554089984392533,-20.443345344586735,-13.41520371524895,-25.367440996795576,2.247256732237063
0.04670985661354821,0.24060369354003838,-0.31476151093970783,-0.12776666076382984,-0.17182063313111848,0.12194625717724224,0.20829092599631677,-1.1362014899879866,0.5701911024806917,-0.6318382325850384,-0.03713638026220473,0.37436110804773015,-3.4960896605610037,29.555544173673276,-20.337105055195067,-13.424793964197022,-25.39990335379023,2.2594628215616774
0.04712654532529467,0.23832495442673807,-0.31361139729853466,-0.12903209703706148,-0.17190060138213872,0.12269388514376504,0.20834435587322886,-1.1393695566501592,0.5750568205865987,-0.6327181366158264,-0.03998412551012769,0.3738139832614049,-3.515214371190402,29.555383821746517,-20.230301691134315,-13.435070022441796,-25.431348161816075,2.27174330839446
0.0475433182412923,0.23603997373156516,-0.312451546015586,-0.13029921576880923,-0.17198627609421466,0.1234404183616636,0.20838645799881397,-1.142490347586462,0.579925641474327,-0.6335593658738811,-0.04283735603796984,0.3732666089492785,-3.53388467652958,29.553594818713993,-20.12292854491549,-13.446024973470717,-25.461771462989276,2.2840960043721785
0.047960152883951286,0.23374884590518225,-0.3112819515027288,-0.1315679397784444,-0.1720776674376066,0.12418585633906414,0.20841732132949264,-1.1455639131914497,0.5847972564285898,-0.6343620048175739,-0.04569567169596834,0.3727189887002707,-3.5520918348021198,29.55016327797783,-20.014978934439448,-13.457651698969931,-25.491169370793646,2.2965187395168454
0.04837702695496263,0.23145166529248135,-0.3101026087902138,-0.13283819205792616,-0.17217478478760892,0.12493019858982404,0.20843703550567264,-1.1485903063504566,0.5896713562575158,-0.6351261397408908,-0.04855867500115488,0.3721711253799521,-3.5698272167648586,29.545075540794716,-19.906446207287708,-13.469942881407487,-25.519538071769016,2.3090093612534814
0.04879391833664503,0.22914852612762218,-0.3089135135275752,-0.13410989577543347,-0.17227763672993396,0.12567344463215868,0.20844569084119685,-1.1515695824295853,0.594547631319301,-0.6358518587536519,-0.05142597116251717,0.3716230211673131,-3.5870823110203576,29.538318180784145,-19.79732374500049,-13.482891006689046,-25.546873827193906,2.3215657335004054
0.04921080509327069,0.22683952252909076,-0.3077146619844774,-0.1353829742789571,-0.1723862310661452,0.12641559398733831,0.2084433783128317,-1.1545017992657163,0.5994257715488871,-0.6365392517618156,-0.05429716810562541,0.37107467758982127,-3.603848729289718,29.529878008388792,-19.68760496734084,-13.496488366884952,-25.573172974763068,2.3341857358284313
0.04962766547237028,0.2245247484947777,-0.3065060510515081,-0.1366573510998528,-0.17250057481913864,0.12715664617845202,0.20843018954979584,-1.157387017156537,0.6043054664846634,-0.6371884104478588,-0.05717187649672322,0.37052609555684646,-3.620118211641194,29.51974207528362,-19.577283336540688,-13.510727063026735,-25.59843193025749,2.34686726268564
0.050044477906016946,0.22220429789707652,-0.3052876782409177,-0.13793294995635524,-0.1726206742386712,0.1278966007292351,0.20840621682333016,-1.1602252988505908,0.6091864052951929,-0.6377994282512243,-0.06004970976628256,0.3699772753915307,-3.6358826316701593,29.507897678731943,-19.466352361527854,-13.525599007971888,-25.622647189206816,2.3596082226843906
0.050461221012089566,0.21987826447800185,-0.30405954168730576,-0.1392096947570529,-0.17274653480693525,0.12863545716295743,0.2083715530363088,-1.1630167095373407,0.614068276805958,-0.6383724003488273,-0.06293028413202255,0.3694282168611754,-3.6511340016259113,29.494332365885576,-19.35480560213036,-13.541095929335004,-25.645815328542515,2.372406537947525
0.05087787359551535,0.21754674184432735,-0.3028216401482535,-0.14048750960432413,-0.17287816124417804,0.12937321500136986,0.20832629171289155,-1.1657613168372496,0.6189507695261276,-0.6389074236356141,-0.06581321862139192,0.36887891920621535,-3.665864477480909,29.479033938026262,-19.242636673256925,-13.55720937248373,-25.667933008241686,2.3852601435106804
0.05129441464949178,0.2152098234627436,-0.30157397300490285,-0.14176631879773446,-0.17301555751436506,0.13010987376370556,0.20827052698821713,-1.168459190791872,0.6238335716753398,-0.6394045967051663,-0.06869813509351515,0.3683293811678463,-3.680066363938039,29.46199045474699,-19.12983924905012,-13.573930703598123,-25.688996972959497,2.398166986777947
0.05171082335668806,0.21286760265503568,-0.30031654026248183,-0.14304604683739514,-0.17315872683088626,0.13084543296573428,0.20820435359813758,-1.1711104038539575,0.6287163712105018,-0.6398640198303416,-0.07158465826060247,0.36777960101436846,-3.693732119371567,29.44319023806955,-19.016407067010604,-13.591251112791241,-25.709004053650208,2.4111250270280875
0.05212707909042604,0.21052017259328057,-0.29904934255077664,-0.14432661842728303,-0.1733076716623039,0.1315798921188669,0.20812786686899287,-1.173715030877562,0.6335988558526033,-0.6402857949439489,-0.07447241570882383,0.36722957656630695,-3.706854360697431,29.422621876496617,-18.902333932089544,-13.609161617289839,-25.727951169175288,2.42413223496861
0.052543161415840894,0.20816762629506425,-0.29777238112454957,-0.14560795847852193,-0.1734623937381412,0.13231325072930764,0.20804116270742556,-1.1762731491081648,0.6384807131135417,-0.640670025619448,-0.07736103791864749,0.36667930522036635,-3.7194258681686883,29.40027422899596,-18.787613720747643,-13.62765306467301,-25.745835327897783,2.4371865923353644
0.052959050091021365,0.20581005661871865,-0.29648565786390363,-0.14688999211262527,-0.17362289405471049,0.13304550829725217,0.20794433759023456,-1.1787848381727921,0.6433616303229573,-0.6410168170516702,-0.08025015828464335,0.36612878397227383,-3.7314395900918447,29.376136428914165,-18.672240384977417,-13.646716136167253,-25.762653629261827,2.450286091535068
0.0533747250681299,0.20344755625857838,-0.2951891752745935,-0.14817264466470037,-0.17378917288098,0.1337766643161293,0.20783748855426745,-1.1812501800701378,0.6482412946550775,-0.6413262760375552,-0.08313941313475215,0.36557800943856356,-3.7428886474599787,29.350197887817792,-18.556207956287622,-13.666341349996015,-25.778403265357014,2.4634287353285433
0.053790166494502606,0.201080217740257,-0.29388293648828234,-0.14945584168661416,-0.17396122976447803,0.134506718271884,0.2077207131863501,-1.1836692591606872,0.6531193931555653,-0.6415985109568975,-0.08602844174902083,0.3650269778773516,-3.7537663384985867,29.322448299259804,-18.439510549646844,-13.686519064782292,-25.793081522465695,2.476612536552507
0.054205354713729115,0.19870813341594334,-0.29256694526274557,-0.15073950895012037,-0.17413906353723363,0.1352356696423003,0.20759410961325284,-1.1860421621568347,0.6579956127683735,-0.6418336317530996,-0.08891688637780526,0.36447568520814955,-3.76406614312009,29.292877642468326,-18.322142367383933,-13.707239483001946,-25.80668578259294,2.4898355178776117
0.0546202702667125,0.19633139545971734,-0.29124120598202036,-0.1520235724499482,-0.17432267232175253,0.13596351789636182,0.20745777649169173,-1.188368978112996,0.662869640362599,-0.6420317499139275,-0.09180439225944122,0.36392412703076094,-3.773781727283158,29.261476185956838,-18.204097703043917,-13.728492654486324,-25.819213524978107,2.503095711600965
0.05503489389270923,0.19395009586288592,-0.2899057236565017,-0.15330795840685274,-0.17451205353702728,0.13669026249364843,0.2073118129983639,-1.190649798415711,0.6677411627593379,-0.6421929784522634,-0.09469060763738478,0.3633722986433049,-3.7829069472529264,29.228234491052234,-18.085370945196498,-13.75026847997228,-25.830662327587135,2.516391159470934
0.05544920653034926,0.19156432642933846,-0.2885605039229846,-0.15459259327062644,-0.17470720390458094,0.13741590288376726,0.2071563188200153,-1.1928847167737342,0.6726098667585377,-0.6423174318868532,-0.0975751837768234,0.362820195059407,-3.791435853758375,29.193143415339588,-17.96595658119513,-13.772556714697615,-25.84102986858429,2.529719912542576
0.05586318931863634,0.18917417877092224,-0.2872055530446529,-0.15587740372307252,-0.17490811945454246,0.13814043850581645,0.2069913941435395,-1.1950738292081113,0.6774754391658439,-0.6424052262230454,-0.10045777498075897,0.36226781102459704,-3.799362696043174,29.156194116021283,-17.84584920088505,-13.795346972040075,-25.85031392778299,2.5430800310617894
0.05627682359792855,0.18677974430283778,-0.28584087791101404,-0.15716231668093955,-0.1751147955317536,0.13886386878788035,0.20681713964610582,-1.1972172340422367,0.6823375668194398,-0.6424564789335181,-0.10333803860556469,0.3617151410319511,-3.806681925806404,29.117378053188283,-17.725043500257566,-13.818628727198167,-25.85851238807456,2.556469584376506
0.05669009091089918,0.184381114239054,-0.2844664860377803,-0.15844725929881753,-0.17532722680190563,0.13958619314655438,0.2066336564853151,-1.19931503189189,0.6871959366168772,-0.6424713089389908,-0.10621563507601679,0.36116217933701317,-3.8133882010296487,29.076686993001992,-17.603534285049356,-13.84239132091188,-25.865623236833926,2.5698866508733342
0.05710297300347794,0.18197837958774352,-0.2830823855666965,-0.15973215897199539,-0.17554540725770523,0.14030741098649843,0.2064410462893814,-1.2013673256552493,0.6920502355418938,-0.6424498365889202,-0.10909022789980355,0.3606089199720302,-3.8194763896870567,29.03411301078427,-17.48131647428381,-13.866623963221206,-25.87164456730171,2.5833293179380075
0.05751545182577262,0.17957163114673777,-0.2816885852653141,-0.16101694333927974,-0.17576933022506827,0.1410275217000175,0.20623941114733743,-1.2033742205028761,0.6969001506912177,-0.6423921836421754,-0.11196148368151287,0.3600553567595336,-3.824941573335079,28.989648494014222,-17.35838510375371,-13.891315737260783,-25.876574579941366,2.5967956819382136
0.05792750953297114,0.17716095949900243,-0.2802850945267114,-0.16230154028577512,-0.17599898836934047,0.1417465246666681,0.20602885359926193,-1.20533582386767,0.7017453693013533,-0.6422984732476933,-0.11482907213610087,0.35950148332529686,-3.8297790505786717,28.943286145229557,-17.23473532944225,-13.916455603088654,-25.88041158377115,2.6102838482273523
0.0583391284862242,0.17474645500813285,-0.2788719233691607,-0.16358587794562535,-0.17623437370154416,0.1424644192528895,0.20580947662652685,-1.2072522454347883,0.706585578775349,-0.6421688299251093,-0.11769266610184329,0.35894729311069956,-3.8339843404109075,28.895018984830955,-17.110362430881473,-13.942032401547255,-25.883153997669623,2.623791931167768
0.05875029125350832,0.1723282078138698,-0.2774490824357416,-0.16486988470471609,-0.1764754775846497,0.14318120481165855,0.20558138364206213,-1.20912359713153,0.7114204667095418,-0.6420033795453649,-0.12055194155277205,0.35839277938452524,-3.8375531854229576,28.844840353787724,-16.985261814445245,-13.968034858154573,-25.88480035165391,2.6373180541722574
0.05916098061046959,0.16990630782763544,-0.2760165829939011,-0.16615348920333867,-0.17672229073987092,0.143896880682167,0.20534467848063584,-1.2109499931171768,0.7162497209202779,-0.6418022493112893,-0.12340657761059938,0.35783793525421986,-3.8404815548816713,28.792743916242934,-16.859429016576467,-13.994451587023754,-25.88534928813026,2.6508603497625134
0.05957117954124789,0.16748084472808986,-0.27457443693495986,-0.16743662033881498,-0.17697480325298318,0.14461144618952027,0.2050994653891473,-1.2127315497727906,0.7210730294706051,-0.6415655677381532,-0.12625625655613185,0.3572827536766362,-3.842765647671907,28.73872366201659,-16.732859706945284,-14.02127109480902,-25.884799563115596,2.6644169596433294
0.05998087123928175,0.16505190795670793,-0.273122656773566,-0.16871920726808337,-0.17723300458066352,0.14532490064445686,0.20484584901693087,-1.214468385690963,0.725890080696936,-0.6412934646341968,-0.12910066384017693,0.3567272274682885,-3.8444018951010976,28.682773909005224,-16.60554969153803,-14.048481784676111,-25.883150047429936,2.6779860347913846
0.06039003910809389,0.1626195867133769,-0.27166125564709465,-0.17000117941024562,-0.1774968835568514,0.14603724334308713,0.20458393440606787,-1.2161606216655123,0.730700563235677,-0.6409860710811282,-0.1319394880939448,0.35617134931514005,-3.845386963563462,28.62488930547636,-16.477494915674043,-14.076071960295199,-25.880399727858126,2.6915657355575267
0.060798666762057293,0.16018396995201464,-0.270190247314995,-0.1712824664490748,-0.1777664283991293,0.14674847356665102,0.20431382698170406,-1.2178083806811255,0.7355041660498232,-0.6406435194145939,-0.13477242113894808,0.35561511178194616,-3.8457177570615375,28.56506483225657,-16.34869146694969,-14.104029829854447,-25.876547708280967,2.705154231781491
0.061206738027142035,0.15774514637620876,-0.268709646158084,-0.17256299833548405,-0.17804162671512208,0.14745859058129338,0.2040356325423703,-1.2194117879029416,0.7403005784555128,-0.6402659432046212,-0.13759915799640268,0.3550585073211727,-3.8453914195828003,28.50329580481191,-16.21913557810802,-14.132343510092186,-25.871593210774417,2.71874970291802
0.06161423694164264,0.1553032044348766,-0.26721946717778694,-0.1738427052899561,-0.17832246550891434,0.1481675936378564,0.20374945725030355,-1.2209709706660707,0.7450894901485419,-0.639853477236031,-0.14041939689613236,0.35450152828151077,-3.8444053373291864,28.439577875218546,-16.08882362983171,-14.161001030345814,-25.865535576676418,2.7323503381734655
0.06202114775688617,0.1528582323179465,-0.2657197259953253,-0.17512151780493374,-0.1786089311874843,0.1488754819716884,0.20345540762176542,-1.2224860584650472,0.7498705912308333,-0.6394062574888237,-0.14323283928498046,0.3539441669160058,-3.842757140797654,28.37390703402377,-15.957752153459275,-14.189990336615478,-25.85837426762079,2.7459543366518773
0.06242745493792088,0.15041031795206009,-0.26421043885085155,-0.17639936664717082,-0.17890100956715377,0.14958225480246803,0.20315359051735604,-1.2239571829432123,0.7546435722368594,-0.6389244211185358,-0.14603918983473196,0.3533864153898198,-3.84044470670982,28.306279611994924,-15.825917833621936,-14.219299295640688,-25.850108866537024,2.7595599075097734
0.06283314316418552,0.14795954899629604,-0.26269162260253154,-0.17767618286004397,-0.17919868588005286,0.15028791133404332,0.20284411313231981,-1.2253844778820218,0.7594081241600132,-0.6384081064365704,-0.14883815644954917,0.35282826578764354,-3.8374661597890745,28.23669228175617,-15.69331751080081,-14.248915698987815,-25.840739078616036,2.773165270118662
0.0632381973301592,0.1455060128379155,-0.2611632947255737,-0.17895189776582499,-0.17950194478059872,0.15099245075428486,0.20252708298684086,-1.2267680791902746,0.7641639384789274,-0.6378574528905018,-0.15162945027292446,0.3522697101207746,-3.8338198743834906,28.165142059310774,-15.55994818380232,-14.278827267146617,-25.830264732240657,2.786768654234582
0.06364260254599186,0.143049796588129,-0.2596254733112062,-0.18022644296791368,-0.17981077035198703,0.15169587223495262,0.20220260791632474,-1.2281081248932608,0.7689107071837357,-0.6372726010443535,-0.15441278569415354,0.3517107403338777,-3.8295044759332333,28.091626305449747,-15.425807012151473,-14.309021653634069,-25.818685779880433,2.8003683001738646
0.06404634413811518,0.14059098707788537,-0.25807817706560165,-0.1814997503530314,-0.1801251461126957,0.1523981749315755,0.20187079606166428,-1.2294047551218208,0.7736481228022754,-0.6366536925588536,-0.15718788035433326,0.3511513483114415,-3.8245188422810585,28.016142727043828,-15.290891318401162,-14.339486449103168,-25.806002298950478,2.8139624589943173
0.06444940764983415,0.13812967085368275,-0.2565214253087492,-0.18277175209337473,-0.18044505502299948,0.1530993579833434,0.2015317558594858,-1.2306581121013165,0.7783758784262267,-0.6360008701716676,-0.1599544551518871,0.35059152588394615,-3.818862104824884,27.93868937822011,-15.155198590357152,-14.37020918545548,-25.792214492633132,2.8275493926812922
0.0648517788418989,0.13566593417340173,-0.25495523797327485,-0.18404238064872996,-0.18077047949149472,0.1537994205130109,0.20118559603237363,-1.2318683401405062,0.7830936677371864,-0.6353142776776092,-0.16271223424762282,0.35003126483375513,-3.8125336495113062,27.859264661420625,-15.018726483216785,-14.401177339954822,-25.777322690662565,2.841127374337733
0.06525344369305704,0.13319986300216108,-0.25337963560320953,-0.18531156876854762,-0.18110140138163336,0.15449836162681238,0.20083242557906947,-1.2330355856203217,0.7878011850326719,-0.6345940599088332,-0.16546094506932554,0.34947055690074375,-3.805533117669334,27.7778673283435,-14.88147282162151,-14.432378339340865,-25.76132735007143,2.854694688377791
0.06565438840058632,0.130731543008196,-0.2517946393527054,-0.18657924949397764,-0.18143780201826515,0.15519618041438774,0.20047235376464395,-1.2341599969825432,0.792498125252054,-0.6338403627150112,-0.168200318315891,0.348909393787677,-3.7978604066835864,27.694496480765658,-14.743435601621613,-14.463799563940444,-25.744229055898916,2.868249630723244
0.0660545993808076,0.12826105955875927,-0.2502002709847006,-0.1878453561598646,-0.18177966219418715,0.15589287594871842,0.20010549011063725,-1.2352417247183676,0.7971841840024122,-0.6330533329434915,-0.17093008796100245,0.34834776716534777,-3.7895156705063426,27.609151571246144,-14.604612992552319,-14.495428351774871,-25.726028521860336,2.881790509002233
0.06645406326957794,0.12578849771604553,-0.24859655286953197,-0.18910982239670351,-0.18212696217669985,0.1565884472860734,0.19973194438516614,-1.2362809213568653,0.801859057584313,-0.6322331184194473,-0.1736499912563559,0.34778566867748684,-3.7804993200081642,27.521832403710086,-14.465003338821163,-14.527252002661365,-25.706726590977034,2.8953156427496864
0.06685276692276393,0.12331394223313888,-0.24698350798349697,-0.19037258213255553,-0.18247968171416873,0.15728289346596433,0.19935182659299436,-1.2372777414533234,0.8065224430175043,-0.6313798679260139,-0.17635976873443765,0.3472230899454547,-3.7708120231667035,27.432539133912947,-14.324605161604978,-14.559257782307064,-25.68632423616662,2.908823363608994
0.06725069741669505,0.12083747754998395,-0.24536115990736393,-0.19163356959492436,-0.18283780004259045,0.15797621351110977,0.19896524696556334,-1.2382323415774694,0.8111740380665254,-0.6304937311844191,-0.1790591642108586,0.3466600225727258,-3.760454705093675,27.341272269783907,-14.183417160456756,-14.591432926393345,-25.664822560793258,2.922312015534331
0.06764784204859701,0.1183591877893808,-0.24372953282483148,-0.19289271931259258,-0.18320129589216294,0.15866840642740812,0.19857231595098068,-1.2391448803015728,0.8158135412662272,-0.6295748588341088,-0.18174792478625001,0.34609645814917384,-3.7494285478999663,27.24803267164925,-14.041438214820932,-14.623764644649302,-25.642222799176924,2.9357799549932784
0.06804418833700494,0.11587915675300396,-0.2420886515209371,-0.19414996611741833,-0.1835701474938584,0.15935947120391847,0.1981731442039633,-1.2400155181884192,0.8204406519472002,-0.6286234024128704,-0.18442580084772497,0.3455323882551675,-3.737734990399111,27.15282155233459,-13.898667385457266,-14.656240124912113,-25.618526317062205,2.9492255511691683
0.06843972402215641,0.11339746791744565,-0.24043854138041487,-0.19540524514609225,-0.1839443325859982,0.16004940681284943,0.1977678425757323,-1.2408444177791536,0.8250550702611074,-0.6276395143369581,-0.18709254606991021,0.3449678044654857,-3.725375727649437,27.055640477146504,-13.755103915772438,-14.68884653717297,-25.593734612045484,2.962647186162819
0.06883443706636412,0.11091420443028367,-0.23877922838600305,-0.1966584918418547,-0.1843238284208293,0.16073821220955556,0.1973565221038573,-1.2416317435809894,0.8296564972059169,-0.6266233478812225,-0.18974791741555325,0.34440269835305937,-3.71235271033538,26.956491363732944,-13.610747233059126,-14.721571037606584,-25.56784931396069,2.9760432551932166
0.06922831565436821,0.10842944910617412,-0.23711073911670097,-0.1979096419561732,-0.18470861177110073,0.16142588633254065,0.19693929400204666,-1.2423776620547777,0.834244634651033,-0.6255750571592492,-0.19239167513570926,0.3438370614925485,-3.698668143988564,26.855376481822862,-13.465596949642105,-14.75440077258286,-25.540872185222987,2.9894121667967735
0.06962134819366797,0.10594328442296926,-0.23543310074597631,-0.19915863155038022,-0.18509865893663976,0.16211242810346818,0.19651626964988173,-1.2430823416024344,0.8388191853623204,-0.6244947971035077,-0.19502358276951276,0.3432708854637612,-3.6843244880494392,26.752298452844954,-13.319652863931175,-14.78732288265879,-25.51280512113055,3.0027523430247682
0.07001352331483296,0.10345579251786081,-0.23374634103992228,-0.20040539699727125,-0.18549394575092684,0.16279783642717802,0.1960875605824916,-1.2437459525542192,0.8433798530270191,-0.6233827234455174,-0.1976434071435389,0.3427041618549222,-3.669324454770383,26.64726024942582,-13.172914961380474,-14.820324506549374,-25.48365015012359,3.016062219638708
0.07040482987179329,0.10096705518354908,-0.23205048835536518,-0.20164987498266332,-0.18589444758766835,0.1634821101917096,0.1956532784801666,-1.244368667155866,0.8479263422785471,-0.6222389926960316,-0.2002509183707595,0.3421368822657968,-3.6536710079613295,26.540265194767514,-13.025383415354664,-14.853392785075469,-25.453409434001045,3.0293402463032084
0.0707952569421091,0.09847715386443796,-0.2303455716379228,-0.2028920025069138,-0.18630013936736656,0.16416524826833095,0.19521353515790707,-1.2449506595555564,0.8524583587211855,-0.6210637621252458,-0.2028458898490986,0.34156903831067764,-3.6373673615791073,26.43131696190529,-12.877058587900923,-14.886514865087312,-25.4220852680942,3.0425848867761296
0.07118479382721891,0.09598616965285649,-0.2286316204200135,-0.20413171688639986,-0.18671099556388573,0.16484724951157342,0.19476844255490572,-1.2454921057907362,0.8569756089546446,-0.6198571897430333,-0.20542809825959277,0.341000621621239,-3.6204169781617956,26.32041957284475,-12.727941030427125,-14.919677903362118,-25.389680081397444,3.055794619095675
0.07157343005266684,0.09349418328530695,-0.2269086648188165,-0.20536895575495828,-0.18712699021101406,0.16552811275927196,0.1943181127239605,-1.245993183774769,0.8614778005985066,-0.6186194342792121,-0.2079973235641615,0.3404316238492654,-3.6028235671096946,26.207577397580884,-12.57803148428684,-14.952869070474245,-25.356196436655562,3.0689679357641815
0.07196115536830847,0.09100127513874011,-0.2251767355341834,-0.20660365706528597,-0.18754809690902005,0.16620783683261048,0.19386265782081596,-1.2464540732834233,0.8659646423165408,-0.6173506551638489,-0.21055334900299252,0.3398620366692593,-3.584591082814349,26.092795152997287,-12.4273308812703,-14.986075554636294,-25.321637030408315,3.082103343928411
0.07234795974849532,0.08850752522685773,-0.22343586384650163,-0.20783575909030116,-0.18797428883120315,0.16688642053617234,0.1934021900934307,-1.2468749559411905,0.8704358438408895,-0.6160510125076037,-0.21309596109154763,0.3392918517809335,-3.565723722637478,25.976077901647628,-12.275840344001725,-15.019284565509935,-25.28600469299106,3.0951993655559775
0.07273383339223766,0.08601301319644288,-0.2216860816145094,-0.2090652004244654,-0.18840553873043753,0.16756386265799553,0.19293682187116865,-1.2472560152074292,0.8748911159961197,-0.6147206670821194,-0.2156249496171941,0.3387210609115928,-3.5462259247417167,25.85743105041955,-12.123561186243798,-15.05248333798477,-25.249302388492115,3.1082545376078645
0.07311876672334548,0.08351781832371821,-0.2199274212730631,-0.21029191998506633,-0.18884181894570845,0.16824016196963235,0.19246666555391195,-1.2475974363623321,0.8793301707231377,-0.613359780300462,-0.2181401076354673,0.3381496558184096,-3.526102365775044,25.73686034908131,-11.970494913108435,-15.085659135923926,-25.211533214666595,3.1212674122066435
0.07350275039054767,0.08102201951073279,-0.2181599158308572,-0.21151585701346157,-0.18928310140864038,0.16891531722621353,0.19199183360109365,-1.2478994064927122,0.8837527211029634,-0.6119685141976167,-0.22064123146596956,0.33757762829059806,-3.5053579584111647,25.614371888713073,-11.816643221175458,-15.118799255875194,-25.172700402806882,3.1342365568004134
0.07388577526758897,0.07852569528177758,-0.21638359886809647,-0.21273695107628365,-0.1897293576500162,0.1695893271665165,0.19151243852064795,-1.2481621144776058,0.8881584813803605,-0.6105470314110429,-0.22312812068791113,0.33700497015149106,-3.4839978487480403,25.48997210002232,-11.66200799851853,-15.15189103074609,-25.13280731756925,3.147160554322091
0.07426783245330472,0.07602892377983021,-0.21459850453412183,-0.21395514206660624,-0.1901805588062868,0.17026219051303756,0.19102859285787638,-1.2483857509736862,0.892547166987319,-0.6090954951612962,-0.22560057813529835,0.33643167326052376,-3.4620274135669518,25.36366775154534,-11.506591324639206,-15.184921833441612,-25.091857456757175,3.160038003344047
0.07464891327167318,0.07353178276302924,-0.21280466754498906,-0.21517037020507168,-0.19063667562607034,0.1709339059720678,0.19054040918422788,-1.2485705084004879,0.8969184945663878,-0.6076140692327194,-0.22805840989177473,0.33585772951512766,-3.439452257454594,25.235465947735392,-11.350395470309586,-15.217879080463563,-25.04985445106115,3.172867518227826
0.07502900927184517,0.07103434960117837,-0.21100212318100134,-0.2163825760409801,-0.19109767847664058,0.1716044722337729,0.1900480000859913,-1.2487165809254361,0.9012721819938531,-0.6061029179542109,-0.23050142528512044,0.33528313085253886,-3.416278209790823,25.105374126938475,-11.193422897324144,-15.250750235470074,-25.006802063755092,3.185647729268922
0.07540811222815096,0.06853670127228101,-0.20919090728419582,-0.21759170045334025,-0.1915635373504034,0.17227388797227594,0.18955147815289874,-1.2488241644486786,0.9056079484027583,-0.6045622061800737,-0.23292943688141587,0.3347078692515239,-3.3925113216048057,24.97340005925833,-11.035676258161164,-15.283522812794104,-24.962704190349523,3.1983772828363755
0.07578621414008423,0.06603891435910557,-0.20737105625578428,-0.21879768465188215,-0.19203422187136115,0.172942151845744,0.1890509559666383,-1.2488934565877166,0.9099255142057647,-0.6029920992709521,-0.23534226047887463,0.33413193673402647,-3.368157862302315,24.839551844310936,-10.87715839555442,-15.316184380919847,-24.91756485820139,3.211054841507213
0.07616330723226278,0.0635410650457819,-0.2055426070535486,-0.22000047017803187,-0.19250970130156386,0.17360926249647746,0.18854654608927457,-1.2489246566618328,0.914224601117848,-0.6013927630748599,-0.2377397151013517,0.33355532536673815,-3.3432243162672433,24.703837908870767,-10.71787234197631,-15.34872256591574,-24.87138822608121,3.2236790841954788
0.07653938395436594,0.061043229114429276,-0.20370559718919096,-0.2211999989058485,-0.19298994454754692,0.17427521855100264,0.18803836105157642,-1.2489179656763132,0.9185049321788264,-0.5997643639083086,-0.24012162299153256,0.3329780272625961,-3.3177173793402943,24.566267004409717,-10.557821319032541,-15.3811250548233,-24.824178583697083,3.236248706275984
0.07691443698104844,0.058545481941816364,-0.20186006472563953,-0.22239621304292356,-0.19347492016675455,0.17494001862016706,0.18752651334125006,-1.2488735863064573,0.9227662317757206,-0.5981070685375379,-0.24248780960380864,0.33240003458221085,-3.291643955177981,24.426848204529392,-10.3970087367694,-15.413379599000157,-24.77594035117613,3.2487624197023877
0.0772884592118306,0.05604789849605361,-0.20000604827430965,-0.22358905513124328,-0.19396459637394825,0.17560366129923752,0.18701111539107707,-1.2487917228813783,0.9270082256649379,-0.5964210441598579,-0.2448381035968449,0.331821339535226,-3.265011151495223,24.285590902289293,-10.235438192894964,-15.445474017417023,-24.726678078503745,3.2612189531199167
0.07766144377096451,0.05355055333331843,-0.1981435869923211,-0.2247784680480135,-0.19445894104759995,0.17626614516800074,0.18649227956695633,-1.2486725813675872,0.9312306409942818,-0.594706458385106,-0.24717233682584516,0.33124193438161403,-3.23782627619487,24.142504807431894,-10.073113471914318,-15.4773961999068,-24.67639644492014,3.2736170519723373
0.0780333840072762,0.05105352059461371,-0.19627272057967154,-0.22596439500644794,-0.194957921736269,0.17692746879086654,0.18597011815584916,-1.24851636935236,0.9354332063247806,-0.5929634792172267,-0.24949034433452094,0.33066181143290857,-3.2100968333874764,23.997599943505644,-9.910038544180573,-15.50913411036546,-24.625100258275715,3.2859554786033396
0.07840427349398346,0.048556874002559945,-0.19439348927636688,-0.2271467795565199,-0.19546150566496254,0.1775876307169733,0.185444743353627,-1.2483232960268837,0.939615651652334,-0.5911922750359784,-0.2517919643467692,0.3300809630533776,-3.181830519304956,23.85088664488834,-9.746217564861947,-15.54067578990353,-24.57279445434409,3.298233012352199
0.07877410602848911,0.04606068685822158,-0.19250593385950854,-0.22832556558567746,-0.19596965974147867,0.1782466294802956,0.18491626725282154,-1.2480935721691815,0.9437777084291736,-0.5893930145787754,-0.2540770382580652,0.32949938166113824,-3.1530352181115964,23.702375553711917,-9.581654872826906,-15.572009359947337,-24.51948409609434,3.310448449643756
0.07914287563214967,0.04356503203796796,-0.19061009564033826,-0.2295006973195228,-0.19648235056273183,0.17890446359975404,0.18438480183027642,-1.2478274101268123,0.9479191095851359,-0.5875658669226695,-0.25634541062657534,0.3289170597292162,-3.123718997616112,23.55207761669064,-9.416354989447349,-15.603123025289127,-24.465174372922075,3.3226006040726244
0.07951057655001907,0.04106998199036927,-0.18870601646124077,-0.23067211932245577,-0.19699954442105982,0.17956113157932715,0.18385045893470106,-1.2475250237993432,0.9520395895487421,-0.5857110014664788,-0.2585969291639964,0.3283339897865515,-3.093890104888494,23.4000040818541,-9.250322617322027,-15.634005077085302,-24.409870599839767,3.3346883064816026
0.07987720325056732,0.03857560873312808,-0.1867937386927046,-0.2318397764982819,-0.19752120731051206,0.18021663190816506,0.183313350274126,-1.2471866286205942,0.9561388842680858,-0.583828587913068,-0.26083144472612635,0.3277501644189524,-3.063556961785374,23.246166495187353,-9.083562638920718,-15.664643895802094,-24.35357821662721,3.346710405034428
0.08024275042537385,0.03608198385004678,-0.18487330523024156,-0.2330036140907855,-0.19804730493311842,0.18087096306070505,0.18277358740326036,-1.246812441540651,0.960216731231522,-0.5819187962517893,-0.2630488113031725,0.3271655762700001,-3.032728160387819,23.090576697179372,-8.916080115150844,-15.695027954107674,-24.296302786941904,3.3586657652826837
0.08060721298879535,0.03358917848803149,-0.18294475949126524,-0.23416357768426765,-0.19857780270513803,0.18152412349678887,0.18223128171075118,-1.2464026810076463,0.9642728694881575,-0.5799817967410876,-0.26524888600980245,0.32658021804190496,-3.0014124583554613,22.93324681928243,-8.747880283847486,-15.725145819710345,-24.238049997390014,3.3705532702270213
0.08097058607760804,0.031097263354132876,-0.18100814541192894,-0.2353196132040502,-0.19911266576328793,0.1821761116617815,0.1816865444063458,-1.2459575669493057,0.9683070396681389,-0.5780177598912778,-0.26743152907494394,0.32599408249631695,-2.9696187742008306,22.774189280283338,-8.578968558188228,-15.754986158141827,-24.178825656558526,3.382371820372571
0.08133286505062395,0.02860630871262436,-0.17906350744392346,-0.2364716669169452,-0.1996518589709506,0.18282692598669167,0.18113948650795728,-1.2454773207542589,0.9723189840027358,-0.5760268564474998,-0.2695966038313382,0.3254071624550913,-2.9373561824880756,22.613416782589844,-8.409350525034503,-15.784537735485372,-24.118635694008795,3.3941203337787362
0.08169404548828123,0.026116384382118135,-0.17711089055123502,-0.23761968543169093,-0.2001953469243603,0.1834765648882937,0.18059021882863383,-1.2449621652531129,0.9763084463442161,-0.5740092573728582,-0.27174397670485345,0.32481945080101154,-2.90463390895993,22.450942308432932,-8.23903194320035,-15.813789421047797,-24.05748615923227,3.4057977461032554
0.08205412319220809,0.02362755973271956,-0.17515034020686399,-0.23876361569935445,-0.20074309395876744,0.18412502676925063,0.18003885196343314,-1.244412324699287,0.980275172185513,-0.5719651338317525,-0.27387351720356284,0.3242309404784709,-2.871461325597156,22.286779115987578,-8.068018741650244,-15.84273018997505,-23.99538322056833,3.4174030106406015
0.08241309418476049,0.021139903683220343,-0.17318190238950462,-0.23990340501370125,-0.20129506415458062,0.18477231001823885,0.17948549627620278,-1.243828024749609,0.9842189086796783,-0.569894657173404,-0.2759850979065936,0.32364162449411416,-2.8378479456145715,22.120940735414592,-7.89631701762778,-15.871349125810886,-23.932333164085687,3.42893509835483
0.08277095470853303,0.018653484698331006,-0.17120562358018637,-0.24103900101153242,-0.20185122134348613,0.18541841301007372,0.1789302618862677,-1.2432094924446686,0.9881394046591232,-0.5677979989155869,-0.27807859445275157,0.32305149591744087,-2.80380341839775,21.953440964824523,-7.723933034716207,-15.899635422998077,-23.86834239242683,3.440392997906798
0.08312770122584308,0.01616837078595314,-0.1692215507588771,-0.24217035167298956,-0.202411529114544,0.18606333410583648,0.17837325865502637,-1.2425569561889318,0.9920364106546411,-0.5656753307285679,-0.28015388552892745,0.32246054788137174,-2.7693375243846594,21.784293866166784,-7.550873220832614,-15.927578389321578,-23.803417423617,3.451775715675943
0.08348333041818799,0.013684629494491918,-0.16722973140104866,-0.2432974053218281,-0.20297595082026057,0.18670707165300204,0.177814596172457,-1.2418706457306112,0.995909678914213,-0.5635268244192627,-0.2822108528582894,0.32186877358277943,-2.734460169896393,21.6135137610456,-7.37714416615745,-15.955167448293778,-23.737564889837614,3.463082275776549
0.08383783918567507,0.011202327910209328,-0.16523021347420547,-0.24442011062565933,-0.2035444495826371,0.187349623985568,0.1772543837435356,-1.241150792141295,0.9997589634215913,-0.5613526519156142,-0.2842493811882678,0.3212761662829848,-2.699181381921273,21.441115226465485,-7.202752621000862,-15.982392141480801,-23.670791536165126,3.474311720068629
0.0841912246464242,0.008721532654618667,-0.16322304543437613,-0.2455384165961617,-0.20411698829919378,0.18799098942418446,0.17669273037456773,-1.2403976277953306,1.0035840199146624,-0.5591529852511988,-0.28626935827833716,0.3206827193082203,-2.663511302856475,21.267113090507753,-7.0277054936073995,-16.009242130770154,-23.603104219275703,3.4854631081635006
0.08454348413594308,0.006242309881920732,-0.16120827622256897,-0.24665227258926184,-0.20469352964896897,0.1886311662762846,0.1761297447594359,-1.2396113863489673,1.0073846059035831,-0.5569279965500677,-0.2882706748876001,0.32008842605006166,-2.6274601852114947,21.091522427941214,-6.852009847900957,-16.035707200579,-23.53450990611651,3.4965355174240464
0.08489461520647461,0.003764725276482226,-0.1591859552611916,-0.2477616283052855,-0.20527403609849335,0.18927015283621626,0.17556553526576493,-1.2387923027192531,1.011160480688693,-0.5546778580118288,-0.2902532247621793,0.3194932799658289,-2.5910383862776687,20.914358555768654,-6.675672901171355,-16.06177726000304,-23.465015672544208,3.5075280429598434
0.08524461562631662,0.0012888440503568488,-0.1571561324504352,-0.24886643378907944,-0.20585846990773818,0.18990794738537417,0.17500020992100734,-1.2379406130626887,1.0149114053781967,-0.5524027418969745,-0.2922169046224215,0.3188972745789576,-2.554256362768003,20.735637028711956,-6.49870202170475,-16.08744234490587,-23.394628701931204,3.518439797617109
0.08559348337911352,-0.0011852690591504273,-0.15511885816462395,-0.24996663943010436,-0.206446793136038,0.19054454819233285,0.1744338763984517,-1.237056554753638,1.0186371429056191,-0.5501028205124632,-0.2941616141499193,0.31830040347934285,-2.5171246654315222,20.55537363463768,-6.3211047263590565,-16.11269261994847,-23.32335628374048,3.5292699119636373
0.08594121666311982,-0.003657549791875419,-0.1530741832485299,-0.25106219596249946,-0.2070389676479867,0.19117995351298017,0.17386664200315607,-1.236140366362496,1.0223374580470275,-0.5477782661975583,-0.2960872559743556,0.317702660323655,-2.4796539336464067,20.373584389925902,-6.142888678086489,-16.13751838055869,-23.251205812069657,3.54001753426878
0.08628781389043544,-0.006127934367142642,-0.15102215901365384,-0.2521530544651193,-0.20763495511930705,0.19181416159065143,0.1732986136578097,-1.2351922876336112,1.0260121174380223,-0.5454292513099324,-0.29799373566017484,0.31710403883563026,-2.441854889996089,20.190285534784437,-5.964061683404783,-16.161910054840796,-23.17818478416479,3.550681830478542
0.08663327368621249,-0.008596359486068583,-0.14896283723447284,-0.2532391663615434,-0.20823471704269322,0.1924471706562641,0.17272989788852594,-1.23421255946297,1.0296608895904944,-0.5430559482120405,-0.2998809616930871,0.31650453280633595,-2.403738334832564,20.005493528511074,-5.784631689819298,-16.185858205425045,-23.10430079890512,3.5612619841858555
0.08697759488783363,-0.011062762333819856,-0.14689627014465456,-0.254320483420059,-0.20883821473362604,0.1930789789284529,0.17216060081056908,-1.2332014238756368,1.0332835449091466,-0.54065852925777,-0.30174884546640846,0.31590413609441204,-2.365315140830971,19.819225044705874,-5.604606783197017,-16.209353531256916,-23.02956155525883,3.5717571965962414
0.08732077654406167,-0.013527080581825765,-0.14482251043323902,-0.2553969577536177,-0.20944540933616054,0.1937095846137055,0.171590828114019,-1.2321591240029544,1.0368798557077799,-0.5382371667793713,-0.3035973012672433,0.3153028426262899,-2.3265962475397606,19.631496966436533,-5.423995185095446,-16.232386869326554,-22.953974850711045,3.5821666864887476
0.08766281791416043,-0.015989252389944777,-0.14274161124078832,-0.256468541819767,-0.21005626182868556,0.19433898590649828,0.17102068504937643,-1.2310859040595055,1.0404495962253415,-0.5357920330746745,-0.3054262462625127,0.31470064639638934,-2.287592655930346,19.442326381358416,-5.242805250046766,-16.254949196337805,-22.877548579664772,3.5924896901724566
0.08800371846698665,-0.01844921640858445,-0.14065362615550486,-0.2575351884205562,-0.21067073302965522,0.1949671809894329,0.17045027641311283,-1.229982009319836,1.0439925426417367,-0.5333233003945992,-0.30723560048483306,0.31409754146729485,-2.248315422950551,19.25173057679271,-5.0610454628006565,-16.277031630317794,-22.800290731815107,3.602725461438564
0.08834347788005299,-0.02090691178077433,-0.13855860920931806,-0.25859685070241817,-0.21128878360329173,0.1955941680333727,0.16987970653316836,-1.2288476860949415,1.0475084730933988,-0.5308311409309605,-0.30902528681825037,0.3134935219699122,-2.208775656085636,19.05972703476416,-4.878724435526211,-16.298625432166098,-22.722209390498318,3.61287327150806
0.0886820960385618,-0.02336227814419137,-0.1364566148739408,-0.25965348215602735,-0.2119103740652594,0.19621994519757993,0.1693090792544017,-1.2276831817085196,1.0509971676886223,-0.5283157268045771,-0.31079523098383344,0.31288858210360615,-2.1689845079311354,18.8663334270016,-4.695850904975941,-16.319722007144698,-22.64331273101542,3.6229324089752915
0.08901957303440979,-0.025815255633137347,-0.1343476980568955,-0.2607050366161347,-0.21253546478830965,0.19684451062985256,0.168738497923996,-1.2264887444729877,1.0544584085226536,-0.5257772300536867,-0.31254536152513096,0.3122827161363205,-2.1289531707812746,18.671567609903477,-4.512433729613122,-16.340312906308096,-22.56360901893234,3.632902179747324
0.08935590916516344,-0.028265784880467888,-0.13223191409751042,-0.26175146826138007,-0.21316401600789664,0.19746786246666193,0.1681680653768249,-1.2252646236652704,1.057891979692541,-0.5232158226226734,-0.3142756097934962,0.31167591840468156,-2.088692871236923,18.47544761947046,-4.328481886704266,-16.360389827874258,-22.483106608356398,3.642781906979331
0.089691104933005,-0.030713807019472603,-0.13010931876288692,-0.2627927316140823,-0.2137959878277632,0.1980899988332901,0.1675978839207827,-1.2240110695023578,1.0612976673117445,-0.5206316763511109,-0.31598590993328396,0.31106818331408537,-2.048214864836965,18.27799166620843,-4.1440044693793325,-16.37994461853654,-22.401813940190323,3.652570931005994
0.09002516104364917,-0.033159263685705875,-0.12797996824383792,-0.26382878154000855,-0.21443134022549706,0.19871091784396763,0.1670280553220834,-1.2227283331166363,1.0646752595245013,-0.5180249629631267,-0.3176761988669229,0.3104595053387705,-2.007530430716794,18.079218130003557,-3.959010683660651,-16.398969274716556,-22.319739540364885,3.662268609269196
