Joohwan-Seo/mujoco_sysID/Fanuc/Dataset/square_PIH_gravity_re.csv
q1,q2,q3,q4,q5,q6,dq1,dq2,dq3,dq4,dq5,dq6,t1,t2,t3,t4,t5,t6
0.19123942143715644,-0.15406652375901547,0.06201478641592917,-0.058247560380988106,-1.615908180390462,0.15893843545586572,0.0,0.0,0.0,0.0,0.0,0.0,0.0,-12.292077930074363,22.658950476125373,-0.34479309595376123,0.6985507284332044,-0.00011814145709410084
0.45076543144630665,-0.012107421729873835,0.2185902007396423,0.20810931924635084,-1.7025934839833485,-0.4721773164251858,0.0,0.0,0.0,0.0,0.0,0.0,0.0,-19.994608740810953,22.23790430924219,0.7097050802025726,0.4167862010973842,-6.706022014935087e-05
-0.35411527165161705,0.45961418270996407,0.00013445344194079611,0.07472051432436261,-0.7526919908447163,0.07811093715024553,0.0,0.0,0.0,0.0,0.0,0.0,0.0,-47.62995899971502,23.4641222529954,0.08557957637967084,1.4334602793886173,-0.0001786324643839876
0.4397019130764852,0.6155294246080252,-0.1555077139228534,0.01934329476904023,-0.2679586315564518,0.30495616425649474,0.0,0.0,0.0,0.0,0.0,0.0,0.0,-52.697117598610134,20.701776066308277,-0.06688258362518365,2.08136212580324,-0.00023840340636290328
-0.43241725926158026,0.3493092407500618,-0.04099423712338146,0.08000106223331188,-0.7074622949560199,0.4204235527161083,0.0,0.0,0.0,0.0,0.0,0.0,0.0,-42.629818638410114,24.369006306488345,0.09194623404097022,1.8611202894693655,-0.00015080501880321284
0.20388181986704768,0.220571082891513,0.21192073005727613,0.09665099627480844,-1.1790625205358836,0.30351443555242674,0.0,0.0,0.0,0.0,0.0,0.0,0.0,-35.7798271314003,24.68631534377548,0.2524817621478844,1.5271402791706077,-0.00013197664921293928
-0.11812167286571384,-0.15016935449908525,0.1694613974908301,0.12858894344319638,-1.7295410388797834,0.06692034529073554,0.0,0.0,0.0,0.0,0.0,0.0,0.0,-11.544322421289719,21.6902238778978,0.3858972785911433,0.6625470560732687,-4.957099813351906e-05
0.19953974252573148,0.29021067639263615,-0.17277978469698635,-0.012198448115331162,-1.2950875392957082,-0.005283260045988003,0.0,0.0,0.0,0.0,0.0,0.0,0.0,-36.233424977681004,21.232378866325476,-0.14551632725996938,-0.764974312524112,0.00011073397915478678
-0.21831188895842435,-0.1396671806312461,0.17030697633807057,-0.18263210275079217,-1.29566156404083,0.17238869244947197,0.0,0.0,0.0,0.0,0.0,0.0,0.0,-13.826174638699714,23.37584083954654,-0.7906866156288126,2.2499302004668245,-0.0003741595969002365
-0.3996077469754271,0.6576107602587349,0.010669127443632631,0.05571334042931625,-1.106005659209841,0.4047712915785834,0.0,0.0,0.0,0.0,0.0,0.0,0.0,-53.45203207925397,19.469026638665365,0.07208068653781469,-0.7466817269101949,0.00010274075460475762
0.08150558464692947,0.07511935761889038,-0.08917566722219539,-0.09788779200594011,-0.9100007637232972,0.035641067163391216,0.0,0.0,0.0,0.0,0.0,0.0,0.0,-28.03477712672202,25.253660814744926,-0.42495753858378815,1.9439025240581476,-0.0003182789630222782
0.177384137386565,0.6881302788521648,0.20192437325060636,-0.192053528560096,-0.8427153540140013,-0.2503916341490915,0.0,0.0,0.0,0.0,0.0,0.0,0.0,-58.21854556627892,22.831431167755962,-0.6166765455250194,0.9390102036868804,-0.00018340766940760922
0.05959024940112412,0.5618408444867418,0.12186831496986517,0.19179985134155864,-0.9443298482553686,0.47878950344742033,0.0,0.0,0.0,0.0,0.0,0.0,0.0,-52.3235131074092,22.94585351214424,0.47236209023445197,0.7208938637661397,3.114005056326086e-05
-0.3965764191933895,0.5618549929427299,-0.19955420992879325,-0.2162416511921461,-0.4309212554156188,0.29654678947603197,0.0,0.0,0.0,0.0,0.0,0.0,0.0,-49.69513751541389,20.31677659804119,-0.3473034410646569,1.45395793333455,-0.0002501779633079515
0.45145603010971025,0.2936356493868077,-0.07681692094579728,0.24634019608524832,-1.0391220119324232,0.37930838927040644,0.0,0.0,0.0,0.0,0.0,0.0,0.0,-38.49427457862827,23.302773078963146,0.7013514041944056,0.6000835980356296,5.673871246214546e-05
0.08871598656900193,0.52310221455238,-0.1807052738731983,-0.2363594444964242,-0.6528380615400535,0.0019347262898696815,0.0,0.0,0.0,0.0,0.0,0.0,0.0,-47.891734993533426,20.455871441038603,-0.5301880167992381,0.8032280340361169,-0.00017936804896812042
0.03270207098628841,0.38098970533783044,-0.06895957991580381,-0.05445959636857972,-0.9111788001065169,0.09309238927079089,0.0,0.0,0.0,0.0,0.0,0.0,0.0,-42.93712346881589,22.954410527686566,-0.26193796383076506,0.8509593827464244,-0.0001390118542750618
0.44342219398002813,0.3141859634494922,0.0988379368400466,-0.17797355379752522,-1.1284026076623994,0.206475880950437,0.0,0.0,0.0,0.0,0.0,0.0,0.0,-40.48830446764167,24.157864635696,-0.7518163402461514,0.8968022762583558,-0.00019411375774835982
0.3307678884437435,-0.04380604489474388,-0.1534492624785398,-0.11569237767340318,-1.5538856377401193,0.17395514104272725,0.0,0.0,0.0,0.0,0.0,0.0,0.0,-18.86479253595225,22.9317646751811,-0.5840448197174506,-0.38114710897847637,7.539290952651712e-07
0.3927018020000377,0.14072562952059603,-0.10608437579009444,0.1283635785651704,-1.5630903880785574,-0.42876111557274676,0.0,0.0,0.0,0.0,0.0,0.0,0.0,-28.720232678187067,22.171940198085892,0.3995841407737152,-0.9728400705850362,0.00017073762403618797
-0.17301381465039567,0.7263195545072438,-0.05332275452948193,0.11673421923784527,-0.21895196854893834,0.4963604240791012,0.0,0.0,0.0,0.0,0.0,0.0,0.0,-57.81544189397743,20.717931249819976,-0.006744789638017196,2.203690538853044,-0.00015540630320626247
-0.2690019102389466,0.7200751409399218,0.17247106826882813,0.017653126082167403,-0.2937596472605371,0.23062557999215194,0.0,0.0,0.0,0.0,0.0,0.0,0.0,-60.82254164380096,24.001067314558764,-0.07968961350532655,2.7358640401426406,-0.00033942472393554655
0.4757997548620059,0.013209057073554742,-0.004532933854598298,0.205291921097565,-0.9246498545733046,0.40216473529816843,0.0,0.0,0.0,0.0,0.0,0.0,0.0,-24.804846809004154,25.589934310490662,0.5564722329139203,2.361654414388502,-0.00013774895307139268
0.17449704427351231,-0.08993750352032998,-0.11307309727180442,-0.10529598391140543,-1.6919887258399553,-0.1267181414071159,0.0,0.0,0.0,0.0,0.0,0.0,0.0,-15.885494290207504,22.59869259370283,-0.5421288699034148,-0.5881210285765182,6.638168905959141e-05
-0.31976173468607993,0.7985796304236843,0.09214496820875812,0.22898853866802943,0.006356906212843849,-0.05545339782192005,0.0,0.0,0.0,0.0,0.0,0.0,0.0,-62.79468572552495,22.61082637723235,-0.0892525722898238,3.058853395540483,-0.00041757768951464214
-0.41084536614477596,0.34527664650129425,-0.08663345619715723,-0.22656802148531519,-0.5777472876948979,0.18663746318946783,0.0,0.0,0.0,0.0,0.0,0.0,0.0,-42.485625495820294,24.445344330264117,-0.5588127362973081,2.1050439913590004,-0.0003667293624269874
0.18634866775224734,-0.15173577828447776,0.10534099357136761,0.2050700950399411,-1.748810585683177,-0.14793484552933678,0.0,0.0,0.0,0.0,0.0,0.0,0.0,-11.698826871271805,21.933563906107185,0.6875468161843,0.33883025776241205,-6.9350035936111e-06
0.3684476725459068,0.557390871680318,0.17071843822724797,0.11738448575379334,-0.5758982734211411,0.32867345143754356,0.0,0.0,0.0,0.0,0.0,0.0,0.0,-54.024482248860565,24.8676935725226,0.13748038708181373,2.324107707626215,-0.0002115209732879153
0.26794232291050646,-0.1681917270443926,0.2428524610845879,-0.05169936381260809,-1.6430453511319327,-0.15246073982810027,0.0,0.0,0.0,0.0,0.0,0.0,0.0,-10.228018298351166,21.394451517562324,-0.2988342627848862,1.3649246502836654,-0.00022919454796210825
-0.12961129817442718,0.27984431223302303,-0.24695025136405774,-0.05798270023677621,-1.3605533089109,-0.4657305753085583,0.0,0.0,0.0,0.0,0.0,0.0,0.0,-34.6116525227263,20.188120756973085,-0.3000129273943253,-1.2795700358752118,0.00021593945278552962
0.22334305668033305,-0.13718703317484254,-0.2091843583161368,-0.2145363941329324,-1.1415733865851274,-0.028492153559717348,0.0,0.0,0.0,0.0,0.0,0.0,0.0,-15.312354464440514,24.721060169075287,-0.9044477633202334,1.396564785793668,-0.0002784220969132001
-0.29382678347375024,0.13153102537433486,-0.16738529706666738,-0.009773374830029435,-0.9521869277950692,0.382146164434478,0.0,0.0,0.0,0.0,0.0,0.0,0.0,-30.273696368782065,24.252039594110045,-0.14045312075996447,1.2899379041745096,-0.0001445043836696691
-0.3030478153914917,-0.12159472747682293,-0.17321911779248905,-0.19331394172893862,-1.4554093507631276,0.25977242049657256,0.0,0.0,0.0,0.0,0.0,0.0,0.0,-14.99227334128861,23.513491465986633,-0.894680182359437,0.252396589143947,-0.00012311233201844907
-0.11867741837038681,0.5663623051818076,-0.05114692424873074,-0.21951202792724328,-0.8191942153835887,0.3432333908010341,0.0,0.0,0.0,0.0,0.0,0.0,0.0,-50.752815780516876,21.151332881312698,-0.6236623698846706,0.49363207762307937,-0.0001481657090729449
0.28346065194286496,0.5347996421210008,0.15222627789121695,-0.16954003797626005,-1.019032535280571,-0.4003271445501956,0.0,0.0,0.0,0.0,0.0,0.0,0.0,-51.289361087868635,23.26268415669833,-0.6521282583536228,0.6627650943439445,-0.00012264472912182356
0.04182602102391664,0.41320648804010224,-0.22270463860526152,-0.047527697002937186,-0.43931948224938794,-0.16975524056614177,0.0,0.0,0.0,0.0,0.0,0.0,0.0,-44.010800085322145,22.297612543007315,-0.15877604405949075,1.94916551162928,-0.00032178480227518236
-0.28063548918787895,0.14413548574842389,-0.24818820462245317,-0.012617070447865697,-1.5940000577174922,-0.0806636892810686,0.0,0.0,0.0,0.0,0.0,0.0,0.0,-27.572728630109232,20.82926951126675,-0.15362523334438016,-1.6579144485218897,0.00025389078250809965
0.44005382114014113,-0.19909824656365033,-0.23637144416481476,0.2463508568805668,-1.13363775957144,0.0009121572627474039,0.0,0.0,0.0,0.0,0.0,0.0,0.0,-11.91376425545615,24.821678619573127,0.7957429756499441,1.5459447199037015,-0.00014910527606315505
-0.2659550707400202,0.470421232039503,-0.16229545318760374,-0.1533251952670342,-0.6965196299867162,0.38751089082339485,0.0,0.0,0.0,0.0,0.0,0.0,0.0,-46.117062127452286,21.38735038622135,-0.4155917995518311,0.9520153874384132,-0.00016877348386790114
0.28203554281490817,-0.19641994876282448,-0.025963853034841777,-0.09307275682585997,-1.1518071164759622,0.10548769040438533,0.0,0.0,0.0,0.0,0.0,0.0,0.0,-11.817417042704403,24.57488223440086,-0.4558579941179116,2.2753245677419898,-0.0003542205426618761
0.05006317878186184,-0.1149237009321154,0.18631391524570967,-0.06511802972214092,-1.0809707327108706,0.4669688508475458,0.0,0.0,0.0,0.0,0.0,0.0,0.0,-15.99409812010331,24.134967377519835,-0.3340483365145234,2.915792430788807,-0.00031735819464212556
-0.27759126365751785,-0.055688607705037085,-0.15910975702650876,0.14857641404950922,-1.6326636389399758,0.3302422024035837,0.0,0.0,0.0,0.0,0.0,0.0,0.0,-17.88234669605646,22.63198852062377,0.4910298283389845,-0.673381962685415,0.00015283764730500415
-0.17082865321287777,0.26191735468021776,-0.03755306477345527,-0.1688494772173162,-0.708087112447841,-0.06588093796942296,0.0,0.0,0.0,0.0,0.0,0.0,0.0,-38.589760024231374,25.16856849825834,-0.5366931657612721,2.1499186092000873,-0.000378280004479592
-0.4243323873778658,0.4614243786865561,0.2205240373922409,-0.006076484332639354,-0.7371399043187696,0.12566438494565657,0.0,0.0,0.0,0.0,0.0,0.0,0.0,-49.71050493149951,25.45001975703604,-0.12738304676074014,2.293674528955364,-0.00031841497173051847
0.24694174515536083,0.6141462949687351,0.11253508003551843,-0.04425099864216009,-0.6295903342540217,0.08385088977193311,0.0,0.0,0.0,0.0,0.0,0.0,0.0,-55.36200484470753,23.432974997611577,-0.19401852648355905,1.744399802728788,-0.0002622359935136598
0.2734361190886814,-0.12943348620774447,-0.03129682777662823,-0.07451322673373656,-1.859296767970349,0.4504532338405717,0.0,0.0,0.0,0.0,0.0,0.0,0.0,-12.982953274967185,21.950612712646304,-0.4050197694086706,-0.7743357410171043,3.456266682627662e-05
-0.026558682991706495,0.37443755965650455,-0.09102233902841883,-0.05460142154302727,-1.3032697532515234,-0.07937402030793228,0.0,0.0,0.0,0.0,0.0,0.0,0.0,-40.80324576683234,21.175067722550963,-0.2952844256913909,-0.8092305627635419,0.00011160953451827549
-0.10642105354419007,0.5765195566776986,-0.12856490383580327,-0.21651981187940156,-1.0687784413562933,-0.3030611393594924,0.0,0.0,0.0,0.0,0.0,0.0,0.0,-48.84919140363726,18.74711347638171,-0.6741325200758818,-0.8634312900499648,0.00012162757720157735
0.24283729400673348,0.3738578932260141,-0.1682497221631435,0.2077684684682412,-1.0427311483049684,-0.19239789296422993,0.0,0.0,0.0,0.0,0.0,0.0,0.0,-40.88386944745327,21.287097797750302,0.53082272145245,-0.09598779036046778,5.2597579744739775e-05
-0.4491363991726909,0.4511679143842698,-0.0558326215319615,-0.08936260418075992,-0.404846577608763,0.17478746722754213,0.0,0.0,0.0,0.0,0.0,0.0,0.0,-47.88094812626988,24.15777710815192,-0.2258102503186522,2.500816844163584,-0.00036585345529693836
-0.038318656830101716,0.3803669166637083,-0.11730191063228951,0.09900485309066342,-0.6326767475484161,0.48030259494259864,0.0,0.0,0.0,0.0,0.0,0.0,0.0,-43.41532629363384,23.466275628860167,0.11105992223070135,1.7360039344913591,-0.00011429403796148208
-0.3751973427499893,0.31686406221503055,0.12042639530252125,-0.17817482730978634,-1.0827041367713885,-0.4497734991404576,0.0,0.0,0.0,0.0,0.0,0.0,0.0,-40.92671871040279,24.448351128602926,-0.7410040192469471,1.1508271251152795,-0.00020099783612859135
-0.2726514087749031,0.25718484397778,0.18618948009454067,-0.06584772666761673,-1.4203746484145456,-0.47493455079229063,0.0,0.0,0.0,0.0,0.0,0.0,0.0,-36.75906534040847,23.60321293189973,-0.3804749606861102,0.3244712361032427,-5.6133607510888694e-05
0.030511809104856735,0.39915453181910393,0.12388788178813553,-0.06752833646808687,-0.48919556511192913,-0.05334101704321037,0.0,0.0,0.0,0.0,0.0,0.0,0.0,-46.978286891184496,26.01721270076156,-0.23522660605702755,2.955694788764861,-0.0004723629921184469
0.06963438513453013,0.6484353030209069,-0.11197324033612488,0.04205281090771895,-0.49893007729267086,0.09884646962051002,0.0,0.0,0.0,0.0,0.0,0.0,0.0,-53.57981406460132,20.025191668692482,-0.022960553493114155,1.2557259353985462,-0.0001643733263716196
-0.009539656796079266,-0.18974649485354406,0.15001390785595453,-0.23874820855118467,-1.8534107841729353,0.22122012152835857,0.0,0.0,0.0,0.0,0.0,0.0,0.0,-8.637944692483766,21.020143341268984,-0.9840170593555142,0.26471842102504617,-0.00013627735574517352
-0.21645507888529436,0.4291867195822155,-0.1313809034263942,0.13311456670494082,-1.2277061779624363,-0.48308347590949496,0.0,0.0,0.0,0.0,0.0,0.0,0.0,-42.827418843971586,20.264127872540662,0.3385578785108381,-0.8963989584807575,0.00015333030502928668
-0.13907237843432607,-0.07294594982779584,-0.054512866787349235,0.1800665649886477,-1.800914083935913,0.41695061834613323,0.0,0.0,0.0,0.0,0.0,0.0,0.0,-16.46564056694179,22.20552050189525,0.6035234598462964,-0.8481860306024327,0.00018665099198100776
-0.33031631795133976,0.21940599409856337,0.15965537808822494,-0.01660594207197741,-1.4674114399212024,0.25542340630358396,0.0,0.0,0.0,0.0,0.0,0.0,0.0,-34.46690511248054,23.43927801628642,-0.18182543583523786,0.17859045046286148,-3.0069127105347704e-05
0.4838523079254311,0.644260144345761,-0.027627987169846102,0.20654508913537933,-0.42563868710271296,0.13175978453749793,0.0,0.0,0.0,0.0,0.0,0.0,0.0,-55.155874877562006,21.7971193242121,0.18457814845238232,1.8091387657484432,-0.0001822501963871792
-0.4852227929020091,0.3581317428961656,-0.15250939761317844,0.08453655555496475,-0.7118782128406471,0.11262855701749874,0.0,0.0,0.0,0.0,0.0,0.0,0.0,-41.74725001280597,23.005000468023074,0.0981794931546621,1.3913838900945343,-0.000164050028162388
-0.22287381920028604,-0.08419044870662623,0.056261006988725715,-0.20704682631020838,-0.9266189911895795,-0.4346680793658476,0.0,0.0,0.0,0.0,0.0,0.0,0.0,-18.995094058405016,25.379289687812516,-0.7793281649086913,2.8492846964560083,-0.0004916920841817607
0.41959643488589815,0.3830327375797457,-0.10226896795122192,0.07457254825397303,-0.6700380391174656,-0.37087876549962695,0.0,0.0,0.0,0.0,0.0,0.0,0.0,-43.5686129537746,23.47552680673906,0.06704405800976312,1.6494032619692014,-0.00027187719910670705
-0.3740035122531091,0.6375905729009581,-0.03970417788011138,-0.12179185296613226,-0.7488888628594037,-0.31147502048596487,0.0,0.0,0.0,0.0,0.0,0.0,0.0,-53.5101749930372,20.465510247021346,-0.3532769019904335,0.5742881864112288,-0.00010806363276194553
-0.412261908926176,0.17250735589991278,0.12529858337605032,0.1814933472414299,-0.8560182088378614,-0.27348244204093874,0.0,0.0,0.0,0.0,0.0,0.0,0.0,-34.1470467973475,25.78294921632127,0.44667852896101135,2.497940147409901,-0.0003853335157512072
0.41243546575038803,0.31028369442161513,0.19341560963121168,-0.12043509378261508,-1.4049117458466116,-0.03748785540045485,0.0,0.0,0.0,0.0,0.0,0.0,0.0,-39.63068194017976,23.515997637421325,-0.5961338533515523,0.19601783739503453,-6.683482462699342e-05
0.0048185488413463595,0.5073681800905316,-0.0833872335158925,0.22627226961888358,-0.8647793867744329,-0.27585432790030284,0.0,0.0,0.0,0.0,0.0,0.0,0.0,-47.971374233743894,21.33611085139652,0.48956641194407574,0.4157142729043599,-4.019523028508942e-05
0.17252376483251364,0.6203454874842473,0.24284658471274717,-0.0961350038107921,-0.8133988468655566,-0.254726947789777,0.0,0.0,0.0,0.0,0.0,0.0,0.0,-56.332649599670034,24.106888956657773,-0.37221067797479235,1.5105158645915555,-0.0002638543371926705
-0.08987755793236418,0.5645921344460059,-0.19562589209635323,0.24850593055663778,-0.9112365149950852,0.09826660012569577,0.0,0.0,0.0,0.0,0.0,0.0,0.0,-47.92210162051871,18.408174648401047,0.49810155832027775,-0.4690505839315957,0.0001356111231158863
0.2873432055052987,0.5526345262040266,0.09849560355497944,-0.2446752805155505,-1.0765201786371092,0.1301689510176397,0.0,0.0,0.0,0.0,0.0,0.0,0.0,-51.20780265098142,22.287729714106554,-0.8867139790266018,0.1122371996685061,-0.00010467467529684527
-0.2283046157241575,0.34186257057728536,0.23172582949148146,0.030313930473159,-0.7928173977658266,0.3843150373921037,0.0,0.0,0.0,0.0,0.0,0.0,0.0,-43.703974673460564,25.85062912429772,-0.02539715027237066,2.541360623027588,-0.00025780006652641185
0.15969291441699973,0.11058162077298689,0.14743426429639106,0.14946472003441397,-1.2077447020434293,-0.18911197351896158,0.0,0.0,0.0,0.0,0.0,0.0,0.0,-29.4216794381016,24.601763813095396,0.45810868986156383,1.5823255241883185,-0.00022431631599906243
-0.3324114966148147,0.6062283737805378,-0.08068809327603144,0.09203868823582351,-0.46105618618821825,0.030593424459789076,0.0,0.0,0.0,0.0,0.0,0.0,0.0,-52.964874155544265,21.416626780573964,0.041745577052804544,1.6726745826016014,-0.00022017835213444803
0.4505579889906669,0.31366115188026095,-0.03711914047005582,-0.1331011864571744,-0.8363584510517892,-0.05671237152548747,0.0,0.0,0.0,0.0,0.0,0.0,0.0,-40.575063172775515,24.273625647245048,-0.48641098014239476,1.513972532599002,-0.00026950001145631397
0.34690270047822025,-0.07988742189349335,-0.15035061095415003,-0.09328477651336309,-1.3420306556501134,-0.1418856564729365,0.0,0.0,0.0,0.0,0.0,0.0,0.0,-17.786937065617064,23.924657909531675,-0.48533483293632707,0.6430722328935037,-0.0001249328469999922
-0.4237803285376244,-0.16771995188545546,-0.24670189460761693,-0.13780246283017478,-1.2278657556563093,-0.24895946344586573,0.0,0.0,0.0,0.0,0.0,0.0,0.0,-13.221221724165737,24.360985069226064,-0.6426662040127114,1.0581379159706223,-0.0001976374058828556
0.24882233491924077,0.6466030298759746,-0.05205513134074463,0.20726901811666582,-0.7958584848539663,-0.3468389232179345,0.0,0.0,0.0,0.0,0.0,0.0,0.0,-53.39342362088127,19.924685791907986,0.3765048679460148,0.2657440823501229,-2.803460887479403e-05
-0.31174145480219784,0.04964928362510207,-0.1444409993451527,0.08744541474331485,-0.7802732568406596,-0.08168376146501344,0.0,0.0,0.0,0.0,0.0,0.0,0.0,-26.87729000013961,25.562807884928183,0.13567727095513654,2.2953990546460687,-0.0003321578993876195
0.41933568568717383,0.06670086715804074,-0.08326571102018604,-0.24095699627020334,-1.0344815053488887,0.11155710714402456,0.0,0.0,0.0,0.0,0.0,0.0,0.0,-27.166830362891524,24.87032005207797,-0.9427927794486846,1.4870473886102538,-0.0003011600414550841
-0.3410383774521203,0.34198245179792613,0.08143366573843458,-0.23110158604338477,-0.9932202853338636,0.40477660377800995,0.0,0.0,0.0,0.0,0.0,0.0,0.0,-42.268799741127275,24.408886631856987,-0.8689523771479511,1.2220562786944136,-0.0002496307215005267
0.04733816134206903,0.6307372082501028,-0.08622155635636258,0.16162443688697875,-0.32064397164233266,-0.22787558329740154,0.0,0.0,0.0,0.0,0.0,0.0,0.0,-54.158498201098105,21.4381107650568,0.07183121327645509,2.048807709233019,-0.0003125642863573974
-0.2428286946818341,0.065178471379778,-0.1968477233538527,0.036795776565944294,-0.8008798619699196,-0.3698373772283545,0.0,0.0,0.0,0.0,0.0,0.0,0.0,-27.29959689733538,25.090740882431668,-0.005779393055477644,1.9951653275797963,-0.000332710712491191
0.4280481795020704,0.126348609763334,0.06982120471468783,0.03291352250853141,-1.6401970685697533,0.3471426932962758,0.0,0.0,0.0,0.0,0.0,0.0,0.0,-28.46366068253678,22.739062261074697,0.02054073609327489,-0.5161157195594654,7.5194933904843e-05
-0.08907687389613395,0.18694931519205543,-0.05032048034541653,-0.11599694752244682,-1.2881749979714328,0.1488275556883517,0.0,0.0,0.0,0.0,0.0,0.0,0.0,-32.547327592775275,23.360790202271936,-0.5540767002582173,0.1782728435294807,-7.147428131815126e-05
-0.41100552194411377,0.03333671359721607,0.08632752346680816,0.1587825010830584,-0.8372197455888883,-0.17908448394029497,0.0,0.0,0.0,0.0,0.0,0.0,0.0,-26.220832922747633,25.846179583525025,0.36873797297445376,2.8724049388205337,-0.00042841661098147465
-0.4292273060679592,0.25350351206454375,0.22613606519369933,0.16780101746934267,-0.6014199420317949,-0.15115157217935238,0.0,0.0,0.0,0.0,0.0,0.0,0.0,-39.469178944203875,26.51993294191727,0.2751059894751102,3.2733824620222247,-0.0004829084846444953
0.46443672156984317,-0.08457108779892514,0.19163557536311643,-0.008614261999959127,-1.3259834094938285,0.2739680496743907,0.0,0.0,0.0,0.0,0.0,0.0,0.0,-17.091951536099124,23.497944319494838,-0.14301362270559054,2.043590637016317,-0.00025255978751957675
-0.41311343663917166,0.17735147814174174,0.07821968537895213,0.20843980913247534,-1.1130233433829908,-0.27571007457774654,0.0,0.0,0.0,0.0,0.0,0.0,0.0,-33.389754124043755,24.749590816233876,0.6470588971192294,1.4021436882506197,-0.00020046441401144754
-0.43590891906191265,0.1236284803477205,0.04640106248114734,-0.031018018958257676,-1.177389326244745,0.31431432085772615,0.0,0.0,0.0,0.0,0.0,0.0,0.0,-30.129128039853086,24.56051067217475,-0.2311969399950634,1.275616128960463,-0.00016458581642023185
0.3007758953267108,0.37628497673687294,-0.1606407973867346,-0.01677796186396463,-0.40086105243062303,-0.1210715646374394,0.0,0.0,0.0,0.0,0.0,0.0,0.0,-43.52477125516561,23.796543994821157,-0.12146189640179739,2.428606725828274,-0.000386982088221105
-0.1312849211130982,0.27183666258701705,0.10070523541492088,0.18574319325556204,-1.4782896938172436,0.3988183512041319,0.0,0.0,0.0,0.0,0.0,0.0,0.0,-36.94843767951289,22.97207962373745,0.6334421250663586,-0.3294999529135101,0.00013397106341450638
0.462925633774265,0.2825860667727948,-0.12049026386468642,0.18623437550138827,-0.7855000246068087,-0.11290921097310824,0.0,0.0,0.0,0.0,0.0,0.0,0.0,-38.5383429677068,23.961913639616284,0.39115917886167073,1.4852089764689662,-0.0001890151105267135
-0.43713162002139594,0.3248701251823996,0.055510519201779296,-0.025637309864967428,-0.5133927410325638,0.4721625532686624,0.0,0.0,0.0,0.0,0.0,0.0,0.0,-42.90221285888627,25.982330481583745,-0.1599200739169287,2.9098355796658275,-0.0002932679723529896
0.28881800414072845,0.38266148973840836,-0.0757536283786085,-0.056425062207268006,-0.5736563700703221,0.48191946897773386,0.0,0.0,0.0,0.0,0.0,0.0,0.0,-44.215344498387196,24.142308501384115,-0.21499598423520117,2.1013640251088948,-0.00022794056106162364
0.35551063883251854,0.7690965097772493,0.1035337832538536,-0.2021565007718068,-0.2198563803873162,0.49366399226910884,0.0,0.0,0.0,0.0,0.0,0.0,0.0,-61.56738698260837,22.618361395102994,-0.2295352858143931,2.534599513567633,-0.00032754054858441517
0.1889440513530105,0.42065626586671484,-0.13183760093015962,0.17666823942375465,-0.43416248772955573,0.4699199878045791,0.0,0.0,0.0,0.0,0.0,0.0,0.0,-45.59662494265195,23.4864269899716,0.16277876586924733,2.2148000446231215,-0.0001271989502099613
-0.4231814191358596,0.004400881530823686,0.06141878431914888,0.04407990957187152,-1.5196488369276049,0.27518189406017646,0.0,0.0,0.0,0.0,0.0,0.0,0.0,-22.073803785916535,23.3663395739078,0.06638937950516113,0.4426233683913594,-3.2388889518231156e-05
0.3100493582457937,0.13675653110076819,-0.008760457738811123,-0.1445153012420467,-1.6184944063108377,0.0004906202838200757,0.0,0.0,0.0,0.0,0.0,0.0,0.0,-28.847109596112894,22.526088294660944,-0.6965190044213764,-0.7868057144886365,6.971896946605938e-05
-0.0021097774005653935,0.01301703032603202,0.1025628215153242,-0.16251888022217892,-1.6601170708646837,-0.2744058408824642,0.0,0.0,0.0,0.0,0.0,0.0,0.0,-21.971809830782504,22.767960988264356,-0.7716907303074729,0.005578899731988329,-2.5891383232501397e-05
-0.2745781956444219,0.04858039251567409,0.08309782024000673,0.154438501346719,-1.5478739657361087,0.14315226031317352,0.0,0.0,0.0,0.0,0.0,0.0,0.0,-24.500037693137298,23.24713044253933,0.5181734060507861,0.23421318812863312,3.221161265587469e-05
0.007170119894361782,0.7825115991612384,0.06141656243767302,-0.2131688038102471,-0.14920870296137229,-0.03539571400326624,0.0,0.0,0.0,0.0,0.0,0.0,0.0,-61.485140102436795,21.969991123245922,-0.18106823834602584,2.577724276346924,-0.0004409917977873934
0.4170249097798122,0.01204102388106737,-0.03133019313420793,-0.0380948045461173,-1.1364211354396683,-0.16345391850958702,0.0,0.0,0.0,0.0,0.0,0.0,0.0,-23.94499880334103,24.797382287329995,-0.2560434766198842,1.5635744997496985,-0.0002594117216491165
-0.2616218387110375,0.6847149976267377,-0.04761498500817524,-0.1569712356720523,-0.4215058599826362,-0.35667079009804603,0.0,0.0,0.0,0.0,0.0,0.0,0.0,-56.070333350291776,20.838731593566113,-0.27943230461975105,1.628698009987172,-0.00028514304565108173
-0.14458128618991128,0.6900267354954386,0.14593265393208188,0.19911924633817984,-1.079612413052355,0.40738407565128143,0.0,0.0,0.0,0.0,0.0,0.0,0.0,-56.579927899340284,21.106637682593135,0.5170331084561529,-0.25045563963988826,0.00011900349394156073
-0.17655170154385258,0.086831078019948,0.10730516183919547,-0.17757614335539962,-1.4612437275141184,0.12095325101968057,0.0,0.0,0.0,0.0,0.0,0.0,0.0,-27.04807148543612,23.59311139449287,-0.8334679938366608,0.5249917461207652,-0.00014407265958649162
-0.23752442768906157,0.15628548547571458,0.019828244704227782,-0.20713533395696238,-1.3822252855981298,-0.37833059680398695,0.0,0.0,0.0,0.0,0.0,0.0,0.0,-30.97656193054386,23.53833822939751,-0.9328784051115067,0.19752275770698802,-5.0300016533055825e-05
-0.15701916213256384,0.5465659709462776,-0.14165580943498846,-0.07649443474756235,-0.8256647120568175,0.35530413755771817,0.0,0.0,0.0,0.0,0.0,0.0,0.0,-48.578770573372495,19.96166915015683,-0.26618987572440894,0.22675881325011638,-5.636418214194361e-05
0.3605432124725758,0.2800493532152453,0.1131321414001285,0.2166685731065205,-1.1910613070714131,0.44720805376929185,0.0,0.0,0.0,0.0,0.0,0.0,0.0,-38.60354080202371,24.168570889839025,0.6985365693916943,0.83170948196104,3.7121905894998974e-05
-0.12929717246132688,-0.1980140723206884,-0.10652058007239346,-0.06975620686608425,-1.1455420530675136,-0.4165453797768529,0.0,0.0,0.0,0.0,0.0,0.0,0.0,-11.944114477644687,24.79113815002214,-0.37340837696212076,2.0246627598811298,-0.00034648093533273805
0.32373530614809964,-0.09080283327787436,-0.1421959656977096,0.07396186834802765,-1.0179066506874366,-0.10125397410196557,0.0,0.0,0.0,0.0,0.0,0.0,0.0,-18.458088654561184,25.220805705713666,0.14389172318193397,1.9680063898213298,-0.00028820786537592236
0.12380271934783948,0.4261805106333982,0.14984937495118877,-0.15438754261031523,-0.3606865862878616,0.3370227062904577,0.0,0.0,0.0,0.0,0.0,0.0,0.0,-48.76062255628674,26.3568199976473,-0.3231296707592279,3.256797141946972,-0.00044739741064414584
0.4954748678159778,0.009613225139053772,-0.05597338488928666,-0.05190162062323228,-1.1588300581526665,0.48881497702827814,0.0,0.0,0.0,0.0,0.0,0.0,0.0,-23.671070522213203,24.66332728509518,-0.30862267862741954,1.39136378924786,-0.0001603115490309004
-0.4171340656284098,0.20708245073629633,-0.16786094084303715,-0.1566221344998628,-0.6065881730852967,0.4103200562509286,0.0,0.0,0.0,0.0,0.0,0.0,0.0,-35.21847995384723,24.888636867957892,-0.4448686539589857,2.243280610717532,-0.0003139482889790157
-0.3973810163784286,-0.015811781812965886,0.16986763059957,-0.18347560943682917,-0.8446479651306695,-0.2879869751123302,0.0,0.0,0.0,0.0,0.0,0.0,0.0,-22.9675228736779,25.424088212937875,-0.6612604001767586,3.2015959418100426,-0.0005575767575075607
-0.00917935494941724,0.16495165030410336,0.1647896253580391,-0.249332372684412,-0.766225024367827,0.24061722649826156,0.0,0.0,0.0,0.0,0.0,0.0,0.0,-34.01906516448567,26.08595539643519,-0.813535881611967,2.866565758378826,-0.00047555021341794124
0.01758648166990906,-0.1723303574580533,-0.24394055326556519,-0.09997695718576638,-1.202919780841574,-0.06900128783307036,0.0,0.0,0.0,0.0,0.0,0.0,0.0,-13.077537164710986,24.477823693296205,-0.4950776644230097,1.191252714490453,-0.00021278243858713353
-0.11062899372730128,0.3549015887427565,0.24235923163623924,0.06778712065760972,-1.0729154879779372,-0.09648533850825414,0.0,0.0,0.0,0.0,0.0,0.0,0.0,-43.41844526550801,24.852295466558928,0.1293568058148211,1.5387770063328112,-0.00022207958880421375
0.12012459796478758,0.22226998663400038,0.19012017132861292,-0.11212512210024494,-1.04271539612403,0.35131680432031,0.0,0.0,0.0,0.0,0.0,0.0,0.0,-36.35359092604132,25.164034719363517,-0.5102223045422982,1.9406156257426783,-0.00027608642987930754
0.27037514144853436,0.08232278942874544,-0.19135499902210784,0.05841000942433966,-1.5125011397097414,0.03837797329501502,0.0,0.0,0.0,0.0,0.0,0.0,0.0,-25.373489808786164,22.17786688066566,0.12042389219855584,-0.8783767793853059,0.00014811445033974246
0.23625544628503392,0.05001439220047871,0.04039483067810662,0.03686693023327048,-1.6366465392661824,-0.2527713440613344,0.0,0.0,0.0,0.0,0.0,0.0,0.0,-24.180139869208205,22.844625539521065,0.03659672175305542,-0.3096043094725811,5.719357902367328e-05
-0.0922686144476974,-0.08555482063723457,0.20383948890788367,-0.23930699301299596,-1.2212167941421102,0.24080513556457328,0.0,0.0,0.0,0.0,0.0,0.0,0.0,-17.27971215258686,23.7420337190469,-0.9829587830614281,2.4101954555092693,-0.000409071791072968
0.2928207620916131,0.49464165851233927,-0.2076548836428604,-0.20292596760395548,-1.269579765687736,0.21394100945973116,0.0,0.0,0.0,0.0,0.0,0.0,0.0,-43.98660450129188,18.00374188911678,-0.6888402295936696,-1.6227079303426173,0.00013834153675218452
-0.06805721893781702,0.3706472477325537,0.0904873811599664,0.022660402540723823,-1.3933670698238216,-0.07281225805858005,0.0,0.0,0.0,0.0,0.0,0.0,0.0,-42.033851936534575,22.611152383571252,-0.021961067980801385,-0.4215818927743218,7.139987881557563e-05
0.03673463064183202,0.06527110226421645,-0.033355282441705325,0.13273408832888606,-1.1749778947347778,-0.0371320231126816,0.0,0.0,0.0,0.0,0.0,0.0,0.0,-26.720702885743524,24.506513355811794,0.38612709654629623,1.1883662601109446,-0.00013983333571088163
-0.41858077859481313,0.4140495699009697,0.032563736851099645,0.029016112253989257,-0.6250542995487511,0.14055257180792025,0.0,0.0,0.0,0.0,0.0,0.0,0.0,-46.50483535463969,24.74665776858162,-0.04141493643907179,2.194428202177667,-0.00028787627459102294
0.38031881681421054,0.6355388110294504,0.14376406874285852,0.03086356293705711,-0.5836070816700238,0.4760688298658644,0.0,0.0,0.0,0.0,0.0,0.0,0.0,-56.66358640416158,23.715841790403804,-0.03907481935394652,1.9502476565364475,-0.00017029694789510996
0.09453209775473237,0.2325203983955157,-0.05341038371716306,0.23327929272206077,-0.9687507256144987,0.4669158530488654,0.0,0.0,0.0,0.0,0.0,0.0,0.0,-36.074703888109475,24.30635452170498,0.6440648726314918,1.215631797335936,9.595046943866592e-06
0.22089474182115498,0.0222609769045104,-0.13636201556000582,-0.11679302504047473,-1.3224472024549836,-0.18174008746034398,0.0,0.0,0.0,0.0,0.0,0.0,0.0,-23.408835957451828,23.672369723806064,-0.5703052355388813,0.3609572100914811,-8.322823660777967e-05
0.013468179777541667,-0.19624555784375536,0.2204171133859507,0.11807418617420495,-1.1498835577533246,-0.1947196717717572,0.0,0.0,0.0,0.0,0.0,0.0,0.0,-10.265447929762585,23.01311380050418,0.29977964955352515,3.040367309270394,-0.0004700496324047121
-0.03378386432375946,0.5824984161307749,0.16896755933486135,-0.042565364899395886,-0.6691068756212208,0.31469292782420555,0.0,0.0,0.0,0.0,0.0,0.0,0.0,-54.674812579164154,24.279518319472995,-0.2038493651133454,1.9228101045160493,-0.0002441064827230499
-0.4392292663906664,0.5900035414787717,0.19877996030395045,-0.19166227842164174,-0.45465002599356946,-0.008886304135625855,0.0,0.0,0.0,0.0,0.0,0.0,0.0,-55.99864242023078,25.23681965418571,-0.42148018485368144,2.6602042971050093,-0.0004562779728944921
-0.24148173617442914,0.7497253457023305,-0.0810024144766538,-0.18139647819394683,-0.04189047761892489,-0.057648537813802636,0.0,0.0,0.0,0.0,0.0,0.0,0.0,-58.52760717456331,20.408395611733567,-0.0968775202499445,2.5941020970371547,-0.00043446505008463976
-0.47864196935924364,0.09319672320909084,-0.22188401108513606,-0.09760103034361817,-0.8708279038162428,-0.054632807234823444,0.0,0.0,0.0,0.0,0.0,0.0,0.0,-28.264250512475236,24.443230509009958,-0.3993262953400141,1.5295427326361146,-0.00026225317112316127
-0.43413886469845564,0.44999688612535343,-0.21546044303930373,0.11179434215376693,-1.0101234363321454,-0.08062558520118068,0.0,0.0,0.0,0.0,0.0,0.0,0.0,-43.23280104425898,19.571137477352526,0.21573004666112608,-0.44050839586058643,9.31147076375094e-05
0.0907220844749691,0.574717801125249,0.02099784947946226,-0.05435841297738786,-0.7834029128972337,0.009661426140389562,0.0,0.0,0.0,0.0,0.0,0.0,0.0,-52.176396004135206,22.16289158233943,-0.23112971282810718,0.9468757576764268,-0.000156146578637828
-0.37060606456947787,0.21240220906712554,-0.105943583093357,0.00829081008906396,-1.341206123835009,0.3069221217447837,0.0,0.0,0.0,0.0,0.0,0.0,0.0,-33.14568074908212,22.51442351745768,-0.07708105625657646,-0.3645235133773319,4.677372473810282e-05
-0.04680396647804996,0.48439772473786374,-0.03235716023957619,0.003215546373181166,-0.3730356300941429,0.46356944646444964,0.0,0.0,0.0,0.0,0.0,0.0,0.0,-49.589396624143134,24.134731627937303,-0.09513007958773478,2.5848587641854586,-0.00024940206395964587
0.3274541609397077,0.5518437154704552,0.04242085252021155,-0.16580170479827944,-0.3435011809623533,0.028436220169653192,0.0,0.0,0.0,0.0,0.0,0.0,0.0,-53.21462883783089,24.33397686869642,-0.29785417559238353,2.654603715239153,-0.0004400445442199752
-0.49047758810232833,0.7409290560874724,0.15485760938034415,0.020240343934035177,-0.9966599962933675,-0.3815440907236851,0.0,0.0,0.0,0.0,0.0,0.0,0.0,-58.57036421260196,20.832705654639785,-0.03725398113039566,-0.0494716261468362,9.69584401033785e-06
0.2849784939065938,0.5113230647184577,-0.16673378236697844,0.09444729530632917,-0.8904689567197441,-0.056990401637492916,0.0,0.0,0.0,0.0,0.0,0.0,0.0,-46.69115419667481,19.854024890811633,0.14572255192283895,6.086261094928602e-05,2.181219486407926e-05
0.2838872982818891,0.24794552206398573,0.01395665073285629,0.2251060141145662,-1.34635115511869,0.39557918734293396,0.0,0.0,0.0,0.0,0.0,0.0,0.0,-35.78885632196,23.151871488477042,0.7609336256060605,-0.06215080803276152,0.0001245281551789379
-0.3699617303686591,0.3333255223064992,0.07964986857398493,-0.20424213568376653,-0.6427552186499894,0.45226732331123853,0.0,0.0,0.0,0.0,0.0,0.0,0.0,-43.08724510219019,25.702246340703855,-0.5916334109729653,2.497507389264083,-0.00035779826191939534
0.4734768246853127,-0.03154564365221829,0.15629671054375743,-0.06125896364105193,-0.8038503853546874,-0.356115747186865,0.0,0.0,0.0,0.0,0.0,0.0,0.0,-22.16265050669559,25.52464478138981,-0.2901335379166522,3.3463448011214734,-0.000568231020484089
0.14067176637012024,0.7124007135387012,0.10830716159670245,-0.13215902339780505,-1.0430220800116954,-0.4962882676852064,0.0,0.0,0.0,0.0,0.0,0.0,0.0,-56.88591580224783,20.405657492956156,-0.47819512960507987,-0.3279413611174551,5.551143881721288e-05
0.44939049725291413,0.14734166000680343,-0.14448632697495217,0.21731046019474515,-1.2401240240194118,-0.3114356970597988,0.0,0.0,0.0,0.0,0.0,0.0,0.0,-30.094956351411593,23.168060021813226,0.6949094819792958,0.12931387121051152,5.152780474526608e-06
-0.332374156514989,-0.13149412707885816,-0.16848393778202964,-0.08179906024439165,-1.6129304703269762,-0.35935426409302385,0.0,0.0,0.0,0.0,0.0,0.0,0.0,-13.810810010864135,22.895738908491047,-0.44906440291283606,-0.32409794600979325,4.6582801712991007e-05
-0.06558775802881822,0.6438683339877012,0.14514678611137233,-0.17692679603360045,-0.3989202587393547,0.04004850726007414,0.0,0.0,0.0,0.0,0.0,0.0,0.0,-57.628603805856244,24.28825892764008,-0.34551598580555265,2.5080377151092765,-0.0004207807293230559
-0.058120925815435376,-0.10387007743781612,0.20981993921299402,-0.21628886516796048,-1.2790409787397585,-0.3360516666229224,0.0,0.0,0.0,0.0,0.0,0.0,0.0,-15.889231884324234,23.399089002867015,-0.9092428515487463,2.310832070756879,-0.0004100939518412172
0.36454545084268297,0.5077687003465514,-0.22256250131056043,0.11308754498467533,-1.0419886394058946,0.25440091035102685,0.0,0.0,0.0,0.0,0.0,0.0,0.0,-45.016327921056956,18.360602100988128,0.21344363781339226,-0.8322802355883496,0.00014310584993726394
0.358003950208559,0.5272967513207896,-0.24464490307009895,-0.1371106253404451,-0.9116217654543957,0.27555111916853714,0.0,0.0,0.0,0.0,0.0,0.0,0.0,-45.826323149810385,18.178166103879853,-0.39911318346399277,-0.47948698408169044,1.0438920702293686e-05
0.39352452925915704,-0.06034048120342478,-0.018421274924112108,0.19274360905968396,-1.21073565544258,0.25498243961513023,0.0,0.0,0.0,0.0,0.0,0.0,0.0,-19.572136422601982,24.588857482810816,0.6234208395820462,1.579415120707246,-0.00010435583134160709
-0.4081176815215285,0.2931866691980795,-0.09491179112672232,-0.20493555617657855,-1.4121159496822526,-0.07519646477457353,0.0,0.0,0.0,0.0,0.0,0.0,0.0,-36.785615691191296,21.619070913821606,-0.8675595455008966,-0.9466943131455459,9.256664316037444e-05
0.2909209031267751,-0.10156132248367883,0.17381903803886872,0.18409371635316735,-1.4121811189785811,0.08670705883278829,0.0,0.0,0.0,0.0,0.0,0.0,0.0,-15.797688007584462,23.175628089953587,0.6060739694831727,1.715871091580592,-0.00017506042164194824
0.08117848677043149,0.7048039869673433,-0.0073111688415579135,-0.08210599857162926,-0.42003489292137136,-0.08829441906110136,0.0,0.0,0.0,0.0,0.0,0.0,0.0,-57.3087810801793,21.16840020915477,-0.19033995298380674,1.7342569129758836,-0.0002872644011186476
0.17089982678631443,0.4914632970971922,-0.14285199326712267,-0.010987544368992685,-0.9035405532571181,0.49475158296141,0.0,0.0,0.0,0.0,0.0,0.0,0.0,-46.31360283235408,20.494333700715444,-0.12054181538885134,0.13453700222751586,-1.7693228600096367e-05
-0.1697495625313914,0.16766530377895278,0.07264308530658625,0.1021640057676303,-1.3327739965141276,-0.4001603269205386,0.0,0.0,0.0,0.0,0.0,0.0,0.0,-31.974061115451132,23.886107428008874,0.2917449092250878,0.580131105710759,-9.107442360567486e-05
0.47561401323684926,0.18223399354628717,-0.0311332760822447,0.24651911786352199,-1.0009082258324324,0.45821285484775,0.0,0.0,0.0,0.0,0.0,0.0,0.0,-33.588311620188094,24.670099745154758,0.7163986751669211,1.3672352023162713,2.0409866849924185e-06
-0.007811169383502681,-0.18125757064151288,0.10038069806436706,-0.11743472658261156,-1.5249967248296057,-0.0028193674194332274,0.0,0.0,0.0,0.0,0.0,0.0,0.0,-10.809565003985096,22.713613580598,-0.5708736740785839,1.319154469977958,-0.00023433274973405638
0.0007874268581403721,0.748823636042449,0.21006877520374023,-0.1786799810207514,-0.6087964809191684,-0.4547222414745571,0.0,0.0,0.0,0.0,0.0,0.0,0.0,-61.145738603668086,23.065504946688478,-0.455004701232717,1.6405455882091893,-0.00028284302697234587
0.3041471652970483,0.4967542640194956,0.14283252413894704,-0.1798381114165818,-0.5398169464503779,-0.4206621710293934,0.0,0.0,0.0,0.0,0.0,0.0,0.0,-51.388861060801574,25.297405616340072,-0.45983495164575783,2.5193737989427127,-0.0004354333115176301
-0.4135168299639801,0.3916122406157165,0.022912437148978282,0.23120158983447653,-1.2966463788271774,0.32014323703728986,0.0,0.0,0.0,0.0,0.0,0.0,0.0,-42.82133137227841,22.265665298414163,0.7412063643929093,-0.4157742601366756,0.0001569459428021336
0.3654368616872882,-0.021367334647011516,0.18502736123168173,-0.2016355232517898,-0.9980339743085453,0.03871360131511514,0.0,0.0,0.0,0.0,0.0,0.0,0.0,-22.128144227050544,24.904493280337945,-0.786260147855915,2.841143925893938,-0.0004843090378057191
-0.40062348902076983,0.6100593310065701,-0.10667197092439212,0.02291991053890985,-0.9727685221561218,-0.256029644806428,0.0,0.0,0.0,0.0,0.0,0.0,0.0,-50.60011533024685,18.86738410582328,-0.027669656893484107,-0.48693042943696874,8.310046136583704e-05
-0.3092017635061345,-0.048031040391783686,-0.16432841620986072,-0.16779491183447137,-0.8591669625059122,-0.4627217830628084,0.0,0.0,0.0,0.0,0.0,0.0,0.0,-21.310284621350306,25.620059382293963,-0.628018228184299,2.265401981351708,-0.0003884074318090125
-0.32818087586392475,-0.09197161752362454,0.025554564643394062,0.17055369475929105,-1.2741071066893774,-0.37844700700053924,0.0,0.0,0.0,0.0,0.0,0.0,0.0,-17.44420151900919,24.273794543518626,0.549850626751551,1.635358332030771,-0.00026155880863831804
0.2215752553470749,0.2289695624005515,0.10983398950372836,0.19073287360884694,-0.6544426732775916,-0.4175219321723257,0.0,0.0,0.0,0.0,0.0,0.0,0.0,-37.81905431741533,26.2510672823099,0.3588793403377607,2.8791175455199127,-0.0004765284300539685
0.154504533341995,0.07304480139507369,0.1789609032566432,-0.23050536629041368,-1.560177104275511,-0.011706008752371266,0.0,0.0,0.0,0.0,0.0,0.0,0.0,-25.813768491316296,23.1520559474068,-1.043687988086048,0.47600251895981494,-0.00014551991268429987
-0.38005135945132196,0.665100145585531,0.17903148066343466,-0.17435203281580286,-1.0182232745411135,-0.466431444376859,0.0,0.0,0.0,0.0,0.0,0.0,0.0,-56.45004575121031,22.119495517222862,-0.6358361121558909,0.24398130798519624,-4.480484369118187e-05
0.13150710388188935,0.005357746072025937,-0.022566734152661028,0.07440089648162451,-1.1491409517362374,0.20942560643658348,0.0,0.0,0.0,0.0,0.0,0.0,0.0,-23.537518213783176,24.774932176773696,0.16441028960172296,1.5703207693135468,-0.0001689144669979603
-0.21851112363216907,0.06330220961909355,-0.20294346155783738,0.08329190020671001,-1.5204164205543866,0.13028761990780868,0.0,0.0,0.0,0.0,0.0,0.0,0.0,-24.302778019754143,22.201957704047654,0.21920166335765973,-0.8806651573505189,0.00015375404548323424
-0.2594365267303669,0.7830740112785208,0.1314032204893914,0.12054097397157931,-0.08426595885988514,0.3941703107213844,0.0,0.0,0.0,0.0,0.0,0.0,0.0,-62.73396541313863,23.195236973246892,-0.05709798583961423,3.0197420542761364,-0.0002697784116981808
-0.17712769450392685,0.05652557623678561,0.027154509191610443,-0.11131461703047929,-0.7378163513593445,-0.41426812678774094,0.0,0.0,0.0,0.0,0.0,0.0,0.0,-27.8706680765902,26.160107122311416,-0.42049222160129685,2.9372579708192514,-0.0005033187907428349
-0.40505180276888486,0.6199337943364149,0.13985532812984275,0.07785981655796104,-1.086485732858307,0.18807539810700757,0.0,0.0,0.0,0.0,0.0,0.0,0.0,-54.08545546772691,21.87936267912283,0.1495966504752255,0.011800707751344675,2.8868263381554016e-05
-0.3625255959614513,0.6717144798347159,0.056306689000988897,0.049739710225505274,-0.377443752961198,-0.3684326391841444,0.0,0.0,0.0,0.0,0.0,0.0,0.0,-57.44681994614967,22.81093230434068,-0.031953147936985116,2.2394404383924655,-0.0003732715273742637
-0.48370214798324507,-0.18565355482172335,-0.11684604508610014,0.11326504629634487,-1.080594522691432,-0.45962713671333,0.0,0.0,0.0,0.0,0.0,0.0,0.0,-12.897305924335283,25.04907349061751,0.29497390949758895,2.1654625123758446,-0.00036425737365330946
-0.229675955969891,0.5959025854129307,0.2108131902608486,0.18977857477782867,-0.24472028608761182,0.27280240463755867,0.0,0.0,0.0,0.0,0.0,0.0,0.0,-56.89599140418112,25.847291639632374,0.06996548390188734,3.2520123690760805,-0.00031096226184507136
0.3666396930865946,-0.08248253132848365,0.12352918217148001,0.05558663366164596,-1.3662782672573237,-0.37693010402007276,0.0,0.0,0.0,0.0,0.0,0.0,0.0,-17.393596500214393,23.679977544152358,0.10673888380747348,1.6375277946166147,-0.00027133386449962327
-0.2708265187277661,0.6868199813199996,0.11669919167280429,-0.049314664719715906,-0.57369064693282,-0.4830786997495573,0.0,0.0,0.0,0.0,0.0,0.0,0.0,-58.077860002320136,22.750360459458484,-0.1887858965837012,1.697059356084539,-0.0002884703147522094
-0.23292116172185773,0.06647868154974784,0.2062531408652281,-0.07014234682534515,-0.7351886647236643,-0.40597236622158805,0.0,0.0,0.0,0.0,0.0,0.0,0.0,-28.176531571713237,25.8928136146964,-0.3042872744032204,3.3923479866844666,-0.0005778355807996016
0.17285884063892787,0.19818945472351007,0.1929849700012954,0.24099914309139636,-1.553634206929454,0.06996984316260846,0.0,0.0,0.0,0.0,0.0,0.0,0.0,-33.01682019510307,23.191497188952308,0.8688316569976895,0.04670142793889198,8.28006752149335e-05
0.13388320260944497,0.09413932551860954,0.21715827658898723,-0.008683464675490415,-1.2960598897759945,-0.3661534433160484,0.0,0.0,0.0,0.0,0.0,0.0,0.0,-28.060000076575708,24.184788014170124,-0.1477154307025439,1.5905084801934226,-0.0002684265950722575
-0.3548175386138256,0.10232965033347691,-0.20670426116396917,-0.08273072445068191,-0.8838006295623038,-0.2770119102140155,0.0,0.0,0.0,0.0,0.0,0.0,0.0,-28.787134304127058,24.44119450453444,-0.35865830221975614,1.506764601540885,-0.00026159090544924934
0.07530651394147303,0.10927847651647166,-0.026929326332433834,0.08822575611711742,-1.6112945360842865,-0.06051164136158782,0.0,0.0,0.0,0.0,0.0,0.0,0.0,-27.333373230158337,22.588286475520547,0.2452160928358647,-0.7215138574790085,0.00013667198679612191
0.046581572116270786,0.5789756075941994,-0.03468886330205845,0.23781451223946065,-0.590525316846545,-0.4418164140726858,0.0,0.0,0.0,0.0,0.0,0.0,0.0,-52.30503204469015,22.08237319202638,0.3493734528641995,1.3934341336791256,-0.00022857111368512761
0.10505808393563909,-0.13955195063713172,-0.16543928227467314,-0.2286700671395896,-1.3187355534938456,0.3553978559542955,0.0,0.0,0.0,0.0,0.0,0.0,0.0,-14.575827471361242,24.11894580886002,-1.0124524419934566,0.8937229309468169,-0.00021880545558450315
0.34592693116347706,0.6712057256321651,0.1651256781892353,0.13742415135379893,-0.26860778375059463,-0.30885293948368764,0.0,0.0,0.0,0.0,0.0,0.0,0.0,-59.188056401453665,24.575600748231533,0.03137788461575963,2.901894761945359,-0.00046804313495305006
0.19710825325510895,0.6462712738420555,-0.003213423903063728,0.0520814029930422,-0.3410833045015736,0.29529512696752,0.0,0.0,0.0,0.0,0.0,0.0,0.0,-55.885747459963014,22.432572131548056,-0.033953059717984485,2.2466251636908687,-0.00024687582288938914
0.4183076681694603,0.18976855857724667,-0.11221915997849641,0.09150693459531106,-0.9368209663290408,-0.44973299395143695,0.0,0.0,0.0,0.0,0.0,0.0,0.0,-33.63538859930922,24.28851926912193,0.1797586815555671,1.3286386163197648,-0.00022231092434377153
-0.12410411897367968,0.10837470281055023,-0.19942268931807094,-0.13004369862169418,-0.7726082571077484,-0.07588776381050766,0.0,0.0,0.0,0.0,0.0,0.0,0.0,-29.563787723276945,24.870602008585394,-0.4624225908136185,1.9101057771070682,-0.00033107833659618
-0.4251283161831858,0.20907594184856287,0.14614028222215164,0.09478511626502445,-0.8442528978279542,-0.42995689888092714,0.0,0.0,0.0,0.0,0.0,0.0,0.0,-36.237646749792574,25.79481901103891,0.17614418731487183,2.5171659535280284,-0.0004217784237338096
-0.24718566389076146,0.2301927675934154,0.22170196529185288,-0.019472252424888203,-0.543507654366677,0.30197264504173327,0.0,0.0,0.0,0.0,0.0,0.0,0.0,-38.28471025560099,26.64768506338502,-0.1556484232113381,3.4956280634502104,-0.0004230385601819986
-0.18872541670329102,0.693051887579692,0.0028823853318732384,0.2218558214648475,-0.33313950980784596,0.4384613868859255,0.0,0.0,0.0,0.0,0.0,0.0,0.0,-57.44576729312131,21.83527704540769,0.14200814214696614,2.063767025079084,-0.00011227658375068117
0.015075055630413337,0.1571852310310647,0.138199363776271,-0.07001631042892614,-1.3720828127659546,-0.25302787367093915,0.0,0.0,0.0,0.0,0.0,0.0,0.0,-31.402551733536825,23.91292094715594,-0.3957900518107502,0.7319244307284141,-0.00013238605987986318
0.25467032139452705,-0.023825327268345464,-0.2037099479826563,-0.15234441697385376,-1.6280039895469474,0.3496052553400629,0.0,0.0,0.0,0.0,0.0,0.0,0.0,-19.405361646845282,22.32316869326103,-0.7232628474178798,-0.962339366635506,2.996098873775388e-05
-0.008286031696221219,-0.053404560033172344,0.1757776941733103,0.21554784398402344,-1.5278717030917073,-0.1694174556858682,0.0,0.0,0.0,0.0,0.0,0.0,0.0,-18.328388118490352,22.946857333031694,0.74562935144102,1.0994735149275012,-0.0001297613406125997
0.07835545753871243,0.004037259447985775,0.19318294096906202,-0.20198489450131818,-1.6864181213496268,-0.4317112939302187,0.0,0.0,0.0,0.0,0.0,0.0,0.0,-21.13421823339286,22.447700788293208,-0.9139164330310248,0.3110643821884853,-6.18322402545779e-05
0.055106571973724594,0.6447979147531673,0.1292947411696857,0.08952422064064974,-1.0548666311265305,0.24542667812748453,0.0,0.0,0.0,0.0,0.0,0.0,0.0,-54.94844999536502,21.564433626648132,0.17877734872083687,-0.005777614397180386,3.737231074130154e-05
-0.36409963373860776,0.6968281057357086,0.049606500508575346,-0.14088793318911058,-0.8277865790720256,-0.2934996077406382,0.0,0.0,0.0,0.0,0.0,0.0,0.0,-56.41224810123777,20.630952091856777,-0.4292366268417873,0.3706491170584254,-7.750434928355254e-05
0.23938320089595144,0.3760760896579208,-0.055468543944863946,0.23993405359164044,-1.3580611259043878,0.33091645027118555,0.0,0.0,0.0,0.0,0.0,0.0,0.0,-41.09005290285674,21.373134817500716,0.7655780265869357,-0.9144266025295416,0.0002157320532683027
0.1389039957616125,-0.07351856947361773,-0.23679843060742706,0.02254488164775198,-0.8632395053151996,-0.054607775324074126,0.0,0.0,0.0,0.0,0.0,0.0,0.0,-19.64745775998658,25.420167329387986,-0.043492625212944114,2.125395486429211,-0.0003192161533728116
0.17517378736508205,0.5577302360076959,0.14053080205197838,-0.14694204312767978,-0.7145728456907641,-0.2708172600459686,0.0,0.0,0.0,0.0,0.0,0.0,0.0,-53.26424763334728,24.090594482037297,-0.46377458089811224,1.7147721717072173,-0.0003046350473643322
0.4028534110750075,0.19360623481783362,-0.07073484324014234,0.13844651014726989,-0.8714422208591368,0.4124701254373313,0.0,0.0,0.0,0.0,0.0,0.0,0.0,-34.38566823354851,24.820667759776526,0.3094265130627899,1.7056408275199395,-0.00010420917383657802
0.4011773502667233,-0.0714761192547983,-0.053797698578678055,-0.056210994564056316,-0.9814528984581772,-0.3058169193123442,0.0,0.0,0.0,0.0,0.0,0.0,0.0,-19.758687557715447,25.414290050293783,-0.3060800257187006,2.3387059501930327,-0.0003971517465395924
-0.47785447038775897,0.3091566468484937,0.17962572131454357,-0.10546299397543574,-0.9754196568894622,0.15592896246026466,0.0,0.0,0.0,0.0,0.0,0.0,0.0,-41.2112524463632,25.158928152918918,-0.4677220219287174,1.8314659618392533,-0.0002910119335522987
-0.39777349305122467,0.2253946021026098,-0.17558052794515633,0.12208990367335038,-1.4815700517648722,0.2621809996101704,0.0,0.0,0.0,0.0,0.0,0.0,0.0,-32.54507283787298,21.17895672946503,0.35413157984130883,-1.26250847791575,0.00020907469087450004
-0.3369899541258111,0.18026468856720063,-0.044003881358032126,-0.08600423060134987,-1.494402450315811,-0.2111260515968405,0.0,0.0,0.0,0.0,0.0,0.0,0.0,-31.40393875001967,22.59784927499088,-0.4541231806697377,-0.6063539506834843,8.2141048040274e-05
-0.025901063368132138,0.4325650792156542,0.10900941066646447,0.22523330983925588,-0.4253312203042651,0.22128520617492708,0.0,0.0,0.0,0.0,0.0,0.0,0.0,-48.61081080910574,25.868531122139096,0.25318829805401144,2.9178756146858262,-0.0002752493741644546
-0.3206344131748524,0.047494073402058856,0.034308685341605194,-0.22705859024701897,-0.7888605008954224,0.27576633169538334,0.0,0.0,0.0,0.0,0.0,0.0,0.0,-27.21016079569506,26.019833838882313,-0.7673264105425728,2.7803551298815883,-0.0004471898400599805
-0.1347207111605181,0.5055670750583472,0.006141421549296477,-0.01991735587187865,-0.8839283882218372,0.07459176328963724,0.0,0.0,0.0,0.0,0.0,0.0,0.0,-49.01025099067286,22.467058187020214,-0.1559420072611904,0.7643992014974437,-0.00011569168423061771
-0.1072669894081919,0.4339737856165988,-0.11087710463740647,-0.20686921454884027,-0.9320833562626765,-0.39990148154750804,0.0,0.0,0.0,0.0,0.0,0.0,0.0,-44.542112553974924,21.725274823140563,-0.6749880133786765,0.3401684839306931,-6.950320898391205e-05
-0.4524782437420565,0.49224106207397184,-0.2261106986301778,0.039698338299753555,-0.5196169474591954,-0.009657149556565381,0.0,0.0,0.0,0.0,0.0,0.0,0.0,-46.532649105384806,20.673323455838826,-0.02516257280874931,1.339223993403186,-0.00019098538902208306
0.11267401800251697,-0.06587907399265608,0.0611243147367459,-0.06273042969783349,-0.8965581739783457,0.25876822170308267,0.0,0.0,0.0,0.0,0.0,0.0,0.0,-20.18407830511386,25.518645996164423,-0.31269489732101907,2.9440055546403805,-0.00039302687288717
-0.30420062987933794,-0.03866029871071891,-0.04704616744847978,-0.21279637005193947,-1.696987305929165,-0.4791622577108072,0.0,0.0,0.0,0.0,0.0,0.0,0.0,-18.829917589273677,22.601075651699887,-0.9722745048466646,-0.5393230348210807,8.870681866124386e-05
0.12481675698381034,0.5365796521723958,-0.22350046972933135,-0.148088590336166,-0.30548301913038306,-0.18424907079744912,0.0,0.0,0.0,0.0,0.0,0.0,0.0,-48.89839721062008,20.78214975631736,-0.21417226480728863,1.9563157854310216,-0.0003388829377028446
-0.0059063110140705755,0.6051698474009144,-0.10048571330724282,0.19340630753586985,-0.4969247450990352,-0.2502889502965613,0.0,0.0,0.0,0.0,0.0,0.0,0.0,-52.482254178381574,20.985063031790027,0.20089282271486386,1.426735666043344,-0.00020975627877406477
-0.11795577776191557,0.4931516206169437,0.20156447070340228,-0.02243501653406771,-0.7379797870343789,0.21530245848742746,0.0,0.0,0.0,0.0,0.0,0.0,0.0,-51.01281993197696,25.106618497742943,-0.1688743685597538,2.114481224321059,-0.0002811922188032667
0.367750770278895,0.4299853084042515,-0.17883256800355474,0.1428987747880961,-1.0415558203024375,0.490529633777408,0.0,0.0,0.0,0.0,0.0,0.0,0.0,-42.93163949650125,20.326015209425307,0.32139871624367455,-0.34434743249725663,0.00010010042238040029
0.21539288185266436,0.00048580281106619383,-0.046025442993446686,0.07407373582010507,-1.1272894298511924,-0.3786307311931494,0.0,0.0,0.0,0.0,0.0,0.0,0.0,-23.307847142812104,24.82590489466839,0.16011890646372984,1.5828547017253953,-0.0002606141918046756
-0.148437890003686,0.04860112095077146,0.044107620628922095,0.18985677963085862,-0.8541014694721638,0.015110543040633195,0.0,0.0,0.0,0.0,0.0,0.0,0.0,-27.07786830084178,25.823766947902662,0.47196124172974574,2.634849646457626,-0.00032500672922253226
0.09234113161089574,-0.04050591204524151,0.13612132787826986,0.09484432967360046,-1.2917296584339106,0.02272645512082594,0.0,0.0,0.0,0.0,0.0,0.0,0.0,-20.18299798230667,24.06026691412473,0.255887161063407,1.8018762775696118,-0.00023296388669502566
0.42439188257906546,-0.1455208590845543,0.2107825435564739,0.1842381233839228,-1.4289169559827886,0.37472326772948195,0.0,0.0,0.0,0.0,0.0,0.0,0.0,-12.719361603008647,22.601490232326093,0.5926813214941229,1.9525162414946031,-0.00012128375304698569
0.0068633007877677565,0.42347081930318115,-0.11122847739980757,-0.1341268039992093,-1.0794974336201244,-0.0430119275168942,0.0,0.0,0.0,0.0,0.0,0.0,0.0,-43.492853524861744,21.23298176807146,-0.514217869562946,-0.19344129054558223,-5.823696615059326e-06
0.20503575268271812,0.4623795950888377,-0.163200658744158,-0.22935748970460212,-0.6446201546075996,0.18789343450910467,0.0,0.0,0.0,0.0,0.0,0.0,0.0,-46.036140299963165,21.72574242898387,-0.545110927843895,1.145782544954134,-0.0002319142830640164
-0.2463311348648083,0.18906335852839667,0.05800638230498195,-0.15097015087377957,-0.6885802020212295,-0.3772847126497856,0.0,0.0,0.0,0.0,0.0,0.0,0.0,-35.426051051696554,26.11927992312713,-0.5013439081359135,2.7667820161261094,-0.00047876090434229024
0.4796785139679215,-0.026093356739228135,-0.1297655036125971,-0.033203052950929235,-1.1223838533559714,0.014792810714800098,0.0,0.0,0.0,0.0,0.0,0.0,0.0,-21.645123264976164,24.693440267099977,-0.23595282411184432,1.3864878261867162,-0.0002163827112580674
-0.11866293128893513,-0.12929724108988677,-0.18898938171962953,-0.11153445295425057,-1.592907291225445,-0.3783351102476793,0.0,0.0,0.0,0.0,0.0,0.0,0.0,-13.967141009706856,22.927045496771253,-0.5697469485992528,-0.3350657065579412,4.718200800324368e-05
0.46299284895664905,0.1571624689305891,-0.12562097127305172,-0.08067435658686017,-0.731502298769233,0.19327711545292703,0.0,0.0,0.0,0.0,0.0,0.0,0.0,-32.68564239540175,25.197312050162854,-0.32177086200111005,2.159217360949212,-0.0003167467834483406
-0.09176492459233065,0.7757392178492053,0.15467835474306285,-0.21673552409340519,-0.28363749439456937,0.4641476991027429,0.0,0.0,0.0,0.0,0.0,0.0,0.0,-62.30471771023708,23.074484102206572,-0.2917996396952021,2.462015217345,-0.0003389088471751345
0.2809619615832156,0.1331476919393914,0.20675669238767574,0.164857517507367,-1.5474889880725604,0.41941540256104337,0.0,0.0,0.0,0.0,0.0,0.0,0.0,-29.358461458032526,23.244169361535015,0.5595100974127,0.3955222306083481,4.975727112310757e-05
-0.4228237702529771,0.14855963339908057,-0.09814293542427927,0.04042287641189529,-1.151627046374496,-0.1413272224516683,0.0,0.0,0.0,0.0,0.0,0.0,0.0,-30.840820906767583,23.84425832846392,0.03606822761027659,0.7031571340355836,-0.00010232240369345558
0.17729286512396736,-0.1737653002293605,-0.19035791878157743,-0.19021679807354508,-1.313140080352914,-0.436435120498899,0.0,0.0,0.0,0.0,0.0,0.0,0.0,-12.67321038922502,24.154532973592474,-0.8631312181302082,0.9614450972067914,-0.0001710409034874072
-0.28306511916360244,0.5677571831029387,0.09032261549114723,-0.17554756271077676,-0.7680369876864079,-0.4847955804160501,0.0,0.0,0.0,0.0,0.0,0.0,0.0,-52.894997233986686,23.22458641571301,-0.5426886360911409,1.2721632525934563,-0.00021738265796167333
0.30803198965423517,0.5901927344414779,0.07852474471670273,0.2328186884459758,-0.2658235719144984,-0.09519760632634733,0.0,0.0,0.0,0.0,0.0,0.0,0.0,-55.293706777870796,24.52266668104374,0.1199539661339109,2.8331689248667242,-0.00038737839584113143
0.29230195888995747,0.5381280118241345,0.15232481803061237,-0.080009093399876,-0.5022378212462337,-0.44591013082766073,0.0,0.0,0.0,0.0,0.0,0.0,0.0,-53.316884922818105,25.122796086511304,-0.2521537311229793,2.580201652128366,-0.000440074455930084
-0.1915231853361652,-0.15893751499839498,0.15574927125318283,-0.21847295323505145,-1.2465964420191844,0.05314125189288932,0.0,0.0,0.0,0.0,0.0,0.0,0.0,-12.857289872010412,23.50012783645161,-0.9084796316955097,2.4188344358014824,-0.00042502006842792817
-0.22571180024996162,0.21280978582280002,0.12869823073233355,0.16006193809296976,-1.372186567966663,-0.1484182343784476,0.0,0.0,0.0,0.0,0.0,0.0,0.0,-34.41697495524281,23.76263698233778,0.5267325984023854,0.45860036097044343,-3.5215603159555187e-05
-0.49534763170828944,0.45322591516646377,0.07365260029158499,0.1313820065149509,-1.227299551992053,-0.2274440087249564,0.0,0.0,0.0,0.0,0.0,0.0,0.0,-46.25270686711732,22.4215196539566,0.36505305400442634,-0.1593699631685972,4.872938287647788e-05
0.4610626890854175,-0.09875237313965785,0.077914999281747,0.1490549716483895,-1.1009797350806454,0.38378807378995927,0.0,0.0,0.0,0.0,0.0,0.0,0.0,-17.50601002246997,24.723400130756822,0.4240722133425805,2.452943536528773,-0.00018598172436712357
0.08262334323248643,-0.061090617288163174,0.23249109889560116,0.18682225925623475,-1.2453113437815906,-0.16924206940948772,0.0,0.0,0.0,0.0,0.0,0.0,0.0,-18.602480335454224,23.66225914261872,0.5840812346467441,2.3608228733066525,-0.0003392067090903783
-0.09906437538757862,0.45384230041821577,-0.037707147472881175,0.13528132410683374,-0.4712874301324475,0.32187557524844157,0.0,0.0,0.0,0.0,0.0,0.0,0.0,-47.97663862122896,24.11311944343283,0.12188728610603417,2.3156935863956445,-0.00020754569638470333
0.09945522846381416,0.5514997232070962,0.08696160488883542,0.19792922938315766,-0.9007274216387078,-0.3706037633958892,0.0,0.0,0.0,0.0,0.0,0.0,0.0,-51.70410313357142,22.840604405114885,0.4654462987931579,0.7934721235162403,-0.0001179950307066413
-0.4355499024695818,-0.18674902349412065,-0.09024766252329891,-0.07506211486884434,-1.0016700815400095,0.13232057592294022,0.0,0.0,0.0,0.0,0.0,0.0,0.0,-13.058908529366459,25.27237070703169,-0.3717609000421371,2.5294281098199622,-0.00037748744140975177
0.385847249733394,0.10299043775281119,0.12414681932903704,0.15271752204637268,-1.656629050638968,0.023895145049917743,0.0,0.0,0.0,0.0,0.0,0.0,0.0,-27.177989080813038,22.794083713691354,0.5091693120231364,-0.26165193801919706,9.132223228114356e-05
0.42968652998738377,-0.0776191835158731,-0.06628384649006547,-0.008643946871201624,-1.7175680027595315,0.2867468087492354,0.0,0.0,0.0,0.0,0.0,0.0,0.0,-16.53011695102986,22.537868434605766,-0.14942533020596582,-0.5549301698285856,6.231058282325785e-05
-0.07674718140203818,0.7921588812537972,0.23964714972255063,0.1359341807803116,-0.12045630379273992,0.20035603838328653,0.0,0.0,0.0,0.0,0.0,0.0,0.0,-64.34152012221887,24.423641013514473,-0.03947952591042783,3.178854764329113,-0.00036147637123773446
0.4182615648908842,0.4029980353309231,-0.0767032544612688,-0.018236139455500955,-0.9694886463783092,0.36700862260111,0.0,0.0,0.0,0.0,0.0,0.0,0.0,-43.5305458396895,22.363335450517912,-0.15615180566734066,0.4972718608718605,-6.337160263286679e-05
-0.3449211549065482,0.45005408470990677,0.009553656157100077,0.002579402363083183,-0.8581385590159385,-0.06236518084776477,0.0,0.0,0.0,0.0,0.0,0.0,0.0,-46.9326245137355,23.267955876225006,-0.09628767556323503,1.103564391945346,-0.00016915703656529037
0.16792788124173152,0.30546884544879876,0.1533671569342212,-0.2021504830715547,-0.7151775177469883,-0.39017544799749193,0.0,0.0,0.0,0.0,0.0,0.0,0.0,-41.81911089805332,25.970976279119252,-0.6453214136723782,2.5940224392226163,-0.00045268100248874177
-0.15124014695408527,0.08161302214498395,0.00970448914264782,0.03677870253143467,-1.0792015702408815,-0.2609680115258074,0.0,0.0,0.0,0.0,0.0,0.0,0.0,-28.105188887267307,24.950401038035615,0.01863686607528825,1.6718160526530674,-0.00026983451450160456
-0.11001417657867973,0.24001145030943144,0.10455501492285124,-0.004013678856461644,-1.1800901100721832,0.06722532229104528,0.0,0.0,0.0,0.0,0.0,0.0,0.0,-36.536911578429105,24.346355858095734,-0.12847319083573172,1.0364528732958078,-0.00015007369090780376
-0.3614942674960623,0.25618497826804715,0.20356825360908587,-0.21038789858640605,-1.4873049748607168,-0.13871621297997472,0.0,0.0,0.0,0.0,0.0,0.0,0.0,-36.4812298868266,23.381475155339928,-0.9652291210167322,0.11898462262910314,-7.009775536470642e-05
-0.2647773094618848,0.00860546709827309,-0.0708594230614425,-0.11701466153167905,-1.3376774241811145,-0.058819632410453515,0.0,0.0,0.0,0.0,0.0,0.0,0.0,-22.8673025180075,23.917617786084886,-0.5783097403410118,0.6217354189186146,-0.0001300652056028806
0.14137315015125196,0.061235133796185226,0.219428564756998,0.22182514409466003,-1.0841064238529428,0.2221835802392247,0.0,0.0,0.0,0.0,0.0,0.0,0.0,-26.818488207734774,24.836699267709754,0.6784716920136807,2.421581569494732,-0.00020901943935225376
0.46194583152519286,0.12898308088910243,0.02194509344142831,0.06673512671503279,-1.3340832901300732,-0.3029688299949099,0.0,0.0,0.0,0.0,0.0,0.0,0.0,-29.71359865268795,23.837971467509337,0.15107581970980494,0.5287483216114914,-7.909474502459934e-05
-0.306523729851938,0.7588123164540093,0.16129021585082542,-0.05449645120507268,-0.11798449662983451,-0.10141089669998982,0.0,0.0,0.0,0.0,0.0,0.0,0.0,-62.376103886125854,23.865828157723637,-0.11627949619568972,3.0942099578142326,-0.0004965474559524286
-0.3187746132179544,0.09184693590067333,-0.20482674667148082,0.07806453940874436,-1.4744173028840561,0.4728740784862089,0.0,0.0,0.0,0.0,0.0,0.0,0.0,-25.897446886410755,22.15403470707021,0.1959322617793772,-0.8187255513000622,0.00012128573911474039
-0.05494528424531797,0.566690677881619,-0.11564272499820205,0.16559184873876182,-1.1303202524442595,-0.3476117341025523,0.0,0.0,0.0,0.0,0.0,0.0,0.0,-48.44457488153513,18.8268602507518,0.3875345664222488,-1.002210156420281,0.0001815594356502359
-0.27631778990443556,0.2740617591217432,0.0029901362522773978,0.17159450451061037,-1.332795358485696,0.470674790608687,0.0,0.0,0.0,0.0,0.0,0.0,0.0,-37.03947826527158,22.93877229940331,0.5481258841425286,-0.1500438890871525,0.0001088927910561921
-0.49927984500994793,0.6126494453915508,-0.03501581772971102,0.1445099885992333,-0.1859799591958688,-0.19105342299088945,0.0,0.0,0.0,0.0,0.0,0.0,0.0,-54.81757685389523,22.960379609155535,-0.003130742276575643,2.726579588118412,-0.00041695094781230013
-0.35894534855839855,0.45594401784312427,0.028020196524041807,0.053474078601146446,-0.7359639211126578,0.1764555444061391,0.0,0.0,0.0,0.0,0.0,0.0,0.0,-47.85117299711793,23.877478254156564,0.03015516094228987,1.6208627913278306,-0.00019371022435152319
0.42117564684237785,0.5760887125739431,0.052404749825681385,0.23366475056203823,-0.7219223177114087,-0.006349123457147332,0.0,0.0,0.0,0.0,0.0,0.0,0.0,-52.90412163046762,22.82321492956975,0.4477590827220009,1.2391279356068985,-0.00011941324567166234
0.4746897789561053,-0.17783185651513794,0.004197729861472488,-0.04614492808711801,-1.3846545204860619,-0.0006242057658971678,0.0,0.0,0.0,0.0,0.0,0.0,0.0,-11.981859719204655,23.692705461332146,-0.29551455102291746,1.4768481138338938,-0.00023541364254020536
0.11171492183311205,0.42616408546860246,0.0660546441427382,-0.1029281235144775,-0.5004258886332174,0.2679771864798497,0.0,0.0,0.0,0.0,0.0,0.0,0.0,-47.76067786384744,25.357747266984088,-0.2959298401199045,2.659327905393752,-0.0003717495176145946
-0.28109363296518874,0.44591044112625194,0.1632463608001915,-0.19300101375450152,-0.9264498001282122,0.3797049436686023,0.0,0.0,0.0,0.0,0.0,0.0,0.0,-47.94637494333789,24.49960270937462,-0.7124863771203586,1.4085873152134738,-0.00025155039430901915
-0.14925499084364624,0.531839916867997,0.12079225630062007,0.21316379402254299,-0.8291553325979915,-0.1766740885583944,0.0,0.0,0.0,0.0,0.0,0.0,0.0,-51.59554276612086,23.71799634817031,0.4846596582497847,1.2752141341191425,-0.00016265608628796002
-0.41999628874041617,-0.062132815786044404,0.12834328181277793,0.1885235066428828,-0.9814402962524171,-0.07488621054677669,0.0,0.0,0.0,0.0,0.0,0.0,0.0,-19.916693048181177,25.036289228805337,0.5178076989441636,2.8475857959460527,-0.00038799219875329527
0.3409712247501222,0.3365123849437108,-0.11973055240870784,-0.23698663488591298,-1.3524333859392994,0.3758772021720813,0.0,0.0,0.0,0.0,0.0,0.0,0.0,-38.70108896546946,21.141107268588904,-0.9446737782032374,-0.9904839973008812,-4.865106439710942e-06
-0.02553274718079479,0.5164655990224016,0.17480245450268683,-0.13084186658912234,-0.31868491974023544,-0.2831336258782655,0.0,0.0,0.0,0.0,0.0,0.0,0.0,-53.119603956205935,26.020616743493704,-0.2651517627421064,3.2116933445066547,-0.0005508957246335155
0.4888675879389941,0.3817475822967335,0.21936042271717449,0.11858078080221046,-1.2537882562642648,0.3559667781260176,0.0,0.0,0.0,0.0,0.0,0.0,0.0,-43.95297629018988,23.92930988790904,0.3435509452765958,0.6230297432262333,-8.146054425228755e-06
-0.04228142750825381,0.14992495698888092,0.22211509444190702,-0.18064133164628793,-1.1610089484041302,-0.18988321610863412,0.0,0.0,0.0,0.0,0.0,0.0,0.0,-31.828623914318793,24.753979220841316,-0.787277881671928,1.8767382700004287,-0.0003414739023350766
0.014044587351497717,0.6362796046294084,-0.05959385525177202,-0.14681756658651107,-0.8922001228596179,-0.10594663624932954,0.0,0.0,0.0,0.0,0.0,0.0,0.0,-52.56607111749209,19.583317234843665,-0.4458492586616415,-0.0924928901362918,-1.546035556654335e-05
0.2632588687678741,0.09186309769139062,-0.00019274615512870907,-0.13476005445340944,-0.7344501079175407,0.21193304602909202,0.0,0.0,0.0,0.0,0.0,0.0,0.0,-29.827501140330533,26.08315967662192,-0.48107052933899624,2.7540703119038827,-0.00041528759704045903
-0.0842709260700607,0.039288584341183264,-0.07647804972970856,0.14991639998616568,-1.3613592890443906,-0.40411645352405534,0.0,0.0,0.0,0.0,0.0,0.0,0.0,-24.41468371670661,23.697095886446775,0.48342140825052093,0.3745142666458605,-5.357272510142508e-05
0.22602572634033746,0.49380857218087876,-0.004120962981401133,0.012014940506506144,-0.7934030074542462,0.30421845413057047,0.0,0.0,0.0,0.0,0.0,0.0,0.0,-48.78522195924039,22.845213828487783,-0.06952999458366932,1.132061064364592,-0.00012829318437081877
-0.42749580069149673,0.7050941567906126,0.13992363686306752,-0.032218187646551766,-0.43794247930031976,0.3009448596275982,0.0,0.0,0.0,0.0,0.0,0.0,0.0,-59.458025107419765,23.30462360639581,-0.14387774962103156,2.205908123331019,-0.0002747110564289834
-0.32929213512942257,0.5225556153333164,-0.14986452634915698,0.17494496865183717,-0.36839182724718395,0.3948474759104039,0.0,0.0,0.0,0.0,0.0,0.0,0.0,-49.39675229274502,21.988588797432868,0.11339926251375038,2.029681970319258,-0.00014210458769975398
-0.4294076678033365,-0.1862275400219791,0.09057830431278857,-0.18979120521676507,-1.1025682104732668,0.12429349074377416,0.0,0.0,0.0,0.0,0.0,0.0,0.0,-12.02504889547415,24.20914398711742,-0.7731025730577955,2.751859154221677,-0.0004532619195269927
0.2624127761390158,-0.17505935406836565,-0.23972330208992998,0.23075108274320283,-1.4200121065654951,0.14001488229354508,0.0,0.0,0.0,0.0,0.0,0.0,0.0,-12.07141426522778,23.62579616412562,0.8154714440399342,0.33649367329634217,4.8867011439357455e-05
0.21590736865139148,-0.048288533095696085,-0.17408531066788147,-0.057866588823612564,-1.2546719319449429,0.20418901625905383,0.0,0.0,0.0,0.0,0.0,0.0,0.0,-19.764461103948722,24.08903104764812,-0.33722108879940194,0.7743000383213836,-0.00012620989674250183
-0.45752782245267687,-4.529565568894833e-05,-0.1542381784586343,0.0036234622593017685,-1.0992342650815272,0.44841845415283776,0.0,0.0,0.0,0.0,0.0,0.0,0.0,-23.033664091324532,24.582313221029498,-0.0997848338607486,1.2809443451625668,-0.00012507946567913387
-0.10039840643143094,0.5047955995389568,0.2118580428443566,0.14892983797301695,-0.7624116755151502,0.45782493785213996,0.0,0.0,0.0,0.0,0.0,0.0,0.0,-51.51682079347897,25.01309135734632,0.29480737676369484,1.9922056001001014,-0.00011415972986661416
0.399074591359857,-0.037786941440021204,0.012887301929690675,0.00447008143276123,-1.1662867709498759,0.3673819242706585,0.0,0.0,0.0,0.0,0.0,0.0,0.0,-21.033758697860463,24.754699847447263,-0.09728282158225182,1.8048169801106777,-0.0001962317426201371
-0.16332485316659784,0.02096360397377367,0.11549016646558896,0.06994073404019713,-1.0800996901988158,0.08714998224833848,0.0,0.0,0.0,0.0,0.0,0.0,0.0,-24.67825656323446,25.016544719926827,0.13837081361383047,2.2633154131697175,-0.00029344290356420055
-0.04586411131079915,0.2528785344530033,-0.12154362648079597,0.13474431267569364,-0.8125112126980347,-0.21643317220324354,0.0,0.0,0.0,0.0,0.0,0.0,0.0,-37.049024646930334,24.134871598371625,0.267171530163936,1.5138860098650877,-0.00022261415451008126
-0.10130227065832598,0.6730931563747624,0.24226556802447863,0.12616272183254218,-0.49468266929633337,0.2856518740011559,0.0,0.0,0.0,0.0,0.0,0.0,0.0,-59.40245491457201,24.7031138458345,0.11988804724239688,2.443240657290964,-0.00023744597544461676
0.2237378522343464,0.6779798483845652,0.054586489829502316,0.2236575594333854,-0.6837376818350409,0.021477643590294804,0.0,0.0,0.0,0.0,0.0,0.0,0.0,-56.49812511616606,21.574406633921537,0.37657704052601493,1.0055226410572633,-8.583780375448491e-05
-0.27686145795431316,-0.1665463518326507,0.04757560375958608,0.10816244736185798,-1.248536260703184,0.10980039095007532,0.0,0.0,0.0,0.0,0.0,0.0,0.0,-13.001443732515222,24.0748516680615,0.2997504512691024,2.090752294874882,-0.0002493038644267864
-0.4361337031399086,0.3467528448758745,-0.17646356703294452,-0.01602810106706798,-1.232301405480971,-0.33944637146626766,0.0,0.0,0.0,0.0,0.0,0.0,0.0,-38.86001162079243,20.738967114816287,-0.15296360043289076,-0.754503952449129,0.0001249086064199767
0.47852183779883295,0.6541732711779014,0.019035601492174592,0.01859540888989869,-0.1344510779143296,-0.13871776580073514,0.0,0.0,0.0,0.0,0.0,0.0,0.0,-57.12018469447911,23.297335269892876,-0.08390062719662297,2.94850574609284,-0.00046482708106081877
-0.20426451868206452,0.4715823947506467,0.08225450410657309,-0.23708985566379276,-1.2000409827979037,-0.48122499944060937,0.0,0.0,0.0,0.0,0.0,0.0,0.0,-47.269523795477255,22.47939721286449,-0.9346896538141825,-0.11478143324961643,1.688946483180409e-05
0.1917855053147538,0.29337683798002384,0.11660184132643042,0.10177838134156475,-1.0360592102577604,-0.13921515032093557,0.0,0.0,0.0,0.0,0.0,0.0,0.0,-39.89723255557315,24.720116805799357,0.2412832559106261,1.4278737853156755,-0.00020244452335516083
0.37016328561246803,0.035203678447004394,0.0027192659939532238,0.14135002301497812,-1.6277023964596515,0.43944430428566905,0.0,0.0,0.0,0.0,0.0,0.0,0.0,-23.325917060037657,22.843691063531786,0.46422463275696274,-0.3648153096001181,0.00011570757700640755
0.3478877543564439,0.38747144325757293,0.059570454631381387,-0.17557214852889846,-1.1445404804189125,0.30409340021381914,0.0,0.0,0.0,0.0,0.0,0.0,0.0,-43.5957315330093,23.263137476065108,-0.7248986950280031,0.37803561898267546,-0.00012753313873803407
0.08049805417267364,0.5662431872708649,0.07373170804263168,0.005783789892274127,-0.3391867507484941,-0.49315411060583403,0.0,0.0,0.0,0.0,0.0,0.0,0.0,-54.120641021657484,24.525047007414315,-0.09395296760689037,2.7661366668935283,-0.00046950391772959676
0.35883391986718205,-0.17202475752518448,0.028205255877515434,-0.08028652304016926,-1.7479902956199274,-0.11283701301908156,0.0,0.0,0.0,0.0,0.0,0.0,0.0,-10.7915497667774,22.174574999297366,-0.4295318079247853,0.09661195793782262,-3.583638969084646e-05
-0.2266418372929947,-0.19559760917823638,-0.06725066817111663,-0.05248062586894725,-1.5778577015500745,0.08551770414045701,0.0,0.0,0.0,0.0,0.0,0.0,0.0,-10.347206431321862,23.058459575857185,-0.32695028084878,0.49649217906108767,-9.03587877129075e-05
-0.2979706712330751,0.5222222305139643,0.0019136873089326545,-0.20293959290983127,-0.980047624147893,0.11705471694279901,0.0,0.0,0.0,0.0,0.0,0.0,0.0,-49.244455979680296,21.853191477415574,-0.6936863929908244,0.24789851799622653,-0.00010478047753004205
0.33857502547871965,0.2806884087975275,0.16444829865042337,0.10152323677936587,-1.3680765563118575,0.24085189647926086,0.0,0.0,0.0,0.0,0.0,0.0,0.0,-38.13583561292185,23.665220082389673,0.29192931772591707,0.34998847185530124,3.307566229793224e-06
0.13377973952171773,-0.037320910400243934,-0.0016993052728871416,0.1978961215426394,-1.5273852078804602,-0.28701527711838726,0.0,0.0,0.0,0.0,0.0,0.0,0.0,-19.6366316489841,23.330775453146174,0.693878265297173,0.32058760949426457,-2.4506262599643946e-05
0.12206148703700603,-0.13108499148420033,0.14093636659246545,-0.18492236477425356,-1.3317648389451928,0.39027663909283083,0.0,0.0,0.0,0.0,0.0,0.0,0.0,-14.41499940175052,23.476647766218676,-0.8148291982827496,1.9920196277405875,-0.00030906196808921926
-0.0750156192038679,0.4236900999034829,0.07038629106132877,0.1817833257387682,-1.163505418262978,0.16253081970311822,0.0,0.0,0.0,0.0,0.0,0.0,0.0,-45.21613169152577,22.944606304566076,0.5340280931974892,0.1960194865290994,4.624355918081413e-05
0.4663028035156219,0.1648784989041427,-0.09154753413691902,-0.1118417618522396,-1.0538605891597255,0.28639639319959953,0.0,0.0,0.0,0.0,0.0,0.0,0.0,-32.106741507979955,24.177806649431524,-0.49532716259983955,1.0449736388425226,-0.00017874037216492056
0.061061819158242714,-0.0830832369905588,-0.21347473442075,-0.12060161574692718,-1.6499300630950409,0.2137836725000728,0.0,0.0,0.0,0.0,0.0,0.0,0.0,-16.14099122458597,22.461777545745132,-0.6008803157431428,-0.8522285417286035,5.5117089817091625e-05
-0.4413923040359301,0.48060226066620887,-0.14969170049678798,0.13388470702473476,-0.29666088429678356,0.028309624354827534,0.0,0.0,0.0,0.0,0.0,0.0,0.0,-48.124631629541085,22.866349460617666,0.037866860672532754,2.436319878853224,-0.0003197731371057111
-0.48788472247074355,0.39537714030696186,0.10170476069429846,0.15334259921993915,-0.635528517053493,-0.19391454324075774,0.0,0.0,0.0,0.0,0.0,0.0,0.0,-46.2012250706173,25.443043056751236,0.24809968648818878,2.420324625534585,-0.00036142426135132855
-0.24321206554384223,0.5654933793333976,-0.22586663891839703,-0.16009361741443234,-0.5068527005443793,-0.31114099222431646,0.0,0.0,0.0,0.0,0.0,0.0,0.0,-49.02751595601078,19.46900016690182,-0.30282726387880654,1.073148479186889,-0.0001935302330389188
-0.32862190460630136,0.44779564086633156,-0.08599287627204971,-0.19533866685265522,-0.3682967280701351,-0.4564107956639277,0.0,0.0,0.0,0.0,0.0,0.0,0.0,-47.51296950873872,23.96701258570797,-0.3437677513782841,2.483153313214517,-0.00042600748357435325
0.2975013222032479,0.05306346240178422,-0.05895854001439871,0.2155289914137083,-0.8091584865457724,-0.26248044691345396,0.0,0.0,0.0,0.0,0.0,0.0,0.0,-27.308706087784408,25.797556161466716,0.5204563648837565,2.418631581208725,-0.00036458552292906177
0.2879628789426455,-0.11533113741120066,-0.16603023158092706,0.20030896328204228,-1.8269146435303725,-0.2163035999335592,0.0,0.0,0.0,0.0,0.0,0.0,0.0,-13.843970169433627,22.00807999485469,0.6773234888628926,-1.2196645562504997,0.00023736663279683157
0.21172474641484373,-0.10367484570020075,-0.24960416879654057,0.15896808984139094,-1.23659866734679,0.45117075975217424,0.0,0.0,0.0,0.0,0.0,0.0,0.0,-16.579912495386587,24.078616053559813,0.4959873011214035,0.7512030337595021,1.4488158566861031e-05
-0.020561334823368194,-0.05020769570223643,-0.1695858503831702,-0.1675842350987733,-1.7920151427271451,0.37364674827982436,0.0,0.0,0.0,0.0,0.0,0.0,0.0,-17.512373250028865,21.94720658417598,-0.775371176183768,-1.3597230225530161,6.004656819502685e-05
0.41466195750733914,-0.03157042187563336,0.18279676546893314,-0.1552098496770189,-1.1972115383120971,-0.04351902667041885,0.0,0.0,0.0,0.0,0.0,0.0,0.0,-20.87744468428146,24.240864261849723,-0.6880044575819522,2.259823603465289,-0.00039088281886512366
-0.31688514081293906,0.13874863514192531,0.0766344136387977,-0.15592324987732747,-1.6097279372736355,0.14461173720873954,0.0,0.0,0.0,0.0,0.0,0.0,0.0,-29.288686118365916,22.853583965442475,-0.7487709161645956,-0.4127098332724426,-8.760515583627893e-06
-0.28549492550399613,0.5020322408953082,-0.07858749156666717,0.1388726268847939,-0.934759276231913,-0.36604503000448807,0.0,0.0,0.0,0.0,0.0,0.0,0.0,-47.53720913961015,21.17496335414955,0.2875205892907251,0.2077257281245597,-2.4326815418640457e-05
-0.020220870315990402,0.11255898567218198,0.0730798196643132,0.05280513510384738,-1.5887298796625038,0.4441169054448285,0.0,0.0,0.0,0.0,0.0,0.0,0.0,-27.921859007593767,22.98841523356733,0.10254239106004479,-0.23609282849868052,5.324021600944251e-05
-0.34331538002708817,0.7321262145379439,0.09150790444473361,0.19887066683442323,-0.20959162407656678,0.033396933397818795,0.0,0.0,0.0,0.0,0.0,0.0,0.0,-60.345576027998035,22.992677852846164,0.04544629894571056,2.6458093287085607,-0.0003311621506467688
-0.4468080726318554,0.34201585896259373,0.020829929857432206,-0.17071240399525694,-0.5279406147951553,-0.07746252097937023,0.0,0.0,0.0,0.0,0.0,0.0,0.0,-43.4564409123205,25.594697674201385,-0.4405357825451276,2.6637451953984606,-0.0004586299414952588
0.3476715673160282,-0.04029878767088818,-0.16697348886122937,-0.12682865150113515,-1.3153159895656905,0.09490835738563363,0.0,0.0,0.0,0.0,0.0,0.0,0.0,-19.978534162033036,23.843895428748944,-0.6111296718242155,0.51882131569762,-0.00012196671941877568
0.08937029277531239,-0.15262781815277643,-0.16238163412809287,0.06615767075508072,-1.3904656911909332,-0.09047915542281315,0.0,0.0,0.0,0.0,0.0,0.0,0.0,-13.566287702682635,23.851603208516135,0.15284687743497272,0.6951910291536105,-9.00905954880904e-05
0.3796700747894233,-0.01684913777354763,-0.1457953428448997,0.19348934953741576,-0.8544852713792683,-0.36745437985354246,0.0,0.0,0.0,0.0,0.0,0.0,0.0,-23.074743749434486,25.591026488877212,0.47916075325928303,2.2256993675906553,-0.0003572313503521496
-0.2148686219043977,0.01276242402445954,-0.10550653467120369,0.24242057614898543,-1.5870065588280144,-0.34227767899464656,0.0,0.0,0.0,0.0,0.0,0.0,0.0,-21.959765916428964,22.77058621696255,0.8683557716339192,-0.5487411349912854,0.00011781706896885069
-0.17365090425608165,0.24970437095042913,0.1904977617222821,0.22713933515865375,-0.7363926696335652,-0.3572266327226008,0.0,0.0,0.0,0.0,0.0,0.0,0.0,-38.87201455742933,26.136170708810802,0.5086141230883923,2.7958519926171856,-0.0004478331542965286
0.08337667823880313,0.5130687470237894,0.0713847614698811,-0.19591146626019362,-0.43716885963310864,0.3018604575321816,0.0,0.0,0.0,0.0,0.0,0.0,0.0,-51.725451530429716,24.799352144586248,-0.40740431948073547,2.5553431638576622,-0.0003901935161030323
-0.24290860289001415,0.28696862707970633,-0.1911571428291211,0.045389137077578856,-0.9984139135370376,-0.06855125458320277,0.0,0.0,0.0,0.0,0.0,0.0,0.0,-37.0832533465137,22.262652789566797,0.03754330824452176,0.3841649715796631,-4.762350424747375e-05
0.11830640465325626,0.6365328201386811,0.07968032283434412,-0.06432123200886153,-1.1248445996231131,0.06498438007544882,0.0,0.0,0.0,0.0,0.0,0.0,0.0,-53.724225053368556,20.72950857325583,-0.29910257040648036,-0.4579546269133612,4.5360972415087186e-05
-0.14789377046941488,-0.0060398617884464545,0.17485358536991258,0.00012134709966549195,-1.141990634502511,0.04224890046973584,0.0,0.0,0.0,0.0,0.0,0.0,0.0,-22.68204464228378,24.575949637433787,-0.11211759711312247,2.351147233517782,-0.00034218408825743146
-0.3489548185080835,0.02864402139365424,-0.06582417848173411,0.13106595103831448,-1.712914716615994,0.4728569964449627,0.0,0.0,0.0,0.0,0.0,0.0,0.0,-22.4427740002655,22.338513848309276,0.4161450330282622,-0.9580822150591963,0.00016659089567205854
0.25250404308955354,0.4155829706979663,-0.2061997382416143,-0.016578761943509657,-0.4449909598464778,-0.4268104814324759,0.0,0.0,0.0,0.0,0.0,0.0,0.0,-44.32389958895942,22.48393359097262,-0.11690023349167539,1.9827621486080513,-0.00033637530243132985
0.24293983249787665,0.4027761403476458,0.10070851638776979,0.0854461871374968,-1.0278367183379742,0.23300741126366098,0.0,0.0,0.0,0.0,0.0,0.0,0.0,-45.08428449723745,23.928966385726376,0.1777112066175599,0.9718317075619076,-8.490532115845717e-05
-0.11838355541761114,-0.05395960454074461,-0.16713161674589705,-0.06578241819957481,-1.231971449662466,-0.05542907063753222,0.0,0.0,0.0,0.0,0.0,0.0,0.0,-19.57911661726619,24.229464219859047,-0.3664529401386549,0.9155655129226776,-0.00015997012059648652
0.38494589036812743,0.5013687208771522,-0.036888294902500285,0.2006725144012323,-0.6092658880933028,-0.4021755789739463,0.0,0.0,0.0,0.0,0.0,0.0,0.0,-49.38132488664568,23.053081263255535,0.30583518688902156,1.6286315844072234,-0.0002637282996857948
-0.019054898739483628,-0.019983824977826747,0.05165467804662083,0.08635706568151696,-1.5441527564735609,0.04858267512808445,0.0,0.0,0.0,0.0,0.0,0.0,0.0,-20.56459144270306,23.26131179051243,0.23943830924397486,0.40217541212556185,-2.717637842508669e-05
0.3331091775252144,0.3272023507360779,0.14345391989793715,-0.21531449514576118,-0.76748700782192,0.4009801487426067,0.0,0.0,0.0,0.0,0.0,0.0,0.0,-42.720398080090526,25.672101889257384,-0.7087549037498222,2.3170008854400876,-0.00035936494334598557
-0.34577395788649523,0.3825369887399885,-0.0970977549985087,0.16155717499236005,-1.0085128226228781,0.02122751115081256,0.0,0.0,0.0,0.0,0.0,0.0,0.0,-42.28239433223406,22.216082936550933,0.3956122530588592,0.31337419657297616,3.1617855107413106e-06
-0.07938588742341113,0.7572281578197098,0.13153223049517387,0.20391484113158292,-0.7312584322324531,-0.30766371705474316,0.0,0.0,0.0,0.0,0.0,0.0,0.0,-59.78927266756733,21.346944366318198,0.3592442724892738,0.819996293589103,-0.00011500530761643368
0.15916604850358473,0.3935081612750803,-0.21652534469431428,0.01114629370558573,-1.2434862927597903,-0.19486843741844617,0.0,0.0,0.0,0.0,0.0,0.0,0.0,-40.13979421170687,19.482108966940395,-0.058316067764282276,-1.1458531244891752,0.0001874827991956013
0.27411043331850515,0.4337194651554395,-0.13765862386491334,-0.09726299115503095,-0.8281379190012736,0.3710083443321025,0.0,0.0,0.0,0.0,0.0,0.0,0.0,-44.54915231356125,21.745771555685895,-0.34280968738539164,0.6883575930934303,-0.00011895462582944827
0.18905571686994804,0.07658276047263185,-0.21116862237974948,0.08797599701206738,-1.1149599714130058,0.4421946415212923,0.0,0.0,0.0,0.0,0.0,0.0,0.0,-26.558042802763403,23.692705615008563,0.20154117969158483,0.6797307137790263,-2.0614582274536275e-05
0.025119701018588625,-0.1247684711899934,0.12409397172664721,-0.15134090853843907,-1.550080530282847,0.44557410299806655,0.0,0.0,0.0,0.0,0.0,0.0,0.0,-14.071112663689176,22.773149840037995,-0.7093620049967536,1.0921710009760073,-0.00019129212858892686
0.26059308815403026,0.49265560606918396,-0.1238814275082799,-0.062164208580417546,-1.1749951351565242,-0.04540285122788967,0.0,0.0,0.0,0.0,0.0,0.0,0.0,-45.54706177248258,19.66639263201128,-0.2852604621220475,-0.9018908705902557,0.00012214776411390016
-0.3881715108895155,0.4564693436309711,0.09208865959604257,0.11667372955442401,-0.6728429476181121,-0.4068513271399118,0.0,0.0,0.0,0.0,0.0,0.0,0.0,-48.74062143290584,24.739404751370152,0.17207899701029866,2.068139921503395,-0.0003426660582730445
0.12576105323514974,-0.0047415592754749825,0.09308346444384852,-0.19765054918760283,-1.529383818304711,0.05989090089536797,0.0,0.0,0.0,0.0,0.0,0.0,0.0,-21.472120213836288,23.29125507627634,-0.9134882742237967,0.5662742229664008,-0.0001537325282767732
0.34159450636271316,0.7890713055241161,0.2360175100292286,0.0854146409643175,-0.4305420610577974,0.16422482730740295,0.0,0.0,0.0,0.0,0.0,0.0,0.0,-63.27558171162655,23.48619239086005,0.027468376193960142,2.2631769564464026,-0.00027180195330406276
0.16543143993871257,0.7609781466177503,0.1477248777445495,0.05386930239477683,-0.7507428013252602,-0.12235749285046671,0.0,0.0,0.0,0.0,0.0,0.0,0.0,-60.03815725972711,21.435141581742634,0.029872419872464306,0.8393636417670738,-0.0001212942104301673
0.0321012794258122,0.36877906468759863,0.07110802182461101,0.024456551472520793,-0.49853135845941915,-0.4917845726251361,0.0,0.0,0.0,0.0,0.0,0.0,0.0,-45.15943382443887,25.83811411818097,-0.0635575644519536,2.8711262022443105,-0.00048723282880160784
0.41425566614896236,0.36721398939708133,0.07669788299326219,-0.06378436847131636,-0.598874763916097,-0.180896470776445,0.0,0.0,0.0,0.0,0.0,0.0,0.0,-44.820781965988814,25.584445419056323,-0.25085422531490403,2.579817953612869,-0.0004293393907380816
0.054220531403055716,0.4695952310730434,-0.06509365806874828,0.236750093556018,-0.8228576046755258,0.3714457770438836,0.0,0.0,0.0,0.0,0.0,0.0,0.0,-46.97158889523531,22.28487396142617,0.5120108916104039,0.8015336874934533,1.968359956161514e-05
-0.35986979724891466,-0.14181509959270605,0.06410260709073207,-0.2053830291892677,-0.9172587408700252,0.34287939794986066,0.0,0.0,0.0,0.0,0.0,0.0,0.0,-15.4616433365279,25.133340216915215,-0.7604539310973654,3.0588901919785965,-0.00044986404788471823
-0.30701760261588984,-0.16019217825142756,0.02121498584152548,0.17603069948982097,-1.3439010523278399,0.02624670815285779,0.0,0.0,0.0,0.0,0.0,0.0,0.0,-13.12991899223521,23.84379911514594,0.5783994147094085,1.6161191755001276,-0.00017735147957187447
0.07867764555105217,-0.05870394363656267,-0.07323790405871178,-0.13270769368230723,-1.2083770773328542,0.46878813532735053,0.0,0.0,0.0,0.0,0.0,0.0,0.0,-19.644731866183175,24.567506046118886,-0.6212497621811259,1.386598897772366,-0.00020958412634564105
-0.20474222705731326,0.2589140727072747,0.17404645561754795,-0.23133591620805383,-0.7426420347370604,-0.20066578629256593,0.0,0.0,0.0,0.0,0.0,0.0,0.0,-39.33172305696497,26.078882979931947,-0.745481114272633,2.6984401985541915,-0.00048462132254867285
-0.03259022822656921,0.20652011098677386,-0.1449653636469645,-0.06270211248909646,-0.5972845008462422,-0.3999536185184547,0.0,0.0,0.0,0.0,0.0,0.0,0.0,-35.41333900419237,25.115374966039013,-0.24318280756931715,2.3864416469327203,-0.0004071564664681615
0.03182826180137022,0.39763804369028893,-0.20121030032099968,-0.03738303440947777,-0.4296889640632678,0.30192057585448595,0.0,0.0,0.0,0.0,0.0,0.0,0.0,-43.75016500438389,22.87050902366799,-0.14718379502117945,2.1166445495182273,-0.00026574310285817915
-0.16171066238504628,-0.14268808018743456,0.2120233548051907,-0.0015367066758883996,-1.5390278507821071,0.03889966768274211,0.0,0.0,0.0,0.0,0.0,0.0,0.0,-12.499813107168865,22.221094302888275,-0.11322246007409476,1.547516551724117,-0.00022623802863361298
0.25140649906347723,0.08129043204102943,0.13258282040867875,-0.138593628405711,-1.5177237360254812,-0.34530174493772015,0.0,0.0,0.0,0.0,0.0,0.0,0.0,-26.50839928624866,23.372171557179378,-0.6790396006826883,0.4256017561375529,-8.607381832193006e-05
-0.3305766753705145,-0.14640822284099825,-0.04359781665415724,0.22105821951259852,-1.8515267160976216,0.48216303077826594,0.0,0.0,0.0,0.0,0.0,0.0,0.0,-12.038538880119505,21.971036477377385,0.7496867933457416,-0.6997889315217503,0.00019236324434879215
-0.005809087785622724,0.5957518829277808,0.04789166613919282,-0.07067237172470364,-0.9334784229458408,-0.033808226446433776,0.0,0.0,0.0,0.0,0.0,0.0,0.0,-52.6796268912485,21.638242548262177,-0.29641137285386515,0.3613467676030222,-7.370628749231445e-05
-0.04196295776297432,-0.12089652766385678,-0.14668060113348702,0.12613299178956017,-1.4965108800775033,-0.04938456153229953,0.0,0.0,0.0,0.0,0.0,0.0,0.0,-14.912823469395168,23.394251177277603,0.40148014071356974,0.1963704814921705,7.968446203321378e-06
0.15126969339608787,-0.18477724491863617,-0.10716618394959493,-0.24240116751393204,-1.66840756688555,-0.33991504889036883,0.0,0.0,0.0,0.0,0.0,0.0,0.0,-10.635398168695215,22.737803206495705,-1.088880610288597,-0.07056622821987979,-1.450251185097784e-05
-0.015656676462387886,0.7125193567215824,0.09758884046497229,-0.09804420282403287,-0.13455323815719128,-0.3101884096004752,0.0,0.0,0.0,0.0,0.0,0.0,0.0,-60.07462152155447,23.58907176356859,-0.13714586663022688,2.9900399100175434,-0.0005090165560119875
0.11022330838140582,0.1863122691351909,0.10229040303212317,-0.19353301899764286,-0.9228729422474513,-0.4500980616843089,0.0,0.0,0.0,0.0,0.0,0.0,0.0,-34.6429400499307,25.492641982152435,-0.7395012060424998,2.148715650060476,-0.0003707459481907538
-0.4859176936291233,-0.0873695397035748,-0.2142935225150953,0.13243058547075331,-1.491295613976243,0.10350915855429499,0.0,0.0,0.0,0.0,0.0,0.0,0.0,-16.552287395551446,23.118503770446708,0.423682023140577,-0.19789186961277494,7.932285190515032e-05
-0.45936418346009344,0.5514297970815709,0.022121526632645494,-0.17606757507443477,-0.6679208092607634,-0.007039931655621223,0.0,0.0,0.0,0.0,0.0,0.0,0.0,-51.82505224290763,22.96504081198565,-0.4818271666348854,1.4552794139132335,-0.0002675672011864805
-0.010364002831837693,0.19991105484330313,0.1375399242823374,0.12344598514698196,-0.7375613196392237,0.1106622365817993,0.0,0.0,0.0,0.0,0.0,0.0,0.0,-36.04881486364881,26.125759637686976,0.22609633504101379,2.8378263919805704,-0.0003461417230928854
0.11450092355584707,0.06463025505894499,0.10551409269872636,0.015315403336337519,-0.9010877390432575,0.3496021667643938,0.0,0.0,0.0,0.0,0.0,0.0,0.0,-27.844278534805458,25.666988188339484,-0.06491577359401901,2.6778752206230454,-0.0002927484745409506
-0.23540636619376232,0.47451748264958354,0.042472823665414106,-0.23808858613885298,-0.6670340113102236,-0.15364923738522895,0.0,0.0,0.0,0.0,0.0,0.0,0.0,-49.07460567030195,24.131916821968833,-0.6451830949322342,1.7831881112321142,-0.0003353542402833032
0.4479468773677413,0.5717634919081627,-0.22293403308313864,0.2374596534213933,-0.8665972483425146,0.154565791404639,0.0,0.0,0.0,0.0,0.0,0.0,0.0,-47.82430351097516,17.956242347935323,0.43787573095534243,-0.4237963592734513,0.0001268595226144864
0.32143799671526363,0.0844050912367344,0.19820816311836525,-0.07283161101778829,-0.6887978825984218,0.14373385063208555,0.0,0.0,0.0,0.0,0.0,0.0,0.0,-29.405847998476315,26.090433255758136,-0.30207449826092253,3.4375401142258326,-0.0004975095455215794
0.3191142549195273,0.482742432688784,0.20856085245232936,-0.18286213801266615,-0.42112829910069866,-0.18203747386540858,0.0,0.0,0.0,0.0,0.0,0.0,0.0,-51.58933395850506,26.220271257152252,-0.4022722802650158,3.092875035691483,-0.0005369228480054389
0.15209301046821855,0.5192270998189648,0.08162961190102686,0.09845243977455942,-0.2679924292834092,0.014841934546076296,0.0,0.0,0.0,0.0,0.0,0.0,0.0,-52.54787577568078,25.30856821397849,-0.006314925228056378,3.108362279471308,-0.0004292257953108225
-0.010184064540366466,0.7511636187470072,0.24617301512409978,-0.05963895417192039,-0.5757206861757052,0.0812003217954782,0.0,0.0,0.0,0.0,0.0,0.0,0.0,-61.772217787187095,23.590898628918854,-0.21659674328590112,1.9272158848640935,-0.0002936763156802247
0.08386452432395175,0.7450620413470104,0.2033930045788952,0.010997930733429695,-0.3740688502060449,0.05016919518985996,0.0,0.0,0.0,0.0,0.0,0.0,0.0,-61.74001421462981,23.82271539957878,-0.08389816869841954,2.50118866584819,-0.00035889613002900583
-0.49935739801674817,0.26289894990407076,-0.23675873675971965,-0.022955704248378284,-1.1727319431786896,-0.04155579118392749,0.0,0.0,0.0,0.0,0.0,0.0,0.0,-34.75998599876042,21.283796517490305,-0.17670755358584894,-0.4171448801980038,5.730762120023658e-05
-0.1895979341871714,0.002812139319311957,-0.06616773887211314,-0.05403669413728196,-0.9778223027483697,0.04870952998321554,0.0,0.0,0.0,0.0,0.0,0.0,0.0,-23.944674886076413,25.328730259067072,-0.29749052741532944,2.0509779944508804,-0.0003169151029038808
-0.44552080426568597,0.36668214318542386,0.05355339003105253,0.05530378481491488,-0.8697847637175256,-0.48657523990322704,0.0,0.0,0.0,0.0,0.0,0.0,0.0,-43.66230617115173,24.454859464739005,0.056232443388619296,1.5493215348881044,-0.00026253681404281304
0.24878825281486872,0.04279216370069233,0.2148690852308075,-0.15206664529790515,-1.3968536571231025,-0.36217895385109544,0.0,0.0,0.0,0.0,0.0,0.0,0.0,-24.587062680322667,23.667616955736946,-0.7151483502511562,1.38456059644707,-0.00024697623456382267
0.08449937721382839,0.47166423451117306,0.10175273392696371,0.025642582955087756,-0.8029881727148647,-0.48052501259906266,0.0,0.0,0.0,0.0,0.0,0.0,0.0,-49.00340294090795,24.209019527547998,-0.03612304100724889,1.5902839737939338,-0.00026959985922669905
-0.35738393363270804,0.5905017948720497,0.24039291850303102,-0.1193207986968674,-0.7875956916021547,0.07097188990434888,0.0,0.0,0.0,0.0,0.0,0.0,0.0,-55.24671841787374,24.460623511867297,-0.43213858425842483,1.7037028580729494,-0.0002856400957274019
-0.23184227148501146,-0.08054022450751347,0.12378784985691843,0.05493977995931326,-1.7378505193867013,0.05594707321227754,0.0,0.0,0.0,0.0,0.0,0.0,0.0,-16.031479494997633,22.206599905128172,0.10585009645704532,0.15367078584489313,-2.5058323563920126e-06
-0.45395160669818746,0.08657403234824962,0.15539574313377408,0.2435028047700349,-0.8411315884168737,0.013763053377154333,0.0,0.0,0.0,0.0,0.0,0.0,0.0,-29.248975358466218,25.808799860059498,0.6255103629423939,2.860660502943734,-0.000341168663604563
0.0784474627720505,0.6194726689441419,0.06560971004799065,-0.19270376957388718,-1.0954127606870192,-0.441879965888336,0.0,0.0,0.0,0.0,0.0,0.0,0.0,-53.11461566625728,20.930558744172682,-0.6903078073548332,-0.35156748729483667,5.3169728615909406e-05
-0.4775149819271167,-0.17837150623285786,-0.12564861613846634,0.08552114549946754,-0.9911601562946102,-0.4425047194579047,0.0,0.0,0.0,0.0,0.0,0.0,0.0,-13.627070723009659,25.368360714517642,0.17911050804501838,2.4188770544790454,-0.0004066329476417607
-0.41713237955170124,-0.1389064131173477,0.07006908275886847,0.10443431959474436,-0.9856924835837182,0.2696309205730447,0.0,0.0,0.0,0.0,0.0,0.0,0.0,-15.439199058568242,24.945632839793817,0.23789308803875453,2.916374697392328,-0.0003067568122717135
-0.285985003255803,0.25017831677939323,-0.23634982707266927,0.06728773396973192,-1.2650735791711432,-0.36110237352103935,0.0,0.0,0.0,0.0,0.0,0.0,0.0,-33.83329964321735,21.07082361015666,0.1317457643126289,-0.7409964355878387,0.00013024663577043682
0.18731110859859457,0.12687465373016588,-0.024317609446705024,-0.0619144531435617,-1.315664601971646,0.33335583132811364,0.0,0.0,0.0,0.0,0.0,0.0,0.0,-29.485826179992312,23.731067541188587,-0.35584689954223797,0.42358002154547414,-8.000385191886394e-05
0.058925185041885264,0.7295656622721292,0.02435607183237859,0.24611014747594545,-0.22749181935333945,-0.47295139963182253,0.0,0.0,0.0,0.0,0.0,0.0,0.0,-59.18989445695696,21.94945932860595,0.0872391586470529,2.354266593602768,-0.0003962105297466989
-0.17428541352496318,-0.16795782615537252,0.2419075143835402,-0.10428772902786176,-1.576940136744177,-0.05143605890821301,0.0,0.0,0.0,0.0,0.0,0.0,0.0,-10.494542765259734,21.647753667068464,-0.4964741504863494,1.6130436785624251,-0.00027571533531867143
0.29117981204004273,-0.17991218636972922,-0.0006289518826178564,0.07419425646243377,-1.636491097097782,0.39814063411912526,0.0,0.0,0.0,0.0,0.0,0.0,0.0,-10.872309615434009,22.70049797520113,0.186740987584435,0.4656337200209606,-9.693985410119677e-06
-0.04168674454117349,0.40320899443543917,0.18294083566913305,0.19584357078457176,-0.6832556438112185,-0.24345796512752693,0.0,0.0,0.0,0.0,0.0,0.0,0.0,-46.93212456136626,25.75360896031747,0.3827157184487672,2.4817189754904057,-0.00037429617326167897
0.0076217544642603885,-0.17966436333794017,0.20802007970940367,0.04219508552341639,-1.5133526416658871,0.06916838356060051,0.0,0.0,0.0,0.0,0.0,0.0,0.0,-10.261359894797495,22.075572280274116,0.05426699282323466,1.7675984154532092,-0.0002384225328171674
0.10435205477011633,0.6078387317315481,-0.19855418009466758,0.20700237953552908,-1.1397194952351293,-0.04416585477884161,0.0,0.0,0.0,0.0,0.0,0.0,0.0,-48.274737914371954,16.648885463153814,0.45318268025821706,-1.5309224996494333,0.00027697459609932196
-0.3638952935074139,-0.09556032428426003,-0.019744709545175376,0.2351256013066056,-1.294130452480409,-0.34355923161562407,0.0,0.0,0.0,0.0,0.0,0.0,0.0,-17.21631646477391,24.25119087986129,0.806592896040776,1.3867899775189638,-0.0002076404722366476
0.050490930939199874,0.09818717342974165,-0.037227831166285974,-0.06090395504452689,-1.1853337800797945,0.3993040962646427,0.0,0.0,0.0,0.0,0.0,0.0,0.0,-28.435230562893246,24.327339512025546,-0.3425085130063787,1.0127786895957254,-0.00014010391676444467
0.18967597949195425,-0.17981786745202816,-0.22152056363056316,-0.14938829823285882,-1.7500416154212026,0.006560819677264074,0.0,0.0,0.0,0.0,0.0,0.0,0.0,-10.508462488135649,22.3313318202452,-0.7139232110316612,-0.8921267592063664,8.235241738818733e-05
-0.3131556137934096,0.3969071174475772,0.1054598006838397,0.08020599456264327,-1.0713285281570535,0.44024290047401804,0.0,0.0,0.0,0.0,0.0,0.0,0.0,-44.67963149969048,23.839235127684475,0.16758246035732596,0.8414742646586735,-4.131017586017638e-05
0.30977242131537297,0.016769120344832855,-0.05503122239345315,0.2123046581377387,-1.2642168180336701,0.061297598344779436,0.0,0.0,0.0,0.0,0.0,0.0,0.0,-23.656793413849257,24.236762410795123,0.7112695035951199,0.9271713933886421,-5.565415170272203e-05
-0.0009716416385645577,0.5016411848462505,0.2487028299438705,0.11267358682279127,-0.5063076799567963,-0.47551535801084843,0.0,0.0,0.0,0.0,0.0,0.0,0.0,-52.44291679930567,26.100709324014055,0.10660186115248185,2.9565797821142112,-0.0004999954650299343
0.4854147317889924,0.16633083289189715,-0.09985024875422621,0.03824052038326503,-0.8000776927712192,-0.4152601615451109,0.0,0.0,0.0,0.0,0.0,0.0,0.0,-33.077156699717925,25.065341951648236,-0.0017488229176599313,1.9830026029144374,-0.0003333129771919685
0.3004792101002477,0.25376979572201946,0.20294872537491304,-0.19329848093471946,-1.362356703344887,-0.03378827004218454,0.0,0.0,0.0,0.0,0.0,0.0,0.0,-36.85924635140661,23.895049861217785,-0.882958472905963,0.6284683820774308,-0.00015532813553575942
0.2094840454557232,-0.017715023161126775,0.1552441397402758,-0.0667589560927681,-1.5509992318814885,0.49933200144286216,0.0,0.0,0.0,0.0,0.0,0.0,0.0,-20.49696467821009,23.063091712304704,-0.3820558928618088,0.7859003413636785,-0.00011087796872477629
0.024546437014263067,0.005898947553602041,0.1881767147573583,-0.22716374425701297,-0.96949663067656,0.07219043623252319,0.0,0.0,0.0,0.0,0.0,0.0,0.0,-23.886508327577516,25.09274494502796,-0.8596664060472905,2.8394579527963337,-0.0004890544773050731
