Joohwan-Seo/mujoco_sysID/Fanuc/Dataset/square_PIH_fanuc_0.csv
q1,q2,q3,q4,q5,q6,dq1,dq2,dq3,dq4,dq5,dq6,t1,t2,t3,t4,t5,t6
5.636535063123465e-05,0.2619757708693142,-0.2616290952191278,-0.00010790103429919618,-1.0471887377031601,1.6000014325667022e-05,0.028182675315617325,0.08819153508238553,0.0851462900108055,-0.05395051714959809,0.004406746718770053,0.00800000716283351,-0.0036456491273240007,141.49170642809108,356.486232886469,-299.71634987329287,-23.651967070402446,-0.2964398163093044
0.00010976680190850647,0.2622071017767621,-0.2613825073983269,-0.00027593982136053596,-1.0471891462867975,2.712486044403e-05,0.02670072563863591,0.1156654537239635,0.12329391040044646,-0.0840193935306699,-0.00020429181872145662,0.00556242305918149,1.1955008570717205,140.2832659873624,356.4855873886424,-299.72677534878966,-24.065864183354,-0.29500924468514833
0.0001516254474756969,0.26245137959349274,-0.2610971226731468,-0.0004831152357332594,-1.047198384835598,3.0930958316104094e-05,0.020929322783595206,0.12213890836531359,0.14269236259008083,-0.10358770718636173,-0.004619274400169564,0.0019030489360370461,2.396772862363946,139.0755126286222,356.48095022843887,-299.73306110714395,-24.483865878566498,-0.29466082000641186
0.0001837918180413316,0.2626943904392821,-0.2607890831997291,-0.0007174742224214957,-1.0472128991448626,2.8616779683629988e-05,0.016083185282817353,0.12150542289468488,0.15401973670884267,-0.11717949334411813,-0.007257154632349437,-0.0011570893162370535,3.598212310330884,137.86779832087743,356.47129377528563,-299.7383155766301,-24.903884331732684,-0.2939373265983731
0.0002094465506054711,0.2629315477194166,-0.26046612158867205,-0.0009711563571552932,-1.047229849224768,2.172476770694661e-05,0.012827366282069748,0.11857864006727051,0.16148080552853258,-0.12684106736689876,-0.008475039952758544,-0.003446005988341689,4.799196905572632,136.65981211044564,356.4561556009213,-299.7436577075769,-25.324810259831033,-0.292576389640082
0.00023120955420943194,0.26316165877633846,-0.2601324012079572,-0.0012386607274691794,-1.0472475373624053,1.1485207746524715e-05,0.010881501801980425,0.1150555284609087,0.16686019035741798,-0.1337521851569431,-0.008844068818583609,-0.005119779980210947,5.999678885795395,135.45143728458478,356.4354185259938,-299.7492427494379,-25.746181198223724,-0.2907020693674591
0.00025097233283215287,0.2633847259563828,-0.2597904358381993,-0.001516058474108291,-1.0472651062143175,-1.2158416258488193e-06,0.009881389311360459,0.11153359002217252,0.17098268487896526,-0.13869887331955577,-0.008784425956128534,-0.006350524686186767,7.199757867288549,134.24263793130893,356.40909550925875,-299.7549357436787,-26.167802211167796,-0.2884873951466484
0.00027005683451739016,0.263601149913924,-0.259441902634497,-0.00180053080686945,-1.0472822063180505,-1.5756485461444552e-05,0.009542250842618637,0.10821197877060673,0.17426660185113976,-0.14223616638057948,-0.008550051866472588,-0.007270321917797867,8.39953940458308,133.03341752803567,356.3772294816891,-299.76055243793695,-26.589582669963406,-0.2860675045669821
0.000289383037777033,0.26381143517836675,-0.2590880114256563,-0.0020900559970964956,-1.0472987644791452,-3.1701742354177574e-05,0.009663101629821435,0.10514263222137445,0.1769456044203527,-0.14476259511352285,-0.00827908054739721,-0.007972628446366512,9.599102690692982,131.82380097349358,356.3398587795409,-299.7659279987022,-27.011474345176325,-0.28353220621527697
0.00030959334583511043,0.2640160814077127,-0.25872968522863415,-0.0023831858866081536,-1.0473148444080742,-4.874659677868696e-05,0.0101051540290387,0.10232311467297257,0.1791630985110706,-0.14656494475582904,-0.008039964464578926,-0.00852242721225469,10.798500528210322,130.6138248576131,356.2970086623967,-299.7709302928538,-27.43344797150986,-0.28093693835917727
0.000331138237161053,0.26421554538074266,-0.25836765544753326,-0.0026788843743780215,-1.047330569054844,-6.667649161953365e-05,0.010772445662971277,0.09973198651496924,0.18101489055044695,-0.14784924388493395,-0.007862323384845887,-0.008964947420423346,11.997765942434713,129.4035316120957,356.24869157803573,-299.7754576434326,-27.855483916174613,-0.2783144407141436
0.0003543345972110495,0.26441023053742846,-0.25800251615804104,-0.002976410770143475,-1.0473460797331393,-8.534015761804066e-05,0.01159818002499824,0.09734257834290988,0.18256964474611134,-0.14876319788272688,-0.007755339147644178,-0.009331832999253498,13.196918393341464,128.19296586517956,356.19490986233575,-299.7794332736052,-28.277568111325703,-0.2756833666635652
0.0003794057300768781,0.2646004872628892,-0.25763475757894033,-0.003275235827590857,-1.04736151589926,-0.00010463081814408624,0.012535566432914303,0.09512836273037517,0.1838792895503517,-0.14941252872369098,-0.007718083060333502,-0.009645330263022795,14.395968305514097,126.98217216110453,356.13565872933447,-299.7827998452736,-28.699690052497196,-0.273053917914266
0.00040650908571938156,0.26478661716286467,-0.25726478829868654,-0.003574981481384613,-1.0473770060617196,-0.00012447308142470324,0.01355167782125172,0.09306494998772266,0.18498464012688184,-0.1498728268968779,-0.007745081229764603,-0.009921131640308493,15.594920121868046,125.77119356759746,356.07092886172325,-299.7855148816056,-29.121841678226115,-0.2704313362469314
0.0004357556393936407,0.2649688785534695,-0.2568929510301778,-0.0038753776879564042,-1.0473926644706708,-0.00014481373764665454,0.01462327683712956,0.09113069530242057,0.1859186342543785,-0.1501981032858958,-0.00782920447559863,-0.010170328110975646,16.793774313575273,124.56007087772221,356.0007084301919,-299.7875471315135,-29.54401667126395,-0.26781800812131507
0.00046722351800033285,0.26514749201819987,-0.256519534386502,-0.004176231557897179,-1.0474085906757096,-0.0001656152675864266,0.015733939303346076,0.08930673236517282,0.18670832183790437,-0.1504269349703874,-0.007963102519371148,-0.010400764969886029,17.992528701060948,123.34884221199803,355.9249845625686,-299.78887375161594,-29.96620998918174,-0.2652147137814791
0.0005009676177657977,0.2653226455759799,-0.25614478204286956,-0.004477405297820759,-1.047424870408231,-0.00018685125061505568,0.016872049882732384,0.08757677889001508,0.18737617181623065,-0.15058686996179002,-0.008139866260676263,-0.010617991514314543,19.191179329020027,122.1375428862759,355.8437443512796,-299.78947815277587,-30.388417534819027,-0.26262136122291213
0.0005370264075537434,0.26549449930377766,-0.25576890007205655,-0.004778800455321474,-1.0474415769912757,-0.0002085031111111933,0.018029394893972844,0.08592686389888154,0.187940985406517,-0.1506975787503577,-0.008353291522396875,-0.010825930248068811,20.389721052134302,120.92620545040168,355.75697550209264,-299.78934837112075,-30.810635919146108,-0.26003741359269483
0.0005754267467441502,0.2656631893882194,-0.255392062933884,-0.0050803466690960055,-1.0474587728795934,-0.00023055781155354864,0.019200169595203424,0.084345042220876,0.18841856908628615,-0.15077310688726583,-0.008597944158871298,-0.011027350221177679,21.58814793097497,119.71485983085064,355.66466671877475,-299.7884758456629,-31.232862288232578,-0.25746213513687116
0.0006161872983802126,0.2658288316363101,-0.2550144184301109,-0.005381993637179792,-1.0474765111428428,-0.00025300621672694787,0.020380275818031198,0.08282112404535037,0.18882225188655724,-0.1508234840418932,-0.008869131624677213,-0.01122420258669961,22.786453501557872,118.50353353111433,355.5668079017166,-299.7868545070867,-31.6550941958743,-0.2548947300287139
0.0006593209468037025,0.2659915244967685,-0.25463609183878166,-0.005683705383110518,-1.0474948368131047,-0.00027584193428334836,0.02156682421174496,0.08134643022920655,0.18916329566463622,-0.15085587296536263,-0.009162835131006792,-0.011417858778200235,23.98463095961775,117.29225185866886,355.463390220852,-299.78448010225446,-32.07732950919219,-0.2523344181076168
0.0007048365092089437,0.2661513516491412,-0.2542571893832327,-0.00598545616260935,-1.0475137880720613,-0.0002990604936140754,0.0227577812026206,0.07991357618637199,0.18945122777448248,-0.15087538974941583,-0.009475629478263066,-0.011609279665363527,25.182673286644576,116.08103815818393,355.35440610741773,-299.7813496958079,-32.49956633822508,-0.24978047362375055
0.0007527399462640002,0.26630838421640374,-0.25387780115340775,-0.006287227541313237,-1.0475333972790741,-0.00032265876502156473,0.023951718527528258,0.07851628363126291,0.18969411491247742,-0.15088568935194346,-0.009804603506429553,-0.011799135703744662,26.38057333580276,114.86991403827096,355.23984919630345,-299.77746130392427,-32.92180298307044,-0.2472322424883116
0.0008030352173853967,0.2664626826522921,-0.25349800357176755,-0.006589006308392003,-1.0475536918527275,-0.00034663454953501473,0.025147635560698232,0.07714921794417617,0.18989879082010125,-0.15088938353938283,-0.01014728682673806,-0.011987892256724997,27.57832389006172,113.65889958433726,355.1197142409248,-299.7728136261525,-33.34403789391334,-0.2446891472560889
0.0008557248840460009,0.2666142983491061,-0.2531178614780102,-0.006890782986802257,-1.0475746950224147,-0.00037098628984328193,0.026344833330302117,0.07580784840699818,0.1900710468786889,-0.1508883392051271,-0.010501584843563198,-0.012175870154133602,28.77591770102883,112.4480135536693,354.9939970153225,-299.76740584971185,-33.76626964056168,-0.2421506853364498
0.0009108105345395518,0.2667632750061177,-0.2527374298933312,-0.0071925507694140245,-1.0475964264670368,-0.00039571286712556823,0.02754282524677547,0.07448832850579568,0.19021579233949526,-0.15088389130588367,-0.010865722311002557,-0.012363288641143153,29.97334751438617,111.23727355119274,354.8626942130047,-299.7612375071303,-34.18849688902883,-0.2396164236981847
0.0009682930823446989,0.2669096497934343,-0.25235675551450654,-0.007494304759132746,-1.0476189028567886,-0.00042081345873730386,0.028741273902573573,0.07318739365830713,0.1903371894123324,-0.15087699485936057,-0.011238194875925759,-0.01255029580586781,31.170606086056914,110.02669618583795,354.7258033484356,-299.75430837303026,-34.61071838336936,-0.237085991992745
0.0010281729751069162,0.26705345434137956,-0.2519758779797605,-0.007796041426032577,-1.0476421383123,-0.00044628743895035666,0.029939946381108574,0.07190227397262279,0.1904387673730145,-0.1508683334499157,-0.011617727755762834,-0.012736990106526387,32.36768619199642,108.81629720832831,354.58332266459496,-299.7466183895651,-35.03293293145676,-0.2345590752110331
0.0010904503405057503,0.26719471558121116,-0.25159483094162094,-0.008097758219420331,-1.0476661447935676,-0.00047213431010059026,0.031138682699417098,0.07063061991581071,0.19052351906977183,-0.1508583966938769,-0.012003240633729522,-0.012923435575116802,33.56458063364131,107.60609163171034,354.4352510483842,-299.7381676127867,-35.45513939374128,-0.23203540649945642
0.0011551250876333367,0.26733345645928647,-0.25121364297639487,-0.008399453290522179,-1.0476909324293624,-0.0004983536551636738,0.03233737356379321,0.06937043903765949,0.19059398261302912,-0.15084753555092403,-0.01239381789746392,-0.013109672531541808,34.76128224044301,106.39609383618401,354.28158795457824,-299.72895617426224,-35.87733667427764,-0.22951476046554098
0.001222196977079951,0.26746969654356917,-0.2508323383552676,-0.00870112529416877,-1.0477165097962307,-0.0005249451053899109,0.033535944723307225,0.06812004214135625,0.19065231056365584,-0.15083600182329543,-0.012788683434100945,-0.01329572511311848,35.95778387048384,105.18631765986541,354.1223333383485,-299.7189842537869,-36.2995237134987,-0.22699694712641982
0.0012916656690651325,0.2676034525385983,-0.25045093769815424,-0.009002773246905882,-1.0477428841548184,-0.0005519083184853153,0.03473434599259076,0.0668779975145632,0.19070032855667696,-0.15082397636855618,-0.013187179293828578,-0.013481606547702247,37.15407840987032,103.97677647708608,353.9574875959747,-299.7082520601464,-36.72169948234348,-0.22448180654917166
0.0013635307562144207,0.26773473872265835,-0.2500694585281785,-0.00930439642541725,-1.047770061650079,-0.0005792429641461273,0.03593254357464409,0.06564309203003829,0.19073958498787083,-0.1508115892556844,-0.013588747630222163,-0.013667322830406019,38.350158771383214,102.76748326574457,353.7870515131461,-299.69675981770814,-37.14386297744595,-0.2219692041723067
0.0014377917856388442,0.2678635673188499,-0.24968791574190963,-0.009605994293756052,-1.047798047480905,-0.0006069487146919079,0.037130514712211724,0.06441429809578819,0.19077139313444755,-0.15079893416940113,-0.013992915413023744,-0.013852875272890322,39.54601789271238,101.55845066510375,353.61102622013937,-299.68450775721766,-37.566013217163075,-0.21945902676540838
0.001514448273596986,0.26798994881001553,-0.24930632200817499,-0.009907566451171478,-1.0478268460438762,-0.0006350252392083539,0.0383282439790709,0.0631907455828083,0.19079686686732214,-0.15078607870771288,-0.014399281485629344,-0.01403826225822299,40.74164873449732,100.34969102529453,353.4294131531404,-299.6714961096196,-37.98814923827351,-0.21695117896835892
0.0015934997150440745,0.2681138922059878,-0.2489246881063082,-0.010209112594664865,-1.0478564610550871,-0.0006634722000834162,0.039525720723544225,0.06197169798614419,0.19081695093340198,-0.1507730717466937,-0.01480750560544342,-0.014223480437531185,41.937044278319036,99.14121644964877,353.24221402098493,-299.65772510204056,-38.41027009321651,-0.2144455803460164
0.0016749455896826512,0.2682354052703572,-0.2485430232130368,-0.010510632492085819,-1.0478868956534098,-0.0006922892511550538,0.04072293731928836,0.060756532184718284,0.19083244663568436,-0.15075994871047663,-0.015217299161368535,-0.014408525535818797,43.13219752473653,97.93303883085272,353.04943077664404,-299.6431949553087,-38.83237484777057,-0.2119421628944995
0.0017587853656421096,0.268354494712876,-0.24816133514581284,-0.01081212596277504,-1.04791815248803,-0.0007214760369257827,0.041919887979729197,0.059544721259385064,0.19084403361198116,-0.15074673534461108,-0.01562841731020719,-0.014593392885364473,44.32710149142481,96.72516988178953,352.851065592831,-299.6279058825558,-39.254462579092944,-0.20944086893878977
0.0018450185015708622,0.2684711663526942,-0.2477796305692011,-0.011113592863614661,-1.0479502337926578,-0.0007510321924664309,0.043116567964376316,0.05833581990909727,0.19085228830586937,-0.15073345041980993,-0.01604065231386713,-0.014778077770324095,45.52174921144661,95.51762116182651,352.64712084117366,-299.6118580885717,-39.676532374057096,-0.2069416493665399
0.0019336444476832036,0.2685854252568417,-0.24739791516993545,-0.011415033078956626,-1.047983141448444,-0.0007809573437493443,0.044312973056170685,0.05712945207374459,0.19085769963282634,-0.1507201076709822,-0.0164538278930912,-0.014962575641456689,46.71613373167297,94.31040409920243,352.43759907445565,-299.5950517696733,-40.09858332783844,-0.20444446214882936
0.0020246626461333283,0.2686972758577033,-0.2470161938053998,-0.011716446513335197,-1.048016877037328,-0.0008112511082340788,0.045509099225062244,0.05592530043081225,0.19086068226782182,-0.15070671718928602,-0.01686779444195405,-0.015146882242367288,47.91024811135695,93.1035300100805,352.22250301149234,-299.5774871139173,-40.52061454270795,-0.20194927110451152
0.002118072530970312,0.2688067220526692,-0.24663447062956836,-0.012017833086180651,-1.0480514418872708,-0.0008419130955865643,0.046704942418491734,0.05472309748293439,0.1908615879157169,-0.15069328642272742,-0.01728242497141901,-0.015330993676242723,49.104085420857494,91.89701011475358,352.0018355242613,-299.55916430153303,-40.942625127000596,-0.19945604487044993
0.002213873527845174,0.26891376728866107,-0.2462527491998267,-0.012319192727973502,-1.048086837110612,-0.0008729429084531067,0.04790049843743105,0.053522617995933976,0.19086071487083278,-0.1506798208964257,-0.01769761167053869,-0.015514906433271207,50.297638740506095,90.69085555142007,351.7755996269601,-299.5400835054896,-41.3646141942318,-0.1969647560451378
0.0023120650535837775,0.2690184146338273,-0.24587103256757578,-0.012620525377437432,-1.0481230636365941,-0.0009043401432385726,0.049095762869301666,0.05232367258312394,0.19085831612546494,-0.15066632473196528,-0.018113262991011344,-0.01569861739273293,51.49090115960638,89.48507738788854,351.5437984667053,-299.5202448921334,-41.78658086233972,-0.19447538047787535
0.0024126465156997594,0.2691206668383522,-0.2454893233550805,-0.012921830979482673,-1.0481601222389447,-0.000936104390857329,0.05029073105799107,0.05112610226242198,0.1908546062476349,-0.15065280102262008,-0.018529301175271694,-0.01588212380937819,52.68386577555576,88.27968663151763,351.3064353156313,-299.4996486218562,-42.20852425303431,-0.19198789667982008
0.002515617311894608,0.26922052638603017,-0.24510762382065068,-0.013223109483692817,-1.0481980135592657,-0.0009682352374386077,0.05148539809742445,0.04992977383899847,0.1908497672149042,-0.15063925210507254,-0.018945660160521908,-0.016065423290639348,53.87652569307749,87.07469423765377,351.0635135641788,-299.47829484976126,-42.63044349123816,-0.18950228533683994
0.002620976829573619,0.269317995538007,-0.24472593591392527,-0.013524360843206224,-1.0482367381268685,-0.0010007322649767559,0.052679758839505465,0.04873457598841823,0.1908439533627019,-0.1506256797567037,-0.01936228380144691,-0.016248513769074057,55.068874023552084,85.87011111678932,350.8150367153944,-299.4561837263118,-43.05233770460508,-0.18701852890722623
0.002728724445394158,0.26941307636987527,-0.24434426132276216,-0.013825585013884785,-1.0482762963755947,-0.0010335950519226363,0.05387380791026931,0.04754041593413326,0.19083729558155643,-0.15061208533928058,-0.019779124363104576,-0.016431393472940262,56.26090388443748,84.66594814063302,350.5610083800884,-299.43331539794565,-43.47420602310653,-0.18453661129001198
0.002838859524854535,0.26950577080313376,-0.24396260151300772,-0.014126781953692727,-1.0483166886580806,-0.0010668231737161697,0.055067539730188436,0.04634721662923605,0.19082990487722337,-0.15059846990397044,-0.020196141242883797,-0.01661406089676662,57.452608398767694,83.46221614725464,350.30143227272225,-299.4096900076519,-43.8960475786752,-0.18205651755193353
0.002951381421926559,0.2695960806318658,-0.24358095776222694,-0.014427951622229518,-1.048357915257854,-0.0011004162032623092,0.05626094853601219,0.04515491436601549,0.19082187539039722,-0.15058483426839564,-0.020613299886690487,-0.016796514773069773,58.643980694721066,82.2589259454428,350.03631220791283,-299.3853076955034,-44.31786150489836,-0.17957823370302253
0.003066289478731568,0.26968400754536265,-0.24319933118831089,-0.014729093980376367,-1.0483999763995937,-0.0011343737113540795,0.057454028402504596,0.043963456748432765,0.19081328695802172,-0.15057117907342496,-0.02103057086982938,-0.0169787540458852,59.83501390524965,81.05608831839314,349.76565209746195,-299.3601685991458,-44.73964693675393,-0.17710174651246358
0.0031835830252577844,0.26976955314730755,-0.24281772277373936,-0.015030208990026843,-1.0484428722578287,-0.0011686952670469858,0.058646773263108215,0.04277280097246168,0.19080420728576722,-0.15055750482523833,-0.02144792911754575,-0.01716077784645312,61.02570116776235,79.85371402682821,349.489455947829,-299.3342728542421,-45.16140301038332,-0.1746270433577437
0.003303261379115791,0.2698527189720427,-0.242436133386158,-0.015331296613880153,-1.0484866029643167,-0.0012033804379893594,0.059839176929003174,0.041582912367580584,0.19079469379068673,-0.15054381192665459,-0.021865353244000817,-0.01734258547118682,62.21603562385491,78.65181381163366,349.2077278579802,-299.30762059487415,-45.58312886289592,-0.17215411210128873
0.0034253238453284293,0.2699335064983623,-0.24205456379582976,-0.015632356815281356,-1.0485311686143002,-0.0012384287907131863,0.061031233106319124,0.040393763159782374,0.1907847951641079,-0.15053010070060238,-0.022282824991683547,-0.017524176361913432,63.40601041908119,77.4503983960835,348.9204720175569,-299.2802119539049,-46.00482363220095,-0.16968294098976439
0.0035497697161513127,0.27001191716120726,-0.2416730146904353,-0.01593338955809699,-1.048576569271812,-0.0012738398908897718,0.06222293541144161,0.03920533142247904,0.19077455269722246,-0.15051637140781807,-0.022700328755997798,-0.0177055500882927,64.5956187027601,76.24947848771671,348.6276927053127,-299.252047063302,-46.42648645686283,-0.16721351857203431
0.0036765982709202455,0.2700879523615808,-0.24129148668762454,-0.016234394806617557,-1.0486228049741761,-0.001309613303554313,0.06341427738446644,0.03801760018677567,0.1907640014053917,-0.15050262426028185,-0.023117851182084013,-0.017886706332270665,65.78485362781373,75.04906477991685,348.32939428777985,-299.2231260544273,-46.848116475976795,-0.16474583363246664
0.003805808775922087,0.2701616134749546,-0.2409099803456611,-0.01653537252548054,-1.048669875735822,-0.0013457485933031144,0.0646052525009208,0.036830556686916184,0.19075317098172084,-0.15048885943149204,-0.023535380822901082,-0.018067644874400726,66.97370835063262,73.84916795323983,348.02558121812865,-299.1934490582938,-47.26971282906237,-0.1622798751368323
0.003937400484285892,0.2702329018583953,-0.24052849617244948,-0.0168363226796093,-1.0487177815515205,-0.0013822453244668258,0.0657958541819027,0.035644191720374266,0.19074208660581904,-0.15047507706437996,-0.023952907849261833,-0.01824836558185575,68.16217603096466,72.64979867652794,347.71625803519,-299.16301620579384,-47.6912746559714,-0.159815632188537
0.0040713726358914985,0.2703018188566057,-0.24014703463319,-0.017137245234164208,-1.0487665223991283,-0.0014191030612627387,0.06698607580280298,0.03445849910517777,0.19073076962972912,-0.15046127727745326,-0.024370423803929453,-0.01842886839795641,69.35024983182414,71.45096760784173,347.401429362617,-299.13182762790086,-48.112801096809704,-0.1573530939933075
0.004207724457293047,0.2703683658070451,-0.23976559615687065,-0.017438140154503408,-1.0488160982419144,-0.001456321367928836,0.06817591070077429,0.03327347521969758,0.19071923815967443,-0.15044746016960078,-0.024787921393081277,-0.018609153333048658,70.53792291941906,70.25268539523762,347.0810999081626,-299.0998834558475,-48.53429129186949,-0.15489224983078909
0.004346455161655254,0.27043254404426986,-0.23938418114177176,-0.017739007406151166,-1.0488665090305334,-0.0014938998088419844,0.069365352181104,0.032089118612374,0.1907075075494407,-0.1504336258238789,-0.025205394309463062,-0.018789220456574142,71.72518846309309,69.0549626774143,346.75527446305705,-299.0671838212825,-48.95574438157176,-0.15243308903178604
0.004487563948700524,0.2704943549036114,-0.23900278996013413,-0.0180398469547722,-1.0489177547046982,-0.001531837948622366,0.07055439352263518,0.030905429670755092,0.19069559081880993,-0.15041977431051679,-0.025622837082419376,-0.018969069890190836,72.9120396352814,67.857810084248,346.4239579014678,-299.03372885640835,-49.37715950641699,-0.14997560096009352
0.004631050004665259,0.27055379972429305,-0.23862142296211727,-0.01834065876615084,-1.0489698351945995,-0.0015701353522259945,0.07174302798236723,0.029722410340835538,0.19068349900842665,-0.15040590568931883,-0.026040244950716777,-0.019148701801814196,74.0984696114776,66.66123823723285,346.087155180031,-298.9995186941021,-49.79853580694287,-0.14751977499806906
0.004776912502263963,0.27061087985207116,-0.23824008047915576,-0.018641442806174035,-1.049022750422109,-0.0016087915850269204,0.07293124879935234,0.028540063889052128,0.19067124148075001,-0.15039202001159793,-0.026457613754696952,-0.019328116400462975,75.28447157021088,65.46525774984102,345.7448713374419,-298.9645534680213,-50.219872423688614,-0.14506560053523354
0.004925150600659944,0.27066559664147205,-0.2378587628268052,-0.018942199040817516,-1.0490765003017986,-0.001647806212890533,0.07411904919799055,0.0273583947004538,0.1906588261752793,-0.15037811732174092,-0.026874939844822733,-0.01950731393180635,76.47003869303144,64.26987922781495,345.3971114940956,-298.92883331269604,-50.64116849716423,-0.14261306695932774
0.0050757634454415695,0.2707179514576871,-0.23747747030715521,-0.019242927436134483,-1.0491310847418067,-0.0016871788022391754,0.07530642239081256,0.026177408107548174,0.190646259824998,-0.15036419765848338,-0.027292220004126233,-0.019686294674321172,77.65516416450362,63.07511326940117,345.04388085177015,-298.89235836361024,-51.062423167824456,-0.1401621636493541
0.005228750168603226,0.27076794567817747,-0.23709620321087535,-0.01954362795824639,-1.0491865036445716,-0.0017269089201111332,0.07649336158082798,0.024997110245161724,0.1906335481399265,-0.1503502610559534,-0.027709451382446584,-0.01986505893597887,78.8398411722052,61.880970465535405,344.68518469334566,-298.8551287572709,-51.4836355760471,-0.1377128799702135
0.005384109888530236,0.27081558069403217,-0.2367149618189498,-0.01984430057333545,-1.049242756907453,-0.0017669961342139163,0.07767985996350517,0.023817507927359666,0.1906206959627801,-0.15033630754453006,-0.02812663144066566,-0.0200436070513916,80.02406290673227,60.68746139998563,344.32102838255275,-298.81714463126957,-51.904804862114176,-0.1352652052686292
0.0055418417099871164,0.2708608579111183,-0.23633374640414787,-0.020144945247638556,-1.0492998444232597,-0.0018074400129726284,0.07886591072844014,0.022638608543071585,0.1906077074009695,-0.15032233715155294,-0.02854375790342248,-0.020221939379356013,81.20782256170897,59.49459664946005,343.9514173637466,-298.7784061243353,-52.32593016619641,-0.132819128870097
0.005701944724108642,0.2709037787510535,-0.2359525572322708,-0.020445561947442376,-1.0493577660806979,-0.00184824012557411,0.0800515070607628,0.02146041996757927,0.19059458593853795,-0.1503083499019102,-0.028960828719017527,-0.02040005630074084,82.39111333380112,58.3023867836844,343.57635716170296,-298.7389133763799,-52.747010628340135,-0.13037464007665867
0.005864418008393287,0.2709443446520284,-0.23557139456320864,-0.020746150639079433,-1.0494165217647486,-0.0018893960420074535,0.081236642142322,0.020282950487454675,0.19058133453108358,-0.1502943458185282,-0.029377842025414345,-0.020577958216671716,83.57392842273352,57.110842365454516,343.1958533814303,-298.6986665285377,-53.16804538845642,-0.12793172816532636
0.0060292606266986555,0.2709825570695022,-0.23519025865183613,-0.021046711288924994,-1.0494761113569915,-0.0019309073331013984,0.08242130915268456,0.019106208736903017,0.19056795568625193,-0.15028032492278012,-0.029794796121411518,-0.02075564554697239,84.75626103131025,55.9199739506666,342.8099117079983,-298.6576657231995,-53.58903358631201,-0.12549038238702453
0.006196471629238611,0.27101841747678973,-0.23480914974877215,-0.02134724386339465,-1.0495365347358758,-0.0019727735705590533,0.08360550126997789,0.017930203643776513,0.1905544515319914,-0.15026628723482777,-0.030211689442199097,-0.020933118728827353,85.93810436543748,54.729792088329404,342.41853790637754,-298.61591110404174,-54.009974361522,-0.12305059196594054
0.006366050052581814,0.27105192736555733,-0.2344280681010233,-0.021647748328942465,-1.049597791776953,-0.0020149943269903237,0.08478921167160125,0.01675494438378814,0.19054082387443175,-0.15025223277390864,-0.030628520538632967,-0.021110378215635175,87.11945163414879,53.54030732056068,342.0217378212909,-298.5734028160513,-54.430866853543705,-0.12061234609919017
0.006537994919651468,0.27108308824624067,-0.23404701395252936,-0.02194822465205962,-1.0496598823530723,-0.002057569175942376,0.08597243353482696,0.015580440341678098,0.1905270742469618,-0.15023816155857697,-0.031045288059661884,-0.021287424476026256,88.30029604963201,52.35153018257048,341.61951737707193,-298.5301410055473,-54.85171020167191,-0.11817563395673553
0.006712305239726086,0.2711119016483972,-0.23366598754462567,-0.022248672799273433,-1.0497228063345472,-0.0021004976919284206,0.08715516003730905,0.014406701078275557,0.19051320395184504,-0.15022407360690695,-0.03146199073742785,-0.021464257993022155,89.48063082725808,51.163471202633204,341.21188257753187,-298.48612582019854,-55.27250354503525,-0.11574044468149086
0.006888980008441116,0.2711383691210023,-0.23328498911643467,-0.02254909273714676,-1.0497865635892965,-0.002143779450455054,0.08833738435751481,0.013233736302558904,0.19049921409550644,-0.15020996893666408,-0.03187862737463334,-0.021640879263316745,90.66044918561114,49.97614090205037,340.7988395058304,-298.4413574090393,-55.693246022593115,-0.11330676738957629
0.007068018207791299,0.2711624922326982,-0.23290401890519777,-0.02284948443227766,-1.049851153982964,-0.0021874140280483787,0.0895190996750914,0.012061555847954156,0.19048510561845333,-0.15019584756545007,-0.032295196833830656,-0.021817288796662213,91.83974434651991,48.789549795104605,340.38039432435414,-298.395835922482,-56.11393677313364,-0.11087459117068077
0.007249418806133655,0.27118427257200267,-0.23252307714655648,-0.023149847851299313,-1.0499165773790207,-0.002231401002279069,0.09070029917117835,0.010890169652226434,0.19047087932064538,-0.15018170951082535,-0.032711698028341125,-0.021993487115345225,93.01850953508995,47.60370838900787,339.95655327459565,-298.3495615123282,-56.53457493527213,-0.10844390508850726
0.007433180758191005,0.27120371174748353,-0.23214216407479046,-0.02345018296088014,-1.0499828336388497,-0.00227573995178655,0.09188097602867472,0.009719587740418374,0.1904565358830062,-0.15016755479041313,-0.033128129914556256,-0.022169474753740565,94.19673797973712,46.418627183842794,339.52732267703806,-298.3025343317772,-56.95515964745039,-0.10601469818128004
0.007619303005055942,0.27122081138790427,-0.23176127992301915,-0.023750489727724113,-1.0500499226218205,-0.0023204304563024126,0.09306112343246836,0.008549820210371237,0.19044207588566275,-0.1501533834219875,-0.03354449148541063,-0.022345252257931405,95.37442291222149,45.234316672500015,339.09270893104053,-298.2547545354336,-57.375690047936104,-0.10358695946228855
0.007807784474195209,0.27123557314234514,-0.23138042492337232,-0.02405076811857121,-1.0501178441853503,-0.002365472096673186,0.0942407345696337,0.007380877220436271,0.19042749982341056,-0.15013919542354842,-0.03396078176484836,-0.022520820185386724,96.55155756768205,44.05078734061068,338.65271851472664,-298.206222279313,-57.79616527482294,-0.10116067792046837
0.007998624079454415,0.27124799868030325,-0.23099959930713468,-0.02435101810019798,-1.0501865981849565,-0.0024108644548825617,0.09541980262960276,0.006212768979042497,0.19041280811882605,-0.15012499081338557,-0.03437699980313194,-0.022696179104687894,97.72813518467198,42.868049666475905,338.2073579848733,-298.156937720847,-58.216584466030966,-0.09873584252099427
0.008191820721063043,0.27125808969177495,-0.23061880330486792,-0.024651239639418246,-1.0502561844743024,-0.0024566071140731563,0.09659832080431448,0.005045505735838865,0.19039800113338445,-0.1501107696101327,-0.03479314467286527,-0.022871329595297384,98.90414900519428,41.686114120992904,337.7566339768016,-298.10690101888656,-58.63694675930729,-0.0963124422058865
0.008387373285639734,0.2712658478873233,-0.23023803714651414,-0.024951432703083875,-1.0503266029052336,-0.0025026996585678835,0.09777628228834541,0.003879097774170771,0.19038307917688618,-0.15009653183281413,-0.03520921546562236,-0.02304627224736363,100.07959227473792,40.504991167579,337.3005532042673,-298.05611233370496,-59.057251292227036,-0.0938904658946251
0.008585280646197783,0.27127127499813264,-0.22985730106148325,-0.025251597258085644,-1.0503978533278118,-0.0025491416738909973,0.0989536802790251,0.0027135554046881054,0.1903680425154491,-0.15008227750088443,-0.035625211289089395,-0.023221007661556936,101.25445824231427,39.32469126209309,336.8391224593526,-298.0045718269996,-59.47749720219457,-0.09146990248475884
0.008785541662150861,0.2712743727760525,-0.22947659527872669,-0.02555173327135417,-1.050469935590341,-0.0025959327467888612,0.1001305079765387,0.001548888959912431,0.19035289137828487,-0.15006800663426256,-0.03604113126464212,-0.02339553644893193,102.4287401604938,38.14522485275577,336.37234861235754,-297.95227966189367,-59.89768362644487,-0.0890507408525184
0.0089881551793189,0.2712751429936317,-0.2290959200267998,-0.02585184070986089,-1.0505428495393916,-0.002643072465250487,0.10130675858401889,0.000385108789617343,0.19033762596344445,-0.15005371925336103,-0.03645697452529233,-0.023569859230812836,103.60243128544303,36.96660238006748,335.9002386116918,-297.8992360029361,-60.317809702045075,-0.08663296985341967
0.009193120029934157,0.2712735874441455,-0.2287152755339144,-0.02615191954061911,-1.0506165950198194,-0.002690560418527883,0.10248242530762892,-0.0007777747431017999,0.19032224644268914,-0.15003941537911109,-0.03687274021394719,-0.02374397663869818,104.77552487696171,35.788834276725865,335.4227994837656,-297.8454410161027,-60.737874565896306,-0.08421657832286444
0.009400435032647434,0.27126970794161515,-0.22833466202798317,-0.02645196973068508,-1.0506911718747833,-0.0027383961971562476,0.10365750135663825,-0.001939751265173719,0.19030675296562094,-0.15002509503298445,-0.03728842748193392,-0.02391788931418227,105.94801419852011,34.61193096754163,334.94003833288116,-297.790894868795,-61.15787735473546,-0.08180155507673395
0.009610098992534418,0.27126350632082236,-0.2279540797366568,-0.026751991247159105,-1.0507665799457588,-0.0027865793929740296,0.10483197994349196,-0.0031008103964015894,0.1902911456631842,-0.15001075823701213,-0.03770403548774931,-0.024091597908890903,107.1198925172965,33.43590286935386,334.4519623411231,-297.73559772984044,-61.57781720513714,-0.07938788891197307
0.009822110701102168,0.27125498443731855,-0.22757352888735552,-0.027051984057186708,-1.050842819072551,-0.0028351095991428882,0.10600585428387513,-0.004260941751893493,0.19027542465063463,-0.1499964050138007,-0.038119563395999895,-0.02426510308442928,108.29115310421464,32.26076039094439,333.958578768248,-297.6795497694906,-61.997693253515784,-0.07697556860717059
0.010036468936295714,0.27124414416743026,-0.22719300970729542,-0.0273519481279598,-1.050919889093304,-0.002883986410167569,0.10717911759677286,-0.005420134944136682,0.19025959003005682,-0.14998203538654656,-0.03853501037650386,-0.024438405512340364,109.46178923398152,31.08651393295178,333.4598949515745,-297.6227511594209,-62.41750463612786,-0.0745645829231274
0.010253172462504768,0.27123098740826074,-0.2268125224235104,-0.027651883426717896,-1.050997789844511,-0.0029332094219157133,0.10835176310452682,-0.00657837958477015,0.1902436418924986,-0.14996764937904838,-0.03895037560352984,-0.02461150587407211,110.63179418512499,29.913173887784424,332.95591830587085,-297.56520207272814,-62.83725048907404,-0.07215492060342385
0.010472220030570545,0.2712155160776885,-0.22643206726287085,-0.027951789920749332,-1.0510765211610213,-0.002982778231637618,0.10952378403288873,-0.007735665286101232,0.19022758031978088,-0.14995324701571797,-0.03936565825515205,-0.0247844048609523,111.80116124003165,28.740750639533523,332.4466563232436,-297.5069026839295,-63.25692994830146,-0.06974657037497439
0.010693610377792689,0.2711977321143637,-0.2260516444520988,-0.028251667577392513,-1.0511560828760467,-0.003032692437985958,0.11069517361107159,-0.008891981662405353,0.19021140538603232,-0.14993882832158995,-0.039780857512703736,-0.024957103174169784,112.96988368498448,27.569254563885863,331.93211657302385,-297.4478531689607,-63.67654214960617,-0.06733952094857906
0.010917342227936286,0.2711776374777016,-0.2256712542177808,-0.028551516364037174,-1.0512364748211673,-0.0030829516410354803,0.11186592507179854,-0.010047318331041829,0.19019511715899062,-0.14992439332233032,-0.04019597256031422,-0.025129601524761305,114.13795481020095,26.398696028035666,331.4123067016536,-297.38805370517343,-64.09608622863561,-0.06493376101946935
0.011143414291238987,0.2711552341478748,-0.2252908967863786,-0.028851336248125664,-1.0513176968263365,-0.003133555442302686,0.11303603165135044,-0.011201664913413924,0.19017871570110592,-0.14990994204424404,-0.04061100258451668,-0.025301900633602867,115.30536790987063,25.229085390597106,330.8872344325709,-297.32750447133384,-64.51556132089081,-0.06252927926784696
0.01137182526441821,0.2711305241258032,-0.22491057238423764,-0.02915112719715423,-1.0513997487198843,-0.003184503444765496,0.11420548658961165,-0.012355011035796582,0.1901622010704767,-0.1498954745142819,-0.0410259467739159,-0.025474001231405148,116.47211628219317,24.06043300151582,330.3569075660939,-297.26620564762004,-64.9349665617291,-0.06012606435941911
0.011602573830678439,0.2711035094331431,-0.22453028123759436,-0.029450889178674323,-1.051482630328522,-0.0032357952528829204,0.11537428313011489,-0.013507346330052333,0.19014557332164342,-0.1498809907600466,-0.041440804318906906,-0.025645904058712216,117.63819322941619,22.89274920198099,329.82133397930403,-297.20415741561953,-65.3543010863667,-0.057724104945927945
0.011835658659718609,0.27107419211227457,-0.22415002357258185,-0.029750622160293918,-1.0515663414773448,-0.0032874304726147265,0.11654241452008501,-0.014658660434252083,0.19012883250626159,-0.14986649080979836,-0.041855574411436725,-0.025817609865903045,118.80359205787312,21.726044324336705,329.28052162592815,-297.14135995832737,-65.77356402988102,-0.05532338966567893
0.012071078407739572,0.27104257422628814,-0.2237697996152345,-0.030050326109678838,-1.0516508819898345,-0.0033394087114411173,0.11770987401048211,-0.01580894299321548,0.19011197867367285,-0.14985197469246003,-0.04227025624480263,-0.025989119413195424,119.96830607802109,20.560328691993632,328.7344785362195,-297.0778134601432,-66.19275452721357,-0.052923907144061255
0.01230883171745166,0.27100865785897016,-0.2233896095914917,-0.03035000099455408,-1.0517362516878614,-0.003391729578382421,0.11887665485604368,-0.016958183658983054,0.19009501187138939,-0.14983744243762176,-0.0426848490134814,-0.026160433470651848,121.13232860447872,19.395612619340767,328.1832128168387,-297.0135181068689,-66.61187171317235,-0.050525645994069945
0.012548917218082312,0.2709724451147877,-0.22300945372720068,-0.03064964678270517,-1.0518224503916873,-0.003444392684018795,0.12004275031532656,-0.018106372091230363,0.19007793214550484,-0.14982289407554522,-0.04309935191298482,-0.026331552818187044,122.29565295606395,18.231906411656595,327.6267326507317,-296.94847408570615,-67.0309147224346,-0.04812859481682005
0.012791333525383808,0.2709339381188724,-0.2226293322481186,-0.030949263441979506,-1.0519094779199667,-0.0034973976405099486,0.12120815365074811,-0.019253497957633293,0.19006073954104316,-0.14980832963716773,-0.043513764139737454,-0.02650247824557692,123.45827245583197,17.069220365020925,327.06504629700834,-296.8826815852536,-67.44988268954958,-0.04573274220206325
0.013036079241641062,0.270893139017004,-0.22224924537991408,-0.031248850940287717,-1.0519973340897486,-0.0035507440616148857,0.12237285812862723,-0.02039955093419156,0.19004343410225466,-0.14979374915410587,-0.04392808489097329,-0.02667321055246854,124.62018043111284,15.907564766226017,326.4981620908193,-296.8161407955042,-67.86877474894101,-0.04333807672869977
0.013283152955679512,0.270850049975593,-0.22186919334816835,-0.031548409245605036,-1.052086018716478,-0.003604431562711668,0.12353685701922498,-0.021544520705517135,0.19002601587286722,-0.14977915265865915,-0.044342313364648306,-0.02684375054839113,125.78137021354927,14.746949892688427,325.92608844323206,-296.748851907843,-68.28759003490998,-0.040944586965287244
0.013532553242873082,0.2708046731816628,-0.22148917637837576,-0.031847938325972665,-1.0521755316139967,-0.0036584597608172037,0.12470014359678482,-0.022688396965092623,0.19000848489629976,-0.14976454018381316,-0.04475644875936668,-0.027014099052767793,126.94183513913447,13.587386012360525,325.34883384110566,-296.68081511504397,-68.70632768163767,-0.03855226147055224
0.013784278665152227,0.27075701084283177,-0.22110919469594406,-0.03214743814949915,-1.0522658725945453,-0.0037128282746070594,0.1258627111395728,-0.02383116941550432,0.18999084121584367,-0.1497499117632428,-0.045170490274318395,-0.027184256894927747,128.10156854824967,12.428883383641946,324.76640684696423,-296.6120306112675,-69.12498682318802,-0.036161088793894236
0.014038327771012063,0.2707070651872945,-0.22072924852619444,-0.03244690868436178,-1.0523570414687637,-0.0037675367244352975,0.12702455292991754,-0.024972827768653855,0.18997308487481673,-0.1497352674313152,-0.04558443710922671,-0.02735422491411912,129.26056378570178,11.27145225529118,324.1788160988699,-296.5424985920578,-69.54356659351055,-0.03377105747589515
0.014294699095520563,0.27065483846380256,-0.22034933809436105,-0.03274634989880797,-1.0524490380456923,-0.0038225847323543416,0.12818566225424985,-0.02611336174595149,0.18995521591669415,-0.14972060722309274,-0.0459982884643037,-0.027524003959522054,130.41881420076118,10.115102866337686,323.5860703102942,-296.4722192543402,-69.96206612644312,-0.031382156048822496
0.014553391160326848,0.2706003329416456,-0.2199694636255906,-0.03304576176115664,-1.0525418621327727,-0.0038779719221348655,0.12934603240314255,-0.027252761078493948,0.18993723438522006,-0.14970593117433564,-0.04641204354021295,-0.027693594890262012,131.57631314719904,8.959845445993345,322.9881782699888,-296.40119279641823,-70.38048455571479,-0.028994373037134147
0.014814402473669547,0.27054355091063115,-0.2195896253449416,-0.033345144239799646,-1.0526355135358487,-0.0039336979192857125,0.13050565667134983,-0.028391015507229167,0.18991914032450238,-0.1496912393215047,-0.04682570153803811,-0.02786299857542335,132.7330539833252,7.8056902135641195,322.3851488418544,-296.329419417971,-70.79882101494857,-0.02660769695798204
0.015077731530385241,0.27048449468106495,-0.21920982347738344,-0.03364449730320317,-1.0527299920591673,-0.003989762351073838,0.13166452835784687,-0.02952811478310996,0.18990093377909356,-0.14967653170176376,-0.0472392616592565,-0.028032215894062885,133.88903007202518,6.65264737836236,321.7769909648099,-296.2568993200509,-71.21707463766421,-0.024222116321715115
0.015343376811916979,0.27042316658373045,-0.2188300582477953,-0.033943820919909135,-1.0528252975053787,-0.004046164846544286,0.13282264076586903,-0.03066404866723805,0.1898826147940596,-0.14966180835298235,-0.04765272310571686,-0.028201247735223554,135.04423478079818,5.5007271396185615,321.16371365265866,-296.1836327050802,-71.63524455728117,-0.02183761963238212
0.015611336786322882,0.27035956896986846,-0.21845032988096522,-0.03424311505853661,-1.0529214296755378,-0.004102905036540182,0.13397998720295132,-0.03179880693100024,0.18986418341503875,-0.149647069313738,-0.048066085079620895,-0.028370094997948053,136.1986614817941,4.349939686393441,320.54532599395515,-296.1096197768491,-72.05332990712135,-0.019454195388233175
0.015881609908284817,0.27029370421115606,-0.21807063860158862,-0.034542379687783245,-1.0530183883691049,-0.004159982553722767,0.13513656098096744,-0.032932379356197736,0.18984563968829182,-0.1496323146233186,-0.04847934678350775,-0.028538758591292412,137.3523035518509,3.2002951974901563,319.9218371518701,-296.03486074051267,-72.47132982041202,-0.017071832082221294
0.016154194619117154,0.2702255746996857,-0.21769098463426714,-0.034841614776426694,-1.0531161733839454,-0.0042173970325914455,0.136292355416169,-0.03406475573516958,0.1898269836607452,-0.14961754432172464,-0.048892507420241094,-0.028707239434339487,138.50515437253236,2.0518038413664925,319.2932563640542,-295.95935580258805,-72.88924343028864,-0.014690518202505276
0.016429089346775602,0.2701551828479439,-0.21731136820350708,-0.03514082029332604,-1.0532147845163313,-0.00427514810950387,0.13744736382922482,-0.035195925870911214,0.1898082153800278,-0.14960275844967155,-0.04930556619299838,-0.028875538456212227,139.65720733016485,0.9044757760471,318.659592942501,-295.88310517095204,-73.30706986979786,-0.012310242232949353
0.01670629250586612,0.2700825310887895,-0.21693178953371808,-0.035439996207423226,-1.053314221560942,-0.0043332354226960435,0.13860157954525978,-0.036325879577188976,0.18978933489450253,-0.14958795704859185,-0.04971852230526212,-0.02904365659608693,140.80845581587485,-0.24167885096397157,318.02085627340887,-295.80610905483866,-73.72480827190029,-0.009930992653625292
0.01698580249765391,0.2700076218754322,-0.2165522488492115,-0.0357391424877445,-1.0534144843108635,-0.004391658612302456,0.1397549958938941,-0.0374546066786508,0.18977034225329376,-0.14957314016063722,-0.05013137496081245,-0.029211594803206172,141.95889322562604,-1.3866499027708272,317.3770558170416,-295.7283676648359,-74.14245776947355,-0.007552757941313215
0.017267617710072472,0.26993045768141033,-0.2161727463741989,-0.03603825910340186,-1.0535155725575909,-0.004450417320376239,0.14090760620928214,-0.03858209701093404,0.18975123750631068,-0.14955830782868074,-0.05054412336372129,-0.02937935403689162,143.1085129602565,-2.530427253173265,316.7282011075882,-295.6498812128838,-74.56001749531507,-0.0051755265700021424
0.017551736517732775,0.2698510410005688,-0.21579328233279035,-0.036337346023594494,-1.0536174860910277,-0.0045095111909093525,0.14205940383015161,-0.03970834042077074,0.18973202070426773,-0.14954346009631883,-0.05095676671834756,-0.02954693526655658,144.25730842551573,-3.6730007867537395,316.0743017530211,-295.5706499122715,-74.97748658214503,-0.002799287011391427
0.01783815728193246,0.2697693743470366,-0.21541385694899295,-0.03663640321761024,-1.0537202246994863,-0.004568939869852789,0.14321038209984235,-0.04083332676609049,0.18971269189870218,-0.1495285970078733,-0.051369304229333244,-0.029714339471718296,145.4052730321018,-4.814360398965071,315.41536743495385,-295.49067397763446,-75.39486416260955,-0.00042402773539151895
0.018126878350665152,0.26968546025520435,-0.21503447044670898,-0.036935430654827024,-1.0538237881696895,-0.004628703005136809,0.14436053436634536,-0.04195704591612159,0.18969325114198968,-0.14951371860839333,-0.05178173510160043,-0.02988156764201004,146.5524001956983,-5.954495996217155,314.75140790849775,-295.4099536249524,-75.81214936928328,0.0019502627893755453
0.018417898058629836,0.2695993012797014,-0.21465512304973428,-0.03723442830471434,-1.0539281762867703,-0.004688800246691194,0.14550985398234165,-0.04307948775149052,0.1896736984873575,-0.1494988249436574,-0.05219405854034894,-0.03004862077719285,147.69868333701132,-7.093397495964297,314.0824330021169,-295.32848907154636,-76.22934133467265,0.004323596095075266
0.018711214727240317,0.26951089999537275,-0.2142758149817565,-0.037533396136834686,-1.0540333888342723,-0.004749231246465528,0.14665833430524125,-0.04420064216432007,0.18965403398889646,-0.1494839160601753,-0.052606273751054575,-0.030215499887167065,148.84411588180623,-8.231054826791834,313.40845261748234,-295.2462805360764,-76.64643919121872,0.006695983714159415
0.01900682666463476,0.2694202589972561,-0.21389654646635334,-0.037832334120845065,-1.0541394255941512,-0.0048099956584494955,0.14780596869722196,-0.04532049905832616,0.18963425770157147,-0.14946899200518987,-0.05301837993946782,-0.030382205991983553,149.98869126094476,-9.367457928503342,312.7294767293256,-295.1633282385391,-77.06344207130016,0.009067437178865378
0.019304732165685297,0.26932738090055824,-0.21351731772699087,-0.03813124222649842,-1.0542462863467743,-0.0048710931386932044,0.14895275052526816,-0.04643904834891379,0.18961436968123055,-0.14945405282667892,-0.053430376311613,-0.03054874012185462,151.13240291042155,-10.502596752206948,312.04551538529046,-295.0796324002646,-77.4803491072365,0.011437968020716172
0.01960352251058007,0.2692321840745964,-0.21313818945841917,-0.038429833188059585,-1.0543539959399408,-0.004933061916792865,0.14939517244738548,-0.04759841298091457,0.1895641342858559,-0.1492954807805842,-0.0538547965832185,-0.03098438904982996,152.27557951786048,-11.636878658986177,311.3573008003008,-294.9941137942007,-77.89697511988284,0.0139007983385952
0.01990269104539513,0.26913469479606184,-0.21275914799900128,-0.03872809551767869,-1.0544625456505579,-0.004996098753333645,0.14958426740752995,-0.048744639267308404,0.18952072970894768,-0.1491311648095508,-0.05427485530854742,-0.03151841827038984,153.41800160331576,-12.769991406178548,310.6643238015622,-294.9074508596775,-78.31343597677969,0.01639718752309044
0.020202045776257185,0.2690349433706345,-0.21238017551561156,-0.03902608598575662,-1.0545719271563332,-0.005060279966783343,0.14967736543102791,-0.04987571271367848,0.18948624169486525,-0.148995234038964,-0.05469075288764722,-0.03209060672484888,154.5595892612088,-13.901830882328497,309.9664307089038,-294.81988052326204,-78.72977093580614,0.018904671475391766
0.020501505085948734,0.2689329493206113,-0.2120012608088236,-0.03932386615047501,-1.0546821360290521,-0.005125638858592052,0.14972965484577386,-0.05099702501158858,0.18945735339398245,-0.14889008235919943,-0.055104436359439186,-0.032679445904354607,155.700309954482,-15.032361334105438,309.2635859583241,-294.7314866452748,-79.14599311189859,0.021415382307022057
0.020801029227608507,0.26882872410909786,-0.21162239793266194,-0.03962148677031735,-1.0547931702143287,-0.0051921919582913235,0.149762070829887,-0.05211260575672295,0.1894314380808242,-0.14881030992116784,-0.055517092638266416,-0.03327654984963593,156.84014677121846,-16.16156757290406,308.5557900641764,-294.64230183148965,-79.56210704580695,0.023926839417967416
0.021100596175737438,0.268722274785003,-0.21124358391318282,-0.039918986243582005,-1.0549050287240678,-0.005259948434932928,0.14978347406446454,-0.053224662047438205,0.1894070097395546,-0.14874973663232832,-0.05592925486952257,-0.033878238320802084,157.97908834399152,-17.28944017276575,307.8430539145866,-294.5523405268665,-79.97811429216091,0.02643847245246217
0.02140019245499483,0.26861360621541946,-0.21086481729177436,-0.04021639261931669,-1.0550177109818817,-0.0053289137653386295,0.14979813962869462,-0.054334284791769806,0.18938331070422626,-0.1487031878673442,-0.05634112890694598,-0.034482665202850954,159.11712551320818,-18.41597096453704,307.12539083278887,-294.4616101582776,-80.39401525530116,0.028950331191076317
0.021699809275858073,0.2685027222275816,-0.2104860973593337,-0.0405137260660161,-1.055131216556315,-0.005399091334234735,0.14980841043162166,-0.05544199391894942,0.18935996622032727,-0.1486667233497037,-0.056752787216633446,-0.035088784448052794,160.25425014203768,-19.541151747103576,306.4028142566287,-294.3701150955368,-80.80980982877475,0.03146262310970793
0.021999440688193,0.2683896261554571,-0.2101074237812603,-0.04081100097720364,-1.0552455450672247,-0.005470483228557761,0.14981570616746331,-0.05654803606224538,0.1893367890367108,-0.14863745559376934,-0.05716425545491488,-0.03569594716151274,161.39045464635535,-20.66497399064793,305.67533717588356,-294.27785818035176,-81.22549764073696,0.0339755593578801
0.02229908258123766,0.268274321096823,-0.20972879641771655,-0.041108227587241586,-1.055360696157733,-0.005543090682443565,0.1498209465223292,-0.0576525293170575,0.18931368177186794,-0.14861330501897438,-0.057575545254249766,-0.03630372694290181,162.52573177907303,-21.787428829960724,304.9429720943129,-294.18484138784555,-81.6410781619712,0.03648931229302754
0.022598732083956203,0.26815681003582087,-0.20935021523673727,-0.04140541315995459,-1.0554766694872513,-0.00561691435072973,0.14982475135927179,-0.058755530501043846,0.1892905904896382,-0.14859278635650527,-0.05798666475909227,-0.03691183414308253,163.66007451511987,-22.908507128436092,304.20573112547874,-294.0910661537012,-82.05655076137788,0.039004010940168754
0.022898387179519662,0.2680370959035585,-0.20897168027086072,-0.04170256284642412,-1.0555934647296943,-0.005691954487568112,0.14982754778172971,-0.059857066131188776,0.1892674829382737,-0.14857484323476344,-0.05839762122145519,-0.03752006841919076,164.79347598227358,-24.028199547202732,303.4636261032016,-293.9965335577033,-82.47191473854392,0.04151974754165083
0.023198046446725577,0.2679151816096659,-0.20859319159433432,-0.041999680298334896,-1.0557110815721982,-0.005768211067318769,0.14982963360295712,-0.060957146946318465,0.18924433826319517,-0.1485587259553903,-0.058808421251967585,-0.0381282898753287,165.9259294162177,-25.146496602569144,302.71666867486357,-293.9012444371139,-82.88716934468022,0.04403658592023385
0.023497708882341522,0.26779107005968344,-0.20821474931030973,-0.04229676810449726,-1.0558295197134455,-0.005845683868023349,0.14983121780797218,-0.062055774991216645,0.18922114201228935,-0.14854390308118123,-0.059219070623688336,-0.03873640035229023,167.05742813004912,-26.263388709836505,301.9648703729184,-293.80519946117994,-83.30231379680585,0.046554568819165476
0.02379737377742977,0.26766476416514207,-0.20783635354309882,-0.0425938281007713,-1.05594877886173,-0.005924372529664607,0.14983244754412386,-0.06315294727068979,0.18919788360545425,-0.1485299981370219,-0.059629574142269555,-0.03934433082062877,168.18796549312353,-27.37886621553649,301.2082426675219,-293.70839918187045,-83.7173472876264,0.049073723639958045
0.024097040630637046,0.2675362668496291,-0.20745800443314066,-0.04289086158982279,-1.056068858733027,-0.006004276595061732,0.14983342660363802,-0.06424865775646953,0.1891745549790798,-0.14851674452574573,-0.06003993564839109,-0.03995203269856238,169.3175349162187,-28.492919420760956,300.4467970045326,-293.6108440690921,-84.13226899250839,0.05159406671292932
0.024396709087168636,0.26740558105251605,-0.20707970213351778,-0.043187869496831656,-1.0561897590492433,-0.006085395538663312,0.14983422826579415,-0.0653428985565268,0.18915114981143613,-0.14850395350443335,-0.060450158108157036,-0.040559471800790274,170.44612984107542,-29.605538597912833,299.6805448326868,-293.51253453537146,-84.54707807443828,0.05411560640318458
0.024696378895751093,0.26727270973125716,-0.20670144680741953,-0.043484852479773295,-1.0563114795367259,-0.006167728786850643,0.14983490429122856,-0.06643566062943725,0.18912766304912038,-0.14849149147081972,-0.060860243741280566,-0.04116662409366536,171.57374373301005,-30.71671400269107,298.9094976229258,-293.4134709532362,-84.9617736875603,0.05663834534449824
0.024996049878248026,0.26713765586278665,-0.20632323862622273,-0.04378181100750562,-1.056434019925034,-0.00625127573226511,0.14983549124846696,-0.0675269342352529,0.18910409059839714,-0.14847926386616195,-0.061270194154046075,-0.04177347270723385,172.700370075694,-31.826435882655367,298.1336668820967,-293.31365366748145,-85.37635497970507,0.05916228203747975
0.02529572190819665,0.26700042244433597,-0.2059450777679979,-0.044078745415050705,-1.0565573799459542,-0.00633603574392148,0.1498360149743122,-0.06861670922533883,0.18908042911241676,-0.14846720377254394,-0.061680010460186604,-0.04238000582818504,173.82600236746745,-32.934694483349254,297.3530641626386,-293.21308300383174,-85.79082109419943,0.061687411990330954
0.025595394895641582,0.2668610124938763,-0.20556696441632263,-0.04437565594272649,-1.0566815593327208,-0.006422008174346751,0.1498364937224669,-0.06970497522983914,0.18905667583762542,-0.14845526383789265,-0.06208969338331796,-0.042986215212635674,174.9506341187393,-34.04148005268435,296.5677010694115,-293.1117592750575,-86.20517117116235,0.06421372853254365
0.02589506877641686,0.26671942905031953,-0.20518889875932497,-0.04467254276384378,-1.0568065578194012,-0.00650919236461867,0.14983694038763884,-0.07079172177838738,0.18903282849882563,-0.1484434105586476,-0.062499243340261725,-0.043592095135959276,176.07425885015803,-35.14678284408718,295.7775892644977,-293.00968278529206,-86.61940434843406,0.0667412233953929
0.026194743504571107,0.2665756751735662,-0.20481088098890346,-0.04496940600430833,-1.0569323751404156,-0.0065975876479208925,0.14983736407712325,-0.071876938376673,0.18900888521075254,-0.14843162023227321,-0.0629086605071868,-0.0441976416511115,177.19687009132875,-36.25059311876685,294.9827404705597,-292.9068538330746,-87.03351976224282,0.06926988712633314
0.026494419047014075,0.26642975394445884,-0.20443291130008623,-0.04526624575649276,-1.0570590110301583,-0.006687193352050552,0.14983777122148398,-0.07296061455366593,0.18898484440861235,-0.1484198760922172,-0.0633179448713732,-0.04480285206482977,178.3184613799167,-37.35290114735777,294.18316647317744,-292.80327271349427,-87.44751654768378,0.07179970938510111
0.02679409537973318,0.2662816684646801,-0.20405498989050094,-0.04556306208905288,-1.0571864652227012,-0.006778008801186036,0.1498381663595525,-0.07404273988937658,0.1889607047926468,-0.14840816628005665,-0.06372709627142505,-0.0454077245677419,179.43902626102584,-38.453697211117,293.3788791224569,-292.69893971969793,-87.86139383906372,0.0743306791555568
0.02709377248511968,0.2661314218566205,-0.20367711695993423,-0.04585985505387351,-1.0573147374515581,-0.006870033317132445,0.14983855269324906,-0.07512330402980899,0.1889364652833547,-0.14839648241031678,-0.06413611442842544,-0.04601225797320404,180.5585582867708,-39.55297160280609,292.5698903341246,-292.59385514394825,-88.27515077014944,0.07686278489745219
0.0273934503500791,0.26597901726323325,-0.20329929270996427,-0.04615662469098315,-1.0574438274494984,-0.006963266220198339,0.14983893247971064,-0.07620229669361413,0.18891212498498458,-0.14838481855482274,-0.06454499897008725,-0.04661645153294705,181.67705101598645,-40.65071462734628,291.75621209025417,-292.4880192783656,-88.68878647434732,0.07939601465536861
0.027693128964695946,0.2658244578478863,-0.20292151734365316,-0.04645337103203115,-1.0575737349483973,-0.00705770682981229,0.1498393073084229,-0.07727970767349084,0.18888768315555413,-0.1483731705239985,-0.06495374944952834,-0.047220304806975595,182.794498014035,-41.746916602314286,290.93785643973285,-292.38143241544617,-89.10230008483381,0.08193035613705263
0.02799280832129009,0.2656677467942175,-0.20254379106528897,-0.04675009410274781,-1.0577044596791172,-0.007153354464955853,0.14983967829707126,-0.07835552683438599,0.1888631391820884,-0.14836153535833022,-0.06536236535993327,-0.047823817571781724,183.91089285268106,-42.84156785832246,290.1148354985426,-292.27409484842315,-89.5156907346502,0.08446579676990829
0.028292488413749976,0.2655088873059978,-0.20216611408016882,-0.047046793924684936,-1.0578360013714094,-0.007250208444467076,0.14984004622994349,-0.0794297441098619,0.18883849256007493,-0.14834991096856176,-0.06577084614606635,-0.04842698975561146,185.02622911001552,-43.93465873931684,289.28716144990887,-292.1660068715171,-89.92895755677209,0.08700232374183892
0.028592169237061437,0.26534788260700276,-0.20178848659441612,-0.04734347051644722,-1.057968359753836,-0.007348268087252733,0.14984041165573078,-0.08050234949753142,0.1888137428763547,-0.14833829588114006,-0.06617919121336766,-0.04902982139282829,186.1405003704133,-45.02617960281675,288.454846544354,-292.05716878010935,-90.34209968416089,0.08953992403089706
0.028891850786974708,0.2651847359408945,-0.20141090881482646,-0.047640123894563485,-1.0581015345537064,-0.007447532712436239,0.14984077495663475,-0.0815733330541419,0.18878888979483216,-0.14832668905813395,-0.06658739993518621,-0.049632312591753394,187.25370022451523,-46.116120820111625,287.61790309968535,-291.94758087086024,-90.75511624980176,0.0920785844268956
0.0291915330597691,0.26501945057111315,-0.20103338094873743,-0.04793675407410318,-1.0582355254970235,-0.0075480016394602655,0.14984113639719746,-0.08264268489067154,0.18876393304451033,-0.1483150897698468,-0.06699547165856896,-0.050234463512013244,188.3658222692268,-47.20447277642772,286.77634350093314,-291.83724344179035,-91.1680063867327,0.0946182915472456
0.029491216052086707,0.2648520297807778,-0.20065590320391852,-0.0482333610691126,-1.0583703323084412,-0.007649674188157449,0.14984149615880277,-0.08371039516765591,0.18873887240945308,-0.14830349750470923,-0.06740340570892321,-0.05083627434859181,189.47686010772853,-48.29122587107228,285.9301802002542,-291.72615679233473,-91.58076922806617,0.09715903184863378
0.029790899760814813,0.2646824768725961,-0.20027847578847782,-0.04852994489292369,-1.0585059547112288,-0.007752549678798667,0.14984185436405348,-0.08477645409086478,0.18871370772035023,-0.1482919119055458,-0.0678112013937942,-0.05143774532060865,190.58680734949465,-49.376370517562314,285.0794257168109,-291.6143212233794,-91.99340390700631,0.09970079163570728
0.0300905841830028,0.26451079516878134,-0.19990109891078298,-0.04882650555837269,-1.0586423924272406,-0.007856627432125519,0.14984221109399454,-0.08584085190738613,0.18868843884741995,-0.14828033272449848,-0.0682188580059429,-0.05203887666342642,191.69565761031757,-50.459897143740626,284.2240926366306,-291.5017370372847,-92.40590955686241,0.1022435570675842
0.030390269315803367,0.2643369880109771,-0.19952377277939412,-0.04912304307795498,-1.0587796451768923,-0.007961906769371724,0.14984256640028287,-0.08690357890213253,0.18866306569443017,-0.14826875979114698,-0.06862637482586656,-0.05263966862310223,192.80340451233616,-51.541796191884636,283.3641936124539,-291.3884045379002,-92.81828531105975,0.10478731416278841
0.03068995515643094,0.2641610587601876,-0.19914649760300682,-0.04941955746393491,-1.05891771267914,-0.0080683870122767,0.1498429203137857,-0.08796462539476119,0.18863758819365734,-0.14825719298996368,-0.06903375112387214,-0.05324012145248837,193.910041684067,-52.62205811880753,282.4997413635702,-291.27432403057384,-93.23053030314861,0.10733204880304387
0.030989641702132253,0.2639830107967136,-0.19876927359040356,-0.04971604872842365,-1.0590565946514636,-0.008176067483093684,0.14984327285065677,-0.08902398173698296,0.18861200630163327,-0.14824563224437004,-0.06944098616178931,-0.053840235408492004,195.01556276043706,-53.700673395955405,281.6307486756483,-291.15949582215706,-93.64264366681194,0.10987774673622897
0.031289328950165514,0.26380284752009314,-0.19839210095041246,-0.05001251688343457,-1.0591962908098524,-0.008284947504593982,0.14984362401663032,-0.09008163831022901,0.18858631999555406,-0.14823407750546239,-0.06984807919439066,-0.05444001075014883,196.11996138281825,-54.77763250950051,280.75722840055994,-291.04392022100734,-94.05462453587191,0.1124243935787177
0.03158901689778563,0.26362057234904585,-0.19801497989187197,-0.050308961940922645,-1.0593368008687936,-0.008395026400068516,0.14984397381005607,-0.09113758552363985,0.18856052927024664,-0.14822252874403924,-0.07025502947057284,-0.05503944773726752,197.22323119906204,-55.852925960432316,279.87919345619946,-290.9275975369887,-94.46647204429574,0.1149719748172664
0.03188870554223372,0.26343618872142116,-0.19763791062360075,-0.05060538391281257,-1.0594781245412623,-0.008506303493327464,0.14984432222404467,-0.09219181381234137,0.18853463413560548,-0.14821098594496376,-0.07066183623434182,-0.05563854662947379,198.32536586353535,-56.92654426464559,278.99665682630035,-290.81052808147166,-94.87818532620122,0.11752047581056946
0.03218839488072969,0.2632497000941492,-0.1972608933543719,-0.050901782811018925,-1.0596202615387136,-0.008618778108698532,0.14984466924798495,-0.0932443136359738,0.1885086346144259,-0.14819944910317714,-0.07106849872563654,-0.056237307685533734,199.42635903715626,-57.9984779530278,278.1096315602483,-290.6927121673322,-95.28976351586138,0.12006988179056671
0.032488084910466924,0.2630611099431943,-0.19688392829289078,-0.05119815864746068,-1.0597632115710756,-0.008732449571024276,0.14984501486861718,-0.09429507547744188,0.188482530740572,-0.14818791822087948,-0.0714750161810191,-0.05683573116287195,200.52620438743006,-59.06871757154468,277.21813077289255,-290.57415010895056,-95.70120574770915,0.12262017786355722
0.03278777562860851,0.2628704217635106,-0.19650701564777592,-0.05149451143407176,-1.059906974346744,-0.008847317205658727,0.14984535907079244,-0.09534408984185733,0.1884563225574274,-0.14817639330553617,-0.07188138783425388,-0.05743381731722512,201.62489558848569,-60.13725368132498,276.3221676443551,-290.45484222220944,-96.11251115634187,0.12517134901118587
0.03308746703228453,0.2626776390689993,-0.19613015562754274,-0.051790841182808696,-1.0600515495725775,-0.008963380338463505,0.1498457018380107,-0.09639134725564763,0.18843001011658464,-0.14816487436846779,-0.0722876129167944,-0.05803156640238935,202.72242632111167,-61.204076858744315,275.4217554198387,-290.3347888244925,-96.52367887652524,0.12772338009131057
0.03338715911859014,0.26248276539246773,-0.19575334844058925,-0.052087147905656404,-1.060196936953894,-0.009080638295803571,0.14984604315280176,-0.09743683826580822,0.18840359347673702,-0.14815336142385285,-0.07269369065819328,-0.0586289786700324,203.81879027279248,-62.26917769550841,274.51690740943195,-290.2139902346829,-96.93470804319747,0.13027625583879943
0.03368685188458413,0.2622858042855892,-0.19537659429518378,-0.05238343161463245,-1.0603431361944669,-0.009199090404542672,0.14984638299699576,-0.09848055343927771,0.18837707270274068,-0.14814185448802214,-0.07309962028644745,-0.059226054369550314,204.91398113774486,-63.33254679873584,273.6076369879151,-290.09244677316207,-97.34559779147344,0.13282996086626148
0.03398654532728796,0.2620867593188643,-0.19499989339945414,-0.05267969232179037,-1.0604901469965233,-0.009318735992038581,0.14984672135191524,-0.09952248336241867,0.1883504478648216,-0.1481303535789595,-0.07350540102828962,-0.059822793747954336,206.00799261695377,-64.39417479104006,272.6939575945629,-289.9701587618077,-97.75634725664818,0.13538447966473544
0.03428623944368498,0.26188563408158316,-0.19462324596137834,-0.05297593003922227,-1.0606379690607421,-0.009439574386138138,0.14984705819851166,-0.10056261864058864,0.1883237190379045,-0.14811885871594838,-0.07391103210943419,-0.06041919704977843,207.1008184182086,-65.45405231061153,271.775882732947,-289.84712652399276,-98.16695557420088,0.1379397966043338
0.03458593423071991,0.2616824321817876,-0.19424665218877624,-0.05327214477906091,-1.0607866020862518,-0.009561604915172139,0.1498473935174629,-0.10160094989778821,0.1882968863010452,-0.14810736991932144,-0.07431651275478512,-0.061015264517000456,208.19245225613926,-66.51217001129856,270.85342597073725,-289.7233503845844,-98.57742187979865,0.14049589593487216
0.034885629685298396,0.2614771572462349,-0.19387011228930234,-0.05356833655348148,-1.060936045770629,-0.009684826907950084,0.14984772728924292,-0.10263746777637445,0.1882699497369507,-0.14809588721028338,-0.07472184218861168,-0.061610996388972356,209.2828878522521,-67.56851856268908,269.9266009395017,-289.5988306699425,-98.98774530930024,0.14305276178646553
0.03518532580428674,0.2612698129203612,-0.1934936264704392,-0.053864505374703046,-1.0610862998098984,-0.009809239693754796,0.14984805949417154,-0.10367216293683053,0.18824290943157299,-0.14808441061078512,-0.07512701963469717,-0.06220639290235625,210.37211893496575,-68.62308865019085,268.99542133450564,-289.4735677079192,-99.39792499875965,0.14561037817011696
0.03548502258451164,0.26106040286824606,-0.19311719493949167,-0.054160651254989915,-1.0612373638985313,-0.009934842602336924,0.14984839011245063,-0.10470502605758264,0.18821576547376595,-0.1480729401434344,-0.07553204431646483,-0.06280145429106418,211.4601392396473,-69.67587097511262,268.05990091450974,-289.3475618278572,-99.80796008442985,0.14816872897828937
0.035784720022760015,0.2608489307725763,-0.1927408179035817,-0.05445677420665278,-1.0613892377294454,-0.010061634963909324,0.14984871912418987,-0.10573604783485743,0.18818851795499492,-0.14806147583143242,-0.0759369154570846,-0.06339618078620009,212.5469425086477,-70.72685625474391,267.1200535015669,-289.2208133605897,-100.21784970276634,0.15072779798546915
0.036084418115778866,0.2606354003346112,-0.1923644955696435,-0.05475287424204983,-1.0615419209940045,-0.01018961610914133,0.14984904650942593,-0.10676521898257352,0.18816116696909155,-0.1480500176985286,-0.07634163227956343,-0.06399057261600298,213.6325224913377,-71.77603522243548,266.1758929808185,-289.093322638439,-100.6275929904309,0.15328756884872624
0.03638411686027514,0.26041981527414665,-0.1919882281444194,-0.055048951373587805,-1.061695413382018,-0.010318785369152912,0.14984937224813635,-0.10779253023226226,0.18813371261204642,-0.1480385657689883,-0.07674619400682214,-0.06458463000579077,214.71687294414352,-72.82339862767915,265.2274333002898,-288.9650899952164,-101.03718908429497,0.15584802510826518
0.036683816252915634,0.26020217932948064,-0.19161201583445572,-0.05534500561372294,-1.0618497145817416,-0.01044914207550872,0.14984969632024991,-0.108817972333013,0.18810615498183406,-0.14802712006756957,-0.07715059986176048,-0.06517835317790432,215.79998763058242,-73.86893723618766,264.2746884706834,-288.83611576622087,-101.44663712144349,0.1584091501879779
0.036983516290326944,0.25998249625737774,-0.1912358588460992,-0.055641036974961956,-1.0620048242798763,-0.010580685560212024,0.1498500187056544,-0.1098415360514395,0.18807849417826497,-0.14801568061950665,-0.07755484906731253,-0.06577174235165148,216.88186032129835,-74.91264182997351,263.3176725651731,-288.70640028823914,-101.85593623917842,0.1609709273959875
0.03728321696909535,0.2597607698330344,-0.1908597573854935,-0.05593704546986295,-1.0621607421615693,-0.010713415155698526,0.14985033938420256,-0.11086321217166346,0.18805073030286118,-0.1480042474504977,-0.07795894084649364,-0.06636479774325091,217.96248479409732,-75.95450320742952,262.35639971919596,-288.5759438995446,-102.2650855750222,0.16353333992520142
0.03758291828576678,0.2595370038500438,-0.190483711658576,-0.05623303111103634,-1.0623174679104141,-0.010847330194830078,0.14985065833571673,-0.11188299149531389,0.18802286345875077,-0.14799282058669613,-0.07836287442244065,-0.06695751956577571,219.04185483398297,-76.99451218340663,261.3908841302436,-288.4447469398974,-102.6740842667215,0.16609637085385637
0.03788262023684676,0.25931120212036074,-0.19010772187107483,-0.05652899391114575,-1.062475001208451,-0.01098243001088827,0.14985097553999244,-0.11290086484153826,0.18799489375057943,-0.14798140005470395,-0.07876664901844586,-0.06754990802909679,220.11996423319175,-78.03265958929418,260.4211400576528,-288.31280975054324,-103.08293145225056,0.16866000314606683
0.038182322818800365,0.25908336847426666,-0.18973178822850595,-0.056824933882908886,-1.0626333417361669,-0.011118713937567923,0.14985129097680144,-0.11391682304702506,0.1879668212844357,-0.14796998588156693,-0.07917026385798626,-0.06814196333982595,221.19680679122877,-79.06893627309759,259.4471818223953,-288.1801326742139,-103.49162626981497,0.17122421965237505
0.03848202602805215,0.2588535067603346,-0.18935591093617038,-0.057120851039098426,-1.0627924891724962,-0.01125618130897044,0.14985160462589406,-0.1149308569660349,0.18793864616778827,-0.14795857809477084,-0.07957371816474823,-0.06873368570125873,222.27237631490237,-80.10333309951807,258.46902380686566,-288.0467160551258,-103.90016785785522,0.1737890031103067
0.03878172986098616,0.2586216208453937,-0.18898009019915152,-0.057416745392542906,-1.0629524431948216,-0.011394831459597075,0.14985191646700136,-0.11594295747043969,0.18791036850943316,-0.14794717672223853,-0.07997701116264902,-0.06932507531331711,223.34666661836008,-81.1358409500304,257.48668045467014,-287.9125602389806,-104.30855535505003,0.17635433614491836
0.03908143431394583,0.25838771461449417,-0.18860432622231263,-0.05771261695612756,-1.0631132034789734,-0.011534663724342059,0.14985222647983687,-0.11695311544976786,0.1878819884194495,-0.1479357817923276,-0.08038014207585482,-0.06991613237249186,224.41967152312324,-82.16645072296168,256.5001662704125,-287.7776655729642,-104.71678790032018,0.1789202012693616
0.03938113938323403,0.2581517919708717,-0.1882286192102943,-0.058008465742795216,-1.063274769699231,-0.011675677438485629,0.1498525346440982,-0.11796132181125536,0.1878535060091625,-0.14792439333382842,-0.08078311012879652,-0.07050685707178499,225.49138485812242,-83.19515333356927,255.50949581948063,-287.642032405747,-105.12486463283184,0.18148658088543884
0.03968084506511297,0.2579138568359119,-0.18785296936751206,-0.05830429176554714,-1.0634371415283235,-0.011817871937686932,0.14985284093946855,-0.11896756747990103,0.18782492139111245,-0.14791301137596255,-0.08118591454618308,-0.07109724960065178,226.56180045973267,-84.22193971411933,254.51468372783168,-287.5056610874832,-105.53278469200038,0.1840534572841649
0.03998055135580421,0.25767391314911486,-0.187477376898154,-0.0586000950374439,-1.0636003186374294,-0.011961246557976818,0.14985314534561783,-0.119971843398526,0.1877962346790289,-0.1479016359483812,-0.08158855455301336,-0.07168731014494305,227.63091217180806,-85.24680081396407,253.51574468177577,-287.3685519698107,-105.94054721749367,0.18662081264634012
0.040280258251488614,0.2574319648680592,-0.18710184200617838,-0.05889587557160623,-1.0637643006961786,-0.012105800635750511,0.14985344784220417,-0.12097414052783609,0.18776744598780912,-0.14789026708116404,-0.08199102937458602,-0.07227703888684707,228.69871384571718,-86.26972759962018,252.5126934277599,-287.23070540585104,-106.34815134923569,0.18918862904310896
0.040579965748306364,0.2571880159683662,-0.1867263648953114,-0.059191633381215865,-1.0639290873726517,-0.012251533507760174,0.1498537484088749,-0.12197444984648723,0.18773855543350043,-0.1478789048048179,-0.08239333823650839,-0.07286643600483167,229.7651993403778,-87.29071105484581,251.50554477214985,-287.09212175020883,-106.75559622741017,0.19175688843654443
0.0408796738423569,0.2569420704436639,-0.18635094576904482,-0.05948736847951642,-1.0640946783333811,-0.012398444511107347,0.14985404702526764,-0.1229727623511528,0.18770956313328555,-0.1478675491502757,-0.08279548036470404,-0.0734555016735862,230.83036252229186,-88.30974218071859,250.4943135810124,-286.95280135897195,-107.1628809924641,0.19432557268021944
0.041179382529698924,0.2566941323055507,-0.18597558483063387,-0.05978308087981421,-1.064261073243352,-0.012546532983235274,0.14985434367101155,-0.12396906905659333,0.18768046920547043,-0.1478562001488953,-0.08319745498541954,-0.07404423606396353,231.8941972655803,-89.32681199571235,249.47901477989564,-286.81274458971114,-107.57000478511117,0.19689466351978652
0.04147909180635038,0.25644420558355924,-0.18560028228309491,-0.06007877059547913,-1.0644282717660025,-0.012695798261921118,0.14985463832572826,-0.12496336099572719,0.18765127376947469,-0.14784485783245846,-0.0835992613252303,-0.07463263934292212,232.9566974520178,-90.34191153577508,248.45966335360907,-286.6719518014802,-107.97696674633553,0.19946414259356737
0.04177880166828844,0.2561922943251198,-0.18522503832920326,-0.06037443763994547,-1.0645962735632246,-0.012846239685268055,0.1498549309690329,-0.12595562921970332,0.18762197694582344,-0.14783352223316976,-0.08400089861104587,-0.0752207116734681,234.01785697106772,-91.35503185440515,247.43627434600248,-286.5304233548152,-108.38376601739512,0.20203399143313533
0.042078512111449515,0.25593840259552386,-0.18484985317149097,-0.06067008202671278,-1.0647650782953648,-0.012997856591697249,0.14985522158053516,-0.12694586479797437,0.18759257885614122,-0.1478221933836556,-0.0844023660701145,-0.07580845321459737,235.07766971991643,-92.36616402272861,246.40886285974415,-286.3881596117351,-108.79040173982533,0.20460419146391312
0.0423782231317292,0.25568253447788714,-0.18447472701224468,-0.06096570376934671,-1.064934685621225,-0.013150648319939725,0.14985551013984025,-0.1279340588183711,0.18756307962314692,-0.14781087131696302,-0.08480366293002732,-0.07639586412123783,236.13612960350838,-93.37529912957578,245.37744405609834,-286.24516093574124,-109.19687305544245,0.20717472400576714
0.0426779347249823,0.2554246940731128,-0.1840996600535034,-0.06126130288147982,-1.0651050951980623,-0.013304614209028108,0.1498557966265498,-0.1289202023871775,0.1875334793706499,-0.14779955606655876,-0.08520478841872209,-0.07698294454419176,237.19323053458044,-94.38242828155796,244.3420331547017,-286.10142769181743,-109.60317910634741,0.20974557027360674
0.042977646887022825,0.2551648854998544,-0.1837246524970563,-0.06155687937681248,-1.0652763066815913,-0.013459753598288264,0.14985608102026304,-0.12990428662920647,0.1875037782235472,-0.14778824766632814,-0.08560574176448661,-0.07756969463007801,238.2489664336965,-95.38754260314356,243.3026454333387,-285.9569602464298,-110.00931903492913,0.2123167113779939
0.04327735961362398,0.25490311289447865,-0.18334970454444066,-0.061852433269113626,-1.0654483197259832,-0.013616065827330813,0.1498563633005776,-0.1308863026878757,0.1874739763078215,-0.14777694615057407,-0.0860065221959618,-0.07815611452127465,239.303331229282,-96.39063323673477,242.2592962277169,-285.8117589675268,-110.41529198386812,0.21488812832574528
0.04357707290051816,0.25463938041102807,-0.18297481639693958,-0.06214796457222166,-1.0656211339838675,-0.013773550236042537,0.14985664344709057,-0.13186624172528455,0.1874440737505397,-0.1477656515540158,-0.0864071289421446,-0.07874220435586142,240.35631885765832,-97.3916913427433,241.2120009312403,-285.6658242245392,-110.8210970961399,0.21745980202055099
0.04387678674339696,0.2543736922211835,-0.18259998825557988,-0.06244347330004524,-1.0657947491063322,-0.013932206164577661,0.1498569214393994,-0.13284409492229055,0.18741407067985213,-0.14775436391178792,-0.08680756123239046,-0.0793279642675625,241.40792326307735,-98.39070809966657,240.16077499478325,-285.5191563883801,-111.22673351501881,0.22003171326358872
0.04417650113791117,0.25410605251422635,-0.1822252203211299,-0.06273895946656412,-1.065969164742925,-0.01409203295334904,0.14985719725710295,-0.13381985347858658,0.18738396722499218,-0.14774308325943916,-0.08720781829641601,-0.07991339438568927,242.45813839775562,-99.38767470416349,239.10563392646193,-285.37175583144466,-111.63220038408144,0.2226038427541454
0.044476216079670776,0.2538364654970008,-0.18185051279409734,-0.06303442308582997,-1.0661443805416537,-0.014253029943019207,0.14985747087980228,-0.13479350861277797,0.18735376351627644,-0.14773180963293137,-0.08760789936430123,-0.08049849483508324,243.50695822190866,-100.38258237113018,238.04659329140654,-285.2236229276107,-112.03749684720998,0.2251761710902428
0.04477593156424498,0.25356493539387587,-0.18147586587472714,-0.06332986417196725,-1.0663203961489867,-0.014415196474491325,0.1498577422871019,-0.13576505156245985,0.18732345968510514,-0.14772054306863824,-0.08800780366649165,-0.08108326573605908,244.5543767037855,-101.3754223337753,236.98366871153175,-285.07475805223805,-112.44262204859604,0.2277486787692682
0.045075647587162204,0.2532914664467073,-0.18110127976299922,-0.06362528273917394,-1.0664972112098543,-0.01457853188890002,0.14985801145861055,-0.13673447358429444,0.18729305586396278,-0.14770928360334423,-0.08840753043380045,-0.08166770720434778,245.60038781970238,-102.36618584369569,235.91687586530637,-284.9251615821693,-112.8475751327439,0.2303213461886056
0.04537536414391009,0.2530160629147991,-0.1807267546586264,-0.06392067880172242,-1.066674825367649,-0.0147430355276021,0.14985827837394217,-0.13770176595408845,0.18726255218641916,-0.14769803127424325,-0.08880707889741044,-0.08225181935104,246.64498555407752,-103.35486417095143,234.84623048752255,-284.7748338957293,-113.2523552444743,0.23289415364627664
0.04567508122993552,0.2527387290748654,-0.18035229076105214,-0.06421605237396029,-1.0668532382642268,-0.01490870673216716,0.14985854301271687,-0.1386669199668705,0.18723194878713043,-0.1476867861189375,-0.0892064482888759,-0.0828356022825295,247.6881638994646,-104.34144860414087,233.77174836906426,-284.6237753727254,-113.65696152892787,0.23546708134157884
0.04597479884064465,0.25245946922099144,-0.17997788826944847,-0.06451140347031116,-1.067032449539907,-0.015075544844368072,0.14985880535456209,-0.13962992693696843,0.18720124580184047,-0.14767554817543635,-0.08960563784012449,-0.08341905610045659,248.7299168565872,-105.32593045047574,232.6934453566743,-284.4719863944478,-114.06139313156856,0.23804010937573755
0.046274516971402876,0.25217828766459527,-0.1796035473827137,-0.06480673210527547,-1.067212458833474,-0.015243549206171375,0.14985906537911334,-0.14059077819808657,0.1871704433673823,-0.14766431748215486,-0.09000464678345893,-0.08400218090165201,249.77023843437294,-106.30830103585562,231.61133735272114,-284.31946734366926,-114.46564919818739,0.240613217752549
0.046574235617534904,0.2518951887343885,-0.17922926829947033,-0.0651020382934313,-1.067393265782177,-0.015412719159727537,0.14985932306601532,-0.14154946510338307,0.18713954162167962,-0.1476530940779127,-0.0904034743515589,-0.08458497677808068,250.8091226499868,-107.28855170494288,230.52544031496475,-284.1662186046456,-114.86972887490577,0.2431863863790404
0.04687395477432475,0.2516101767763374,-0.17885505121806283,-0.06539732204943516,-1.067574870021732,-0.015583054047361109,0.14985957839492287,-0.14250597902554688,0.1871085407037485,-0.14764187800193276,-0.09080211977748257,-0.08516744381678568,251.84656352886574,-108.26667382123689,229.4357702563219,-284.01224056311565,-115.27363130817919,0.24575959506612682
0.047173674437015756,0.25132325615362366,-0.17848089633655542,-0.06569258338802283,-1.0677572711863212,-0.015754553211560773,0.14985983134550201,-0.14346031135687487,0.18707744075369898,-0.14763066929383994,-0.09120058229466826,-0.08574958209983244,252.88255510475202,-109.24265876714851,228.3423432446299,-283.85753360630133,-115.67735564480058,0.2483328235292755
0.04747339460081062,0.25103443124660496,-0.17810680385272995,-0.06598782232401015,-1.0679404689085952,-0.01592721599496928,0.14986008189743089,-0.14441245350934875,0.18704624191273697,-0.1476194679936597,-0.09159886113693619,-0.086331391704253,253.91709141972729,-110.21649794407406,227.24517540241055,-283.702098122908,-116.08090103190395,0.2509060513891671
0.04777311526087142,0.25074370645277555,-0.17773277396408363,-0.06628303887229378,-1.0681244628196722,-0.01610104174037326,0.1498603300304008,-0.14536239691471187,0.18701494432316595,-0.1476082741418167,-0.09199695553848998,-0.0869128727019904,254.9501665242463,-111.18818277246925,226.14428290663238,-283.5459345031245,-116.48426661696793,0.2534792581723749
0.04807283641231965,0.25045108618672646,-0.17735880686782685,-0.06657823304785204,-1.06830925254914,-0.016276029790692946,0.14986057572411726,-0.14631013302454576,0.18698354812838894,-0.14759708777913363,-0.09239486473391825,-0.08749402515984332,255.98177447717038,-112.1577046919235,225.03968198847315,-283.38904313862355,-116.88745154781924,0.25605242331203254
0.048372558050236256,0.2501565748801058,-0.17698490276088102,-0.0668734048657457,-1.0684948377250565,-0.016452179488971767,0.1498608189583008,-0.1472556533103468,0.18695205347291022,-0.1475859089468296,-0.09279258795819623,-0.0880748491394108,257.0119093458016,-113.12505516123312,223.93138893308043,-283.23142442256164,-117.29045497263614,0.25862552614851886
0.04867228016966163,0.24986017698157859,-0.17661106183987635,-0.06716855434111874,-1.0686812179739498,-0.01662949017836584,0.14986105971268832,-0.14819894926360255,0.1869204605023373,-0.14757473768651883,-0.09319012444668721,-0.08865534469703708,258.04056520591547,-114.0902256584749,222.81942007933213,-283.07307874957974,-117.69327603995212,0.26119854593013875
0.0489720027655957,0.24956189695678685,-0.17623728430114957,-0.06746368148919915,-1.06886839292082,-0.01680796120213335,0.14986129796703382,-0.1491400123958678,0.1868887693633829,-0.14756357404020917,-0.09358747343514416,-0.08923551188375665,259.0677361417954,-115.05320768107973,221.7037918195964,-282.91400651580284,-118.0959138986592,0.2637714618138081
0.049271725832997916,0.24926173928830916,-0.17586357034074185,-0.06775878632529975,-1.0690563621891394,-0.016987591903623832,0.14986153370110958,-0.15007883423884083,0.18685698020386665,-0.14755241805030073,-0.09398463415971124,-0.0898153507452395,260.09341624626586,-116.01399274590571,220.5845205994899,-282.7542081188409,-118.4983676980117,0.26634425286575164
0.04957144936678733,0.2489597084756203,-0.1754899201543964,-0.06805386886481891,-1.0692451254008533,-0.017168381626267305,0.14986176689470718,-0.15101540634443922,0.18682509317271723,-0.14754126975958437,-0.09438160585692532,-0.09039486132173637,261.1175996207254,-116.97257238931107,219.46162291763653,-282.5936839577888,-118.90063658762948,0.2689168980621922
0.04987117336184261,0.24865580903505055,-0.17511633393755646,-0.06834892912324139,-1.0694346821763807,-0.017350329713563355,0.1498619975276384,-0.15194972028487558,0.18679310841997407,-0.1475301292112402,-0.09477838776371743,-0.09097404364802433,262.14028037518074,-117.92893816722722,218.335115325424,-282.4324344332267,-119.30271971750162,0.2714893762900534
0.05017089781300208,0.2483500454997451,-0.1747428118853629,-0.06864396711613907,-1.0696250321346155,-0.01753343550907006,0.14986222557973652,-0.15288176765273304,0.18676102609678935,-0.14751899644883606,-0.09517497911741432,-0.09155289775335242,263.1614526282795,-118.88308165523136,217.205014426761,-282.2704599472201,-119.70461623798995,0.27406166634766327
0.05047062271506379,0.24804242241962302,-0.17436935419265204,-0.06893898285917173,-1.069816174892927,-0.017717698356392836,0.1498624510308571,-0.1538115400610407,0.18672884635542988,-0.14750787151632605,-0.09557137915573996,-0.09213142366138745,264.18111050734376,-119.83499444861936,216.07133687783298,-282.1077609033205,-120.10632529983235,0.2766337469454614
0.050770348062785554,0.2477329443613363,-0.17399596105395349,-0.06923397636808783,-1.0700081100671606,-0.017903117599173155,0.14986267386087918,-0.1547390291433489,0.1866965693492789,-0.14749675445804888,-0.09596758711681698,-0.09270962139016002,265.1992481484036,-120.78466816247774,214.9340993868567,-281.94433770656553,-120.50784605414648,0.27920559670670936
0.05107007385088497,0.2474216159082287,-0.17362263266348782,-0.06952894765872528,-1.070200837271639,-0.018089692581077177,0.14986289404970635,-0.15566422655380405,0.18666419523283795,-0.1474856453187265,-0.09636360223916816,-0.09328749095201065,266.2158596962294,-121.7320944317563,213.7933187138351,-281.7801907634794,-120.90917765243317,0.28177719416820923
0.051369800074039504,0.24710844166029425,-0.17324936921516437,-0.0698238967470122,-1.0703943561191624,-0.01827742264578425,0.14986311157726767,-0.15658712396722366,0.18663172416172885,-0.14747454414346223,-0.09675942376171799,-0.0938650323535361,267.23093930436585,-122.67726491134005,212.64901167031064,-281.61532048207323,-121.31031924657985,0.28434851778102077
0.051669526726886544,0.24679342623413592,-0.17287617090257898,-0.07011882364896768,-1.07058866622101,-0.01846630713697532,0.14986332642351893,-0.1575077130791709,0.18659915629269533,-0.14746345097773944,-0.09715505092379403,-0.09444224559553581,268.2444811351644,-123.62017127612113,211.50119511911805,-281.4497272718451,-121.71126998886423,0.2869195459111878
0.05196925380402343,0.24647657426292385,-0.17250303791901178,-0.07041372838070252,-1.0707837671869402,-0.01865634539832124,0.14986353856844356,-0.15842598560602922,0.18656649178360485,-0.14745236586741972,-0.09755048296512847,-0.09501913067295858,269.25647935981664,-124.56080522107078,210.3498859741369,-281.28341154378097,-122.11202903195755,0.28949025684046215
0.05226898130000754,0.2461578903963537,-0.17212997045742487,-0.07070861095842,-1.070979658625192,-0.018847536773470938,0.14986374799205376,-0.1593419332850764,0.1865337307934505,-0.14744128885874133,-0.09794571912585957,-0.09559568757484938,270.26692815838726,-125.49915846131083,209.19510120004253,-281.11637371035476,-122.51259552892833,0.29206062876703964
0.05256870920935632,0.24583737930060456,-0.17175696871046017,-0.07100347139841663,-1.0711763401424852,-0.01903988060603953,0.14986395467439162,-0.16025554787455903,0.18650087348235259,-0.14743021999831754,-0.09834075864653319,-0.09617191628429625,271.2758217198465,-126.43522273218508,208.03685781205684,-280.94861418552887,-122.91296863324558,0.2946306398062887
0.05286843752654738,0.24551504565829704,-0.17138403287043705,-0.0712983097170829,-1.0713738113440214,-0.019233376239596284,0.1498641585955301,-0.1611668211537661,0.18646792001156048,-0.14741915933313487,-0.09873560076810413,-0.09674781677837757,272.2831542421036,-127.36898978933058,206.87517287569833,-280.78013338475427,-123.31314749878244,0.2972002679915015
0.05316816624601853,0.24519089416845083,-0.17101116312935014,-0.071593125930904,-1.0715720718334854,-0.019428023017652504,0.14986435973557422,-0.1620757449231028,0.18643487054345434,-0.1474081069105515,-0.09913024473193768,-0.09732338902810928,273.2889199320393,-128.30045140874927,205.7100635065314,-280.6109317249716,-123.71313127981975,0.2997694912746254
0.05346789536216785,0.2448649295464425,-0.17063835967886704,-0.0718879200564606,-1.071771121213045,-0.019623820283649288,0.1498645580746621,-0.1629823110041644,0.18640172524154658,-0.14739706277829545,-0.09952468977981116,-0.09789863299839237,274.29311300553843,-129.22959938687802,204.54154686991467,-280.44100962461084,-124.11291913104928,0.30233828752701697
0.05376762486935378,0.2445371565239629,-0.17026562271032608,-0.07218269211042952,-1.0719709590833528,-0.01982076738094521,0.14986475359296608,-0.16388651123980907,0.18636848427048386,-0.1473860269844629,-0.09991893515391521,-0.09847354864796057,275.2957276875229,-130.1564255406604,203.369640180749,-280.27036750359247,-124.51251020757732,0.30490663454019096
0.05406735476189517,0.24420757984897445,-0.16989295241473398,-0.07247744210958455,-1.0721715850435465,-0.020018863652803864,0.14986494627069377,-0.16478833749423155,0.18633514779604834,-0.14737499957751637,-0.1003129800968554,-0.09904813592932817,276.2967582119843,-131.0809217076167,202.19436070322445,-280.0990057833274,-124.91190366492815,0.3074745100265778
0.054367085034071345,0.2438762042856684,-0.16952034898276366,-0.07277217007079712,-1.0723729986912498,-0.020218108442381342,0.14986513608808924,-0.16568778165303583,0.18630171598515957,-0.14736398060628306,-0.10070682385165361,-0.09962239478873802,277.2961988220161,-132.00307974591445,201.0157257505669,-279.926924886718,-125.31109865904762,0.3100418916202799
0.054666815680122216,0.24354303461442178,-0.16914781260475192,-0.07306687601103702,-1.0725751996225732,-0.02041850109271356,0.149865323025434,-0.16658483562330795,0.18626818900587594,-0.14735297011995285,-0.10110046566174953,-0.10019632516610974,278.2940437698467,-132.9228915344393,199.83375268478355,-279.75412523815777,-125.7100943463063,0.3126087568778347
0.05496654669424831,0.2432080756317544,-0.16877534347069714,-0.07336155994737317,-1.0727781874321152,-0.020620040946703538,0.14986550706304827,-0.16747949133368883,0.18623456702739616,-0.14734196816807674,-0.10149390477100213,-0.10076992699498802,279.29028731687174,-133.8403489728642,198.6484589164081,-279.5806072635329,-126.10888988350325,0.3151750832789841
0.055266278070610894,0.2428713321502855,-0.16840294177025703,-0.07365622189697431,-1.0729819617129626,-0.02082272734710852,0.14986568818129192,-0.16837174073444638,0.18620085022006092,-0.14733097480056476,-0.10188714042369104,-0.10134320020249121,280.28492373368607,-134.75544398172048,197.4598619042451,-279.4063713902221,-126.50748442786933,0.3177408482274423
0.055566009803332025,0.2425328089986904,-0.1680306076927463,-0.07395086187710968,-1.0731865220566916,-0.021026559636527043,0.14986586636056579,-0.16926157579754791,0.1861670387553542,-0.14731999006768431,-0.1022801718645181,-0.10191614470926,281.2779473001168,-135.6681685024667,196.26797915511338,-279.23141804709724,-126.90587713707058,0.32030602905167205
0.05586574188649465,0.24219251102165693,-0.16765834142713448,-0.0742454799051498,-1.073391868053369,-0.021231537157385856,0.1498660415813126,-0.17014898851673205,0.18613313280590488,-0.1473090140200582,-0.1026729983386088,-0.10248876042940634,282.2693523052551,-136.57851449755893,195.07282822358943,-279.05574766452395,-127.30406716921183,0.3228706030056596
0.05616547431414269,0.24185044307984177,-0.16728614316204352,-0.07454007599856713,-1.073597999291552,-0.021437659251926783,0.14986621382401819,-0.1710339709075805,0.18609913254548807,-0.1472980467086627,-0.10306561909151367,-0.10306104727046254,283.2591330474887,-137.48647395052,193.87442671174927,-278.87936067436243,-127.70205368283996,0.3254345472697013
0.05646520708028112,0.2415066100498266,-0.16691401308574547,-0.07483465017493678,-1.0738049153582905,-0.021644925262193443,0.14986638306921268,-0.1719165150075898,0.18606503814902653,-0.14728708818482575,-0.10345803336920982,-0.10363300513333046,284.2472838345341,-138.39203886600865,192.67279226891048,-278.7022575099675,-128.0998358369476,0.32799783895118645
0.05676494017887606,0.24116101682407412,-0.1665419513861603,-0.07512920245193723,-1.0740126158391268,-0.021853334530017907,0.14986654929747156,-0.1727966128762426,0.18603084979259205,-0.147276138500225,-0.10385024041810234,-0.10420463391223099,285.2337989834684,-139.2952012698892,191.46794259137292,-278.52443860618985,-128.4974127909761,0.3305604550853875
0.05706467360385489,0.24081366831088397,-0.16616995825085348,-0.075423732847351,-1.0742211003180968,-0.022062886397007216,0.14986671248941677,-0.173674256595079,0.1859965676534067,-0.14726519770688581,-0.10424223948502577,-0.10477593349465371,286.2186728207617,-140.19595320929983,190.25989542215902,-278.34590439937614,-128.8947837048195,0.3331223726362519
0.057364407349106326,0.24046456943434844,-0.1657980338670338,-0.07571824137906535,-1.0744303683777312,-0.022273580204529828,0.1498668726257179,-0.1745494382677675,0.18596219190984425,-0.14725426585717932,-0.10463402981724557,-0.10534690376130668,287.2018996823091,-141.09428675272193,189.0486685507535,-278.16665532736965,-129.29194773882762,0.33568356849720227
0.057664141408480515,0.2401137251343081,-0.16542617842155094,-0.07601272806507299,-1.0746404195990562,-0.02248541529370196,0.1498670296870934,-0.17542215002017583,0.18592772274143138,-0.14724334300382044,-0.10502561066245955,-0.10591754458606639,288.1834739134625,-141.99019399004845,187.83427981284234,-277.98669182951124,-129.68890405380944,0.33824401949193406
0.05796387577578914,0.23976114036630722,-0.16505439210089323,-0.07630719292347272,-1.0748512535615937,-0.022698391005373818,0.14986718365431154,-0.17629238400044148,0.18589316032884892,-0.14723242919986587,-0.1054169812687993,-0.10648785583592804,289.16338986906254,-142.8836670326526,186.6167470900513,-277.8060143466397,-130.08565181103674,0.3408037023752225
0.058263610444805526,0.23940682010154912,-0.16468267509118537,-0.07660163597247015,-1.0750628698433633,-0.02291250668011573,0.14986733450819173,-0.1771601323790423,0.18585850485393304,-0.1472215244987121,-0.10580814088483173,-0.10705783737095585,290.1416419134707,-143.77469801345603,185.39608830968314,-277.6246233210925,-130.4821901722473,0.34336259383372625
0.058563345409264736,0.23905076932685138,-0.16431102757818603,-0.07689605723037833,-1.0752752680208824,-0.023127761658204196,0.1498674822296056,-0.17802538734886666,0.18582375649967642,-0.14721062895409326,-0.1061990887595604,-0.10762748904423368,291.11822442060105,-144.66327908699674,184.17232144445495,-277.4425191967065,-130.87851829964853,0.34592067048680697
0.05886308066286369,0.23869299304460082,-0.16393944974728555,-0.07719045671561849,-1.0754884476691673,-0.02334415527960783,0.14986762679947815,-0.17888814112528334,0.1857889154502294,-0.1471997426200793,-0.10658982414242707,-0.10819681070181573,292.0931317739514,-145.54940242949735,182.94546451223465,-277.25970241881845,-131.2746353559205,0.34847790888733515
0.05916281619926127,0.2383334962727084,-0.16356794178350376,-0.07748483444672064,-1.075702408361734,-0.023561686883973185,0.14986776819878894,-0.17974838594621143,0.18575398189090117,-0.14718886555107358,-0.1069803462833131,-0.10876580218267756,293.0663583666358,-146.4330602389329,181.71553557577664,-277.076173434266,-131.6705405042198,0.3510342855225174
0.059462552012078417,0.237972284044564,-0.16319650387148743,-0.07777919044232426,-1.075917149670599,-0.02378035581061052,0.14986790640857317,-0.18060611407219,0.18571895600816068,-0.1471779978018111,-0.1073706544325409,-0.10933446331866721,294.03789860141586,-147.3142447350982,180.4825527424568,-276.89193269138815,-132.06623290818243,0.35358977681471404
0.05976228809489826,0.2376093614089911,-0.16282513619550815,-0.07807352472117897,-1.0761326711662809,-0.024000161398479433,0.149868041409923,-0.18146131778644736,0.18568383798963783,-0.14716713942735615,-0.1077607478408754,-0.10990279393445651,295.00774689073216,-148.19294815967535,179.24653416400707,-276.70698064002596,-132.46171173192766,0.35614435912226877
0.06006202444126624,0.23724473343020117,-0.1624538389394599,-0.07836783730214517,-1.0763489724178,-0.024221102986174418,0.14986817318398848,-0.18231398939497037,0.18564862802412438,-0.14715629048310036,-0.10815062575952546,-0.1104707938474927,295.9758976567358,-149.0691627763013,178.00749803624947,-276.5213177315233,-132.85697614006116,0.3586980087403354
0.060361761044690196,0.23687840518774803,-0.16208261228685675,-0.07866212820419469,-1.0765660529926802,-0.024443179911910317,0.14986830171197893,-0.18316412122657338,0.18561332630157498,-0.14714545102476037,-0.10854028744014536,-0.11103846286795008,296.9423453313203,-149.94288087063444,176.7654625988293,-276.3349444187279,-133.2520252976782,0.3612507019017132
0.060661497898640525,0.2365103817764821,-0.16171145642083054,-0.07895639744641143,-1.0767839124569498,-0.02466639151350768,0.14986842697516406,-0.18401170563296698,0.18557793301310813,-0.14713462110837586,-0.10892973213483621,-0.11160580079868199,297.9070843561524,-150.81409475042193,175.5204461349474,-276.1478611559915,-133.64685837036743,0.36380241477768405
0.0609612936829989,0.23614143344879698,-0.16134003062954852,-0.07925065255154386,-1.077002386363261,-0.024890729114730323,0.1498978921791882,-0.1844741638425577,0.18571289564100904,-0.14712755256621457,-0.10923695315553185,-0.11216880061132135,298.8700621812594,-151.6826975884263,174.27228240748377,-275.9600629223188,-134.0416334920904,0.3664319962621214
0.061261130321109684,0.23577193219757742,-0.16096824039082988,-0.0795448881088793,-1.0772214427230418,-0.025116209907641344,0.1499183190553905,-0.1847506256097767,0.18589511935932615,-0.1471177786677225,-0.10952817989035496,-0.11274039645551019,299.8313216390075,-152.54877562916218,173.02108900103204,-275.77145733412084,-134.43625725366408,0.3691042157115918
0.06156098426808845,0.2354020529767036,-0.16059609840741412,-0.07983910031438697,-1.0774410984172014,-0.025342849898912265,0.14992697348938297,-0.18493961043690255,0.1860709917078859,-0.14710610275383398,-0.10982784707979795,-0.11331999563546079,300.79087133951566,-153.41234360832814,171.7669106966143,-275.5820413658984,-134.8306870920484,0.3717972889057157
0.0618608416271391,0.23503189386135295,-0.1602236495128955,-0.08013328833620717,-1.0776613799122767,-0.025570659407064406,0.14992867952532107,-0.1850795576753258,0.18622444725931162,-0.14709401091010002,-0.11014074753764126,-0.11390475407606997,301.74870663538763,-154.27338983371317,170.5097654904116,-275.39183250205633,-135.22490705545448,0.3745013025843427
0.06216069585425821,0.23466151950006303,-0.15985094469956107,-0.08042745281614416,-1.0778823122204482,-0.02579964468591258,0.14992711355955451,-0.18518718064495474,0.18635240666722008,-0.14708223996849856,-0.11046615408569395,-0.11449263942408792,302.70481995191716,-155.13189774077406,169.24966710396225,-275.2008471018089,-135.61890980173445,0.3772116620220392
0.06246054437773265,0.23429097768579552,-0.15947803232639968,-0.0807215948032243,-1.0781039165237687,-0.026029809616516072,0.1499242617372226,-0.1852709071337575,0.18645618658069274,-0.14707099354007225,-0.11080215166029299,-0.11508246530174575,303.6592034040654,-155.98785107207857,167.9866296261267,-275.0090978313865,-136.01269098099107,0.37992607458972044
0.06276038650753067,0.23392030618722107,-0.15910495547838616,-0.08101571527725317,-1.0783262102437277,-0.026261156726193953,0.14992106489901202,-0.18533574928721902,0.1865384240067557,-0.14706023701443066,-0.11114685997947785,-0.11567355483894026,304.6118493758702,-156.84123483504726,166.72066808464209,-274.8165944659455,-136.40624743155584,0.38264324206877576
0.06306022237165877,0.2335495359025807,-0.15873175154699395,-0.08130981500225185,-1.0785492076486953,-0.026493687727875453,0.14991793206405232,-0.1853851423201862,0.1866019656960946,-0.14704986249933766,-0.11149870248387186,-0.11626550084075069,305.562750593588,-157.69203527866378,165.4517982838594,-274.6233448030915,-136.79957656934496,0.3853623128181388
