Joohwan-Seo/mujoco_sysID/Fanuc/Dataset/square_PIH_fanuc_rework_2.csv
q1,q2,q3,q4,q5,q6,dq1,dq2,dq3,dq4,dq5,dq6,t1,t2,t3,t4,t5,t6
4.838534954268516e-10,-6.992653464188524e-08,2.243516190143179e-07,0.0003058067046977664,-6.484888512561519e-08,5.7270528301506795e-05,2.419267477134258e-07,-3.496326732094262e-05,0.00011217580950715894,0.1529033523488832,-3.2424442562807595e-05,0.028635264150753396,-7.897794123205257e-05,-25.687438153700096,27.232633157564855,98.20361809757834,4.10678360369858,10.85168646643788
1.473631377145863e-09,-2.0861335626187253e-07,6.669035752470989e-07,0.0009118107726498424,-1.9165167426693527e-07,0.0001661830785760785,4.948889408595057e-07,-6.934341080999364e-05,0.00022127597811639048,0.303002033976038,-6.340139457066004e-05,0.054456275137285855,-0.48030493861169593,-25.32701642724704,27.771319527152624,96.39959752849212,4.17910189763878,9.814481123455378
-2.747404177350597e-07,2.829782774754513e-08,2.2342750480937823e-06,0.0018120387748608528,-2.2845617482270895e-07,0.00032165186646750305,-0.00013810702455610278,0.00011845559200470882,0.0007836857364233417,0.45011400110550515,-1.8402250277886846e-05,0.07773439394571227,-0.9591221228328822,-24.969018608048618,28.30489600858531,94.47826835899967,4.2506489671472165,8.877112052373919
-1.1048938988873575e-06,1.0814187273133459e-06,5.823826769117526e-06,0.0030001674567436314,-2.4919606554203084e-08,0.0005190814627666028,-0.0004150767405761489,0.0005265604497829003,0.0017947758605118718,0.5940643409413893,0.00010176828413425293,0.09871479814954986,-1.4363695655338962,-24.613665132707567,28.832945677839547,92.44454145415894,4.321416848413442,8.029955964520532
-2.7646834789351925e-06,3.3873316223915692e-06,1.2322995322129967e-05,0.004469539308008451,5.678333804199069e-07,0.0007543195380148541,-0.0008298947900239176,0.0011529564475391118,0.0032495842765062205,0.7346859256324099,0.000296376493487055,0.11761903762412564,-1.9118883104166324,-24.26117334127399,29.355059814279695,90.30341699942696,4.3913960126816995,7.264316955445346
-5.528702077071533e-06,7.378312052230951e-06,2.2608642897117884e-05,0.006213178380112611,1.6973461894279096e-06,0.0010236141600174968,-0.00138200929906817,0.001995490214919691,0.0051428237874939576,0.87181953605208,0.0005647564045040013,0.13464731100132135,-2.385521535957243,-23.911757271124237,29.87083808591187,88.05997534965766,4.460575470503329,6.5723371547993565
-9.670374015429346e-06,1.3482057189804684e-05,3.754642286765538e-05,0.008223806323086374,3.509959224303588e-06,0.001323575205612408,-0.002070835969178907,0.0030518725687868663,0.007468889985268746,1.0053139714868808,0.0009063065174378392,0.14998052279745555,-2.8571146768999514,-23.565627465382494,30.37988873776601,85.71936790934642,4.5289428807153005,5.946915984718497
-1.5461890108741962e-05,2.212142004417965e-05,5.7990161537639946e-05,0.010493858613674186,6.150932257642205e-06,0.0016511394903049868,-0.0028957580466563086,0.004319681427187482,0.010221869334992284,1.1350261452939063,0.0013204865166693085,0.16378214234628938,-3.3265155410812577,-23.222990796529118,30.881828783842835,83.2868080575487,4.5964846634967405,5.381637197290058
-2.3174142673561457e-05,3.3714149627855444e-05,8.478125637926081e-05,0.013015500946895422,9.7645601746818e-06,0.0020035392575711336,-0.0038561262824097476,0.005796364791837898,0.013395547420810436,1.2608211666106186,0.001806813958519798,0.17619988363307337,-3.7935744213431164,-22.884050305625962,31.37628420286141,80.76756213060631,4.663186116850961,4.8707029415925165
-3.307666043927578e-05,4.867263722046128e-05,0.000118748091060153,0.015780645763335363,1.449428204402047e-05,0.0023782737041424494,-0.004951258882857161,0.007479243796302916,0.016983417340446092,1.3825724082199695,0.0023648609346693353,0.18736722328565777,-4.258144202221001,-22.549005057380327,31.862890137845753,78.16694047550381,4.729031535857168,4.408874183015137
-4.5437543345131466e-05,6.740366885463192e-05,0.00016070546753381318,0.01878096888472373,2.0482783463740178e-05,0.0027730832487745842,-0.0061804414529278455,0.009365515817085324,0.020978688236830086,1.5001615606941836,0.0029942507098598536,0.19740477231606737,-4.72008046102936,-22.218050011066136,32.341291099395946,75.4902885863545,4.794004334035293,3.9914168628212603
-6.052339720966268e-05,9.030818414437891e-05,0.0002114540554436536,0.022007926230643626,2.7872092129698547e-05,0.0031859262801816105,-0.007542926932265608,0.011452257644873488,0.025374293954920208,1.6134786729599488,0.0036946543329791845,0.20642151570351308,-5.17924156291511,-21.89137590712697,32.81114117230455,72.74297833617754,4.858087166168957,3.6140532448890026
-7.85992682613448e-05,0.00011778104157081376,0.0002717798590676442,0.025452770589536853,3.680366657199691e-05,0.0036149581452858976,-0.009037935525841062,0.013736428713217425,0.030162901811995303,1.7224221794466137,0.004465787221149184,0.21451593255214366,-5.635488749411182,-21.56916916910092,33.27210422500182,69.9303993157777,4.921262051935868,3.272917949851158
-9.992857752192996e-05,0.00015021079033465234,0.0003424537020074341,0.029106568417531307,4.741847800613079e-05,0.0040585121619458615,-0.01066465463029258,0.016214874381919295,0.035336921469894964,1.826898913997228,0.00530740571706694,0.22177700832998187,-6.088686219998057,-21.251611820334624,33.723854121148044,67.05795029117678,4.983510499700994,2.964518225010054
-0.00012477305503677335,0.0001879794488795164,0.00042423072980323883,0.03296021663901106,5.985708524724075e-05,0.0045150824611195385,-0.012422238757421697,0.018884329272432044,0.040888513897902365,1.9268241107398756,0.00621930362055498,0.2282851495868386,-6.538701206172647,-20.93888141479482,34.166074932537406,64.13103079067272,5.044813629837863,2.685698041917262
-0.00015339267394951718,0.00023146229018463832,0.0005178499306337116,0.0370044594232785,7.425970263933712e-05,0.004983308482213871,-0.014309809456371914,0.021741420652560958,0.0468096004152364,2.0221213921337178,0.0072013086960481835,0.23411301054716638,-6.985404037530939,-20.631150981141772,34.59846115233871,61.15503283221816,5.1051522969550405,2.4336056528296885
-0.00018604558442174852,0.0002810276339201524,0.0006240336742385627,0.04122990491211949,9.076626095646723e-05,0.005461960962350886,-0.016326455236115672,0.02478267186775705,0.053091871802425576,2.1127227444204966,0.008253279158565056,0.23932624006850736,-7.428668199393861,-20.328588979100363,35.020717907574124,58.13533280141597,5.164507210419747,2.205664272786599
-0.00022298804740167606,0.00033703664555271163,0.0007434872691809174,0.04562704187357529,0.00010951646123959062,0.0059499292756271084,-0.018471231489963772,0.028004505816279612,0.05972679747117731,2.1985684807279,0.009375100141561694,0.24398415663811146,-7.868370381543829,-20.031359267054732,35.432561169629935,55.077283490027334,5.222859052588798,1.9995455861614782
-0.00026447436824946055,0.0003998431424836877,0.0008768985385463738,0.05018625625774768,0.00013064982154145443,0.006446209992309193,-0.02074316042389225,0.03140324846548803,0.06670563468272821,2.279607192086198,0.010566680150931906,0.24814035834104228,-8.30439051769216,-19.739621079699646,35.83371796150444,51.98620630447578,5.280188594177671,1.8131458055582539
-0.00031075683023056537,0.0004697934072966901,0.0010249374141564937,0.05489784763101541,0.00015430571656201354,0.00694989654043931,-0.023141230990552403,0.034975132406501214,0.07401943780505994,2.3557956866338663,0.011827947510279553,0.25184327406505863,-8.736611815363014,-19.453529014509122,36.22392656042781,48.86738365341232,5.336476806222174,1.6445640371414918
-0.00036208562789234543,0.000547226008185565,0.0011882555493560683,0.05975204546561851,0.00018062341016888075,0.007460169863647097,-0.02566439883089004,0.038716300444437454,0.08165906759978728,2.4270989173015503,0.013158846803433606,0.2551366616038937,-9.164920775956956,-19.173233025729353,36.60293669443811,45.726051522981365,5.391704968114313,1.4920827301836983
-0.000418708800343041,0.0006324716266284026,0.0013674859504159982,0.06473902526217185,0.00020974208081085593,0.007976289979197202,-0.02831158622534778,0.04262280922141878,0.08961520052996497,2.4934898982766645,0.014559335320987589,0.2580600577750525,-9.589207204843955,-18.898878424569233,36.970509731467615,42.56739224799462,5.445854771222698,1.3541500100237944
-0.0004808721644563599,0.0007258528923673891,0.0015632426265770275,0.06984892448329816,0.00024180083984767328,0.008497588349547811,-0.031081682056659458,0.04669063286949324,0.09787833808051469,2.554949610563155,0.016029379518408673,0.26064918517530444,-10.009364211430468,-18.63060588424893,37.32641885948391,39.396527486783846,5.4989084176410445,1.2293637129785817
-0.0005488192480288937,0.0008276842257485823,0.0017761202587439017,0.07507185827722317,0.00027693874283560294,0.009023460989051015,-0.03397354178626693,0.05091566669059665,0.10643881608343711,2.6114668969625034,0.017568951493964816,0.2629363197516023,-10.425288199245102,-18.368551448571985,37.67044925623987,36.218511407061584,5.550848713642184,1.1164569592327465
-0.0006227912229216872,0.0009382716874698685,0.002006693886824787,0.08039793497084892,0.0003152947938263015,0.00955336223497627,-0.036985987446396765,0.05529373086064311,0.11528681404044272,2.6630383468128755,0.019178025495349287,0.2649506229626275,-10.836878846190748,-18.11284654271278,38.00239824721808,33.03832408967252,5.601659157452893,1.0142851155320158
-0.0007030268382213396,0.0010579128357794732,0.0022555186156969953,0.08581727131251579,0.0003570079427551616,0.01008679911886111,-0.04011780764982621,0.059820574154802394,0.12441236443610408,2.7096681708334387,0.020856574464430053,0.2667184419424204,-11.244039075214765,-17.863617984954114,38.322075450404924,29.860865156670624,5.651324021003947,0.9218140137810179
-0.0007897623534600298,0.0011868965911614581,0.0025231293397671895,0.09132000744537637,0.00040221707601517816,0.01062332628035882,-0.04336775761934509,0.0644918776909924,0.13380536203509713,2.7513680664302917,0.022604566630008295,0.2682635807488545,-11.64667501575148,-17.620987998170357,38.629302906597175,26.690947629705065,5.699828425351397,0.8381093045485563
-0.0008832314719377934,0.0013255031085386343,0.0028100404860822996,0.09689632159303464,0.0004510610003328348,0.011162541371324195,-0.0467345592388818,0.06930325868858801,0.14345557315755503,2.7881570738291392,0.024421962158828307,0.26960754548268706,-12.044695956389527,-17.38507421992921,38.92391519403102,23.53329202424538,5.747158409507952,0.7623268361413333
-0.0009836652741942098,0.0014740036570172817,0.003116745775936302,0.1025364444398503,0.0005036784200835033,0.011704080902913217,-0.05021690112820824,0.07425027423932373,0.15335264492700124,2.8200614234078305,0.02630870987533427,0.2707697657945108,-12.438014289309272,-17.15598971017524,39.205759526223645,20.392520684722356,5.7933009924680805,0.6937039604420441
-0.0010912921516803506,0.0016326605071919794,0.0034437180049078126,0.10823067318906862,0.0005602079082051319,0.012247616493021984,-0.05381343874307037,0.07932842508734879,0.16348611448575534,2.847114374609158,0.02826474406081431,0.27176779505438325,-12.826545447120054,-16.933842955564103,39.47469583203485,17.273152365206933,5.838244228255852,0.6315516762276551
-0.0012063377406853666,0.0018017268260227366,0.0037914088412540317,0.11396938528271036,0.0006207878708903439,0.012792851475501453,-0.05752279450250804,0.08453315941537859,0.17384541817310967,2.869356046820868,0.030289981342606003,0.2726174912397352,-13.210207832801993,-16.71873786962931,39.730596817083146,14.17959705979547,5.8819772538710255,0.5752475292863567
-0.0013290248565754298,0.0019814465792904945,0.004160248642577946,0.11974305176794175,0.0006855565062582628,0.01333951783629965,-0.061343557945031574,0.08985987663387887,0.18441990066195718,2.886833242615697,0.032384317683959406,0.2733331803990982,-13.588922743520664,-16.510773788089665,39.97334800579108,11.11615108641737,5.924490330055464,0.5242291964253546
-0.0014595734284058555,0.0021720544416309277,0.004550646290677755,0.12554225029544053,0.000754651757228192,0.013887373445040086,-0.06527428591521282,0.09530393117021657,0.19519882404990432,2.8995992637493875,0.03454762548496462,0.27392780437021785,-13.962614289134354,-16.310045458734734,40.202847763480584,8.086992427329472,5.965774874849033,0.4779886874864798
-0.0015982004339701093,0.002373775714140362,0.004962989044480209,0.13135767773607873,0.0008282112588374979,0.014436199553578858,-0.06931350278212688,0.10086063625471715,0.20617137690122708,2.907713720319097,0.03677975080465295,0.2744130542693863,-14.331209306251449,-16.11664302546219,40.41900729809305,5.096176329113728,6.005823489950235,0.43606710583446917
-0.0017451198353520062,0.0025868262495415237,0.0053976424109528475,0.13718016240305547,0.0009063722802654533,0.014985798535824222,-0.07345970069094841,0.1065252677005808,0.2173266832363194,2.911242333488368,0.03908051071397774,0.27479949112268126,-14.694637268719655,-15.930652006179209,40.62175064126626,2.1476311645493356,6.044629979943078,0.3980499135190252
-0.0019005425150497343,0.0028114123848907847,0.005854950033883929,0.14300067586743126,0.0009892716618432095,0.015535991845579685,-0.07771133984886408,0.11229306767463051,0.22865381146554067,2.910256732187893,0.0414496907888781,0.27509665487773166,-15.05283019543852,-15.752153264419162,40.81101460865876,-0.7548454417121269,6.082189364495971,0.363562652495312
-0.0020646762127423585,0.003047730881802573,0.006335233600413109,0.14881034435583865,0.0010770457473472728,0.01608661817141026,-0.08206684884631207,0.11815924845589423,0.2401417832645902,2.9048342442036987,0.043887042752031646,0.2753131629152886,-15.405722556382514,-15.581222974661852,40.98674873957111,-3.6075902221756495,6.118497883682109,0.3322670779716978
-0.002237725462771163,0.003295968874160693,0.006838792765190552,0.15460045971997083,0.0011698303118897113,0.01663753176955434,-0.08652462501440221,0.12411899617905986,0.25177958238872156,2.8950576820660934,0.04639228227121927,0.27545679907203924,-15.753251177703724,-15.41793258148056,41.14891521606893,-6.407077609176727,6.1535529966123725,0.30385766418626536
-0.0024198915324095765,0.0035563038232804683,0.0073659050920370644,0.16036248996827834,0.0012677604857326383,0.017188600957731635,-0.09108303481920685,0.13016747455988778,0.2635561634232563,2.881015124153763,0.04896508692146345,0.2755345940886478,-16.095355146752127,-15.262348752766833,41.29748876196331,-9.14992281056681,6.187353373611053,0.2780584467386656
-0.002611372360996468,0.003828903480479906,0.007916826012973001,0.16608808935113398,0.0013709706743671804,0.01773970675434953,-0.09574041429344561,0.13629982859971884,0.2754604604679681,2.8627996914278158,0.05160509431727105,0.27555289830894847,-16.431975717807763,-15.114533327407727,41.43245652214949,-11.832884618197612,6.219898882202442,0.2546201690601039
-0.002812362500008302,0.004113925857012461,0.008491788804478963,0.17176910799155462,0.0014795944752080232,0.018290741649102805,-0.10049506950591705,0.14251118826627746,0.2874813957529806,2.840509320210315,0.05431190042042142,0.2755174473766366,-16.7630562192648,-14.974543257901809,41.55381792293959,-14.452867949405544,6.25119056721003,0.23331770372787053
-0.0030230530541460205,0.004411519201308539,0.009091004580846683,0.17739760105439656,0.001593764591263627,0.018841608492310598,-0.10534527706885945,0.148796672148039,0.2996078881838601,2.814246531420974,0.05708505802780185,0.27543342160389633,-17.08854196294293,-14.842430548506288,41.66158451415232,-17.00692612210339,6.281230625302642,0.21394772215294125
-0.0032436316235125253,0.004721821983467553,0.00971466230447386,0.18296583744776493,0.0017136127421492557,0.019392219491553446,-0.11028928468325236,0.15515139107950718,0.3118288618135883,2.7841181966841817,0.059924075442814376,0.2753054996214233,-17.408380156129194,-14.718242189599836,41.755779793837256,-19.492262864485802,6.310022374349594,0.19632658871983014
-0.0034742822469563278,0.005044962886937215,0.010362928812952001,0.1884663080511978,0.0018392695728150013,0.01994249530527461,-0.11532531172190123,0.16157045173483087,0.32413325423907025,2.750235301716431,0.06282841533287284,0.2751379068605806,-17.722519816874378,-14.602020089027999,41.836439016614285,-21.906234060744563,6.337570217972436,0.18028845776257035
-0.0037151853466562915,0.005381060807311774,0.011035948862791545,0.19389173346600083,0.001970864560363974,0.02049236422400534,-0.12045154984998181,0.1680489601872795,0.3365100249197719,2.7127127074015185,0.06579749377448635,0.2749344593653658,-18.0309116929838,-14.493801001267624,41.9036089866983,-24.24634923457191,6.363879605702705,0.16568355384320807
-0.003966517674021409,0.005730224858176158,0.011733845189623537,0.19923507128391604,0.0021085259193367677,0.02104176143077318,-0.12566616368255873,0.17458202543219187,0.3489481634159963,2.6716689089576073,0.06883067948639689,0.2746986033839189,-18.33350818505589,-14.393616455304374,41.95734783675647,-26.510272772601994,6.38895698917309,0.1523766176812944
-0.004228452256978283,0.006092554383918386,0.012456718584711922,0.20448952287110886,0.0022523805058371955,0.021590628333065125,-0.13096729147843672,0.18116476287111394,0.36143669754419233,2.627225793596401,0.07192729325021398,0.2744334511459715,-18.63026327383348,-14.301492682160797,41.99772479380544,-28.695824890303427,6.412809774783808,0.14024550178344047
-0.004501158348717387,0.0064681389794282755,0.013204647987605032,0.20964853966524943,0.002402553720871155,0.022138911959452095,-0.13635304586955196,0.187792297754945,0.3739647014465557,2.579508397070288,0.0750866075169796,0.2741418131934858,-18.921132452045004,-14.217450543045203,42.02481993340615,-30.800982343188178,6.43544627329696,0.12917990135867247
-0.004784801377967324,0.006857058516596317,0.013977690594749091,0.2147058289842462,0.002559169413265375,0.022686564414644794,-0.14182151462496845,0.1944597685840206,0.3865213035720298,2.528644659498382,0.07830784619711001,0.2738262275963496,-19.206072660827484,-14.141505459109593,42.038723923445275,-32.82387888654451,6.456875646818642,0.11908020749419669
-0.005079542900864141,0.007259383177522658,0.01477588198388038,0.2196553593459601,0.0027223497825257918,0.023233542387350842,-0.14737076144840866,0.2011623304631707,0.3990956945656439,2.47476518085695,0.08159018463020844,0.2734889863530243,-19.48504223074149,-14.073667343812048,42.03953775881378,-34.76280548723273,6.477107853631455,0.1098564708207885
-0.005385540554480383,0.007675173494342465,0.015599236254006273,0.2244913652989876,0.0028922152819864538,0.023779806705845143,-0.15299882680812096,0.2078951584099034,0.4116771350629473,2.418002976513761,0.08493274973033099,0.27313215924715,-19.758000827311477,-14.013940538874186,42.02737248829844,-36.616210291402574,6.496153591340615,0.1014274650312278
-0.005702948012075919,0.008104480395570421,0.016447746180778492,0.22920835176534657,0.0030688845225893056,0.024325321936655157,-0.15870372879776798,0.21465345061397825,0.4242549633861096,2.35849323317948,0.08833462030142594,0.27275761540500665,-20.024909400955366,-13.962323754807748,42.00234893499562,-38.38269835229991,6.514024238791847,0.09371984063970744
-0.0060319149401297425,0.00854734525886391,0.017321383387054627,0.2338010978966312,0.0032524741776230265,0.024870056022205433,-0.16448346402691183,0.22143243164674525,0.43681860313806664,2.2963730656423196,0.09179482751686038,0.2723670427751378,-20.285730141104775,-13.91881001695804,41.96459741153815,-40.06103112262782,6.5307317972129315,0.08666736029617134
-0.006372586957208886,0.009003799970101388,0.018220098528436424,0.23826466044592087,0.0034430988887354354,0.025413979953665688,-0.17033600853957184,0.2282273556187382,0.4493575706908983,2.2317812746448435,0.09531235555620451,0.271961965730127,-20.540426434263523,-13.88338661797653,41.914257431395654,-41.65012571621108,6.5462888310193845,0.08021020780619395
-0.006725105594727368,0.00947386698866963,0.019143821493565298,0.24259437665842892,0.0036408711735189695,0.025957067475608192,-0.17625931875924122,0.2350335092841205,0.4618614825644365,2.1648581062540293,0.09888614239176716,0.2715437609712513,-20.78896282570794,-13.856035077588817,41.85147741746809,-43.1490539439873,6.560708408711461,0.07429436376326645
-0.007089608259644703,0.009957559418851009,0.020092461618947136,0.246785866684564,0.0038459013349525116,0.026499294819406854,-0.18225133245866743,0.24184621509068965,0.4743200626909186,2.095745013067544,0.10251508071677112,0.27111367189933083,-21.031304984497584,-13.836731110473469,41.77641440914243,-44.55704112960729,6.574004044272929,0.0688710413832849
-0.007466228199149964,0.010454881087199507,0.0210659079180698,0.25083503551974523,0.004058297372965566,0.027040640462605577,-0.18830996975263053,0.24866083417424956,0.4867231495613315,2.0245844175906016,0.10619801900652728,0.27067282159936124,-21.26741967144101,-13.825444603006614,41.68923376892431,-45.873464710175554,6.586189639462503,0.06389617674878786
-0.007855094467373746,0.010965826625792029,0.02206402932456766,0.2547380744759629,0.0042781648983725926,0.027581084911750185,-0.194433134111891,0.2554727692962613,0.4990607032489306,1.951519478108854,0.10993376270351339,0.27022222457230405,-21.497274709646522,-13.822139599562657,41.59010888968979,-47.0978526278971,6.597279427367427,0.05932996822813673
-0.008256331894166594,0.011490381561239582,0.023086674949178213,0.25849146219070984,0.004505607049406374,0.02812061050641931,-0.20061871339642387,0.2622774677237767,0.5113228123052768,1.876693857373474,0.11372107551689052,0.2697627973345631,-21.72083895728412,-13.826774298991584,41.479220903531974,-48.22988151861852,6.60728791756439,0.055136460339085314
-0.008670061055978619,0.012028522409341082,0.024133674350226234,0.26209196517951977,0.004740724411059765,0.028659201242407447,-0.20686458090601237,0.26907042405074966,0.5234997005240106,1.800251494404977,0.11755868082669543,0.2692953679940693,-21.93808228219028,-13.839301061818903,41.35675839309881,-49.26937470346122,6.616229843207272,0.05128316778168779
-0.009096398248871089,0.012580216775260888,0.025204837817361197,0.2655366379389446,0.004983614937425231,0.029196842612210262,-0.2131685964462347,0.27584718295990374,0.535581733567481,1.7223363797124132,0.12144526318273306,0.2688206849014083,-22.148975537962343,-13.859666428637244,41.222917106237624,-50.21629998993995,6.624120110333672,0.0477407357772163
-0.009535455463686787,0.013145423459109712,0.026299956668263725,0.2688228226073733,0.005234373877201345,0.029733521461140156,-0.2195286074078488,0.28260334192441205,0.5475594254512638,1.6430923342143389,0.12537946988805698,0.26833942446494696,-22.353490541212715,-13.887811150079093,41.07789967467791,-51.070767289144236,6.630973749653169,0.044482633221734985
-0.0099873403634019,0.013724092566807145,0.02741880355802684,0.2719481481916483,0.0054930937025150775,0.030269225857560856,-0.22594244985755638,0.2893345538487166,0.559423444881557,1.5626627921375094,0.12935991265686636,0.26785219821035017,-22.551600049684684,-13.923670228679502,40.92191533739681,-51.83302605572879,6.636805871050475,0.041484875499033055
-0.010452156262678121,0.0143161656261029,0.028561132800907645,0.2749105293679653,0.005759864041188403,0.030803944975875137,-0.2324079496381105,0.29603652964787686,0.5711646214404039,1.4811905881585006,0.13338516933666272,0.26735955915714155,-22.74327774096989,-13.967172972854236,40.755179669223565,-52.5034625576167,6.641631621005799,0.038725774101508945
-0.010930002109629564,0.014921575707632691,0.02972668070413505,0.2777081648660503,0.006034771612557595,0.03133766899103107,-0.23892292347572114,0.3027050407648958,0.5827739516137022,1.3988177490425187,0.1374537856845961,0.2668620075779673,-22.928498191611894,-14.018243063138655,40.57791431515169,-53.08259698246222,6.6454661431035404,0.036185710481978606
-0.011420972469814978,0.015540247550883728,0.030915165913449012,0.2803395354460953,0.006317900166933762,0.03187038898343088,-0.24548518009270742,0.3093359216255183,0.5942426046569812,1.3156852900224942,0.14156427718808365,0.2663599961999029,-23.107236856429118,-14.076798630748993,40.39034673073831,-53.57108038805041,6.648324541768975,0.033846931807440694
-0.011925157512461673,0.016172097694943807,0.03212628977003699,0.2828034014783957,0.006609330428773766,0.032402096853233746,-0.25209252132334664,0.3159250720300403,0.6055619282939866,1.2319330161502189,0.14571513092000146,0.26585393490143316,-23.27947004794313,-14.142752348447882,40.19270992888382,-53.96969150392817,6.650221849341218,0.031693366509966
-0.012442642998923422,0.016817034613907208,0.033359736678523384,0.28509880013607525,0.0069091400436118175,0.032932785243140895,-0.2587427432308742,0.3224684594816999,0.6167234542431969,1.1476993288397652,0.14990480741902584,0.26534419495357414,-23.44517491585348,-14.216011533616223,39.985242233199045,-54.27933339166507,6.651172996559756,0.029710457732390352
-0.01297351027337062,0.01747495885680971,0.03461517448565841,0.2872250422116988,0.00721740352878388,0.03346244746883879,-0.2654336372235993,0.32896212145125003,0.6277189035675109,1.0631210378117855,0.15413174258603116,0.2648311128489445,-23.604329426556117,-14.296478263355466,39.768187038083646,-54.50102997123329,6.651192786510916,0.0278850129495435
-0.01351783625570685,0.018145763191964367,0.03589225486934338,0.2891817085689698,0.00753419222795954,0.033991077456355545,-0.2721629911681152,0.33540216757732944,0.638540191842486,0.9783331786355032,0.15839434958782975,0.2643149937583783,-23.756912342759016,-14.38404950136914,39.54179257555878,-54.63592242107448,6.6502958720517285,0.026205068211037408
-0.014075693436702051,0.018829332755568896,0.03719061373762073,0.29096864624107643,0.007859574269479464,0.034518669685657276,-0.27892859049760116,0.34178478180226396,0.6491794341386746,0.8934688360533317,0.1626910207599622,0.2637961146508653,-23.90290320330344,-14.478617236299968,39.30631168882019,-54.68526545948625,6.648496736698977,0.02465976560120435
-0.014647149875328523,0.019525545204454764,0.03850987163724834,0.29258596418759864,0.008193614528480875,0.0350452191398756,-0.28572821931323567,0.34810622444293465,0.6596289498138032,0.8086589732610915,0.1670201295007058,0.2632747271091628,-24.042282303352152,-14.580068631127823,39.06200161240288,-54.650423515013316,6.645809678944548,0.023239242646717756
-0.015232269198282057,0.020234270872847463,0.03984963417146985,0.2940340287222082,0.0085363745927788,0.03557072125961623,-0.29255966147676654,0.35436283419634923,0.6698812671107531,0.7240322673047687,0.1713800321489622,0.26275105987031516,-24.175030675155075,-14.688286183167934,38.809123758779776,-54.53286679356848,6.642248799931869,0.02193453252440944
-0.015831110601666688,0.02095537293300656,0.04120949242658495,0.29531345862369357,0.008887912732457206,0.03609517190185124,-0.29942070169231455,0.36055103007954814,0.67992912755755,0.6397149507426868,0.1757690698392027,0.2622253211175061,-24.301130069648092,-14.803147894144791,38.54794351115039,-54.334167250036444,6.637827994403474,0.020737474032373263
-0.016443728854817728,0.02168870755961349,0.042589023406916594,0.2964251199431133,0.009248283873111586,0.03661856730294551,-0.3063091265755207,0.366667313303464,0.689765490165824,0.5558306597098671,0.18018557032719032,0.2616977005471312,-24.42056293918048,-14.924527449757866,38.27873002211504,-54.05599447212768,6.63256094480756,0.01964063038654218
-0.017070174306234098,0.022434124097774167,0.043987790477765576,0.29737012052013184,0.009617539572673089,0.03714090404541087,-0.31322272570818543,0.37270826908033855,0.6993835354244916,0.47250028850925074,0.1846278497807513,0.26116837123268305,-24.53331242170027,-15.052294408099028,38.00175601787383,-53.70011148425367,6.626461118429956,0.01863721599559906
-0.01771049289158728,0.023191465234502724,0.045405343815936985,0.2981498042218166,0.009995728001733957,0.03766217902802081,-0.3201592926765921,0.3786705683642792,0.7087766690857038,0.3898418508423681,0.1890942145304343,0.26063749130496855,-24.639362326754195,-15.186314396231028,37.71729760753916,-53.268370479185336,6.619541767399372,0.01772103044789075
-0.01836472614377078,0.023960567173551755,0.04684122086741783,0.29876574491737656,0.010382893927284883,0.03818238943895342,-0.32711662609175074,0.38455096952451556,0.7179385257404206,0.30797034777998245,0.19358296277546305,0.26010520546630395,-24.73869712367908,-15.326449314188348,37.42563409710459,-52.76270848523646,6.611815931396727,0.016886399018038414
-0.019032911204950487,0.02474125981345353,0.04829494681178042,0.29921974020249903,0.010779078699766801,0.0387015327316627,-0.33409253058985283,0.3903463199508875,0.7268629721812969,0.22699764256122862,0.19809238624095876,0.2595716463546407,-24.83130193237412,-15.472557545620543,37.12704780757352,-52.1851429766818,6.603296442884565,0.016128119066895874
-0.019715080840573048,0.025533366928635667,0.04976603503288222,0.29951380488709467,0.01118432024333274,0.03921960660320679,-0.3410848178112806,0.39605355759106875,0.735544110550899,0.14703234229782547,0.20262077178296992,0.2590369357720444,-24.917162517048528,-15.624494174260267,36.821823896716445,-51.537767435076404,6.593995934660115,0.015441411769029426
-0.020411263455286204,0.026336706353473665,0.05125398759542944,0.2996501642603908,0.011598653049209547,0.039736608974787924,-0.3480913073565769,0.4016697124189993,0.7439762812736129,0.06817968664808585,0.20716640293840277,0.25850118579056747,-24.996265283336196,-15.78211120536649,36.510250183898435,-50.82274686908852,6.583926849524786,0.014821878655737225
-0.021121483110721897,0.0271510901691416,0.05275829572696935,0.2996312471474182,0.012022108172044516,0.040252537974282535,-0.35510982771784666,0.4071919078339677,0.7521540657699538,-0.009458556486307404,0.21172756141748494,0.25796449974730584,-25.068597279158276,-15.945257791266668,36.19261697739516,-50.04231330039418,6.573101451854933,0.01426546251102466
-0.02184575954509016,0.02797632489312111,0.05427844030487401,0.2994596787710193,0.012454713229118352,0.040767391920561134,-0.362138217184131,0.4126173619897548,0.7600722889523317,-0.08578418819942851,0.21630252853691778,0.25742697313930085,-25.13414619969633,-16.113780460100955,35.8692169036014,-49.198761223105045,6.561531840852528,0.013768412201938258
-0.022584108194528905,0.028812211671227543,0.05581389234787737,0.2991382734335667,0.012896492402303103,0.04128116930941699,-0.36917432471937245,0.4179433890532173,0.7677260215016796,-0.16070266872631167,0.2208895865923754,0.2568886944279277,-25.192900396813226,-16.287523346856343,35.54034473752511,-48.29444304411767,6.549229965250268,0.013327251064991268
-0.023336540216152245,0.02965854647201087,0.05736411351172675,0.2986700270326152,0.013347466442642076,0.04179386880093997,-0.37621601081167033,0.4231674003916633,0.775110581924692,-0.23412320047575802,0.22548702016948652,0.2563497457614891,-25.24484889322612,-16.466328425769902,35.206297233958225,-47.331764511675026,6.536207639243953,0.012938748506409435
-0.02410306251273747,0.03051512028338755,0.05892855658851028,0.29805810942472827,0.013807652677427852,0.04230548920818777,-0.3832611482926113,0.42828690568834105,0.7822215383917647,-0.30595880394346625,0.23009311739288751,0.25581020362389834,-25.289981401697087,-16.650035743176954,34.86737295871749,-46.313180139327976,6.522476559425054,0.012599894506740893
-0.024883677758988577,0.03138171931135823,0.060506666009222394,0.29730585665170983,0.01427706501965457,0.042816029487020936,-0.3903076231255538,0.4332995139853419,0.7890547103560565,-0.3761263865092191,0.2347061711133588,0.25527013941658516,-25.32828834946247,-16.838483649884875,34.52387211935918,-45.24118863236957,6.508048322488468,0.012307876749877905
-0.025678384429312258,0.03225812518066462,0.062097878349131226,0.2964167630434445,0.01475571397972147,0.04332548872698108,-0.39735333516184146,0.4382029346531933,0.7956061699544148,-0.444546804132681,0.23932448003345,0.2547296199800739,-25.359760908071646,-17.031509032161743,34.17609639478682,-44.11832832369239,6.492934443494328,0.012060060123308666
-0.026487176827040305,0.03314411513723743,0.06370162283551367,0.29539447321149853,0.015243606679266193,0.04383386614310322,-0.40439619886402367,0.4429949782864043,0.8018722431912211,-0.511144915972976,0.24394634977236113,0.2541887080610703,-25.384391028752475,-17.228947540446896,33.82434876319337,-42.94717262588793,6.477146374468774,0.011853968360511738
-0.027310045115030844,0.03403946225228585,0.06531732185732668,0.2942427739475633,0.015740746867008548,0.044341161068563895,-0.41143414399526856,0.44767355752421123,0.8078495109065043,-0.575849631967615,0.24857009387117687,0.25364746273033634,-25.402171483362842,-17.430633814912845,33.46893332780778,-41.73032550626695,6.460695523135245,0.011687267618255351
-0.028146975347579376,0.034943935627877384,0.06694439147638659,0.2929655860407303,0.01624713493648824,0.044847372948076156,-0.4184651162742667,0.4522366877957666,0.8135348095299534,-0.6385939534165077,0.25319403473984564,0.2531059397561291,-25.41309591092752,-17.636401707037397,33.11015513994895,-40.47041699133272,6.443593271577425,0.011557751801345259
-0.028997949503569456,0.035857300603855405,0.06858224193963204,0.29156695602747684,0.01676276794558336,0.045352501331951206,-0.42548707799504015,0.4566824879890106,0.8189252316227251,-0.6993150066267206,0.2578165045475588,0.2525641919375262,-25.417158869698504,-17.846084496381003,32.74832001893142,-39.170098707083476,6.425850994644607,0.011463329465078873
-0.02986294552079184,0.03677931896594035,0.07023027819205041,0.2900510478881102,0.017287639637700185,0.04585654587075431,-0.4324980086111923,0.4610091810424727,0.8240181262091872,-0.757954069683316,0.262435846058413,0.25202226940154926,-25.414355894613927,-18.059515101805786,32.38373436840968,-37.83203946135915,6.407480077922051,0.011402012141857196
-0.030741937331360353,0.03770974915485886,0.07188790038985234,0.28842213470326816,0.017821740464529057,0.04635950631048956,-0.43949590528425775,0.4652150944592592,0.8288110989009638,-0.8144565924210141,0.26705041341443575,0.25148021986762426,-25.404683559969044,-18.276526286420204,32.016704988799944,-36.45892087427719,6.388491935101024,0.011371903953060133
-0.03163489489815223,0.038648346476343874,0.07355450441348405,0.286684590283907,0.018365057610265488,0.04686138248825473,-0.4464787833959397,0.4692986607425055,0.8333020118158582,-0.8687722096805582,0.27165857286821515,0.2509380888825839,-25.38813954705168,-18.496950855587393,31.647538885471256,-35.05343306262832,6.368898024597078,0.01137119238026836
-0.03254178425220053,0.03959486331184706,0.07522948238007286,0.284842880788022,0.018917575017200507,0.04736217432831295,-0.45344467702415026,0.47325841775159366,0.8374889832944108,-0.9208547479425143,0.2762587034675098,0.2503959200291116,-25.364722716435793,-18.72062184739234,31.276543072456064,-33.618270383920695,6.3487098652790515,0.011398140082009955
-0.03346256753096633,0.04054904932980401,0.0769122231549069,0.2829015563371424,0.01947927341258913,0.04786188183853346,-0.4603916393829009,0.47709300897847295,0.8413703874170163,-0.9706622254397979,0.28084919769431255,0.24985375511025318,-25.334433184570734,-18.947372715026578,30.904024371492465,-32.15612724557444,6.327939051186043,0.011451077652918001
-0.034397203017418776,0.04151065169729093,0.07860211286155623,0.28086524264542545,0.020050130336710964,0.04836050510715821,-0.46731774322622355,0.48080118374346054,0.8449448533246655,-1.0181568458584838,0.285428462060917,0.2493116343123738,-25.297272404251665,-19.177037500616713,30.530289206274787,-30.669693984575844,6.306597265125427,0.011528397231846718
-0.03534564517985164,0.04247941529191083,0.08029853539024923,0.2787386326739366,0.020630120172042122,0.04885804429985564,-0.4742210812164326,0.4843817973099491,0.8482112643464993,-1.0633049857444077,0.2899949176655786,0.24876959634871312,-25.253243248508873,-19.40945100009289,30.155643391855627,-29.161652822703992,6.284696291059952,0.011628546874482296
-0.036307844712365984,0.043455082913745835,0.08200087290412415,0.2765264783224552,0.02121921417346289,0.04935449965702662,-0.481099766257172,0.487833810917505,0.8511687569374619,-1.106077175740711,0.29454700071038376,0.24822767858548855,-25.202350097410786,-19.64444891876705,29.780391919210842,-27.634673902239793,6.262248025208098,0.011750025613758944
-0.03728374857594963,0.044437395497211644,0.08370850634298299,0.2742335821708776,0.021817380499430758,0.049849871491331244,-0.4879519317918208,0.4911562917329051,0.8538167194294205,-1.1464480757887983,0.29908316298393345,0.2476859171523129,-25.144598927238608,-19.881868017367413,29.404838735048834,-26.09141140686278,6.239264485797847,0.011891379138739819
-0.03827330004008554,0.04542609232264911,0.08542081592418135,0.2718647892820133,0.022424584244053608,0.0503441601854083,-0.49477573206795916,0.49434841271873275,0.8561547905991779,-1.1843964444321708,0.3036018723114242,0.24714434703852617,-25.07999740145935,-20.12154624835223,29.029286517014217,-24.534499772230863,6.215757821429296,0.012051196029076852
-0.03927643872482298,0.04642091122748757,0.08713718164029505,0.26942497907727475,0.023040787470002932,0.05083736618976208,-0.5015693423687213,0.4974094524192323,0.8581828580568434,-1.219905102369269,0.3081016129746626,0.24660300217689138,-25.008554962899368,-20.363322882403768,28.65403644450484,-22.96654999052518,6.191740318017306,0.01222810448807389
-0.04029310064324695,0.04742158881681399,0.08885698375321116,0.2669190572964592,0.023665949242211902,0.05132949002079402,-0.5083309592119835,0.5003387946632085,0.8599010564580536,-1.2529608904077718,0.31258088610448553,0.24606191551596754,-24.930282926502784,-20.607038625082893,28.27938796538964,-21.390146013027156,6.167224404300206,0.012420769522730718
-0.04132321824428385,0.048427860673181694,0.09057960328429823,0.2643519480525016,0.024300025662307864,0.05182053225895872,-0.5150588005184518,0.5031359281838508,0.8613097655435366,-1.2835546219787999,0.3170382100479818,0.2455211190823504,-24.845194572048012,-20.85253572369959,27.90563855897893,-19.8078412545754,6.142222655915359,0.012627890523958102
-0.042366720455783505,0.049439461565492615,0.09230442250031724,0.2617285859917514,0.024942969903733497,0.05231049354702644,-0.5217511057498249,0.5058004461554608,0.8624096080095047,-1.3116810303751099,0.3214721207128167,0.2449806440338592,-24.753305236191288,-21.099658064533337,27.533083495663693,-18.222155203530352,6.1167477980559735,0.01284819920459021
-0.04342353272782013,0.05045612565678695,0.09403082539474192,0.2590539085699861,0.025594732247515215,0.052799374588435734,-0.5284061360183125,0.5083320456471685,0.8632014472123398,-1.3373387108826618,0.3258811718908598,0.24444052070464772,-24.65463240320889,-21.348251260607665,27.162015593698122,-16.635570140651815,6.090812706736945,0.013080457856653821
-0.044493577076157906,0.05147758671077461,0.09575819816416391,0.2563328484540263,0.026255260118641623,0.05328717614572198,-0.535022174168889,0.5107305269938319,0.8636863847109962,-1.3605300579799011,0.33026393556320344,0.24390077864312554,-24.549195793818892,-21.598162730295403,26.792724973656536,-15.050527970070474,6.0644304087097405,0.01332345789311612
-0.045576772125829404,0.05250357829694347,0.09748592967946491,0.2535703260584589,0.026924498123018704,0.05377389903900897,-0.5415975248357485,0.5129957930844313,0.8638657576505038,-1.3812611977836895,0.3346190021885408,0.2433614466434928,-24.43701745147871,-21.849241767096608,26.42549881114664,-13.4694271653097,6.037614080078041,0.013576018642451976
-0.04667303315477844,0.05353383399408025,0.0992134119514447,0.2507712422266088,0.0276023880849722,0.0542595441445522,-0.5481305144745179,0.5151278485683887,0.8637411359898974,-1.3995419159250742,0.33894498097674775,0.2428225527716171,-24.31812182557694,-22.101339600993008,26.060621088406727,-11.894619833088525,6.010377043675792,0.013836986367322168
-0.04778227213752214,0.05456808759204099,0.10094004059060038,0.24794047106452483,0.028288869085270972,0.05474411239332403,-0.5546194913718484,0.517126798980366,0.8633143195778407,-1.4153855810419842,0.34324050014938595,0.24228412438591254,-24.192535850964372,-22.354309451839065,25.698372345454768,-10.328408897409684,5.98273276527922,0.014105233481496449
-0.0489043977887903,0.05560607329160943,0.10266521526075867,0.24508285293636584,0.028983877499648404,0.05522760476963167,-0.5610628256340798,0.5189928497842221,0.8625873350791429,-1.4288090640794882,0.34750420718871544,0.2417461881538194,-24.060289023302136,-22.608006575301737,25.339029431492428,-8.773045406212159,5.95469484873268,0.01437965794126228
-0.05003931560710374,0.0566475259022833,0.10438834012626928,0.24220318762918294,0.029687347037801754,0.05571002230976053,-0.5674589091567216,0.5207263053369353,0.8615624327553053,-1.439832653591448,0.3517347690766753,0.24120877006442706,-23.92141346974152,-22.862288301904126,24.98286525729364,-7.230725962640137,5.926277030074793,0.01465918279009723
-0.05118692791825683,0.05769218103783016,0.1061088242924736,0.23930622769470244,0.030399208782852086,0.05619136610063599,-0.5738061555765439,0.5223275677734291,0.8602420831021587,-1.44847996724025,0.355930872525165,0.24067189543773188,-23.775944014490833,-23.11701406976725,24.630148549329732,-5.703590282756558,5.897493170758261,0.01494275583716101
-0.052347133918673044,0.05873977530945689,0.10782608223916879,0.23639667197531486,0.03111939123124975,0.056671637278497944,-0.5801030002081069,0.5237971358133675,0.8586289733475913,-1.4547778596937941,0.3600912241988328,0.24013558893097564,-23.623918238868843,-23.37204545167493,24.28114360639744,-4.1937188813049575,5.868357250060724,0.015229349452021784
-0.05351982971860621,0.05979004651643913,0.10953953424679339,0.2334791593210727,0.03184782033311267,0.05715083702758288,-0.5863478999665817,0.525135603491116,0.8567260038122982,-1.4587563271210802,0.3642145509314578,0.2395998745424683,-23.465376535490986,-23.62724617711035,23.936110059523067,-2.703130886900604,5.838883356788446,0.015517960459700664
-0.054704908385163675,0.06084273383405951,0.11124860681506624,0.23055826250409361,0.03258441953298646,0.05762896657880941,-0.5925393332787351,0.526343658810194,0.854536284136426,-1.460448408489533,0.3682995999368955,0.23906477561326092,-23.300362156283203,-23.882482149929317,23.595302635917363,-1.2337819878108112,5.809085680376399,0.01580761012160431
-0.05590225998513158,0.061897577998706856,0.11295273307381609,0.22763848233635622,0.03332910981101735,0.058106027208463404,-0.5986757999839553,0.5274220823236702,0.8520631293749298,-1.4598900838686906,0.37234513901544825,0.23853031482699955,-23.12892125406831,-24.13762146234435,23.25897092774903,0.21243749073441848,5.778978501490265,0.0160973441892662
-0.05711177162758597,0.06295432148999101,0.11465135318574493,0.2247242419964642,0.034081809724530183,0.058582020236879924,-0.6047558212271914,0.528371745642078,0.8493100559644189,-1.4571201699460012,0.3763499567564168,0.23799651420826026,-22.951102917519925,-24.39253440589458,22.927359166491367,1.6337043769774384,5.748576182235512,0.01638623301905176
-0.05833332750627731,0.06401270870973211,0.11634391474087338,0.22181988157054164,0.03484243545000517,0.059056947027119194,-0.6107779393456697,0.5291936098705495,0.8462807775642266,-1.452180212961288,0.3803128627374937,0.2374633951196361,-22.766959199329836,-24.647093480071362,22.600706003577937,3.0282643103037064,5.717893156078423,0.016673371737079362
-0.05956680894177976,0.06507248615768607,0.11802987314242222,0.21892965281200782,0.03561090082544831,0.05953080898363484,-0.6167407177512244,0.5298887239769842,0.8429792007744161,-1.4451143792669023,0.38423268772157015,0.23693097825782106,-22.576545137483784,-24.90117339925566,22.27924429807572,4.394433265849765,5.686943917581227,0.01695788044471369
-0.06081209442339986,0.06613340260387243,0.11970869198388906,0.21605771412456634,0.0363871173931512,0.06000360755093266,-0.6226427408100529,0.5304582230931812,0.8394094207334214,-1.4359693437207466,0.38810828385144674,0.2363992836489125,-22.37991876958946,-25.154651098603505,21.963200912053857,5.730598945958105,5.655743012051245,0.017238904455828957
-0.06206905965084319,0.06719520925737438,0.12137984341708509,0.213208125772328,0.03717099444283693,0.06047534421221892,-0.6284826137216634,0.5309033267509748,0.835575716598018,-1.4247941761191691,0.391938524842865,0.23586833064313162,-22.17714114024698,-25.407405739489995,21.652796514287473,7.035222038593828,5.624305025199554,0.01751561455793052
-0.06333757757564067,0.0682576599314854,0.12304280851090175,0.2103848453205755,0.037962439055189354,0.060946020488037204,-0.6342589623987378,0.5312253370555116,0.8314825469083347,-1.41164022587626,0.3957223061762115,0.23533813790914204,-21.968276301495987,-25.65931871508846,21.348245392894757,8.306837343038696,5.592644572900297,0.01778720729000849
-0.06461751844233982,0.06932051120508122,0.12469707760058303,0.20759172331026493,0.03876135614576373,0.06141563793489346,-0.6399704333495773,0.5314256367979089,0.827134544840639,-1.3965610051552826,0.3994585452871885,0.23480872342812842,-21.753391306415605,-25.910273656624803,21.049755277457514,9.544054763376153,5.5607762911358805,0.018052905230651783
-0.06590874982946929,0.07038352258010046,0.12634215062728438,0.20483249916895116,0.03956764850927712,0.06188419814386902,-0.645615693564735,0.5315056875096217,0.8225365133506726,-1.379612070656892,0.4031461817566945,0.23428010448778067,-21.532556195991226,-26.160156440801668,20.757527171125083,10.745560170473622,5.52871482620712,0.01831195729071025
-0.06721113669028804,0.07144645663502232,0.1279775374677051,0.20211079736041634,0.04038121686427735,0.06235170273922165,-0.651193430409376,0.5314670274609282,0.817693420210367,-1.3608509042674037,0.40678417750011603,0.23375229767631422,-21.305843979397874,-26.408855198841742,20.471755193147004,11.910116133357807,5.4964748252808215,0.01856363900523847
-0.0685245413933337,0.07250907917423437,0.12960275825358678,0.19943012377487893,0.04120195989818974,0.06281815337697494,-0.656702351522827,0.5313112696060236,0.8126103929408395,-1.3403367927687146,0.410371516956195,0.23322531887664325,-21.073330607880592,-26.65626032754611,20.19262643222264,13.036562521062537,5.464070927339168,0.018807252820044085
-0.0698488237627871,0.07357115937318892,0.1312173436808761,0.19679386236125987,0.04202977431274096,0.06328355174349656,-0.6621411847267015,0.5310400994772762,0.807292713644653,-1.3181307068095216,0.4139072072756064,0.23269918326081074,-20.835094942440776,-26.902264502708583,19.920320810996376,14.123816976209053,5.431517754588116,0.01904212836882191
-0.07118384111867292,0.07463246991925145,0.13282083530835695,0.19420527200258933,0.04286455486975967,0.0637478995540661,-0.6675086779429048,0.5306552730312644,0.8017458137404219,-1.294295179335271,0.4173902785093574,0.23217390528476836,-20.591218715560817,-27.146762695171795,19.6550109619668,15.1708752617521,5.398829904373287,0.019267622736950957
-0.07252944831691838,0.07569278714814998,0.13441278584556285,0.19166748363524577,0.04370619443735387,0.06421119855143327,-0.6728035991227322,0.5301586144492646,0.7959752686029554,-1.2688941836717844,0.4208197837970991,0.23164949868358797,-20.341786487219505,-27.38965218974841,19.39686211501524,16.176811482496298,5.366021941643404,0.019483120708856383
-0.07388549778929475,0.07675189117593978,0.13599275942978736,0.18918349761233624,0.04455458403646473,0.06467345050436762,-0.6780247361881868,0.529552013894905,0.7899867921122598,-1.2419930114547675,0.4241947995554291,0.2311259764671773,-20.08688559546746,-27.630832607173495,19.146031996698355,17.140778183149983,5.333108391992788,0.019688034995897524
-0.07525183958326785,0.07780956602640325,0.13756033189201705,0.18675618131114738,0.045409612887797234,0.06513465720620075,-0.6831708969865498,0.528837425231739,0.7837862311148475,-1.2136581505944255,0.427514425666251,0.2306033509165632,-19.826606101843964,-27.870205929191226,18.902670741386327,18.06200632484343,5.3001037353055045,0.019881806442261618
-0.07662832140178613,0.07886559975381029,0.13911509101161898,0.18438826698422503,0.04627116845912774,0.06559482047336235,-0.6882409092591406,0.5280168637035202,0.7773795598009585,-1.183957163461181,0.4307777856652503,0.2300816335807976,-19.56104073192587,-28.107676526819432,18.666920814267705,18.939805142190952,5.267022400015064,0.020063904206614858
-0.07801478864303635,0.07991978456097025,0.14065663675962187,0.18208234985327496,0.04713913651298882,0.06605394214391141,-0.6932336206251093,0.5270924035799823,0.7707728740014479,-1.1529585654750367,0.43398402693054156,0.22956083527453428,-19.290284811305675,-28.343151191775995,18.438916946182424,19.77356188312449,5.233878757984803,0.020233825917595427
-0.07941108444019836,0.08097191691251214,0.1421845815304384,0.17984088644472004,0.0480134011547319,0.06651202407606405,-0.6981478985810046,0.5260661757709431,0.7639723854082626,-1.1207317042774532,0.4371323208715366,0.22904096607631685,-19.014436197297613,-28.576539170992028,18.218786080186536,20.56274143386664,5.200687120005954,0.020391097801388314
-0.0808170497012319,0.08202179764333525,0.1436985503618836,0.1776661931653986,0.04889384488096807,0.06696906814671927,-0.7029826305167659,0.5249403654115543,0.7569844157226029,-1.0873466396607219,0.440221863118084,0.22852203532761278,-18.73359520667187,-28.807752204081808,18.00664732969716,21.306885831547916,5.167461731901505,0.02053527478004774
-0.08223252314872927,0.0830692320621783,0.14519818114335367,0.17556044511654714,0.04978034862838792,0.0674250762499845,-0.7077367237486886,0.5237172094215227,0.74981539073504,-1.0528740244257302,0.4432518737099254,0.2280040516326217,-18.4478645397136,-29.036704563584838,17.802611948013315,22.005613667101514,5.134216771216981,0.020665940539304928
-0.0836573413598689,0.08411403005026052,0.14668312481203777,0.17352567514387768,0.05067279182296095,0.06788005029570227,-0.7124091055698144,0.5223989940411161,0.7424718343420451,-1.017384986334733,0.44622159728651406,0.2274870228588813,-18.157349200899418,-29.263313097745854,17.606783308959436,22.658619381192555,5.100966344470902,0.020782707564948905
-0.0850913388065051,0.08515600615495404,0.1481530455370449,0.1715637731212351,0.05157105242951542,0.06833399220797964,-0.7169987233181052,0.5209880523467563,0.7349603625035683,-0.9809510113212818,0.4491303032772366,0.22697095613868912,-17.86215641647786,-29.48749727555174,17.419256898352508,23.265672456055658,5.0677244849314755,0.020885217146861368
-0.08653434789543042,0.086194979678452,0.1496076208913379,0.16967648546500544,0.052475007001699575,0.06878690392372235,-0.7215045444626609,0.5194867617489772,0.7272876771464932,-0.94364382811483,0.4519772860920758,0.22645585787135314,-17.562395549231706,-29.709179233701015,17.24012031595194,23.826616506225044,5.0345051508789425,0.02097313935028275
-0.08798619900884673,0.08723077476140301,0.15104654201137585,0.16786541487613998,0.05338453073232507,0.06923878739117491,-0.7259255567081507,0.5178975414755042,0.7194605600189762,-0.9055352944327327,0.4547618653127449,0.2259417337262813,-17.2581780106921,-29.928283825143982,17.069453287513618,24.341368271246193,5.001322224307842,0.02104617295368072
-0.0894467205450818,0.08826322046148735,0.1524695137443776,0.16613202030636517,0.0542994975040937,0.06968964456846874,-0.7302607681175355,0.516222850042172,0.7114858665008622,-0.8666972848874082,0.457483385884315,0.22542858864691442,-16.949617171063775,-30.144738668797096,16.90732768653634,24.809916513555283,4.968189510017326,0.021104045353084272
-0.09091573895958795,0.08929215082691609,0.1538762547831287,0.1644776171448625,0.0552197799407084,0.07013947742217976,-0.7345092072530688,0.5144651827143695,0.7033705193755477,-0.827201580751336,0.4601412183073472,0.22491642685550486,-16.636828267111134,-30.358474200007063,16.75380756525977,25.23232082480395,4.93512073503417,0.021146512432632603
-0.09239307880625891,0.09031740496483939,0.15526649778826637,0.16290337762142781,0.05614524945836945,0.07058828792589723,-0.7386699233354791,0.5126270689616484,0.6951215025688344,-0.787119761717338,0.46273475883052495,0.2244052518587386,-16.319928308244,-30.569423721315413,16.60894919444886,25.608710343992204,4.902129548308156,0.021173358401386566
-0.09387856277910121,0.09133882710465559,0.15663998949798733,0.16141033142185535,0.05707577631765698,0.07103607805880563,-0.7427419864211492,0.5107110699080971,0.6867458548604805,-0.7465230997862401,0.4652634296437642,0.22389506645419663,-15.999035981031634,-30.777523453056318,16.472801111479637,25.939282390849712,4.8692295206173,0.021184395596475336
-0.09537201175429527,0.09235626665621763,0.15799649082513595,0.15999936651103824,0.058011229675800496,0.07148284980428092,-0.7467244875970287,0.5087197757810212,0.6782506635743164,-0.7054824554085524,0.46772667907176,0.22338587273764726,-15.674271552363845,-30.982712583307176,16.345404176226893,26.224301017978046,4.836434144617429,0.021179464252824465
-0.09687324483268114,0.09336957826293849,0.15933577694164183,0.15867123015903578,0.058951477639336294,0.07192860514850324,-0.7506165391929358,0.5066558033604281,0.669643058252936,-0.664068176001238,0.47012398176790016,0.2228776721111596,-15.345756771467462,-31.184933316702406,16.226791634242865,26.46409548533104,4.8037568349690485,0.02115843223976388
-0.0983820793827028,0.09437862184980199,0.16065763735028804,0.1574265301651258,0.059896387317153195,0.0723733460790873,-0.7544172750108284,0.5045217934317516,0.6609302043231076,-0.6223499969549876,0.47245483890845,0.22237046529202512,-15.013614770978815,-31.384130921619406,16.116989186710963,26.65905866066943,4.771210928473863,0.021121194764924967
-0.0998983310838439,0.09538326266629038,0.1619618759438044,0.15626573627464246,0.06084582487392696,0.07281707458373224,-0.7581258505705515,0.5023204082441971,0.652119296758175,-0.5803969452416768,0.4747187783868806,0.22186425232247228,-14.67796996726359,-31.580253775246437,16.016015066656074,26.809645349677513,4.738809684152694,0.02106767404598306
-0.10142181397058689,0.09638337132424443,0.16324831105129203,0.15518918178319072,0.061799655583943305,0.07325979264889255,-0.7617414433714977,0.5000543289770281,0.6432175537438222,-0.5382772457258749,0.4769153550081747,0.22135903258015738,-14.338947960168753,-31.773253406050607,15.9238801208968,26.916370559475506,4.706566283197491,0.020997818950777444
-0.10295234047692599,0.09737882383067654,0.16451677547199936,0.1541970653226339,0.06275774388530912,0.07370150225847139,-0.7652632531695505,0.4977262532160543,0.634232210353669,-0.49605823027839735,0.4790441506829098,0.2208548047894122,-13.99667543238483,-31.96308453317563,15.84058789723047,26.979807699300103,4.674493828731309,0.020911604606457385
-0.10448972148146322,0.09836950161556159,0.16576711649648185,0.15328945282306597,0.06371995343455086,0.07414220539253784,-0.7686905022686149,0.4953388924425175,0.6251705122412413,-0.4538062497839763,0.48110477462087126,0.22035156703322797,-13.651280048591323,-32.14970510231539,15.766134736353461,27.000586722158605,4.642605345311914,0.02080903197848677
-0.10603376635311519,0.09935529155463461,0.1669991959151917,0.15246627964480766,0.06468614716159868,0.07458190402606975,-0.7720224358259813,0.4928949695365113,0.6160397093549177,-0.41158658912915075,0.4830968635239082,0.21984931676595337,-13.302890354554041,-32.33307631763158,15.700509868032832,26.979392211288374,4.610913778117784,0.020690127420151846
-0.1075842829974566,0.10033608598722862,0.16821289001455667,0.1517273528743067,0.06565618732515406,0.07502060012772312,-0.775258322170707,0.49039721629700755,0.606847049682494,-0.36946338525048217,0.4850200817776939,0.21934805082668213,-12.951635676339182,-32.51316266930733,15.643695511063463,26.916961415273086,4.579431991757995,0.020554942193543854
-0.1091410779037249,0.10131178272918961,0.16940808956062073,0.15107235377767234,0.06662993556843808,0.07545829565862973,-0.7783974531341481,0.48784837098049866,0.5975997730320324,-0.3274995483171804,0.4868741216420064,0.2188477654533058,-12.597646019806955,-32.68993195635849,15.595666976564747,26.81408223568154,4.548172768651689,0.02040355196286968
-0.11070395619250835,0.10228228508091003,0.17058469977033205,0.15050084040543996,0.06760725297531626,0.07589499257122413,-0.7814391443917211,0.4852511758602044,0.5883051048556603,-0.28575668611618693,0.48865870343909196,0.21834845629720484,-12.241051970545305,-32.86335530435594,15.556392774194974,26.671591171102424,4.5171488069271275,0.020236056261049074
-0.1122727216641382,0.10324750183052549,0.171742640270578,0.1500122503420365,0.06858800012679551,0.07633069280810123,-0.7843827358149257,0.48260837480773033,0.578970250122974,-0.24429503170172634,0.4903735757396238,0.21785011843855046,-11.881984594403203,-33.03340717774808,15.525834720887637,26.490371221449937,4.486372717795009,0.020052577930582238
-0.11384717684780342,0.1042073472523235,0.17288184504507934,0.1496059035933059,0.06957203715788694,0.0767653983009056,-0.7872275918326137,0.4799227108990044,0.5696023872506599,-0.20317337436530225,0.49201851554571513,0.21735274640218905,-11.52057533878249,-33.200065386509884,15.503948051740222,26.271349756410995,4.455857022356285,0.019853262539758915
-0.11542712305140432,0.10516174110041603,0.17400226236926913,0.1492810056053537,0.07055922381482774,0.07719911096925376,-0.7899731018004491,0.47719692404625996,0.5602086620948973,-0.16244899397609516,0.4935933284703938,0.21685633417407946,-11.156955934846636,-33.36331108688524,15.490681532718476,26.015496351895088,4.425614147810145,0.01963827777525491
-0.11701236041215925,0.10611060859773158,0.17510385473329518,0.14903665040788225,0.07154941951265352,0.07763183271969026,-0.7926186803774625,0.4744337486577761,0.5507961820130254,-0.12217759873572473,0.49509784891289305,0.21636087521825328,-10.79125830080493,-33.52312877603152,15.48597757486764,25.723820598331482,4.395656423033935,0.019407812812245517
-0.11860268794797639,0.10705388042038565,0.17618659875329692,0.1488718238751115,0.07254248339311165,0.0780635654446788,-0.7951637679085696,0.47163591132703075,0.5413720100008685,-0.08241326638537488,0.49653194022906294,0.215866362494267,-10.4236144464301,-33.679506280417584,15.489772349756318,25.397369884637214,4.36599607351282,0.01916207766317385
-0.12019790360960017,0.10799149267749138,0.17725048507112093,0.14878540709731677,0.07353827438290396,0.07849431102162903,-0.7976078308118906,0.46880612855286746,0.5319431589119965,-0.043208388897358826,0.4978954948961566,0.21537278847511473,-10.054156378967715,-33.83243473787228,15.501995905911471,25.03722716165307,4.336645215603834,0.01890130250628752
-0.12179780433353952,0.10892338688647583,0.17829551824265105,0.14877617985596212,0.07453665125224636,0.07892407131196016,-0.7999503619696781,0.4659471044922258,0.5225165857650663,-0.004613620677326374,0.4991884346711995,0.21488014516556958,-9.683016010594553,-33.98190857322342,15.52257228603532,24.644508688811513,4.307615850124818,0.01862573699521762
-0.1234021860957828,0.1098495099439697,0.17932171661494153,0.14884282419536712,0.07553747267373057,0.07935284816020201,-0.8021908811216353,0.46306152874693474,0.5130991861452421,0.03332216970249905,0.5004107107421047,0.21438842412092107,-9.31032506758263,-34.12792546751364,15.551419644830634,24.22036176776389,4.278919855266082,0.018335649550753397
-0.12501084396630158,0.11076981409234175,0.18032911219235256,0.14898392808381597,0.07654059728147188,0.07978064339313416,-0.8043289352593855,0.46015207418602033,0.5036977887055215,0.07055194422441821,0.5015623038706565,0.21389761646607616,-8.936215001323543,-34.27048632082327,15.58845036729237,23.765962466651665,4.250568978828758,0.018031326636062772
-0.12662357216434325,0.11168425688195162,0.1813177504918998,0.14919798915699944,0.07754588373052478,0.08020745881896414,-0.8063640990208345,0.4572213948049332,0.4943191497736141,0.10703053659173048,0.5026432245264469,0.2134077129149906,-8.560816901365712,-34.40959520877485,15.63357118735789,23.28251333865833,4.222574829800462,0.017713072016565634
-0.12824016411450956,0.11259280112919773,0.18228769038803944,0.1494834185366739,0.07855319075654642,0.08063329622654494,-0.8082959750831524,0.4542721236230572,0.48496994806981575,0.14271468983722438,0.5036535130108181,0.21291870379039765,-8.184261410613837,-34.54525933283598,15.686683306839406,22.77124113842747,4.194948869285517,0.01738120600579314
-0.12986041250361574,0.11349541487043936,0.18323900394712167,0.14983854471742558,0.07956237723568609,0.08105815738463254,-0.8101241945530926,0.4513068706208183,0.47565677954111213,0.177563090375834,0.5045932395698324,0.2124305790438006,-7.806678642835396,-34.67748896457957,15.747682514593077,22.23339453987502,4.167702400813098,0.017036064698407266
-0.13148410933832244,0.1143920713118747,0.18417177625175468,0.15026161751444364,0.08057330224467663,0.08148204404118393,-0.8118484173533548,0.44832822071767214,0.4663861523165123,0.2115363985090261,0.5054625044952729,0.21194332827569598,-7.428198102614574,-34.80629738409946,15.81645930590975,21.670241858862536,4.140846560052678,0.016677999191747228
-0.13311104600352985,0.11528274877545913,0.18508610521533145,0.15075081206523122,0.08158582512110193,0.08190495792269592,-0.8134683326036992,0.4453387317922101,0.4571644817883762,0.2445972753937961,0.506261438212655,0.21145694075599372,-7.048948607886355,-34.93170081281746,15.892899002139096,21.083068784133033,4.1143923039721,0.016307374797102675
-0.13474101332152089,0.11616743064095031,0.18598210138697993,0.15130423287821992,0.08259980552381238,0.08232690073358512,-0.814983658995517,0.4423409327455872,0.44799808582424605,0.2767104064943581,0.5069902013552215,0.21097140544460152,-6.669058215177785,-35.05371834095192,15.976881870585382,20.4731761198412,4.088350399478909,0.015924570242100422
-0.136373801611838,0.11704610528416919,0.1868598877472068,0.15191991792129933,0.08361510349345815,0.0827478741556094,-0.8163941451585679,0.4393373216094373,0.4388931801134308,0.30784252153970476,0.5076489848228857,0.21048671101213973,-6.2886541476731574,-35.17237184995192,16.068283244738517,19.841877542936,4.062731411590904,0.015529976865339398
-0.13800920075187523,0.117918766011568,0.18771959949451145,0.1525958427433297,0.08463157951310832,0.08316787984733091,-0.8176995700186042,0.436330363699409,0.42985587365232203,0.3379624110151857,0.5082380098250874,0.21000284586075396,-5.907862726211212,-35.28768593022938,16.166973644922756,19.19049737857688,4.037545691185978,0.015123997804776468
-0.13964700023816445,0.11878541099119884,0.18856138382325574,0.15332992462177192,0.08564909456892139,0.0835869194436209,-0.818899743144612,0.4333224898154199,0.42089216437214055,0.367040939221098,0.5087575279065364,0.209519798144993,-5.526809303311635,-35.39968779454787,16.272818899468703,18.520368396683093,4.01280336238664,0.014707047180933547
-0.1412869892483333,0.11964604318017823,0.1893853996930808,0.15412002672964392,0.08666751021083105,0.08400499455520634,-0.819994505084419,0.4303160944896954,0.41200793491253085,0.3950510539359982,0.5092078209548262,0.20903755579271915,-5.145618200315383,-35.50840718745111,16.385680266527988,17.83282963263205,3.9885143096370737,0.014279549276380893
-0.14292895670370817,0.12050067024874547,0.19019181759016907,0.15496396231509796,0.0876866886132089,0.08442210676825838,-0.8209837276874355,0.42731353428362506,0.4032089485441292,0.4219677927270235,0.5095892011889258,0.20855610652601939,-4.7644126477119375,-35.613876291132,16.505414556666004,17.12922423503459,3.964688164534965,0.01384193771262221
-0.1445726913325348,0.12134930450101435,0.19098081928065494,0.15585949888700584,0.08870649263546405,0.08483825764402256,-0.821867314413325,0.4243171261344385,0.39450084524294116,0.44776828595394663,0.5099020111275806,0.20807543788208532,-4.383314728711819,-35.71612962816069,16.631874256379657,16.410897343424732,3.9413342924826367,0.013394654625844549
-0.14621798173378564,0.12219196279251969,0.19175259755649307,0.1568043624000418,0.08972678588253742,0.08525344871849062,-0.822645200625422,0.4213291457526705,0.38588913791906854,0.47243175651798236,0.5101466235366867,0.20759553723403124,-4.002445326109199,-35.81520396150154,16.764907652694745,15.679193998607989,3.918461779224125,0.012938149842537272
-0.14786461644152116,0.1230286664446624,0.19250735597409713,0.1577962414328628,0.09074743276524691,0.08566768150211386,-0.8233173538677564,0.4183518260713537,0.377379208802032,0.4959395164105046,0.5103234413547433,0.2071163918116191,-3.621924072464073,-35.91113819225815,16.904358959005272,14.935457088316051,3.896079417336896,0.012472880056497604
-0.1495123839897703,0.12385944115615809,0.19324530858606642,0.15883279135310444,0.09176829856043797,0.08608095747955759,-0.82388377412457,0.41538735574784486,0.368976305984641,0.5182749601208212,0.51043289759553,0.2066379887218608,-3.2418693036185218,-36.0039732555906,17.050068442319255,14.181025330717492,3.8741956927478833,0.01199930800825133
-0.1511610729778928,0.1246843169115964,0.19396667966632056,0.1599116384630364,0.0927892494708924,0.08649327810949653,-0.8243444940612595,0.41243787771915824,0.3606855401270703,0.5394235549659857,0.5104754552272104,0.20616031496946796,-2.862398015545385,-36.09375201525068,17.201872552076665,13.41723129823286,3.852818771343893,0.011517901668197661
-0.15281047213638424,0.12550332788721968,0.1946717034289656,0.16103038411985499,0.09381015268494662,0.08690464482445077,-0.8246995792457184,0.4095054878116463,0.35251188132251504,0.5593728284092941,0.5104516070271146,0.20568335747712047,-2.4836258245128167,-36.180519157178395,17.359604050702828,12.645399484000405,3.83195648574707,0.011029133424686283
-0.15446037039308244,0.12631651235403135,0.1953606237412166,0.16218660882473024,0.09483087643576966,0.08731505903066182,-0.8249491283490986,0.4065922334058339,0.3444601561255093,0.5781123524376218,0.5103618754115203,0.20520710310552548,-2.105666930531878,-36.264321082598016,17.52309214605609,11.866844413232702,3.811616322324822,0.010533479278164892
-0.15611055693973258,0.1271239125783457,0.19603369383070404,0.16337787627487244,0.0958512900602493,0.0877245221080083,-0.8250932733250652,0.40370011215717616,0.33653504474371754,0.595633725071096,0.5102068122398129,0.20473153867323973,-1.7286340840391645,-36.34520580104289,17.692162625921775,11.082868801599307,3.7918054085032926,0.010031418042603296
-0.15776082129886593,0.12792557471989266,0.1966911759874915,0.16460173737303596,0.09687126405743425,0.08813303540996076,-0.8251321795666663,0.40083107077347463,0.3287410783937336,0.6119305490817687,0.5099869985924779,0.20425665097622808,-1.3526385557517004,-36.423222823726164,17.866637994694024,10.294761762661736,3.7725305004516247,0.009523430555279128
-0.15941095339094594,0.12872154872759195,0.19733334126113383,0.16585573418903787,0.09789067014647916,0.08854060026357502,-0.8250660460400017,0.3979870038496466,0.32108263682115923,0.6269984080009565,0.5097030445224526,0.2037824268071326,-0.9777901096163273,-36.49842305765998,18.046337612376664,9.503797066277974,3.7537979712021796,0.009009998896109095
-0.16106074360173378,0.12951188823311297,0.19796046915310378,0.16713740386803336,0.09890938132403805,0.08894721796952347,-0.824895105393928,0.3951697527605041,0.3135639459849774,0.6408348394977391,0.5093555887794418,0.2033088529742271,-0.6041969787629552,-36.570858700906705,18.23107783601924,8.711231449783593,3.735613799269582,0.008491605617542364
-0.162709982849824,0.1302966504423373,0.19857284730491576,0.16844428248046087,0.0999272719210518,0.08935288980216353,-0.8246196240451028,0.39238110461215703,0.3061890759059905,0.6534393062137611,0.5089452985068784,0.20283591632003287,-0.2319658443576369,-36.64058313932761,18.42067216368931,7.9183029836449235,3.717983557828365,0.007968732986126353
-0.16435846265429946,0.13107589602484251,0.19917077118227347,0.1697739088087448,0.1009442176588744,0.08975761700964267,-0.8242399022377308,0.38962279125261085,0.298961938678856,0.6648131641419597,0.5084728689112996,0.20236360373957213,0.13879818276021327,-36.70765084516953,18.614931381065254,7.126229493167749,3.700912404505887,0.00744186223675436
-0.16600597520245433,0.1318496890015267,0.19975454375556753,0.17112382806602308,0.10196009570468237,0.09016140081403914,-0.8237562740774425,0.38689648834208473,0.29188628664702876,0.6749596286391373,0.5079390229039841,0.20189190219823708,0.5079915777823274,-36.772117277806956,18.813663710713847,6.336207037732672,3.6844050718433614,0.006911472840570615
-0.16765231341753192,0.13261809663049373,0.20032447517704693,0.17249159554235194,0.10297478472611195,0.09056424241153765,-0.8231691075387999,0.38420381448352864,0.28496571073970384,0.683883738164426,0.5073445107147879,0.20142079874925267,0.8755124151139356,-36.83403878693012,19.016674964097803,5.549408448914627,3.668465858473631,0.006378041787560601
-0.16929727102642392,0.13338118929132126,0.20088088245498625,0.1738747801740272,0.10398816494506834,0.09096614297263908,-0.822478804445996,0.3815463304137674,0.27820363896965355,0.691592315837631,0.5066901094781978,0.20095028055071296,1.2412603791769228,-36.893472518441506,19.2237686963367,4.766981928731752,3.6530986210605265,0.005842042884675436
-0.17094064262727668,0.13413904036783256,0.20142408912516757,0.1752709680318536,0.10500011819065175,0.09136710364240343,-0.821685800426377,0.3789255382556495,0.27160333509066215,0.6980939289132092,0.5059766227917085,0.200480334882171,1.6051367729843524,-36.95047632329488,19.434746363723548,3.990049709154759,3.6383067670394817,0.0053039460704774055
-0.17258222375694968,0.1348917261294956,0.20195442491999374,0.17667776572438806,0.10601052795114517,0.09176712554072496,-0.8207905648364928,0.3763428808315242,0.2651678974130854,0.7033988462672306,0.505204880246714,0.20001094916076437,1.9670445246417334,-37.00510866948067,19.649407483975835,3.2197067738955445,3.6240932481947015,0.004764216747055572
-0.17422181095827058,0.13563932561157221,0.20247222543554555,0.17809280371238023,0.10701927942500954,0.09216620976263867,-0.8197936006604469,0.3737997410383143,0.2589002577758984,0.7075189939960792,0.5043757369321862,0.19954211095685798,2.3268881919336515,-37.0574285573305,19.86754979917724,2.457019643380947,3.6104605551029714,0.004223315130130384
-0.17585920184703135,0.136381920494141,0.20297783179689244,0.17951373953083402,0.10802625957083253,0.09256435737865705,-0.8186954443803865,0.3712974412843962,0.25280318067344437,0.7104679092268896,0.5034900729114998,0.19907380800918856,2.684573965157123,-37.107495438284346,20.08896944134387,1.7030252237051242,3.597410712469377,0.0036816956180667215
-0.17749419517866943,0.13711959498011786,0.20347159032196235,0.18093826091531556,0.1090313571561782,0.09296156943513605,-0.817496665819046,0.3688372429884359,0.24687926253495868,0.7122606922407744,0.5025487926728366,0.19860602823949464,3.0400096683632487,-37.15536913723154,20.313461100524957,0.9587297202426981,3.5849452753745963,0.0031398061805363586
-0.17912659091457808,0.1378524356723984,0.20395385218427198,0.18236408882933713,0.11003446280528557,0.09335784695466928,-0.8161978679543233,0.36642034614027275,0.2411309311548189,0.7129139570107853,0.501552824553685,0.19813875976661793,3.3931047591680237,-37.20110977850708,20.54081819532549,0.2251076164944546,3.573065326448879,0.002598087767545054
-0.18075619028798995,0.13858053145024615,0.2044249730748147,0.18378898038985167,0.11103546904556562,0.09375319093650941,-0.8147996867059375,0.36404788892387535,0.23556044527135792,0.712445780257266,0.5005031201400227,0.19767199092006282,3.7437703272908704,-37.24477771559459,20.77083304571655,-0.4968992813728134,3.5617714739816178,0.002056973739480994
-0.18238279586937853,0.13930397334505082,0.20488531286339864,0.18521073168809926,0.1120342703528473,0.09414760235701541,-0.8133027906942846,0.3617209474023321,0.23016989429197865,0.7108756491237956,0.49940065364084185,0.19720571025300165,4.09191909197578,-37.28643346455794,21.003297047977235,-1.2063827339389726,3.5510638509715378,0.0015168893187173516
-0.18400621163132186,0.14002285441558035,0.20533523525972308,0.18662718050325386,0.11303076319532479,0.09454108217012484,-0.8117078809716702,0.35944053526477227,0.2249611981622212,0.7082244075773014,0.49824642123874296,0.19673990655471454,4.437465398445201,-37.326137641195686,21.238000851591046,-1.9024688916495909,3.5409421151160236,0.0009782510634495367
-0.1856262430127742,0.14073726962285044,0.2057751074744758,0.18803620890652611,0.11402484607615956,0.09493363130784975,-0.8100156907261667,0.3572076036350449,0.21993610737635774,0.704514201636123,0.4970414404173886,0.19627456886245379,4.780325213530225,-37.363950901884856,21.474734537900858,-2.5843190515011947,3.5314054497343887,0.0004414663641837957
-0.187242696982691,0.14144731570473426,0.20620529988072986,0.18943574575358582,0.1150164195746929,0.0953252506807952,-0.8082269849584001,0.3550230409419168,0.21509620312702607,0.699768423529858,0.49578674926666516,0.1958096864727238,5.120416120614026,-37.39993388805545,21.71328780030723,-3.2511303472562796,3.522452565614068,-9.306703665365457e-05
-0.18885538210295427,0.14215309105043522,0.20662618567591257,0.19082376906337523,0.11600538638622582,0.09571594117869914,-0.806342560131634,0.3528876728504796,0.21044289759136028,0.694011654894702,0.49448340576645616,0.19534524895196848,5.457657314016921,-37.4341471742134,21.95345012577824,-3.9021363732550727,3.5140817037646483,-0.0006249615014402021
-0.1904641085905454,0.14285469557494399,0.20703814054461464,0.19219830828159065,0.11699165136032579,0.09610570367099246,-0.8043632437955762,0.35080226225438726,0.20597743435103294,0.6872696091077185,0.4931324870499809,0.1948812461466596,5.791969592942493,-37.46665121940619,22.195010977423173,-4.5366077419904585,3.506290639060131,-0.0011538399302516433
-0.1920686883789142,0.14355223059360092,0.2074415423225018,0.19355744642731676,0.11797512153762117,0.09649453900737802,-0.802289894184387,0.3487675093284747,0.20170088894359067,0.6795690728630486,0.4917350886476956,0.19441766819277997,6.1232753550948384,-37.497506322006814,22.437759977868133,-5.153852575712287,3.49907668474539,-0.001679336169393808
-0.19366893517849304,0.1442457986968834,0.20783677066158668,0.1948993221215017,0.11895570618504676,0.09688244801842741,-0.8001233997894214,0.34678405164123866,0.19761416954244104,0.670937847092482,0.49029232371279524,0.19395450552469687,6.451498590065936,-37.526772577671636,22.68148709315924,-5.7532169324229345,3.4924366977792554,-0.002201095395427566
-0.19526466453630761,0.14493550362553656,0.20822420669711234,0.19622213149616588,0.11993331682950555,0.09726943151619426,-0.797864678907289,0.34485246432658995,0.19371801776283187,0.6614046873320871,0.4888053222293881,0.1934917488834223,6.776564872582628,-37.55450984031218,22.925982816907673,-6.334085166721187,3.4863670849825112,-0.0027187744744210096
-0.19685569389463534,0.145621450146165,0.20860423271629466,0.1975241299834373,0.12090786728991444,0.09765549029484277,-0.7955146791638597,0.3429732603142186,0.19001300959115705,0.6509992436357147,0.4872752302044455,0.19302938932425714,7.098401355690733,-37.58077768590651,23.171038354382684,-6.895880226042686,3.4808638099564817,-0.0032320422961946704
-0.19844184264866513,0.1463037439274007,0.2089772318291645,0.19880363398370765,0.12187927370760375,0.09804062513129042,-0.7930743770148897,0.34114689061784187,0.18649955643492108,0.6397520001351826,0.4857032088446529,0.19256741822381793,7.416936763943267,-37.60563537896394,23.41644580625075,-7.4380638829359755,3.475922400734394,-0.003740580083541528
-0.2000229322031131,0.14698249141676178,0.2093435876417459,0.20005902241239923,0.12284745457504237,0.0984248367858633,-0.7905447772239828,0.33937374468053766,0.18317790629069985,0.6276942143457863,0.4840904337193085,0.1921058272864456,7.732101386648319,-37.62914184144665,23.66199835165254,-7.960136904098984,3.471537958124933,-0.004244081676167744
-0.2015987860277504,0.1476577997183144,0.2097036839318008,0.20128873812502823,0.12381233076286323,0.0988081260029633,-0.7879269123186389,0.3376541507762983,0.18004814502744532,0.6148578563145006,0.482438093910431,0.19164460854999668,8.043827071221912,-37.651355623943935,23.907490430307814,-8.461639156986386,3.467705164705926,-0.004742253789531192
-0.20316922971180074,0.14832977647124812,0.2100579043273658,0.20249128922044188,0.12477382554516572,0.09919049351174535,-0.7852218420251798,0.3359883764668728,0.17711019778249715,0.6012755477068207,0.4807473911512466,0.19118375439101856,8.352047216679393,-37.67233487888944,24.152717923333768,-8.942149654879813,3.4644182944231856,-0.005234816248345653
-0.20473409101716747,0.14899852972947392,0.21040663198830115,0.20366525022229517,0.12573186462307417,0.09957194002680397,-0.7824306526833702,0.3343766291129015,0.17436383046768322,0.5869805009266519,0.47901953895423127,0.19072325752931105,8.656696767289684,-37.69213733560843,24.39747833246436,-9.401286541391496,3.46167122274879,-0.005721502194970196
-0.20629319993045064,0.14966416784235048,0.21075024929106698,0.20480926313901918,0.12668637614653394,0.09995246624886774,-0.7795544566415863,0.3328190564382842,0.17180865138291332,0.5720064583620005,0.4772557617298864,0.19026311103187793,8.95771220640662,-37.710820276980336,24.64157095735769,-9.838707015449016,3.4594574373512597,-0.006202058272730515
-0.20784638871371744,0.1503267993366438,0.21108913751693636,0.20592203840271406,0.12763729073432878,0.10033207286550028,-0.7765943916334039,0.33131574714666073,0.1694441129346949,0.556387631847443,0.47545729389742064,0.1898033083162725,9.255031550481583,-37.72844051750191,24.884797070682662,-10.254107197881295,3.45777004922979,-0.0066762447842919626
-0.20939349195399046,0.15098653279982147,0.21142367654385041,0.207002355687579,0.1285845414923058,0.10071076055180696,-0.7735516201365086,0.3298667315888262,0.1672695134570262,0.5401586424324706,0.47362537898850565,0.1893438431533428,9.54859434325504,-37.745054382540104,25.126960090680658,-10.647221940797001,3.456601804263846,-0.007143835825274281
-0.21093434661142013,0.15164347676478115,0.21175424454211472,0.20804906460866462,0.12952806402979633,0.10108852997114572,-0.7704273287148432,0.3284719824798442,0.16528399913214992,0.5233544605428144,0.47176126874526036,0.188884709669382,9.838341650114504,-37.76071768856619,25.367865750903714,-11.017824581013425,3.4559450951293726,-0.007604619393349998
-0.21246879206611,0.1522977395961103,0.21208121767413207,0.20906108530190418,0.13046779647422355,0.1014653817758411,-0.7672227273449324,0.32713141566456966,0.16348656600867834,0.5060103466197693,0.46986622221360697,0.18842590234769177,10.12421605260179,-37.77548572416991,25.607322266838366,-11.365726638858177,3.455791973533386,-0.008058397473057144
-0.21399667016356466,0.15294942937797076,0.21240496979836132,0.21003740888654487,0.13140367948388978,0.10184131660790022,-0.7639390487273331,0.3258448909302402,0.16187606211462888,0.48816179232034995,0.46794150483312164,0.18796741602956563,10.406161643044278,-37.78941323165874,25.845140499133826,-11.690777463727432,3.456134162718529,-0.008504986096666
-0.215517825258733,0.15359865380370025,0.21272587217768718,0.21097709781126256,0.13233565625893876,0.10221633509972962,-0.7605775475841764,0.32461221286474806,0.16045118966293603,0.4698444623588382,0.4659883875244851,0.18750924591470156,10.684124019281603,-37.8025543890568,26.0811341131621,-11.992863827842243,3.45696307019098,-0.008944215381398002
-0.21703210425862055,0.15424552006721856,0.21304429319238125,0.2118792860853984,0.13326367255049,0.10259043787485173,-0.757139499943772,0.3234331317591579,0.1592105073470316,0.45109413706791934,0.46400814577561433,0.18705138756105288,10.958050279453506,-37.81496279232762,26.315119734650224,-12.271909469698727,3.4582698006252643,-0.009375929543449957
-0.21853935666344707,0.15489013475632454,0.21336059805782948,0.21274317939690873,0.13418767666794504,0.10296362554861999,-0.7536262024132578,0.3223073445529952,0.15815243272410945,0.43194665575516683,0.4620020587275318,0.18659383688412756,11.227889016812265,-37.82669143765628,26.546917101135854,-12.527874588760572,3.46004516890146,-0.009799986889079126
-0.22003943460632763,0.15553260374796612,0.2136751485471969,0.21356805511876498,0.13510761948446703,0.10333589872893148,-0.7500389714402789,0.32123449582079067,0.15727524468371254,0.41243786092811946,0.45997140826100397,0.18613659015574713,11.493590314519876,-37.8377927036384,26.77634920901184,-12.760755292989176,3.462279713232042,-0.010216259783420556
-0.221532192891457,0.1561730321055628,0.2139883027191955,0.21435326220568218,0.13602345444063693,0.10370725801693603,-0.7463791425646846,0.3202141787983296,0.15657708599929984,0.3926035434586097,0.4579174780849493,0.18567964400227627,11.75510574038969,-37.848318333236755,27.00324245593813,-12.97058300085289,3.46496370833672,-0.010624634597282467
-0.22301748903077948,0.15681152397845685,0.21430041465111643,0.2150982209831909,0.1369351375462921,0.1040777040077407,-0.7426480696612334,0.3192459364470252,0.15605596596046664,0.3724793887543545,0.45584155282759015,0.18522299540233567,12.01238834153033,-37.858319415380116,27.227426778415335,-13.157423799497996,3.4680871786267202,-0.011025011632603943
-0.22449518327912807,0.15744818250356646,0.21461183417728344,0.2158024228311971,0.1378426273805547,0.10444723729110872,-0.7388471241742924,0.3183292625548047,0.15570976308350537,0.35210092400310994,0.4537449171312896,0.18476664168401064,12.265392638851239,-37.86784636609215,27.448735784328402,-13.321377760802246,3.471639911361219,-0.011417305026981572
-0.22596513866781912,0.1580831097093102,0.21492290663307945,0.21646542976430097,0.13874588509005867,0.10481585845215186,-0.7349776943455184,0.3174636028718724,0.1555362278980035,0.33150346655193114,0.45162885475198594,0.18431058052156915,12.51407462138921,-37.876948909054725,27.667006880285633,-13.462578217068009,3.4756114697417404,-0.011801442637909831
-0.2274272210366901,0.15871640642186957,0.21523397260469382,0.2170868739112635,0.13964487438538686,0.10518356807201526,-0.7310411844354988,0.316648356279693,0.15553298580718156,0.31072207348126585,0.4494946476641037,0.1838548099317031,12.758391740417519,-37.885676055523156,27.882081393593264,-13.58119099814208,3.4799912059124454,-0.012177365907312443
-0.22888129906457078,0.1593481721738526,0.21554536768473317,0.21766645689612502,0.14053956153573044,0.10555036672855388,-0.7270390139403289,0.31588287599151976,0.15569754001967562,0.28979149243075825,0.4473435751717906,0.1833993282693071,12.998302903301665,-37.89407608352703,28.093804688723388,-13.677413631780086,3.484768273836936,-0.012545029706891975
-0.23032724429817897,0.15997850511541817,0.2158574222338341,0.2182039491235865,0.14142991536178504,0.1059162549969995,-0.7229726168040892,0.3151664707827785,0.15602727455046822,0.2687461137307447,0.4451769130272974,0.18294413422281,13.233768467068291,-37.90219651630599,28.302026278148848,-13.751474509096514,3.4899316420251054,-0.012904402165057838
-0.23176493117943534,0.16060750192791737,0.21617046114841143,0.2186991889713675,0.1423159072268996,0.10628123345061764,-0.7188434406281832,0.3144984062496064,0.15651945728866476,0.2476199238904996,0.4429959325572869,0.18248922680907448,13.464750231658249,-37.910084099942985,28.506599927435165,-13.803632016965016,3.4954701060858424,-0.013255464475975975
-0.2331942370711923,0.16123525774010505,0.21648480363467104,0.21915208189235016,0.14319751102649525,0.1066453026613534,-0.7146529458784789,0.313877906093839,0.15717124312980385,0.22644646049133443,0.4408018997978276,0.18203460536788021,13.691211432837687,-37.91778478017508,28.707383754496725,-13.834173639251958,3.501372301084624,-0.013598210691443513
-0.2346150422813747,0.1618618660469705,0.2168007629890118,0.2195625994294095,0.14407470317577284,0.10700846320046542,-0.7104026050911924,0.31330415343273216,0.15797967717037578,0.20525876852967695,0.4385960746387982,0.1815802695560072,13.913116734746318,-37.925343678374034,28.904240322940556,-13.843415028781385,3.5076267136876274,-0.013932647496285255
-0.23602723008553156,0.16248741863123392,0.21711864638493622,0.21993077814591402,0.14494746259572963,0.1073707156391473,-0.7060939020784321,0.31277629213170766,0.15894169796220645,0.18408935825226336,0.4363797099784004,0.1811262193409355,14.13043222206611,-37.93280506670481,29.097036729437363,-13.831699051943064,3.5142216940765705,-0.014258793967988459
-0.23743068674780018,0.16311200548755075,0.2174387546665849,0.22025671847495917,0.14581577069750654,0.10773206054913566,-0.7017283311343158,0.3122934281584117,0.16005414082434258,0.16297016452256818,0.43415405088844844,0.18067245499417825,14.343125391798552,-37.94021234248341,29.28564468507525,-13.799394807863543,3.5211454676214586,-0.014576681321194107
-0.23882530154028528,0.16373571474946352,0.217761382149005,0.22054058349046834,0.1466796113650887,0.10809249850330419,-0.6973073962425491,0.3118546309563824,0.16131374121005,0.14193250775458138,0.4319203337910784,0.18021897708426513,14.551165144643694,-37.94760800176763,29.469940590667612,-13.746896624067299,3.5283861463009463,-0.014886352637898559
-0.24021096676085799,0.16435863261913677,0.218086816425258,0.22078259760336238,0.14753897093638368,0.10845203007624298,-0.692832610286347,0.3114589348366302,0.16271713812650807,0.12100705644702295,0.42967978564749437,0.1797657864693935,14.754521775979047,-37.955033612229066,29.64980560600148,-13.674623030557704,3.5359317398624066,-0.015187862583968093
-0.24158757774938108,0.16498084329990767,0.21841533818046752,0.22098304518605852,0.14839383818270238,0.10881065584482251,-0.6883054942615549,0.31110534038544746,0.16426087760475308,0.10022379134806857,0.4274336231593437,0.17931288428976497,14.953166966441708,-37.96252978536374,29.825125713027614,-13.58301571424808,3.5437701667166106,-0.015481277112804281
-0.24295503290236872,0.16560242893168123,0.21874722101290228,0.22114226912861382,0.14924420428666896,0.10916837638874176,-0.683727576493814,0.3107928158867774,0.16594141621738884,0.07961197127764752,0.42518305198329176,0.17886027195962476,15.147073772121027,-37.97013614811231,29.99579177300773,-13.472538455670213,3.5518892645640157,-0.015766673156870026
-0.2443132336860899,0.1662234695291962,0.2190827312621854,0.22126066932987656,0.15009006281858764,0.10952519229105981,-0.679100391860594,0.31052029875748904,0.16775512464154677,0.05920010063137409,0.4229292659593441,0.1784079511590221,15.33621661437484,-37.97789131396916,30.161699577647536,-13.343676049882234,3.560276800751809,-0.016044138307755362
-0.2456620846481277,0.16684404292318405,0.21942212784471446,0.22133870112705095,0.15093140971129454,0.10988110413871043,-0.6744254810188975,0.31028669699392636,0.16969829126453875,0.03901589858718753,0.420673446353444,0.17795592382530942,15.520571269286307,-37.98583285367066,30.322749894258205,-13.196933213489197,3.568920482363129,-0.016313770485675894
-0.24700149342740654,0.16746422470444028,0.21976566209637366,0.22137687366711656,0.15176824323352425,0.11023611252299922,-0.6697043896394203,0.31009089062811845,0.1717671258296059,0.019086270032809577,0.41841676111485476,0.17750419214439833,15.700114856782147,-37.99399726555937,30.47884850499973,-13.032833479678521,3.577807966041698,-0.016575677599001803
-0.2483313707627024,0.1680840881708244,0.2201135776226119,0.22137574822357492,0.1526005639618219,0.1105902180400828,-0.6649386676479306,0.30993173319206446,0.17395776311912384,-0.0005627217708142306,0.41616036414881796,0.17705275854179073,15.87482582943737,-38.002419945731354,30.629906240272913,-12.85191808315863,3.5869268675568464,-0.016829977194723122
-0.2496516304996516,0.16870370427720147,0.22046611015595707,0.22133593646201924,0.15342837475103183,0.1109434212914296,-0.6601298684746096,0.30980805318853144,0.17626626667258197,-0.019905880777838367,0.41390539460496295,0.17660162567340273,16.044683960994938,-38.01113515807699,30.775839006336092,-12.654744836872515,3.596264771115344,-0.01707679610041868
-0.25096218959627575,0.16932314158833514,0.2208234874210303,0.22125809865804277,0.15425168070339568,0.111295722884262,-0.6552795483120698,0.30971865556683137,0.1786886325366106,-0.03891890198823826,0.4116529761819273,0.1761507964162,16.209670334631436,-38.02017600433477,30.916567807234212,-12.441887002338428,3.6058092384282383,-0.017316270058659544
-0.25226296812704124,0.1699424662347393,0.22118592900711886,0.22114294187101396,0.15507048913629295,0.11164712343197931,-0.6503892653827493,0.309662323202074,0.18122079304428507,-0.05757839351440758,0.40940421644863356,0.17570027385866197,16.369767331002944,-38.02957439427996,31.052018761136186,-12.213932155449303,3.6155478175416484,-0.017548543354461488
-0.25355388928547395,0.17056174187149215,0.22155364624836066,0.22099121807725414,0.15588480954865827,0.1119976235545615,-0.6454605792163531,0.3096378183764216,0.18385862062089126,-0.07586189687992043,0.4071602061826551,0.1752500612910935,16.52495861610679,-38.03936101617424,31.182123111185525,-11.971481049537177,3.6254680514418633,-0.017773768436593285
-0.25483487938534993,0.17118102964001397,0.22192684211158725,0.2208037222661551,0.15669465358611046,0.1123472238789531,-0.6404950499379868,0.30964388426090617,0.1865979316132941,-0.09374790554951118,0.4049220187260903,0.1748001621958013,16.675229128996868,-38.0495653076068,31.30681723097753,-11.715146477483428,3.635557486445741,-0.0179921055333801
-0.25610586786048517,0.17180038813280676,0.22230571109186725,0.220581290502771,0.15750003500482918,0.11269592503942741,-0.6354942375676064,0.30967924639640076,0.18943449014000627,-0.111215881692044,0.4026907093593541,0.17435058023715314,16.820565069391094,-38.06021542685659,31.426042624782237,-11.44555213462671,3.645803680388045,-0.01820372226386313
-0.25736678726314793,0.17241987336115153,0.2226904391157853,0.22032479796040919,0.15830096963421575,0.11304372767793049,-0.6304597013313793,0.3097426141723746,0.19236401195901312,-0.1282462711809135,0.4004673146932829,0.17390131925153737,16.96095388521062,-38.071338224909766,31.539745922640012,-11.16333148418952,3.6561942106182594,-0.018408793244887645
-0.258617573261119,0.17303953872575573,0.22308120345248603,0.2200351569267313,0.15909747533837562,0.11339063244440496,-0.6253929989855249,0.3098326823020928,0.1953821683503695,-0.14482051683893338,0.39825285207993993,0.17345238323724022,17.096384260089827,-38.082959218262616,31.647878870460765,-10.86912662691144,3.6667166818189254,-0.018607499694914875
-0.25985816463342537,0.17365943499034164,0.2234781726325071,0.21971331478685666,0.15988957197646061,0.11373663999709348,-0.620295686153177,0.30994813229296225,0.19848459001054572,-0.16092106993733,0.3960483190424967,0.17300377634425773,17.22684610089657,-38.09510256264357,31.750398315264064,-10.563587176542493,3.67735873365865,-0.018800029035186905
-0.26108850326477495,0.17427961025816316,0.22388150637441803,0.21936025198693473,0.16067728136190973,0.1140817510028216,-0.6151693156747815,0.31008763391075755,0.20166687095546382,-0.17653139996095912,0.3938546927245561,0.1725555028640598,17.352330525300996,-38.10779102778254,31.847266185699105,-10.247369142812483,3.688108048292131,-0.018986574488947805
-0.26230853413871996,0.17490010995143615,0.2242913555192763,0.21897697998162613,0.16146062722062826,0.11442596613726025,-0.610015436972515,0.31024984663650196,0.2049245724291325,-0.19163600265430275,0.3916729293592727,0.1721075672193225,17.472829849430028,-38.12104597335675,31.938449467990388,-9.92113382345447,3.698952357719837,-0.01916733467942111
-0.2635182053295783,0.17552097679366577,0.2247078619729058,0.21856453916889576,0.1622396351481455,0.11476928608516754,-0.6048355954291793,0.31043342111481254,0.2082532268147586,-0.20622040636517786,0.38950396375861546,0.17165997395364557,17.588337575643344,-38.13488732623624,32.02392017745294,-9.585546706819015,3.709879451019449,-0.019342513227104396
-0.26471746799314233,0.17614225079485088,0.22513115865599617,0.21812399681548497,0.1630143325657917,0.11511171154061008,-0.5996313317819991,0.31063700059255783,0.2116483415451862,-0.22027117670539642,0.38734870882310646,0.17121272772127097,17.698848380464455,-38.14933355915009,32.103655325726905,-9.241276386574626,3.7208771814607826,-0.019512318347123303
-0.2659062763562058,0.1767639692395443,0.22556136946201516,0.21765644497638525,0.16378474867593643,0.11545324320716371,-0.5944041815317186,0.31085922234671315,0.21510540300949138,-0.23377591954985485,0.3852080550723601,0.17076583327681824,17.80435810269832,-38.16440167088934,32.17763688388004,-8.888993489945506,3.7319334735153142,-0.019676962447181645
-0.26708458770494053,0.17738616667774496,0.22599860922292025,0.21716299841158987,0.16455091441632988,0.11579388179809381,-0.5891556743673622,0.3110987191003363,0.21861988045254196,-0.24672328239769772,0.38308287019673354,0.1703192954650525,17.904863731764408,-38.180107168157626,32.24585174152813,-8.529369620893371,3.7430363297707254,-0.019836661726739757
-0.26825236237215455,0.1780088749185962,0.2264429836826489,0.21664479250334728,0.16531286241359067,0.11613362803651521,-0.5838873336069946,0.31135412042562294,0.2221872298643156,-0.25910295412129436,0.3809739986303883,0.16987311921069984,18.000363396271375,-38.196464049173436,32.30829166212316,-8.163076319602308,3.7541738377601224,-0.019991635778068728
-0.26940956372346414,0.1786321230268623,0.22689458947836041,0.2161029811770857,0.16607062693588276,0.11647248265553187,-0.5786006756547822,0.31162405413303773,0.22580289785576035,-0.27090566313078485,0.3788822611460491,0.16942730950832519,18.09085635285619,-38.21348478912391,32.36495323455866,-7.790784039579523,3.7653341767146182,-0.020142107189627667
-0.2705561581424134,0.1792559373221534,0.22735351412939636,0.21553873482911792,0.16682424384482622,0.11681044639835644,-0.5732972094746271,0.31190714764555416,0.22946232551797496,-0.282123173983893,0.3768084544717331,0.1689818714122869,18.17634297530809,-38.231180327560786,32.41583782123993,-7.413161143634177,3.7765056242469464,-0.02028830115245306
-0.27169211501457463,0.17988034138086753,0.22781983603391934,0.21495323826417279,0.16757375054668563,0.11714752001841,-0.5679784360806136,0.3122020293570698,0.233160952261486,-0.2927482824725663,0.3747533509297063,0.1685368100267821,18.256824743993487,-38.24956005782376,32.460951502766676,-7.030872919947779,3.787676562973058,-0.020430445069997916
-0.27281740671066357,0.18050535604081575,0.22829362447318413,0.21434768864573323,0.16831918594288145,0.117483704279402,-0.5626458480444735,0.3125073299741014,0.23689421963240245,-0.3027748092197841,0.3727176980979098,0.16809213049599644,18.332304235595558,-38.26863181856758,32.50030501937134,-6.644580619397543,3.798835487077035,-0.020568768171994933
-0.27393200856870403,0.18113099940849553,0.2287749396233886,0.21372329346209007,0.16906059037986962,0.11781899995539073,-0.5573009290202448,0.31282168383989517,0.2406575751022375,-0.3121975918215772,0.37070221849408036,0.16764783799437122,18.40278511317795,-38.28840188746172,32.53391370925628,-6.254940515242949,3.809971008823935,-0.02070350113282904
-0.2750358988752766,0.18175728686897577,0.229263832575045,0.21308126851094825,0.16979800559843516,0.11815340783082473,-0.5519451532862657,0.3131437302401245,0.2444464758282021,-0.32101247557091833,0.368707609282772,0.16720393771700104,18.468272116579463,-38.30887497712352,32.56179744396832,-5.862602986232024,3.821071865023938,-0.02083487569490916
-0.2761290588458858,0.18238423109835453,0.2297603453598066,0.2124228359053449,0.1705314746824461,0.11848692870056508,-0.5465799853046152,0.3134721146893768,0.24825639238079372,-0.32921630280167913,0.36673454200546607,0.16676043487017378,18.528771053142748,-38.330054233336206,32.583980560947225,-5.468211624131319,3.832126923449746,-0.02096312429745706
-0.2772114726044819,0.18301184207874985,0.23026451098467768,0.2117492221035603,0.17126104200711395,0.11881956336988922,-0.5412068792980747,0.31380549019766585,0.2520828124355297,-0.33680690089229665,0.36478366233393683,0.1663173346620651,18.584288788776604,-38.35194123559544,32.60049179338043,-5.072402366628685,3.8431251892082883,-0.02108847971124156
-0.27828312716217124,0.18364012711578231,0.2307763534735291,0.21106165596561996,0.17198675318680798,0.11915131265447641,-0.5358272788446599,0.31414251851623387,0.25592124442570374,-0.34378306897015976,0.36285558984701816,0.16587464229359875,18.63483323934908,-38.374536000019226,32.61136419749323,-4.67580265650361,3.8540558110665106,-0.021211174679621803
-0.2793440123951507,0.1842690908585062,0.23129588791583525,0.21036136683890194,0.17270865502246976,0.11948217738037538,-0.5304426164897332,0.3144818713619405,0.25976722115308054,-0.3501445633590023,0.36095091783089334,0.16543236294948346,18.68041336240454,-38.397836984645934,32.61663507739928,-4.2790306279047,3.8649080877297255,-0.021331441566312448
-0.2803941210219021,0.18489873532174533,0.23182312052254223,0.20964958267527636,0.17342679544867579,0.11981215838395426,-0.5250543133756808,0.3148222316195623,0.26361630335348424,-0.35589208181278376,0.35907021310300663,0.16499050178943714,18.721039149195967,-38.42184109713815,32.616345907632876,-3.8826943205182842,3.8756714740700717,-0.021449512010291327
-0.2814334485796803,0.18552905991078805,0.23235804868897078,0.20892752818211507,0.17414122348039512,0.12014125651183348,-0.5196637788891036,0.3151622945213559,0.2674640832142823,-0.36102724658064383,0.3572140158596698,0.16454906393960794,18.756721617020695,-38.44654370489934,32.61054225347895,-3.4873909223566235,3.886335587301358,-0.021565616588179293
-0.2824619934003312,0.1861600614483946,0.2329006610646524,0.208196423009418,0.17485198915948993,0.12046947262080189,-0.5142724103254447,0.3155007688032644,0.2713061878408177,-0.36555258634853643,0.35538283954741073,0.16410805448420202,18.787472801844913,-38.47193864760302,32.59927368921469,-3.0937060418381757,3.8968902130955128,-0.021679984484459458
-0.2834797565854731,0.18679173420406894,0.2334509376299902,0.20745747997520986,0.1755591435010061,0.12079680757771655,-0.508881592570941,0.3158363778371723,0.2751382826688993,-0.36947151710408205,0.35357717075808426,0.16366747845732676,18.813305751201153,-38.49801825212445,32.582593714369835,-2.7022130097763695,3.9073253116351894,-0.021792843169877507
-0.2844867419810766,0.18742406992554622,0.23400884977963124,0.20671190333126582,0.17626273843930157,0.12112326225938666,-0.5034926978017624,0.3161678607386407,0.27895607482051915,-0.3727883219720228,0.3517974691477358,0.163227340835058,18.834234517340057,-38.52477334985692,32.56055966811047,-2.3134722118373516,3.9176310235954612,-0.021904418088319277
-0.28548295615147695,0.18805705787244537,0.23457436041243132,0.20596088707112897,0.17696282677405994,0.12144883755244214,-0.49810708520016955,0.3164939734495772,0.28275531640003526,-0.3755081300684244,0.3500441673791817,0.16278764652773917,18.850274150616652,-38.55219329638586,32.533232641845586,-1.9280304519713676,3.9277976760474282,-0.02201493235244667
-0.2864684083528519,0.188690684852036,0.23514742402788757,0.2052056132822841,0.17765946211623643,0.12177353435318718,-0.4927261006874953,0.3168134897953184,0.28653180772812414,-0.37763689442244347,0.34831767108823847,0.16234840037251994,18.86144069308922,-38.580265993486464,32.50067739015195,-1.546420347266725,3.937815788275141,-0.02212460644842651
-0.28744311050619936,0.18932493525706726,0.23572798682890936,0.20444725054425397,0.17835269883398344,0.12209735356743946,-0.48735107667372773,0.3171252025156274,0.29028140051088586,-0.3791813690150657,0.3466183588735033,0.16190960712614116,18.867751172309053,-38.60897791340236,32.4629622401087,-1.1691597546195225,3.947676077496927,-0.02223365794988358
-0.28840707716984626,0.1899597911056055,0.23631598683079247,0.20368695237428452,0.17904259199860256,0.1224202961103554,-0.4819833318234468,0.3174279242691268,0.2940000009415608,-0.38014908498472455,0.34494658230955755,0.16147127145797294,18.86922359527659,-38.63831412535588,32.42015899912916,-0.7967512295577803,3.957369464481345,-0.022342301241486007
-0.28936032551152197,0.19059523208282694,0.23691135397625726,0.20292585572218427,0.17972919733056944,0.12274236290624202,-0.47662417083784125,0.3177204886107119,0.2976835727324018,-0.3805483260501286,0.34330266598343384,0.16103339794331126,18.86587694254088,-38.6682583242322,32.37234286137255,-0.42968151750328676,3.9668870790475164,-0.022450747252219128
