Joohwan-Seo/mujoco_sysID/Fanuc/Dataset/square_PIH_fanuc_3.csv
q1,q2,q3,q4,q5,q6,dq1,dq2,dq3,dq4,dq5,dq6,t1,t2,t3,t4,t5,t6
-3.838308868737575e-05,0.26184484895432647,-0.2618288145593517,0.00010318776189246183,-1.047169413413662,-1.1900331994942562e-05,-0.019191544343687875,0.02273057758852599,-0.01471338010113677,0.051593880946230915,0.014068891467877374,-0.005950165997471281,-2.5504584627510877e-05,141.5071974334121,-443.52360648584477,300.2972304575497,-23.659376298912715,-0.3029677560114666
-7.864998724638525e-05,0.2619202541321956,-0.2618855288191362,0.00026854897876291844,-1.047131911658751,-2.3318861741251727e-05,-0.020133449279504747,0.03770258893457573,-0.02835712989223746,0.08268060843522829,0.01875087745546853,-0.005709264873154582,-1.4995740525217625,139.99871599759567,-443.5329628159687,300.2999903444332,-23.282774680856903,-0.3066814542677395
-0.00011359297954105984,0.2620156307153756,-0.2619669453507918,0.00047479824113503264,-1.0470935432645678,-3.233843497921241e-05,-0.017471496147337298,0.0476882915899868,-0.04070826582780765,0.10312463118605708,0.019184197091571615,-0.0045097866189803435,-2.999045653923867,138.49090271228027,-443.537072447798,300.30535716731555,-22.90531748435912,-0.30962013395765337
-0.00014298776759437328,0.26212552439847403,-0.26206972233687953,0.0007089901011823967,-1.0470576950340589,-3.939155730341245e-05,-0.014697394026656723,0.05494684154921552,-0.051388493043873065,0.11709593002368206,0.017924115254517956,-0.003526561162100021,-4.498657765963009,136.98389566581722,-443.53769563209966,300.3119991447072,-22.527445107671323,-0.3119885964112605
-0.00016838557538292876,0.26224654413214005,-0.26219063849973606,0.0009626780383399601,-1.0470254575801903,-4.54129357829636e-05,-0.01269890389427774,0.06050986683301092,-0.060458081428268244,0.12684396857878166,0.016118726934339925,-0.003010689239775573,-5.998452792262621,135.47777156085746,-443.53588025867293,300.3188672447462,-22.149369513316486,-0.31411301158130633
-0.0001914939664812489,0.2623762955048541,-0.2623268631139983,0.0012301175701243422,-1.0469969221304003,-5.128924486434245e-05,-0.011554195549160068,0.06487568635701566,-0.06811230713111296,0.1337197658921911,0.014267724894934481,-0.0029381545406894226,-7.498396057298438,133.97242430558873,-443.53194109211086,300.32537056502264,-21.771186313333484,-0.3162017658362909
-0.00021374238019927994,0.2625129249416296,-0.26247599080742195,0.0015073117173417764,-1.0469717727147305,-5.773044872081591e-05,-0.011124206859015526,0.0683147183877656,-0.07456384671184815,0.13859707360871706,0.012574707834881247,-0.0032206019282367297,-8.998431325951424,132.4676885308495,-443.52582877492847,300.3312190897793,-21.392940620618194,-0.3183586735183563
-0.00023622367995693644,0.2626549201047063,-0.2626359998587118,0.0017914454154676256,-1.046949553944686,-6.527002429370057e-05,-0.011240649878828243,0.0709975815383642,-0.08000452564490264,0.1420668490629246,0.011109385022267453,-0.0037697877864423354,-10.498503019992471,130.96341093199135,-443.51735804364466,300.33628702347977,-21.014655995556932,-0.3206240142574065
-0.0002597413794899115,0.26280101511503934,-0.26280519426339033,0.002080523262094169,-1.046929789509936,-7.429762314506994e-05,-0.011758849766487531,0.07304750516651731,-0.08459720233926932,0.1445389233132717,0.00988221737498128,-0.004513799425684683,-11.998562868263868,129.4594738932178,-443.5063146175943,300.34053099098503,-20.63634658921422,-0.3230046562739423
-0.0002848751062452736,0.2629501386446229,-0.2629821494006798,0.0023731260093949593,-1.0469120318892462,-8.509396366754353e-05,-0.012566863377681049,0.07456176479179483,-0.08847756864475707,0.14630137365039517,0.008878810344996322,-0.005398170261236798,-13.498570630794655,127.95579696085596,-443.4924980706682,300.34394617289337,-20.258022260529803,-0.3254918651658583
-0.0003120387277745452,0.26310138024511304,-0.2631656660963223,0.002668242303731829,-1.0468958804615867,-9.785987696401612e-05,-0.013581810764635804,0.0756208002450509,-0.09175834782123374,0.14755814716843477,0.008075713829790606,-0.006382956648236298,-14.99849297910096,126.45233072640269,-443.4757354785623,300.34654393040836,-19.879690762293347,-0.32807089201720707
-0.00034152592695907094,0.2632539652751208,-0.26335473295832706,0.0029651506616392657,-1.0468809853275787,-0.00011273851189238366,-0.014743599592262869,0.07629251500388927,-0.09453343100236956,0.1484541789537182,0.007447567003983913,-0.007439317464183769,-16.498302040280997,124.94904937754806,-443.455882915878,300.34834082823943,-19.501358683680856,-0.33072578695589694
-0.00037354417452943443,0.2634072346383543,-0.26354849563176075,0.0032633360177661474,-1.0468670449487654,-0.00012983169630074228,-0.016009123785181753,0.07663468161675871,-0.09688133671684379,0.14909267806344076,0.006970189406691468,-0.008546592204179306,-17.997974085214178,123.44594413278813,-443.4328225070227,300.34935353879433,-19.12303185933722,-0.3334416116134084
-0.0004082394636470083,0.26356062776928807,-0.26374623157591864,0.003562430466477175,-1.046853801401874,-0.00014921178200176348,-0.01734764455878694,0.07669656546689482,-0.09886797207895152,0.1495472243555139,0.006621773445647291,-0.009690042850510604,-19.497488469570158,121.94301809342598,-443.4064583075536,300.3495967229279,-18.74471555109692,-0.33620529691010687
-0.0004457141078722805,0.26371366813280345,-0.2639473292198585,0.0038621710874197253,-1.0468410350039263,-0.00017093014426307527,-0.018737322112636106,0.07652018175769117,-0.10054882196990138,0.1498703104712751,0.006383198973862441,-0.0108591811306559,-20.996826816248582,120.44028243369002,-443.37671230390595,300.34908237603685,-18.366414535865708,-0.3390058295560365
-0.000486039468332878,0.2638659508134482,-0.26415127061827365,0.004162369892585065,-1.046828559089995,-0.0001950232522341818,-0.020162680230298775,0.07614134032238162,-0.10197069920757787,0.15009940258266982,0.006237956965642353,-0.012046553985553259,-22.49597239733729,118.93775367524765,-443.3435209592077,300.3478198582795,-17.98813315724632,-0.341834130851628
-0.0005292650225924353,0.26401713189139775,-0.26435761694098087,0.004462892395823923,-1.0468162152603844,-0.00022151699328557347,-0.021612777129778632,0.07559053897478107,-0.10317316135361346,0.15026125161942908,0.006171914805348293,-0.013246870525695847,-23.994909672290408,117.43545178201592,-443.3068323794009,300.34581620978037,-17.609875364644182,-0.3446828153917827
-0.000575424812104496,0.26416691935844816,-0.26456599628393546,0.004763642324241034,-1.0468038691945596,-0.00025042974872796053,-0.023079894756030374,0.07489373352519943,-0.10418967147730028,0.15037496420855606,0.006173032912363762,-0.014456377721193516,-25.49362394557556,115.93339885265708,-443.26660404265493,300.3430765521847,-17.231644748687224,-0.3475459223778792
-0.0006245420180995958,0.26431506536168986,-0.26477609340090613,0.005064550707841142,-1.0467914070290005,-0.0002817745791649349,-0.024558602997549882,0.07407300162084499,-0.10504855848534715,0.15045419180005382,0.006231082779553425,-0.015672415218487206,-26.992101114607326,114.43161823854358,-443.2228009980381,300.33960448296585,-16.853444575518253,-0.35041866205492517
-0.0006766322040876462,0.26446135958922456,-0.26498764103585914,0.0053655680916026615,-1.0467787322539206,-0.00031556077597426856,-0.026045092994025222,0.0731471137673409,-0.10577381747651005,0.15050869188075977,0.006337387539957934,-0.01689309840466681,-28.49032748541597,112.93013395968617,-443.17539443976693,300.33540242326603,-16.475277820136945,-0.3532971939343791
-0.0007317056097196883,0.26460562363566825,-0.26520041259642474,0.00566665897500226,-1.0467657630693714,-0.00035179496199042764,-0.027536702816021014,0.07213202322185558,-0.10638578028278577,0.1505454416997993,0.006484592274607145,-0.01811709300807954,-29.98828963884751,111.42897032660164,-443.1243605764203,300.3304719074204,-16.0971471982646,-0.35617844068459703
-0.0007897687704729806,0.26474770620628274,-0.26541421595505066,0.00596779784087802,-1.046752430139768,-0.00039048187183141737,-0.029031580376646174,0.07104128530725533,-0.10690167931295687,0.15056943293788005,0.006666464801795552,-0.019343454920494853,-31.485974334267446,109.92815170279128,-443.0696797300511,300.32481381532557,-15.719055196169684,-0.35905993570809314
-0.0008508256587082069,0.26488747903756427,-0.26562888820079567,0.006268966318534181,-1.0467386746900214,-0.00043162490471759866,-0.03052844411761315,0.06988641564075423,-0.10733612287251443,0.1505842388280803,0.006877724873304068,-0.020571516443090646,-32.98336844095729,108.42770236200244,-443.01133561430373,300.31842855430136,-15.341004098069657,-0.36193970012772775
-0.0009148784853054128,0.2650248334290177,-0.26584429119389846,0.006570151156454234,-1.0467244468926866,-0.0004752265158236164,-0.03202641329860289,0.06867719572674245,-0.10770149655140127,0.1505924189600265,0.007113898667399707,-0.02180080555300885,-34.48045888985117,106.92764640842708,-442.9493147523277,300.311316198762,-14.962996010929597,-0.36481614436959153
-0.0009819282609087945,0.2651596772957225,-0.2660603077990647,0.006871342773017935,-1.046709704502139,-0.0005212884931108782,-0.03352488780169093,0.06742193335238297,-0.10800830258312397,0.15059580828185043,0.007371195273883399,-0.023030988643630908,-35.977232640127205,105.42800773790842,-442.8836060044614,300.303476595848,-14.585032886644893,-0.3676879898038272
-0.0010519751871820348,0.2652919326642754,-0.2662768386930626,0.007172534219964943,-1.0466944116980466,-0.0005698121529969238,-0.03502346313662015,0.06612768427647289,-0.10826544699897533,0.15059572347350403,0.007646402046224853,-0.024261829943022804,-37.473676656580274,103.92881002518789,-442.8142001826913,300.29490944423264,-14.207116541711626,-0.3705542064931467
-0.0011250189280862658,0.26542153354594894,-0.2664937996585643,0.007473720440671959,-1.0466785381060053,-0.0006207984785483917,-0.03652187045211549,0.06480044083677292,-0.10848048275083336,0.15059311035350761,0.007936796020637585,-0.025493162775733914,-38.96977789476411,102.4300767270833,-442.74108973421596,300.2856143521394,-13.829248674556446,-0.37341396375886243
-0.0012010587966770276,0.26554842413060253,-0.26671111928984675,0.007774897739069273,-1.0466620579680808,-0.0006742482170075574,-0.03801993429538088,0.06344529232679792,-0.10865981564123454,0.15058864919865736,0.008240068962220985,-0.026724869229582886,-40.46552329168551,100.93183109485655,-442.6642684804527,300.27559087945195,-13.45143088073431,-0.3762665908946138
-0.0012800938825870316,0.26567255725322253,-0.2669287370474562,0.008076063399107465,-1.046644949440192,-0.0007301619485739799,-0.03951754295500202,0.06206656131000772,-0.10880887880471463,0.15058283001909584,0.008554263944450484,-0.027956865783211243,-41.960899760425924,99.43409619134621,-442.5837314008458,300.26483856777884,-13.073664666211878,-0.3791115458956501
-0.0013621231380145475,0.2657938930921078,-0.26714660160861164,0.00837721541186975,-1.046627193996831,-0.0007885401348893729,-0.04101462771375794,0.060667919442653206,-0.10893228057773728,0.15057600638114213,0.00887772168042768,-0.029189093157696525,-43.45589418750469,97.93689491002627,-442.49947445312307,300.25335696147476,-12.69595145895194,-0.3819483905172234
-0.0014471454348147323,0.2659123980638257,-0.2673646694682886,0.00867835227968858,-1.0466087759266374,-0.0008493831532071312,-0.04251114840009237,0.059252485858956386,-0.10903392983846522,0.15056843390941463,0.009209035096792197,-0.030421509158879145,-44.950493432123864,96.44024999422334,-442.41149442338076,300.2411456219319,-12.318292618999921,-0.3847767703353584
-0.0015351596015816128,0.26602804388527695,-0.26758290375281696,0.008979472875377216,-1.0465896819048874,-0.0009126913204772453,-0.044007083383440226,0.05782291072562626,-0.10911714226418003,0.15056029784431818,0.00954701087496321,-0.031654083635057055,-46.444684326673716,94.94418405544627,-442.3197888007164,300.22820413690334,-11.940689447257945,-0.3875963987688369
-0.00162616444697583,0.2661408067776543,-0.2678012732136604,0.009280576340934406,-1.0465699006311213,-0.0009784649103356888,-0.045502422697108635,0.056381446188658965,-0.10918473042171548,0.1505517327785953,0.009890636883020996,-0.03288679492922175,-47.93845367805353,93.44871959025619,-442.2243556721544,300.21453212619633,-11.563143193112126,-0.3904070442456624
-0.0017201587736870555,0.26625066679086645,-0.26801975137397577,0.009581662014540585,-1.0465494225219423,-0.0010467041651074473,-0.0469971633556127,0.05493000660608253,-0.10923908015770996,0.1505428368030895,0.010239054589482481,-0.03411962738587927,-49.43178826949157,91.95387899541242,-442.1251936344175,300.2001292447394,-11.18565506106057,-0.39320851987264505
-0.0018171413860988918,0.2663576072302236,-0.26823831580472973,0.009882729377849106,-1.0465282394505586,-0.0011174093043093795,-0.048491306205918155,0.05347021967857195,-0.10928221537698715,0.15053368165426023,0.010591535691859798,-0.03535256960096611,-50.92467486264143,90.45968458122633,-442.0223017197315,300.18499518378115,-10.80822621647167,-0.39600067510339326
-0.001917111093790439,0.26646161416992203,-0.268456947510685,0.010183778017851008,-1.0465063445259342,-0.0011905805306984998,-0.049984853845773544,0.05200346984920852,-0.10931585297762485,0.15052432000095142,0.010947462312219509,-0.036585613194560176,-52.41710019980031,88.96615858317077,-441.91567933335165,300.16912967078036,-10.430857790586224,-0.39878338900642796
-0.002020066712350267,0.26656267604019873,-0.2686756304095668,0.010484807599217261,-1.0464837319055091,-0.0012662180346000428,-0.051477809279914,0.05053093513836089,-0.1093414494409244,0.15051479068312643,0.011306310212479869,-0.03781875195077149,-53.90905100614407,87.47332317186148,-441.8053262009056,300.1525324684071,-10.053550884862428,-0.4015565648181032
-0.00212600706251538,0.26666078327700815,-0.26889435089025837,0.010785817844184099,-1.0464603966363755,-0.0013443219970301283,-0.05297017508255658,0.04905361840470937,-0.10936024034576769,0.15050512248341866,0.011667634566885412,-0.03905198121504273,-55.400513991909385,85.98120046155971,-441.6912423239733,300.13520337296234,-9.676306574749699,-0.40432012552984364
-0.0022349309683229973,0.26675592802475706,-0.26911309743802486,0.011086808517877682,-1.0464363345205745,-0.0014248925919732322,-0.054461952903808494,0.04757237387445726,-0.10937327388324394,0.15049533684679126,0.01203105790050994,-0.04028529747155198,-56.89147585447879,84.4898125173579,-441.57342794259034,300.1171422124396,-9.29912591296622,-0.4070740103100112
-0.0023468372547361684,0.26684810388406505,-0.26933186031659184,0.011387779417568404,-1.0464115420008486,-0.0015079299880659722,-0.055953143206585614,0.04608792965400064,-0.10938143928348791,0.150485449845361,0.012396259862884184,-0.041518698046369956,-58.38192328034193,82.99918136121065,-441.45188350357745,300.09834884439437,-8.922009932345176,-0.4098181716006692
-0.002461724745046646,0.26693730569773205,-0.2695506312984475,0.011688730364770358,-1.0463860160637353,-0.0015934343498624586,-0.057443745155238875,0.04460090683350805,-0.10938549092780979,0.1504754736009766,0.012762968556702458,-0.0427521808982432,-59.8718429469198,81.50932897696234,-441.3266096337796,300.0788231537355,-8.544959648306381,-0.41255257276105706
-0.002579592258249602,0.26702352936912643,-0.26976940343605055,0.011989661199405926,-1.0463597541573662,-0.0016814058388030875,-0.05893375660147807,0.04311183569720206,-0.10938606880154803,0.15046541731778434,0.013130953184522781,-0.04398574447031449,-61.361221524246595,80.02027731451358,-441.19760711744465,300.05856505052293,-8.16797606100158,-0.4152771861545959
-0.002700438606510262,0.2671067717080829,-0.2699881708677373,0.012290571775473665,-1.0463327541217409,-0.0017718446139713812,-0.060423174130329896,0.04162116947824138,-0.10938371584337982,0.15045528803386926,0.013500017812684756,-0.04521938758414685,-62.85004567651036,78.53204829325107,-441.0648768770968,300.03757446782527,-7.791060157177007,-0.41799199159614403
-0.002824262592792027,0.26718703030014274,-0.27020692865306195,0.012591461957814078,-1.0463050141295762,-0.0018647508326975388,-0.061911993140882485,0.040129296029926105,-0.10937889266232824,0.1504450911702067,0.01386999608237399,-0.04645310936307887,-64.33830206345692,77.04466380485282,-440.9284199573588,300.01585135967645,-7.414212911789463,-0.4206969750921254
-0.0029510630086819318,0.2672643033956002,-0.27042567263310613,0.01289233161968025,-1.0462765326361287,-0.001960124651049355,-0.06340020794495235,0.03863654772874265,-0.10937199002208002,0.1504348309330856,0.01424074672373862,-0.04768690917590819,-65.82597734166455,75.55814571556616,-440.7882375112681,299.99339569915367,-7.037435289408318,-0.42339212781889923
-0.003080838632427188,0.26733858981535424,-0.27064439931196915,0.013193180640900977,-1.0462473083366268,-0.002057966224238707,-0.06488781187262825,0.037143209877035024,-0.10936333943150897,0.15042451061036385,0.014612149750948657,-0.04892078659467601,-67.31305816569814,74.07251586804094,-440.6443307886983,299.97020747658837,-6.660728245431596,-0.4260774452950038
-0.0032135882271825044,0.26740988887101935,-0.2708631057562268,0.013494008906482174,-1.0462173401301573,-0.00215827570696323,-0.06637479737765822,0.03564952783256435,-0.10935322212881977,0.15041413279059895,0.014984103234702797,-0.05015474136226137,-68.79953118915152,72.58779608279185,-440.49670112656145,299.94628669791774,-6.284092727140155,-0.42875292671117915
-0.0033493105394592796,0.267478200297135,-0.27108178950963296,0.013794816305534141,-1.0461866270890283,-0.0022610532536969075,-0.06786115613838768,0.03415571305781615,-0.10934187670307655,0.15040369952598384,0.015356520564451082,-0.05138877336683874,-70.28538306558818,71.10400815934925,-440.34534994051654,299.9216333831748,-5.907529674611414,-0.4314185743887809
-0.0034880042977628984,0.2675435241936404,-0.2713004485207527,0.014095602730442539,-1.0461551684327763,-0.002366299018939275,-0.06934687915180933,0.032661948252713215,-0.109329505559867,0.1503932124541986,0.0157293281259557,-0.052622882621183836,-71.77060044938922,69.6211738771512,-440.19027871795043,299.89624756511466,-5.53104002151105,-0.4340743933426293
-0.003629668211401936,0.26760586097705963,-0.27151908108156564,0.014396368076222757,-1.046122963506114,-0.002474013157430183,-0.0708319568195187,0.031168391709606096,-0.10931628040646477,0.15038267289010893,0.01610246333112669,-0.05385706924545394,-73.25516999651767,68.13931499622042,-440.0314890120366,299.87012928797094,-5.154624695778544,-0.43672039092875325
-0.00377430096945228,0.2676652113390764,-0.2717376857753761,0.014697112240013232,-1.0460900117602208,-0.0025841958243352013,-0.07231637902517221,0.02967518100837875,-0.10930234690523406,0.15037208189523738,0.016475872946657994,-0.05509133345250901,-74.73907836520745,66.65845325766296,-439.8689824367049,299.8432786063344,-4.778284620220415,-0.43935657656109023
-0.003921901239859386,0.2677215762113797,-0.271956261432619,0.014997835120674773,-1.0460563127368685,-0.0026968471754054806,-0.07380013520355279,0.028182436151655436,-0.10928782862144491,0.15036144033077056,0.01684951167611644,-0.05632567553513968,-76.22231221658512,65.17861038401907,-439.70276066238165,299.81569558414697,-4.40202071302398,-0.4419829614841402
-0.0040724676686626935,0.26777495673582963,-0.272174807093364,0.015298536618471383,-1.0460218660549545,-0.002811967367115023,-0.07528321440165366,0.02669026222494699,-0.10927283037252095,0.15035074889830496,0.0172233409570257,-0.05756009585477131,-77.70485821523134,63.69980807949227,-439.53282541238224,299.7873802938,-4.025833888201294,-0.4445995585909527
-0.004225998879327416,0.26782535423913706,-0.27239332197550303,0.015599216634814199,-1.0459866713990738,-0.0029295565567777223,-0.07676560533236126,0.025198751653719844,-0.10925744106950278,0.15034000817140766,0.017597327940328172,-0.05879459483134965,-79.18670302968889,62.22206803007837,-439.3591784598554,299.75833281533056,-3.64972505597299,-0.4472063822777994
-0.004382493472170213,0.267872770211374,-0.2726118054477585,0.015899875072054703,-1.0459507285098246,-0.003049614902646132,-0.07824729642139823,0.02370798611846444,-0.10924173612773518,0.15032921862025267,0.01797144462456024,-0.06002917293420488,-80.66783333292311,60.74541190361155,-439.18182162519463,299.728553235705,-3.2736951231000404,-0.4498034483284736
-0.00454195002386663,0.2679172062877332,-0.2728302570067827,0.016200511833316705,-1.0459140371755822,-0.0031721425639936332,-0.07972827584820875,0.022218038179584492,-0.1092257795121042,0.15031838063100111,0.01834566712127568,-0.06126383067375069,-82.14823580274036,59.26986134974295,-439.0007567738437,299.6980416481841,-2.8977449931699937,-0.4523907738224649
-0.004704367087029539,0.2679586642330453,-0.27304867625772716,0.01650112682235903,-1.0458765972255186,-0.003297139701181463,-0.08120853158145429,0.020728972656075678,-0.10920962547224027,0.15030749452116315,0.018719975031813413,-0.06249856859391481,-83.62789712216906,57.79543799986381,-438.8159858144376,299.6667981517584,-2.5218755668444572,-0.4549683770623384
-0.004869743189849039,0.26799714592863594,-0.27326706289775654,0.01680171994346276,-1.0458384085236816,-0.003424606475711908,-0.08268805140975002,0.019240847795300005,-0.10919332001469716,0.15029656055186477,0.019094350918525883,-0.06373338726522261,-85.10680397980809,56.32216346698331,-438.6275106972252,299.63482285065095,-2.146087742071895,-0.4575362775165047
-0.005038076835785489,0.26803265336116694,-0.2734854167020605,0.017102291101338183,-1.0457994709639693,-0.0035545430502688527,-0.08416682296822497,0.017753716265508146,-0.10917690215198723,0.15028557893771255,0.01946877985614595,-0.0649682872784724,-86.58494307014624,54.85005934556932,-438.4353334127322,299.60211585387594,-1.7703824142716087,-0.4600944957743025
-0.005209366503308358,0.26806518861316286,-0.2737037375119851,0.01740284020104774,-1.045759784465867,-0.003686949588746755,-0.08564483376143416,0.01626762599796621,-0.10916040496230392,0.1502745498547793,0.019843249051142653,-0.06620326923895122,-88.06230109385598,53.379147211359424,-438.23945599062523,299.5686772748509,-1.3947604764920918,-0.4626430535108799
-0.005383610645674552,0.2680947538549658,-0.2739220252249624,0.01770336714794196,-1.0457193489708294,-0.0038218262562690498,-0.08712207118309699,0.014782620901473116,-0.10914385648863272,0.15026347344710875,0.020217747518759155,-0.0674383337611473,-89.53886475806503,51.90944862114735,-438.0398804987488,299.5345072310553,-1.0192228195471458,-0.4651819734598579
-0.005560807690740718,0.268121351337903,-0.2741402797859656,0.018003871847606046,-1.0456781644392115,-0.003959173219196889,-0.08859852253308306,0.013298741468602422,-0.10912728050159855,0.15025234983204394,0.02059226580898908,-0.06867348146391962,-91.01462077660838,50.440985112549704,-437.8366090423057,299.4996058437287,-0.6437703321330623,-0.46771127939212737
-0.005740956040804751,0.26814498338848314,-0.274358501180259,0.018304354205815276,-1.0456362308476632,-0.004098990645129066,-0.09007417503201649,0.01181602529007214,-0.10911069714670633,0.15024117910461493,0.02096679577407352,-0.06990871296608858,-92.48955587026262,48.9737782037571,-437.6296437631613,299.4639732376079,-0.2684039009294672,-0.47023099609947283
-0.0059240540724724,0.26816565240346546,-0.274576689427246,0.018604814128497613,-1.0455935481869207,-0.0042412787028938935,-0.09154901583382447,0.010334507491161223,-0.10909412349349829,0.15022996134116845,0.021341330371225688,-0.07114402888241399,-93.96365676696571,47.50784939327198,-437.4189868392501,299.42760954069416,0.10687558931438446,-0.47274114938194955
-0.006110100136545428,0.2681833608456694,-0.274794844575249,0.018905251521702377,-1.0455501164599303,-0.004386037562533751,-0.09302303203651392,0.008854221101981686,-0.10907757400149547,0.150218696602383,0.021715863495244212,-0.07237942981992872,-95.4369102020231,46.04322015963716,-437.20464048407143,299.39051488405056,0.4820672557053314,-0.47524176603817436
-0.006299092557928275,0.26819811124041265,-0.2750129666970801,0.019205666291573942,-1.0455059356802574,-0.0045332673952829475,-0.09449621069142354,0.0073751973716265394,-0.10906106091553641,0.1502073849357828,0.022090389836485657,-0.0736149163745982,-96.90930291830247,44.57991196115528,-436.98660694625863,299.3526894016239,0.8571702171428761,-0.477732873857842
-0.006491029635550605,0.268209906172482,-0.2752310558862825,0.019506058344329624,-1.0454610058707368,-0.004682968373539502,-0.09596853881116488,0.005897466034695328,-0.10904459460121359,0.15019602637784069,0.02246490476035333,-0.07485048912827752,-98.38082166641833,43.11794623560243,-436.76488850921083,299.3141332300887,1.232183594264761,-0.4802145016159314
-0.0066859096423034815,0.26821874828355685,-0.2754491122539415,0.019806427586241106,-1.0454153270623268,-0.004835140670831382,-0.09744000337643821,0.004421055537410806,-0.10902818382948634,0.15018462095574184,0.02283940420504198,-0.07608614864593975,-99.85145320490764,41.65734439993691,-436.53948749077847,299.2748465087115,1.6071065094006443,-0.48268667906816987
-0.006883730824987246,0.26822464027001575,-0.2756671359259778,0.02010677392361884,-1.0453688992931371,-0.004989784461777683,-0.09891059134188247,0.0029459932294477143,-0.10901183601817259,0.15017316868886718,0.023213884594772288,-0.07732189547315063,-101.32118430039785,40.19812785000333,-436.3104062429929,299.23482937923137,1.981938086532395,-0.4851494369474166
-0.007084491404269441,0.26822758488106907,-0.2758851270408515,0.020407097262798927,-1.0453217226076048,-0.005146899922045215,-0.10038028964109726,0.0014723055266668826,-0.10899555743685407,0.15016166959004335,0.02358834276616809,-0.07855773013376643,-102.79000172776806,38.74031796023468,-436.0776471518345,299.19408198575593,2.356677451260577,-0.48760280696070113
-0.007288189574651351,0.2682275849171674,-0.276103085747613,0.020707397510132123,-1.0452737970557933,-0.005306487228300883,-0.10184908519095524,1.8049161724454157e-08,-0.10897935338073916,0.1501501236665978,0.02396277590578524,-0.07979365312783371,-104.25789227030435,37.28393608335129,-435.8412126370329,299.1526044746708,2.7313237307756246,-0.49004682178671044
-0.007494823504441965,0.26822464322864414,-0.27632101220424937,0.021007674571974624,-1.045225122692799,-0.005468546558160224,-0.10331696489530696,-0.0014708442616442902,-0.10896322831818742,0.15013853092125148,0.02433718149710245,-0.08102966492967074,-105.72484271984993,35.829003550058694,-435.6011051518936,299.1103969945602,3.1058760538336863,-0.4924815150735584
-0.007704391335738295,0.2682187627145568,-0.27653890657628116,0.021307928354680372,-1.045175699578248,-0.00563307809013245,-0.10478391564816515,-0.0029402570436759066,-0.10894718601588647,0.1501268913528742,0.02471155727554085,-0.08226576598611274,-107.19083987695076,34.37554166874408,-435.3573271831483,299.0674596961378,3.480333550736276,-0.49490692143672327
-0.007916891184411183,0.26820994632169687,-0.2767567690355713,0.021608158764594623,-1.0451255277758673,-0.005800082003562257,-0.10624992433644391,-0.004408196429968498,-0.10893122964506763,0.15011520495712538,0.025085901190295856,-0.08350195671490375,-108.65587055099726,32.92357172517158,-435.10988125082423,299.0237927321864,3.8546953533128736,-0.4973230764570534
-0.008132321140095817,0.2681981970437424,-0.27697459975931454,0.02190836570804862,-1.0450746073531234,-0.0059695584785686975,-0.10771497784231682,-0.0058746389772301065,-0.10891536187163288,0.15010347172699773,0.025460211371949492,-0.0847382375032202,-110.11992156036273,31.473114982177798,-434.8587699081298,298.97939625750564,4.228960594906592,-0.4997300166787758
-0.008350679266186316,0.2681835179205319,-0.2771923989291798,0.022208549091355178,-1.0450229383809135,-0.006141507695981321,-0.10917906304524935,-0.0073395616052645465,-0.10889958493263069,0.150091691653279,0.02583448610498756,-0.08597460870631198,-111.58297973253839,30.024192679366287,-434.603995741354,298.93427042886566,4.603128410362146,-0.502127779607453
-0.00857196359983382,0.26816591203744067,-0.2774101667305821,0.02250870882080507,-1.0449705209333047,-0.0063159298372738185,-0.11064216682375236,-0.008802941545611386,-0.10888390070114919,0.15007986472494456,0.02620872380447865,-0.08721107064624856,-113.04503190426627,28.576826032802416,-434.34556136977756,298.8884154049673,4.977197936015912,-0.5045164037078553
-0.008796172151947616,0.26814538252484466,-0.2776279033520649,0.02280884480266405,-1.044917355087312,-0.006492825084495336,-0.11210427605689757,-0.01026475629800666,-0.108868310741381,0.15006799092949125,0.026582922996284754,-0.08844762361075865,-114.50606492166948,27.131036234707892,-434.0834694455937,298.8418313464072,5.351168309687658,-0.5068959284017215
-0.009023302907198874,0.2681219325576577,-0.27784560898477556,0.023108956943170493,-1.0448634409227116,-0.006672193620199642,-0.1135653776256292,-0.011724983593480292,-0.10885281635534873,0.1500560702532216,0.026957082300268456,-0.08968426785215326,-115.96606564038052,25.686844453155956,-433.81772265383773,298.79451841564764,5.72503867067411,-0.5092663940653919
-0.009253353824026677,0.2680955653549315,-0.27806328382202067,0.023409045148533463,-1.0448087785218794,-0.0068540356273722874,-0.11502545841390165,-0.01318360136308539,-0.10883741862255458,0.15004410268148588,0.027331200416042967,-0.09092100358632269,-117.42502092566805,24.24427183176634,-433.5483237123224,298.7464767769893,6.098808159743278,-0.5116278420273033
-0.009486322834646014,0.2680662841795087,-0.27828092805888793,0.02370910932493124,-1.0447533679696577,-0.0070383512893558865,-0.11648450530966835,-0.014640587711406437,-0.10882211843362555,0.1500320881988882,0.02770527611087984,-0.09215783099179947,-118.88291765256183,22.803339489400578,-433.2752753715805,298.69770659654847,6.472475919130581,-0.513980314565343
-0.009722207845057501,0.2680340923377204,-0.2784985418919257,0.024009149378510165,-1.0446972093532387,-0.0072251407897736455,-0.11794250520574344,-0.016095920894123084,-0.10880691651886404,0.15002002678946216,0.02807930820944764,-0.09339475020887965,-120.3397427059764,21.36406851985828,-432.9985804148114,298.64820804223643,6.8460410925353905,-0.5163238549040583
-0.009961006735058611,0.2679989931791224,-0.27871612551887065,0.024309165215383805,-1.0446403027620685,-0.007414404312451237,-0.11939944500055492,-0.017549579299015242,-0.10879181347247534,0.15000791843682093,0.028453295585104288,-0.09463176133879582,-121.79548298083377,19.926479991573203,-432.71824165783227,298.5979812837422,7.219502825118656,-0.5186585072117267
-0.01020271735825622,0.2679609900962626,-0.2789336791384169,0.024609156741632374,-1.0445826482877636,-0.00760614204133711,-0.12085531159880492,-0.01900154142988856,-0.10877680977312669,0.14999576312428464,0.0288272371525078,-0.09586886444293617,-123.25012538218465,18.490594947309866,-432.4342619490322,298.547026492516,7.592860263501258,-0.5209843165972865
-0.01044733754208032,0.2679200865244767,-0.27915120295001966,0.02490912386330235,-1.044524246024041,-0.0078003541604213175,-0.12231009191205064,-0.02045178589297827,-0.10876190580139383,0.1499835608349897,0.02920113186134581,-0.0971060595421041,-124.70365682532919,17.05643440386075,-432.1466441693297,298.4953438417566,7.966112555762738,-0.5233013291071348
-0.010694865087798756,0.26787628594170576,-0.2793686971537288,0.025209066486406313,-1.0444650960666588,-0.007997040853652946,-0.12376377285921775,-0.021900291385455895,-0.10874710185456603,0.1499713115519817,0.029574978691014428,-0.09834334661581401,-126.15606423593658,15.624019351744238,-431.8553912321326,298.4429335063983,8.339258851440885,-0.5256095917218011
-0.010945297770532866,0.2678295918683343,-0.2795861619500472,0.025508984516922902,-1.0444051985133667,-0.008196202304856183,-0.12521634136705562,-0.023347036685720673,-0.10873239815920982,0.14995901525829483,0.029948776646102744,-0.09958072560161889,-127.6073345501641,14.193370754902574,-431.56050608329923,298.38979566310104,8.71229830153144,-0.5279091523524937
-0.011198633339273954,0.2677800078670439,-0.2798035975398109,0.02580887786079694,-1.0443445534638616,-0.008397838697645117,-0.1266677843705435,-0.024792000645205408,-0.10871779488183095,0.14994667193701972,0.030322524752560986,-0.10081819639446636,-129.05745471477533,12.76450955040049,-431.26199170110243,298.33593049024034,9.085230058488452,-0.5302000598375393
-0.011454869516900463,0.26772753754268097,-0.2800210041240867,0.026108746423939663,-1.0442831610197527,-0.008601950215337276,-0.12811808881325404,-0.026235162181467462,-0.1087032921379223,0.1499342815713614,0.030696222054448778,-0.1020557588460797,-130.50641168725815,11.337456648124679,-430.9598510961938,298.2813381678998,9.458053276224696,-0.53248236393871
-0.011714004000195826,0.2676721845421362,-0.280238381904086,0.02640859011222904,-1.0442210212845304,-0.008808537040865998,-0.1295672416476812,-0.02767650027237028,-0.10868888999964224,0.14992184414468876,0.031069867611175757,-0.10329341276436121,-131.9541924359416,9.912232930483327,-430.6540873115697,298.2260188778624,9.830767110112596,-0.5347561153374476
-0.0119760344598669,0.2676139525542338,-0.2804557310810907,0.026708408831510193,-1.0441581343635402,-0.009017599356691629,-0.13101522983553698,-0.02911599395119047,-0.10867458850233094,0.1499093596405769,0.03144346049515992,-0.10453115791281532,-133.40078394011297,8.488859252106174,-430.34470342253803,298.1699728036052,10.203370716985141,-0.5370213656309957
-0.012240958540562945,0.2675528453096288,-0.28067305185639074,0.02700820248759588,-1.0440945003639606,-0.009229137344711607,-0.13246204034802214,-0.03055362230251019,-0.10866038765004049,0.14989682804284335,0.03181699978984052,-0.1057689940099893,-134.84617319013392,7.0673564395457475,-430.03170253668577,298.1132001302928,10.575863255137289,-0.5392781673284379
-0.012508773860895092,0.26748886658071125,-0.2808903444312312,0.027307970986267038,-1.0440301193947845,-0.009443151186169466,-0.1339076601660741,-0.03198936445877581,-0.10864628742022794,0.14988424933557903,0.03219048458799187,-0.10700692072892962,-136.29034718755662,5.647745290978193,-429.71508779384686,298.0557010447717,10.94824388432724,-0.5415265738466533
-0.012779478013456283,0.2674220201815164,-0.2811076090067667,0.02760771423327339,-1.043964991566804,-0.00965964106156277,-0.135352076280596,-0.033423199597422286,-0.10863228776773841,0.1498716235031747,0.03256391399029239,-0.10824493769665229,-137.73329294523893,4.23004657590522,-429.394862366071,297.9974757355659,11.320511765778086,-0.543766639506191
-0.01305306856484162,0.2673523099676394,-0.28132484578402306,0.027907432134334074,-1.0438991169925957,-0.009878607150550021,-0.13679527569266908,-0.03485510693847728,-0.10861838862818535,0.14985895053034376,0.032937287104110376,-0.10948304449362573,-139.17499748746013,2.814281034856606,-429.07102945759215,297.93852439287235,11.692666062179338,-0.5459984195270686
-0.013329543055669123,0.2672797398361543,-0.2815420549638647,0.02820712459513836,-1.0438324957865108,-0.010100049631856551,-0.13823724541375115,-0.03628506574257242,-0.1086045899208194,0.14984623040214165,0.03331060304247364,-0.11072124065326476,-140.6154478500356,1.400469379092705,-428.743592304798,297.87884720855686,12.064705937688782,-0.5482219700245012
-0.01360889900060085,0.26720431372553566,-0.2817592367469666,0.028506791521346324,-1.0437651280646645,-0.01032396868317942,-0.1396779724658631,-0.037713055309300206,-0.10859089155096326,0.14983346310398257,0.033683860923195155,-0.11195952566143476,-142.05463108043145,-0.011367709691938899,-428.412554176199,297.81844437615047,12.4366305579343,-0.5504373480045608
-0.01389113388836438,0.26712603561558396,-0.28197639133379077,0.02880643281858963,-1.0436970139449282,-0.01055036448109135,-0.1411174438817651,-0.039139054975863924,-0.10857729341207828,0.14982064862165387,0.03405705986813122,-0.11319789895596478,-143.49253423787917,-1.421209579664655,-428.07791837239813,297.75731609084585,12.808439090015767,-0.5526446113597727
-0.014176245181774629,0.267044909527352,-0.2821935189245658,0.029106048392472286,-1.0436281535469232,-0.01077923720094369,-0.1425556467051241,-0.04056304411597636,-0.10856379538751829,0.14980778694132824,0.03443019900255189,-0.11443635992616907,-144.92914439348945,-2.829035609150708,-427.73968822606,297.6954625494943,13.180130702506911,-0.5548438188646507
-0.014464230317755976,0.26696093952307404,-0.28241061971926984,0.029405638148571434,-1.043558546992014,-0.011010587016768441,-0.14399256799067384,-0.04198500213896963,-0.10855039735201842,0.14979487804957442,0.03480327745460683,-0.11567490791237582,-146.3644486303664,-4.234825206927752,-427.3978671018808,297.6328839506026,13.551704565457442,-0.5570350301711746
-0.014755086707364713,0.26687412970609586,-0.2826276939176158,0.029705201992438167,-1.043488194403304,-0.011244414101179366,-0.14542819480436836,-0.04340490848908383,-0.10853709917295858,0.14978192193336634,0.03517629435487218,-0.11691354220546295,-147.798434043721,-5.638557812520723,-427.0524583965571,297.5695804943302,13.923159850394988,-0.5592183058042106
-0.015048811735811773,0.26678448422080603,-0.2828447417190387,0.030004739829598347,-1.0434170959056321,-0.011480718625272167,-0.14686251422353022,-0.044822742644907786,-0.108523900711436,0.14976891858009098,0.03554924883596597,-0.11815226204639998,-149.2310877409848,-7.040212896495824,-426.70346553875606,297.5055523824866,14.294495730327068,-0.56139370715688
-0.015345402762485761,0.26669200725256814,-0.283061763322685,0.03030425156555346,-1.0433452516255677,-0.011719500758523758,-0.14829551333699384,-0.04623848411894855,-0.10851080182317564,0.14975586797755516,0.035922140032221966,-0.11939106662579577,-150.66239684192308,-8.439769960754127,-426.35089198908423,297.44079981852866,14.665711379743339,-0.5635612964858759
-0.015644055184066523,0.26659675245816306,-0.2832787461415724,0.030603541525789316,-1.0432726493077422,-0.011960467234594202,-0.1493262107903805,-0.047627397202534866,-0.10849140944369466,0.14964498011792907,0.036301158912748564,-0.1204832380352221,-152.09221997643766,-9.837381424082203,-425.99438230196307,297.375560567985,15.03688776192185,-0.5657343199979995
-0.015943551799713237,0.2664987717242314,-0.28349568566141214,0.03090237484447024,-1.04319928048959,-0.01220317149521551,-0.1497483078233573,-0.04899036696581314,-0.10846975991988896,0.14941665934046156,0.036684409076149005,-0.12135213031065394,-153.5204794664499,-11.23308791846776,-425.63379635350697,297.30994228854524,15.40806023179994,-0.5679209328554504
-0.016243449050798907,0.2663980448241804,-0.28371260141439736,0.031200779197221765,-1.0431251569299913,-0.012447447217009697,-0.14994862554283578,-0.05036345002550559,-0.10845787649260988,0.1492021763757624,0.03706177979937681,-0.12213786089709366,-154.94728675558912,-12.62666926573683,-425.26953230377615,297.2437013823017,15.779141058781263,-0.5701095824190048
-0.01654356668241555,0.26629455187496437,-0.28392950610563894,0.03149883762839288,-1.043050286991378,-0.012693224558350842,-0.15005881580832192,-0.05174647460801069,-0.10845234562079105,0.14902921558555957,0.0374349693066595,-0.12288867067057266,-156.37266985071756,-14.018050193611941,-424.9017081518482,297.1767601542027,16.150102780273397,-0.5722985647910512
-0.016843820236742246,0.2661882819016887,-0.2841464050341914,0.03179663027804336,-1.0429746746631534,-0.012940469649042705,-0.15012677716334877,-0.05313498663784655,-0.10844946427624938,0.14889632482523846,0.03780616411226859,-0.12362254534593102,-157.7966305709179,-15.407199747869662,-424.5303552808505,297.10909289022777,16.520937286697073,-0.5744878888622746
-0.0171441639109609,0.26607923028720143,-0.28436329930774873,0.0320942213851491,-1.0428983214671348,-0.01318916373055181,-0.1501718371093277,-0.05452580724363128,-0.10844713677866616,0.14879555355287194,0.038176598009307436,-0.12434704075455255,-159.21916216254226,-16.794099511165903,-424.155479536272,297.04069050400904,16.891642492729236,-0.576677649361044
-0.0174445697914139,0.2659673959857889,-0.2845801881319332,0.03239165925248963,-1.0428212278060731,-0.013439295398977417,-0.15020294022649966,-0.055917150706279346,-0.10844441209223692,0.1487189336702642,0.03854683053082184,-0.12506583421280387,-160.64025482877767,-18.178733766884513,-423.7770802879804,296.97154943287643,17.262218021982783,-0.5788678403929344
-0.01774501953023639,0.26585277986652955,-0.28479707001147325,0.03268897925200719,-1.0427433936368062,-0.013690857372128357,-0.15022486941124613,-0.05730805962967809,-0.10844093977002929,0.14865999975878016,0.038917084633473736,-0.12578098657546985,-162.05989753828973,-19.561086649300194,-423.39515615502813,296.90166808132625,17.632663842034216,-0.5810584040869174
-0.018045500540305147,0.26573538386599194,-0.2850139433039456,0.0329862069811059,-1.0426648187628866,-0.013943844934993727,-0.15024050503437905,-0.058698000268813035,-0.10843664623616957,0.1486138645493539,0.03928743695979807,-0.12649378143268503,-163.47807866534444,-20.941141485114954,-423.00970652488905,296.8310456420577,18.00297986448338,-0.5832492774883373
-0.01834600398984518,0.26561521057187043,-0.2852308064512989,0.033283360860408236,-1.0425855029523299,-0.01419825507913948,-0.15025172477001647,-0.06008664706074259,-0.10843157367664258,0.14857693965116797,0.03965790527833767,-0.12720507207287657,-164.89478624822655,-22.31888078573901,-422.6207317877653,296.75968168006756,18.37316585527512,-0.5854404135749175
-0.018646523609797714,0.2654922630138546,-0.28544765806371736,0.033580454109149685,-1.0425054459826537,-0.014454085971538896,-0.15025980997626723,-0.06147377900791375,-0.10842580620923721,0.14854662437072474,0.04002848483808962,-0.12791544619970868,-166.31000811323457,-23.6942864004708,-422.22823321686224,296.68757596953947,18.743221438756393,-0.5876317863898511
-0.018947054923180648,0.26536654455094777,-0.28566449693931495,0.03387749619963792,-1.042424647657369,-0.014711336603311583,-0.1502656566914665,-0.0628592314534191,-0.10841943779879074,0.1485210452441157,0.04039916264229968,-0.12862531588634307,-167.72373194495532,-25.067339681709853,-421.8322127838204,296.61472841936654,19.113146124743086,-0.5898233893971526
-0.019247594722076683,0.26523805880422674,-0.28588132205745415,0.034174493912827834,-1.0423431078115137,-0.014970006548304276,-0.15026989944801716,-0.06424287336050252,-0.10841255906958591,0.14849885659495815,0.04076992292768471,-0.1293349724963469,-169.13594533112033,-26.438021623216315,-421.43267299172186,296.5411390329152,19.482939336623037,-0.5920152318029067
-0.01954814070310136,0.2651068096121795,-0.2860981325622908,0.03447145209925249,-1.0422608263128712,-0.01523009579379832,-0.15027299051233906,-0.0656245960236374,-0.10840525241830624,0.1484790932123269,0.041140749321236215,-0.13004462274702128,-170.54663579325282,-27.806312966555105,-421.02961674282335,296.4668078830441,19.852600434689425,-0.5942073348143786
-0.019848691209779255,0.2649728009983126,-0.28631492774367945,0.03476837422577539,-1.042177803061336,-0.015491604620590033,-0.1502752533389469,-0.06700430693342632,-0.108397590694349,0.14846106326145064,0.04151162576764163,-0.13075441339585694,-171.95579080834275,-29.172194280253095,-420.6230472389855,296.39173509513284,20.222128734048436,-0.5963997284849929
-0.02014924504916724,0.26483603714620185,-0.2865317070184163,0.03506526276782456,-1.0420940379873709,-0.015754533517622085,-0.15027691969399243,-0.0683819260553691,-0.10838963736842447,0.1484442710245869,0.041882536982537584,-0.13146444851602668,-173.36339782444384,-30.535646017749905,-420.21296790836027,296.3159208349567,20.591523517892433,-0.5985924492524908
-0.020449801360839067,0.2646965223795545,-0.2867484699129786,0.03536211949055542,-1.0420095310499824,-0.016018883121067393,-0.15027815583591378,-0.06975738332368268,-0.10838144728115857,0.14842836136543025,0.042253468694264044,-0.13217480172265408,-174.76944427200104,-31.89664855952416,-419.7993823519549,296.23936529978386,20.960784047167774,-0.6007855380911056
-0.02075035952309181,0.26455426114593233,-0.2869652160481298,0.035658945650315965,-1.0419242822344468,-0.01628465417081643,-0.1502790811263717,-0.0711306168110722,-0.10837306757559663,0.1484130798802738,0.04262440776786438,-0.13288552487451816,-176.17391757212903,-33.25518224362782,-419.38229430485865,296.1620687117339,21.329909567547748,-0.6029790391548517
-0.021050919085721913,0.2644092580032962,-0.28718194512541445,0.03595574213897668,-1.0418382915499447,-0.016551847479385068,-0.15027978131505207,-0.07250157131808244,-0.10836453864233225,0.14839824433035764,0.04299534225105172,-0.13359665428431838,-177.57680514269325,-34.61122738780661,-418.9617076081556,296.0840313127712,21.698899314430882,-0.605172998795814
-0.021351479721808835,0.26426151760879746,-0.287398656915426,0.03625250958731814,-1.0417515590272144,-0.01682046390969802,-0.15028031804346134,-0.07387019724935526,-0.10835589500576996,0.14838372417073029,0.043366261365130616,-0.1343082151564749,-178.9780944028,-35.964764305539816,-418.5376261885822,296.00525336089413,22.06775251650674,-0.6073674648620504
-0.021652041193113057,0.26411104470939617,-0.28761535124767584,0.03654924843908641,-1.0416640847162988,-0.017090504359217794,-0.1502807356521114,-0.0752364497006545,-0.1083471661249329,0.14836942588413704,0.043737155457825895,-0.1350202247598882,-180.37777277613202,-37.315773317694465,-418.1100540437834,295.925735127213,22.436468398288866,-0.6095624862011473
-0.021952603325232595,0.2639578441339797,-0.28783202800188107,0.03684595900403623,-1.0415758686844359,-0.01736196974861056,-0.1502810660597689,-0.0766002877082202,-0.10833837710262145,0.14835528247490865,0.044108015931496755,-0.13573269469638388,-181.77582769344303,-38.66423476101958,-417.67899523161196,295.84547689368867,22.805046181906306,-0.6117581123136291
-0.022253165989757594,0.26380192078672593,-0.2880486871004929,0.037142641495922744,-1.0414869110141214,-0.01763486101365503,-0.15028133226249993,-0.07796167362688664,-0.10832954930591575,0.14834124594325843,0.044478835157286734,-0.13644563252223466,-183.172246594439,-40.01012899436403,-417.24445386234777,295.7644789513698,23.1734850883638,-0.613954393114726
-0.022553729091445356,0.26364327964150147,-0.2882653285023028,0.037439296059712,-1.0413972118013552,-0.017909179099468563,-0.15028155084388045,-0.07932057261222668,-0.10832070090494311,0.14832728189462788,0.04484960638311126,-0.13715904290676542,-184.56701692920942,-41.35343640325364,-416.80643409302706,295.68274159900625,23.54178433842375,-0.6161513787739006
-0.022854292558998224,0.26348192573712603,-0.28848195219697925,0.03773592279106884,-1.041306771154073,-0.018184924956387977,-0.15028173377643397,-0.08067695218773148,-0.10831184733823679,0.14831336567841857,0.04522032364109788,-0.13787292845970706,-185.96012615932958,-42.69413740328606,-416.3649401232974,295.60026514194993,23.90994315321803,-0.6183491196097011
-0.02315485633842796,0.2633178641733619,-0.28869855820040563,0.03803252175031332,-1.0412155891907566,-0.018462099537031085,-0.1502818897148685,-0.08203078188205706,-0.1083030017131931,0.14829947962223866,0.04559098165823907,-0.13858729032155445,-187.35156175871882,-44.03221244267165,-415.9199761923785,295.5170498912765,24.277960754668637,-0.6205476660235829
-0.02345542038827762,0.26315110010751325,-0.2889151465507051,0.03832909297241507,-1.0411236660392114,-0.01874070379419991,-0.15028202492482903,-0.08338203292433528,-0.10829417514973055,0.14828561105087407,0.04596157577259019,-0.1393021285844133,-188.7413112143197,-45.36764200415819,-415.4715465768234,295.43309616307937,24.645836365773572,-0.6227470684608223
-0.023755984676177965,0.2629816387515376,-0.28913171730485426,0.038625636474149794,-1.0410310018354987,-0.01902073867938322,-0.15028214395017267,-0.08473067798780982,-0.10828537707458889,0.14827175086736372,0.046332101856297735,-0.1400174425916528,-190.12936202664284,-46.700406606509944,-415.0196555888621,295.3484042778958,25.01356921079743,-0.6249473773899635
-0.024056549176363195,0.26280948536959,-0.28934827053580014,0.03892215225922322,-1.0409375967230066,-0.01930220514168513,-0.15028225009261473,-0.08607669097382863,-0.10827661547294683,0.14825789253671512,0.04670255624600433,-0.14073323115095476,-191.51570171021203,-48.030486805663585,-414.5643075751695,295.26297456024014,25.38115851539571,-0.627148643294666
-0.024357113867876593,0.2626346452759307,-0.2895648063300067,0.03921864032193929,-1.0408434508516453,-0.019585104127056163,-0.1502823457566991,-0.0874200468296292,-0.10826789710327028,0.1482440313580343,0.04707293568067934,-0.14144949268551682,-192.90031779393414,-49.357863195649855,-414.1055069159416,295.17680733821976,25.748603506693293,-0.6293509166735897
-0.024657678733272733,0.26245712383314174,-0.28978132478536783,0.03951510064982578,-1.0407485643771521,-0.019869436577738413,-0.15028243269807007,-0.08876072139448442,-0.10825922768057455,0.1482301639432484,0.047443237246604826,-0.1421662253411257,-194.28319782141264,-50.68251640934471,-413.6432580241989,295.08990294321876,26.11590341333098,-0.6315542480452556
-0.02495824375767731,0.26227692645060235,-0.2899978260094331,0.0398115332255134,-1.040652937460494,-0.02015520343186196,-0.15028251220228853,-0.09009869126969364,-0.10825061203261237,0.14821628784380933,0.04781345832905584,-0.14288342706177268,-195.66432935121748,-52.0044271190964,-413.17756534525506,295.0022617096351,26.48305746549081,-0.633758687955755
-0.025258808928104788,0.262094058583185,-0.2902143101178989,0.040107938028080194,-1.0405565702673538,-0.020442405623147704,-0.1502825852137388,-0.09143393370865409,-0.10824205423289682,0.14820240128339382,0.048183596570113965,-0.14360109564287163,-197.0436999571222,-53.323576037261525,-412.708433356308,294.9138839746619,26.850064894907085,-0.6359642869878508
-0.025559374232962097,0.2619085257301373,-0.2904307772333268,0.04040431503401324,-1.0404594629676898,-0.020731044080684814,-0.15028265242865396,-0.0927664265238632,-0.10823355771393073,0.14818850296652414,0.0485536498320133,-0.14431922876855416,-198.42129722831535,-54.639943916674156,-412.2358665661217,294.8247700781049,27.216924934867816,-0.6381710957705073
-0.025859939661686756,0.2617203334341209,-0.29064722748405386,0.04070066421789637,-1.040361615735359,-0.021021119728760144,-0.1502827143623293,-0.09409614800821248,-0.10822512536354313,0.14817459194156526,0.04892361616541848,-0.14503782403766535,-199.79710876959237,-55.95351155106584,-411.7598695147743,294.73492036222797,27.58363682021053,-0.6403791649882113
-0.02616050520448227,0.26152948728038417,-0.2908636610032675,0.0409969855529017,-1.040263028747795,-0.021312633486723662,-0.15028277139775562,-0.09542307686835572,-0.10821675960682163,0.14816066750266627,0.04929349378205938,-0.14575687898175915,-201.17112220153155,-57.26425977544919,-411.2804467734568,294.6443351716248,27.950199787314407,-0.6425885453897092
-0.026461070852124003,0.2613359928960476,-0.29108007792821905,0.04129327901114088,-1.0401637021857326,-0.02160558626887855,-0.15028282382086705,-0.09674719216828624,-0.108208462475772,0.1481467291195905,0.049663281031186744,-0.14647639107744465,-202.54332516065793,-58.57216946647421,-410.79760294430866,294.5530148531087,28.316613074090636,-0.6447992877959312
-0.026761636595816277,0.26113985594948447,-0.2912964783995561,0.04158954456391591,-1.0400636362329738,-0.021899978984388065,-0.15028287184613645,-0.09806847328155151,-0.10820023566852784,0.1481327763875166,0.050032976379359585,-0.14719635775475745,-203.91370529959758,-59.877221542763586,-410.3113426602822,294.4609597556206,28.682875919971742,-0.6470114431070001
-0.027062202427086682,0.2609410821497829,-0.2915128625607554,0.04188578218189819,-1.0399628310761875,-0.022195812537193556,-0.15028291563520327,-0.09938689985077903,-0.1081920805996665,0.14811880899113763,0.05040257839312444,-0.14791677640274603,-205.28225028722383,-61.17939696523349,-409.8216705850275,294.36817023014976,29.048987565900752,-0.6492250623082925
-0.027362768337707614,0.2607396772462761,-0.29172923055764133,0.04218199183525618,-1.039861286904739,-0.02249308782593979,-0.1502829553104655,-0.10070245175339473,-0.10818399844295973,0.14810482667899677,0.050772085724195164,-0.14863764437311744,-206.6489478087973,-62.478676737401486,-409.3285914127942,294.27464662966713,29.414947254321014,-0.6514401964755684
-0.027663334319637665,0.2605356470281309,-0.2919455825379767,0.042478173493746475,-1.0397590039105453,-0.02279180574390487,-0.15028299096502576,-0.10201510907258705,-0.10817599016769053,0.1480908292451489,0.05114149709678837,-0.14935895898253967,-208.01378556610072,-63.77504190568568,-408.8321098683452,294.18038930906766,29.78075422916583,-0.6536568967792235
-0.027963900364977652,0.2603289973239855,-0.2921619186511157,0.0427743271267786,-1.0396559822879516,-0.023091967178932915,-0.15028302266999424,-0.103324852072717,-0.1081680565695007,0.14807681651606525,0.05151081129681231,-0.15008071751402297,-209.37675127756978,-65.06847355969725,-408.33223070688064,294.0853986251213,30.14640773584935,-0.655875214487717
-0.028264466465937395,0.2601197340016285,-0.2923782390477089,0.04307045270346118,-1.0395522222336264,-0.02339357301336827,-0.15028305047987123,-0.1046316611784971,-0.10816019829658992,0.14806278834128847,0.05188002716264621,-0.15080291721767655,-210.73783267842018,-66.35895283252587,-407.8289587139682,293.98967493643056,30.511907021257837,-0.6580952009702596
-0.028565032614810457,0.2599078629677138,-0.29259454387945283,0.04336655019263472,-1.039447723946472,-0.023696624123990366,-0.1502830744365306,-0.10593551695736575,-0.10815241587196468,0.1480487445867701,0.052249143577282005,-0.15152555531104858,-212.0970175207722,-67.64646090102215,-407.3222987054801,293.8932186033942,30.877251333741842,-0.6603169076988262
-0.028865598803954822,0.25969339016750465,-0.29281083329887747,0.043662619562894966,-1.0393424876275486,-0.024001121381948754,-0.1502830945721827,-0.10723640010457165,-0.10814470971233141,0.14803468513012527,0.05261815946163119,-0.1522486289791942,-213.4542935737725,-68.9309789860751,-406.8122555275339,293.79602998817546,31.242439923108837,-0.6625403862495741
-0.029166165025778,0.2594763215846435,-0.29302710745916577,0.04395866078260948,-1.039236513480011,-0.0243070656526979,-0.15028311091158864,-0.1085342914305567,-0.10813708014413856,0.1480206098572578,0.05298707376882737,-0.1529721353745715,-214.809648623714,-70.21248835288702,-406.29883405643756,293.69810945467486,31.607472040616678,-0.6647656883037294
-0.02946673127272545,0.25925666324094293,-0.2932433665140002,0.04425467381992941,-1.0391298017090522,-0.024614457795931566,-0.15028312347372563,-0.10982917185028883,-0.10812952741719752,0.14800651865996345,0.053355885479378265,-0.15369607161683438,-216.16307047415427,-71.49097031124603,-405.7820391986363,293.59945736850585,31.972346938967505,-0.6669928656480107
-0.02976729753727154,0.2590344211961944,-0.2934596106174327,0.04455065864279787,-1.039022352521858,-0.024923298665516704,-0.1502831322730463,-0.11112102237424894,-0.10812205171624689,0.14799241143423142,0.05372459359704225,-0.1544204347925683,-217.51454694603228,-72.76640621579574,-405.2618758906626,293.5000740969744,32.33706387230233,-0.6692219701746437
-0.030067863811912416,0.25880960154799276,-0.2936758399237742,0.04484661521895596,-1.0389141661275674,-0.025233589109426705,-0.15028313732043763,-0.11240982410082145,-0.10811465317077039,0.1479782880790435,0.054093197145322354,-0.15514522195500016,-218.86406587778396,-74.03877746630334,-404.73834909908726,293.39996000905995,32.70162209619587,-0.6714530538810214
-0.03036843008916033,0.25858221043157303,-0.2938920545875009,0.045142543515947015,-1.0388052427372385,-0.02554532996967411,-0.15028313862395642,-0.11369555820987555,-0.1081073318633317,0.147964148495528,0.05446169516448594,-0.1558704301237023,-220.21161512545658,-75.30806550792596,-404.21146382047186,293.29911547539933,33.06602086765193,-0.6736861688690585
-0.030668996361539125,0.25835225401965833,-0.2941082547631742,0.045438443501119745,-1.0386955825638204,-0.025858522082242718,-0.15028313618939684,-0.1149782059573571,-0.10810008783665007,0.14794999258636557,0.05483008670903197,-0.15659605628430354,-221.5571825628226,-76.5742518314754,-403.6812250813228,293.19754086827237,33.43025944509922,-0.6759213673442697
-0.03096956262158059,0.25811973852231684,-0.29432444060537344,0.0457343151416305,-1.0385851858221293,-0.02617316627701915,-0.1502831300207322,-0.11625774867073804,-0.10809292109960678,0.14793582025537444,0.05519837084553905,-0.1573220973882145,-222.90075608149215,-77.8373179736817,-403.1476379380453,293.09523656158854,33.79433708838707,-0.6781587016146295
-0.03127012886182151,0.2578846701868265,-0.29454061226863815,0.046030158404444944,-1.0384740527288276,-0.026489263377723893,-0.15028312012046102,-0.11753416774519353,-0.10808583163234374,0.14792163140722236,0.05556654665083735,-0.1580485503523718,-224.24232359102524,-79.097245517455,-402.6107074768993,292.9922029308755,34.158253058782044,-0.6803982240892159
-0.03157069507480127,0.25764705529754567,-0.29475676990741934,0.0463259732563394,-1.0383621835024068,-0.0268068142018419,-0.15028310648988014,-0.11880744464039636,-0.10807881939059125,0.14790742594722858,0.055934613210455904,-0.15877541205900259,-225.58187301904326,-80.35401609214651,-402.0704388139542,292.8884403532682,34.52200661896419,-0.6826399872766926
-0.03187126125305988,0.25740690017579,-0.294972913676038,0.046621759663901856,-1.0382495783631722,-0.027125819560552718,-0.15028308912930208,-0.12007756087783579,-0.10807188430934146,0.14789320378122908,0.05630256961730408,-0.15950267935541007,-226.9193923113399,-81.60761137380823,-401.5268370950456,292.78394920749963,34.88559703302381,-0.6848840437836334
-0.032171827389136334,0.25716421117971283,-0.29518904372864996,0.046917517593532826,-1.038136237533231,-0.027446280258660277,-0.15028306803822872,-0.12134449803858073,-0.10806502630596633,0.14787896481548624,0.05667041497055194,-0.16023034905377936,-228.25486943199132,-82.85801308545203,-400.9799074957311,292.6787298738913,35.24902356645835,-0.6871304463127198
-0.03247239347556732,0.25691899470419,-0.2954051602192157,0.04721324701144609,-1.0380221612364817,-0.027768197094522284,-0.1502830432154916,-0.12260823776142071,-0.10805824528286388,0.1478647089566299,0.057038148374679694,-0.16095841793100266,-229.58829236346645,-84.10520299730707,-400.42965522124683,292.5727827343458,35.61228548616925,-0.6893792476608263
-0.03277295950488605,0.2566712571807073,-0.2956212633014751,0.04750894788366933,-1.0379073496986044,-0.028091570859979327,-0.15028301465936547,-0.1238687617413268,-0.10805154112970397,0.1478504361116199,0.05740576893867084,-0.16168688272852216,-230.91964910673653,-85.34916292707653,-399.87608550646416,292.46610817233847,35.97538206045909,-0.6916305007170063
-0.03307352546962137,0.25642100507725096,-0.2958373531289258,0.047804620176044775,-1.0377918031470539,-0.028416402340283704,-0.1502829823676608,-0.12512605172818428,-0.10804491372533423,0.14783614618772378,0.05777327577532728,-0.1624157401521894,-232.24892768138406,-86.58987474019371,-399.3192036158461,292.35870657291065,36.338312559028815,-0.6938842584603928
-0.03337409136229697,0.25616824489819945,-0.2960534298548046,0.04810026385422978,-1.0376755218110525,-0.028742692314027984,-0.15028294633779993,-0.12638008952575608,-0.10803836293939736,0.14782183909250457,0.05814066800068816,-0.16314498687213944,-233.576116125712,-87.8273203500768,-398.75901484340375,292.2505783226628,36.70107625297494,-0.6961405739580293
-0.03367465717543073,0.2559129831842178,-0.296269493632072,0.04839587888369741,-1.0375585059215855,-0.02907044155307334,-0.15028290656687934,-0.12763085699084167,-0.10803188863370344,0.14780751473381581,0.05850794473353666,-0.16387461952267815,-234.90120249685216,-89.06148171838308,-398.19552451265326,292.1417238097482,37.063672414786794,-0.6983995003626305
-0.03397522290153417,0.2556552265121526,-0.29648554461339877,0.04869146522973701,-1.0374407557113956,-0.029399650822477703,-0.1502828630517215,-0.12887833603260213,-0.10802549066339431,0.14779317301980097,0.05887510509498166,-0.16460463470218173,-236.22417487087353,-90.29234085526193,-397.6287379765721,292.03214342386696,37.42610031834403,-0.700661090910291
-0.03427578853311201,0.25539498149492856,-0.2967015829511546,0.0489870228574548,-1.0373222714149795,-0.029730320880423718,-0.1502828157889177,-0.13012250861202562,-0.10801916887793124,0.1477788138588961,0.059242148208102814,-0.16533502897300656,-237.54502134289024,-91.5198798196074,-397.05866061755523,291.92183755625985,37.78835923891387,-0.7029253989181423
-0.034576354062661734,0.2551322547814455,-0.2969176087973985,0.04928255173177447,-1.037203053268584,-0.030062452478146536,-0.15028276477486371,-0.13136335674151273,-0.10801292312193288,0.14776443715983426,0.05960907319764962,-0.16606579886140874,-238.8637300271693,-92.74408071930934,-396.48529784737184,291.8108065997033,38.15044845314861,-0.7051924777819686
-0.03487691948267331,0.2548670530564764,-0.29713362230387025,0.04957805181743777,-1.0370831015102044,-0.03039604635986148,-0.15028271000578972,-0.1326008624845627,-0.10800675323588578,0.14775004283165125,0.05997587918978621,-0.16679694085747188,-240.18028905723827,-93.96492571150469,-395.90865510712115,291.69905094850344,38.51236723908309,-0.7074623809737788
-0.03517748478562888,0.2545993830405653,-0.29734962362198375,0.04987352307900515,-1.0369624163795808,-0.030731103262691566,-0.15028265147778502,-0.13383500795554576,-0.10800065905674701,0.14773563078369184,0.0603425653118751,-0.16752845141504252,-241.49468658599224,-95.18239700282689,-395.32873786718847,291.58657099849137,38.874114876132,-0.7097351620393514
-0.03547804996400252,0.2543292514899262,-0.2975656129028207,0.050168965480856385,-1.036840998118196,-0.03106762391659491,-0.15028258918681914,-0.13506577531954814,-0.10799464041845505,0.14772120092561647,0.06070913069229389,-0.16826032695167217,-242.80691078580105,-96.39647684965519,-394.7455516272009,291.4733671470176,39.23569064508749,-0.7120108745957434
-0.03577861501026004,0.2540566651963416,-0.2977815902971254,0.0504643789871912,-1.0367188469692754,-0.03140560904429204,-0.15028252312875914,-0.13629314679227877,-0.10798869715236274,0.1477067531674079,0.061075574460280016,-0.16899256384856529,-244.11694984861603,-97.60714755836271,-394.15910191598323,291.35943979294746,39.59709382811661,-0.7142895723287723
-0.036079179916858814,0.2537816309870616,-0.29799755595530064,0.05075976356202996,-1.036595963177784,-0.03174505936119311,-0.15028245329938458,-0.1375171046400282,-0.10798282908760415,0.14769228741937784,0.06144189574579934,-0.16972515845053265,-245.42479198607668,-98.81439148556426,-393.5693942915131,291.24478933665614,39.95832370875861,-0.7165713089904756
-0.03637974467624761,0.25350415572470225,-0.29821351002740343,0.051055119169214305,-1.0364723469904251,-0.032085975575325006,-0.15028237969439967,-0.13873763117967194,-0.10797703605140545,0.14767780359217358,0.061808093679434836,-0.17045810706594955,-246.73042542961687,-100.01819103836252,-392.97643434087644,291.1294161800238,40.31937957192266,-0.7188561383965465
-0.0366803092808665,0.25322424630714485,-0.29842945266314214,0.051350445772407875,-1.0363479986556405,-0.032428358387258445,-0.1502823023094438,-0.13995470877871094,-0.1079713178693479,0.14766330159678415,0.06217416739229263,-0.17119140596671809,-248.03383843057114,-101.21852867459438,-392.3802276802224,291.0133207264311,40.680260703885025,-0.7211441144237465
-0.0369808737231467,0.2529419096674342,-0.2986453840118733,0.051645743335096965,-1.0362229184236087,-0.03277220849003491,-0.15028222114010034,-0.1411683198553441,-0.10796567436559064,0.14764878134454654,0.06254011601592238,-0.17192505138823375,-249.33501926028077,-102.41538690307578,-391.78077995471807,290.8965033807544,41.04096639228665,-0.723435291007303
-0.03728143799551051,0.25265715277367706,-0.29886130422259943,0.05194101182059127,-1.036097106546244,-0.03311752656909362,-0.1502821361819038,-0.14237844687856735,-0.107960105363059,0.14763424274715156,0.06290593868225022,-0.17265903952935516,-250.6339562101993,-103.6087482838461,-391.17809683850334,290.77896454936126,41.401495926130565,-0.7257297221382868
-0.0375820020903712,0.25236998262894045,-0.29907721344396665,0.05223625119202457,-1.035970563277197,-0.03346431330219837,-0.15028204743034634,-0.14358507236829554,-0.10795461068360371,0.14761968571664963,0.0632716345235221,-0.1733933665523774,-251.93063759199822,-104.79859542841147,-390.57218403464503,290.660704640106,41.76184859577915,-0.7280274618609742
-0.03788256600013296,0.2520804062711494,-0.29929311182426294,0.05253146141235548,-1.0358432888718525,-0.033812569359364386,-0.1502819548808826,-0.14478817889550322,-0.10794919014813527,0.1476051101654561,0.063637202672256,-0.174128028583008,-253.22505173767237,-105.98491099998793,-389.9630472750913,290.5417240623254,42.12202369295176,-0.7303285642701929
-0.03818312971719083,0.25178843077298463,-0.2995089995114164,0.05282664244436819,-1.03571528358733,-0.03416229540278508,-0.15028185852893441,-0.14598774908238168,-0.10794384357673736,0.14759051600635675,0.0640026422612019,-0.17486302171034604,-254.51718699964533,-107.16767771374273,-389.3506923206251,290.42202322683386,42.48202051072185,-0.7326330835086535
-0.03848369323393062,0.2514940632417796,-0.2997248766529939,0.05312179425067321,-1.0355865476824835,-0.03451349208675881,-0.15028175836989416,-0.1471837656025095,-0.10793857078876247,0.14757590315251282,0.064367952423308,-0.17559834198686355,-255.80703175087376,-108.34687833703596,-388.7351249608188,290.30160254591937,42.84183834351437,-0.7349410737642708
-0.03878425654272887,0.25119731081941754,-0.29994074339619975,0.05341691679370814,-1.0354570814179,-0.034866160057615586,-0.15028165439912794,-0.14837621118103464,-0.10793337160291226,0.14756127151746606,0.06473313229169243,-0.17633398542838943,-257.0945743849529,-109.52249568966053,-388.11635101398645,290.1804624333391,43.20147648710322,-0.7372525892674647
-0.039084819635952825,0.2508981806822278,-0.30015659988787435,0.05371201003573843,-1.0353268850559008,-0.03522029995364378,-0.15028154661197818,-0.14956506859486576,-0.1079282458373051,0.14754662101514363,0.06509818099961971,-0.1770699480140956,-258.3798033162206,-110.69451264408207,-387.4943763271379,290.05860330431517,43.56093423860837,-0.7395676842884573
-0.039385382505960354,0.25059668004088204,-0.30037244627449344,0.054007073938858154,-1.0351959588605397,-0.03557591240501675,-0.15028143500376567,-0.15075032067287192,-0.10792319330953279,0.14753195155986282,0.06546309768048095,-0.17780622568648533,-259.6627069798622,-111.86291212567724,-386.8692067759316,289.93602557553044,43.92021089649329,-0.741886413134552
-0.03968594514509994,0.25029281614028986,-0.30058828270216686,0.054302108464990825,-1.035064303097604,-0.03593299803371952,-0.15028131956979124,-0.15193195029608866,-0.1079182138367077,0.14751726306633564,0.06582788146777763,-0.17854281435138356,-260.9432738320144,-113.02767711297196,-386.2408482646271,289.8127296651238,44.27930576056197,-0.744208830147403
-0.03998650754571061,0.24998659625949401,-0.30080410931663787,0.05459711357589017,-1.034931918034614,-0.03629155745347538,-0.1502812003053373,-0.15310994039792988,-0.10791330723550248,0.14750255544967344,0.06619253149510798,-0.1792797098779292,-262.2214923498694,-114.18879063787847,-385.60930672603774,289.6887159926866,44.63821813195649,-0.7465349897002764
-0.04028706970012195,0.24967802771156522,-0.3010199262632822,0.054892089233140956,-1.0347988039408216,-0.03665159126967252,-0.150281077205669,-0.15428427396440422,-0.10790847332218267,0.1474878286253914,0.06655704689615598,-0.1800169080985694,-263.49735103177846,-115.3462357859315,-384.9745881214832,289.563984979258,44.99694731315379,-0.7488649461952954
-0.04058763160065402,0.24936711784349655,-0.3012357336871075,0.05518703539815978,-1.0346649610872123,-0.03701310007929063,-0.1502809502660351,-0.15545493403433505,-0.10790371191263383,0.14747308250941274,0.0669214268046822,-0.18075440480905533,-264.7708383973561,-116.49999569652411,-384.3366984407407,289.4385370473211,45.35549260796336,-0.7511987540606804
-0.04088819323961736,0.24905387403609738,-0.30145153173275224,0.05548195203219593,-1.0345303897465032,-0.03737608447082751,-0.1502808194816689,-0.15662190369958398,-0.10789902282238388,0.1474583170180733,0.06728567035451662,-0.1814921957684401,-266.0419429875828,-117.65005356314202,-383.69564370199794,289.3123726207986,45.71385332152387,-0.7535364677479743
-0.041188754609312934,0.24873830370388683,-0.3016673205444855,0.05577683909633218,-1.0343950901931442,-0.03774054502422567,-0.15028068484778867,-0.15778516610527646,-0.10789440586662118,0.14744353206812558,0.06764977667955266,-0.18223027669907818,-267.3106533649089,-118.79639263359788,-383.05142995180375,289.1854921250486,46.07202876030076,-0.7558781417292626
-0.04148931570203213,0.24842041429498676,-0.3018831002662059,0.05607169655148567,-1.0342590627033168,-0.038106482310798925,-0.15028054635959814,-0.1589447044500296,-0.10788986086020928,0.14742872757674302,0.06801374491374276,-0.18296864328662646,-268.576958113357,-119.93899621026398,-382.4040632650198,289.0578959868609,46.430018232082844,-0.7582238304943809
-0.04178987651005671,0.2481002132910144,-0.3020988710414413,0.056366524358408714,-1.0341223075549346,-0.03847389689315902,-0.15028040401228704,-0.16010050198618153,-0.10788538761769864,0.14741390346152425,0.0683775741910947,-0.18370729118004714,-269.8408458386255,-121.07784765030492,-381.75354974477136,288.9295846344522,46.787821045979975,-0.7605735885481122
-0.04209043702565877,0.24777770820697434,-0.30231463301334793,0.05666132247768971,-1.0339848250276433,-0.03884278932514224,-0.1502802578010311,-0.1612525420200222,-0.10788098595333585,0.14739905964049702,0.06874126364566914,-0.18444621599161207,-271.10230516819036,-122.21293036590873,-381.09989552239875,288.80055849746304,47.145436512419515,-0.7629274704073781
-0.04239099724110075,0.2474529065911503,-0.3025303863247101,0.05695609086975395,-1.03384661540282,-0.03921316015173606,-0.1502801077209925,-0.1624008079120247,-0.10787665568107074,0.14738419603212244,0.06910481241157765,-0.1851854132969088,-272.3613247514085,-123.3442278245176,-380.44310675740695,288.6708180069526,47.50286394314389,-0.7652855305984183
-0.04269155714863539,0.24712581602499614,-0.3027461311179392,0.05725082949486455,-1.0337076789635742,-0.03958500990900576,-0.15027995376731976,-0.16354528307707752,-0.10787239661456162,0.14736931255529892,0.06946821962298168,-0.18592487863484808,-273.6178932596192,-124.47172354905794,-379.78318963741685,288.5403635953956,47.860102651207114,-0.7676478236539634
-0.04299211674050568,0.2467964441230267,-0.30296186753507354,0.05754553831312328,-1.033568015994746,-0.0399583391240211,-0.15027979593514793,-0.1646859509847173,-0.10786820856717905,0.14735440912936626,0.0698314844140918,-0.18666460750767308,-274.87199938624684,-125.5954011181689,-379.1201503781149,288.4091956966778,48.21715195097205,-0.7700144041103967
-0.04329267600894488,0.24646479853270797,-0.3031775957177775,0.057840217284471494,-1.0334276267829077,-0.04033314831478304,-0.15027963421959867,-0.16582279515936174,-0.10786409135200827,0.14733948567410954,0.07019460591916765,-0.1874045953809701,-276.12363184690196,-126.71524416643089,-378.45399522320275,288.27731474609215,48.57401115810732,-0.7723853265049077
-0.043593234946176444,0.2461308869343469,-0.30339331580734125,0.05813486636869102,-1.0332865116163625,-0.0407094379901504,-0.15027946861578,-0.16695579918054246,-0.10786004478185046,0.1473245421097631,0.07055758327251811,-0.18814483768368068,-277.37277937948386,-127.8312363845928,-377.7847304443473,288.14472118033467,48.93067958958419,-0.7747606453726419
-0.043893793544414014,0.24579471704098063,-0.3036090279446797,0.05842948552540505,-1.0331446707851455,-0.04108720864976663,-0.1502792991187865,-0.16808494668313811,-0.10785606866922322,0.14730957835701444,0.07092041560850199,-0.1888853298081155,-278.619430744281,-128.94336151979837,-377.11236234112977,288.0114154375008,49.28715656367338,-0.7771404152438325
-0.04419435179586141,0.24545629659826543,-0.3038247322703324,0.05872407471407907,-1.0330021045810225,-0.04146646078398657,-0.15027912572369911,-0.1692102213576071,-0.10785216282635998,0.1472945943370082,0.07128310206152881,-0.1896260671099697,-279.8635747240732,-130.05160337581208,-376.43689724099465,287.877397957081,49.64344139994217,-0.7795246906409348
-0.04449490969271258,0.24511563338436498,-0.3040404289244628,0.05901863389402177,-1.0328588132974903,-0.04184719487380325,-0.15027894842558495,-0.1703316069502203,-0.10784832706520908,0.14727958997134993,0.07164564176606006,-0.19036704490833967,-281.10520012423194,-131.15594581324382,-375.75834149919916,287.7426691799571,49.999533419250945,-0.7819135260757452
-0.044795467227151574,0.2447727352098384,-0.3042561180468577,0.05931316302438599,-1.032714797229777,-0.04222941139077473,-0.15027876721949743,-0.171449087263293,-0.10784456119743191,0.14726456518211004,0.0720080338566104,-0.19110825848574137,-282.34429577282157,-132.25637274977282,-375.07670149876077,287.6072295483985,50.355431943750304,-0.7843069760465153
-0.045096024391352525,0.24442760991752754,-0.3044717997769265,0.05960766206416964,-1.0325700566748415,-0.042613110796950994,-0.15027858210047587,-0.172562646155417,-0.10784086503440081,0.14724951989182747,0.07237027746774939,-0.1918497030881303,-283.58085052069964,-133.3528681603708,-374.3919836504069,287.4710795060579,50.71113629687764,-0.786705095035057
-0.04539658117747962,0.24408026538244415,-0.3046874742537009,0.059902130972216666,-1.0324245919313733,-0.042998293544800836,-0.15027839306354562,-0.17367226754169166,-0.1078372383871964,0.14723445402351365,0.07273237173410298,-0.19259137392492284,-284.8148532416179,-134.44541607752453,-373.7041943925218,287.3342194979678,51.06664580335402,-0.7891079375038411
-0.04569713757768706,0.24373070951165623,-0.3049031416158341,0.06019656970721798,-1.0322784032997925,-0.04338496007713887,-0.15027820010371762,-0.17477793539395484,-0.10783368106660471,0.14721936750065623,0.07309431579035543,-0.19333326616901927,-286.04629283232185,-135.5340005914567,-373.01334019109515,287.1966499705363,51.42195978918083,-0.7915155578930888
-0.04599769358411904,0.24337895024417422,-0.3051188020016003,0.060490978227712426,-1.0321314910822499,-0.04377311082705253,-0.15027800321598853,-0.17587963374101312,-0.1078301928831138,0.14720426024722286,0.07345610877125124,-0.1940753749568281,-287.2751582126508,-136.61860585034714,-372.3194275396695,287.05837137154356,51.77707758163668,-0.7939280106178519
-0.04629824918890972,0.24302499555083648,-0.3053344555488941,0.06078535649208776,-1.0319838555826266,-0.04416274621782911,-0.1502778023953404,-0.17697734666887133,-0.10782677364691033,0.14718913218766488,0.07381774981159712,-0.19481769538829222,-288.5014383256382,-137.6992160605521,-371.6224629592876,286.91938415013755,52.131998509273856,-0.7963453500650908
-0.0465988043841832,0.24266885343419456,-0.30555010239522984,0.0610797044585816,-1.031835497106534,-0.04455386666288295,-0.1502775976367406,-0.17807105832096154,-0.10782342316787578,0.14717398324692116,0.07417923804626418,-0.19556022252691618,-289.72512213761075,-138.77581548682323,-370.92245299843904,286.7796887568307,52.48672190191516,-0.7987676305907436
-0.04689935916205348,0.24231053192839783,-0.305765742677741,0.06137402208528245,-1.0316864159613137,-0.04494647256568254,-0.15027738893514164,-0.1791607528983713,-0.10782014125558251,0.1471588133504217,0.07454057261019008,-0.19630295139979548,-290.9461986382878,-139.8483884525258,-370.2194042330083,286.6392856434959,52.84124709065053,-0.8011949065167852
-0.04719991351462444,0.2419500390990777,-0.3059813765331796,0.06166830933013063,-1.031536612456037,-0.04534056431967783,-0.15027717628548104,-0.18024641466007124,-0.10781692771928968,0.14714362242409135,0.07490175263838121,-0.19704587699764695,-292.1646568408807,-140.91691933985547,-369.5133232662198,286.49817526336244,53.19557340783358,-0.8036272321282846
-0.04750046743398981,0.2415873830432314,-0.30619700409791545,0.061962566150919336,-1.0313860869015052,-0.04573614230822751,-0.15027695968268107,-0.18132802792314187,-0.10781378236793905,0.1471284103943535,0.07526277726591514,-0.19778899427484095,-293.38048578219167,-141.98139259005498,-368.80421672858586,286.35635807101283,53.5497001870782,-0.8060646616704509
-0.0478010209122331,0.2412225718891054,-0.30641262550793574,0.0622567925052956,-1.0312348396102493,-0.04613320690452638,-0.1502767391216488,-0.18240557706299976,-0.10781070501015065,0.14711317718813385,0.07562364562794278,-0.19853229814943504,-294.5936745227124,-143.04179270362926,-368.0920912778516,286.2138345223784,53.90362676325526,-0.8085072493456746
-0.04810157394142765,0.24085561379607814,-0.30662824089884416,0.06255098835076132,-1.0310828708965298,-0.0465317584715328,-0.1502765145972758,-0.18347904651362265,-0.10780769545421831,0.14709792273286382,0.07598435685969093,-0.19927578350320907,-295.8042121467227,-144.09810424056022,-367.3769535989412,286.0706050747359,54.257352472488996,-0.8109550493105637
-0.048402126513636526,0.2404865169545426,-0.3068438504058604,0.06284515364467429,-1.030930181076337,-0.046931797361896205,-0.15027628610443808,-0.18454842076777436,-0.10780475350810524,0.14708264695648432,0.07634491009646459,-0.200019445181702,-297.012087762389,-145.15031182052016,-366.65881040390394,285.9266701867041,54.61087665215359,-0.813408115672969
-0.048702678620912515,0.24011528958578815,-0.30705945416381925,0.06313928834424919,-1.0307767704673896,-0.0473333239178847,-0.1502760536379959,-0.18561368437722822,-0.10780187897943934,0.14706734978744934,0.07670530447364944,-0.2007632779942502,-298.21729050186184,-146.1984001230848,-365.93766843185875,285.7820303182392,54.96419864086964,-0.8158665024890093
-0.049003230255298104,0.23974193994188217,-0.3072750523071703,0.06343339240655864,-1.0306226393891362,-0.047736338471312756,-0.15027581719279368,-0.1866748219529902,-0.10779907167550865,0.14705203115472953,0.07706553912671438,-0.20150727671402724,-299.41980952137436,-147.24235388794514,-365.2135344489401,285.63668593063215,55.31731777850074,-0.8183302637600833
-0.04930378140882542,0.23936647630555113,-0.3074906449699768,0.06372746578853428,-1.0304677881627538,-0.048140841343468924,-0.15027557676365985,-0.18773181816552106,-0.10779633140325665,0.14703669098781572,0.07742561319121391,-0.2022514360780853,-300.61963400133976,-148.28215791511843,-364.48641524824234,285.4906374865041,55.67023340614968,-0.8207994534298828
-0.049604332073516236,0.23898890699006123,-0.30770623228591537,0.06402150844696772,-1.030312217111148,-0.04854683284504372,-0.15027533234540688,-0.18878465774495765,-0.1077936579692775,0.14702132921672253,0.07778552580279076,-0.20299575078739818,-301.8167531464485,-149.31779706515854,-363.75631764976464,285.3438854498034,56.02294486615517,-0.8232741253813944
-0.0499048822413819,0.23860924033909856,-0.307921814388275,0.0643155203385117,-1.0301559265589537,-0.04895431327605753,-0.15027508393283093,-0.18983332548133336,-0.1077910511798114,0.14700594577199194,0.07814527609717839,-0.20374021550690577,-303.0111561857658,-150.34925625936498,-363.0232485003551,285.19643028580157,56.37545150208801,-0.8257543334338958
-0.05020540629906579,0.23822780614234443,-0.3081372460809971,0.06460949202476629,-1.029998841716488,-0.04936325439365714,-0.15026202884194537,-0.1907170983770602,-0.10771584636104437,0.1469858431272924,0.07854242123285309,-0.2044705587998042,-304.2028200856845,-151.37646507277253,-362.28729023664926,285.0482805628834,56.727697521094676,-0.8282795874214224
-0.05050585828415022,0.2378453708594294,-0.308352212530727,0.06490340724500439,-1.0298408079733563,-0.04977359193190096,-0.15022599254221666,-0.19121764145751707,-0.10748322486494993,0.146957610119049,0.07901687156587739,-0.20516876912191098,-305.3917275439584,-152.39933677212196,-361.54857068486024,284.89943020252406,57.0796070036565,-0.8309009639198557
-0.05080625193748165,0.23746226414629587,-0.30856665742218786,0.06519727260348242,-1.0296818174621671,-0.05018530465059784,-0.15019682666571735,-0.1915533565667658,-0.10722244573043882,0.146932679239016,0.07949525559463048,-0.20585635934844077,-306.577905494852,-153.4179406935712,-360.8070308808898,284.7498308222024,57.4312565292433,-0.8335601222196192
-0.051106603872957235,0.23707865197325165,-0.3087806112958689,0.06549109473701821,-1.0295218998503541,-0.05059838121321426,-0.1501759677377919,-0.1918060865221111,-0.10697693684052,0.14691106676789728,0.0799588059064932,-0.2065382813082071,-307.76135118204195,-154.4322913502454,-360.06264615000094,284.5994721039793,57.78267864726391,-0.8362383894403604
-0.05140692544870829,0.2366946341732595,-0.3089941300249881,0.0657848776871651,-1.0293610895411724,-0.0510128126909953,-0.15016078787552736,-0.19200889999607101,-0.10675936455959999,0.1468914750734445,0.08040515459089363,-0.2072157388905216,-308.94205330390884,-155.44238120380817,-359.31541079605694,284.44835604250056,58.133887814672086,-0.83892939504451
-0.051707223836647075,0.23631028042853391,-0.3092072728644192,0.06607862371336404,-1.0291994171254875,-0.05142859117464797,-0.1501491939693926,-0.19217687236280093,-0.10657141971553795,0.14687301309947015,0.08083620784244128,-0.2078892418263365,-310.1199983876504,-156.44819449715385,-358.56532794779656,284.2964883233127,58.484890983784695,-0.8416305876322845
-0.052007503741074684,0.2359256442576559,-0.3094200949538599,0.06637233413916432,-1.02903690808628,-0.05184570961568228,-0.1501399522138055,-0.19231808543900916,-0.10641104472037939,0.14685521290014616,0.08125451960369794,-0.20855922051715234,-311.2951726833001,-157.44971282832967,-357.8124044112248,284.1438753750041,58.83569187843726,-0.8443406290816282
-0.052307768487699705,0.23554076894096604,-0.30963264515815886,0.06666600983109716,-1.0288735833810394,-0.05226416181427492,-0.15013237331250961,-0.19243765834492152,-0.10627510214947242,0.14683784596642013,0.08166235262030229,-0.20922609929632152,-312.46756269767826,-158.4469172991511,-357.0566483400747,283.9905233632818,59.1862927280516,-0.8470586043578671
-0.05260802059932539,0.23515569037916867,-0.30984496586813065,0.06695965142658139,-1.0287094603104359,-0.0526839423746573,-0.15012605581284566,-0.19253928089868907,-0.10616035498588518,0.1468207977421177,0.08206153530180979,-0.20989028019119133,-313.6371553163457,-159.43978928934015,-356.2980682557204,283.83643787492,59.536694985906855,-0.8497837847813285
-0.05290826208747577,0.23477043871306943,-0.3100570934875848,0.0672532594347978,-1.0285445532711264,-0.053105046629294654,-0.15012074407518558,-0.19262583304961425,-0.10606380972708375,0.14680400410820668,0.08245351965475556,-0.21055212731867673,-314.80393780302154,-160.4283106952729,-355.5366726641697,283.68162385434897,59.88689964102577,-0.8525155558955004
-0.0532084946047149,0.23438503939273114,-0.3102690591196073,0.06754683428078356,-1.028378874337639,-0.05352747055221478,-0.15011625861956548,-0.1926996601691525,-0.10598281601123509,0.14678742299287784,0.08283946674372696,-0.21121196146006438,-315.9678977653536,-161.41246396810806,-354.7724699242,283.52608563294706,60.23690736550789,-0.8552533922475174
-0.05350871953113581,0.23399951396656984,-0.3104808892668281,0.0678403763258787,-1.0282124337025171,-0.05395121067427574,-0.15011246321045554,-0.1927627130806495,-0.1059150736104183,0.1467710225475712,0.08322031756090352,-0.21187006103047973,-317.1290231143845,-162.3922320820059,-354.0054682164872,283.3698269897791,60.586718593271485,-0.8579968447035033
-0.05380893802923919,0.2336138807041517,-0.3106926064785188,0.0681338858787343,-1.0280452400129172,-0.054376264005935246,-0.15010924905168863,-0.19281663120906567,-0.10585860584537055,0.14675477642779355,0.08359684479996266,-0.2125266658297538,-318.28730202596034,-163.36759848222562,-353.2356755509028,283.212851219514,60.9363335685512,-0.8607455309483887
-0.054109151082630084,0.23322815510568518,-0.31090422992428757,0.06842736320258797,-1.0278773006336135,-0.05480262796914189,-0.15010652669544797,-0.19286279923326988,-0.10581172288436401,0.1467386619268298,0.08396968965189137,-0.21318198160332136,-319.4427229063043,-164.33854703134,-352.463099786449,283.05516119788115,61.28575237975557,-0.863499126996665
-0.05440935952552229,0.23284235032647704,-0.311115775892737,0.06872080852096878,-1.0277086218570874,-0.055230300338209797,-0.15010422144610136,-0.19290238960407013,-0.10577298422470244,0.14672265919040278,0.0843393882630286,-0.2138361845339521,-320.5952743620657,-165.30506195971083,-351.6877486537985,282.89675944109035,61.63497498526531,-0.8662573593996361
-0.054709564066354965,0.23245647753378706,-0.31132725822050106,0.06901422202260206,-1.027539209074482,-0.05565927918887806,-0.15010227041633853,-0.19293639634498885,-0.10574116388204413,0.14670675081663867,0.084706391302716,-0.21448942533413132,-321.744945174548,-166.26712782184794,-350.9096297767255,282.7376481582247,61.98400123413235,-0.8690199981998055
-0.05500976530721921,0.2320705462082379,-0.31153868865934103,0.06930760386577181,-1.0273690669166635,-0.056089562854581436,-0.15010062043212233,-0.19296566277458427,-0.10571521941999638,0.14669092158487607,0.08507107890925526,-0.21514183285168978,-322.89172427765493,-167.22472945864692,-350.12875069123595,282.57782929672794,62.33283088315217,-0.8717868506823633
-0.0553099637600727,0.231684564399005,-0.3117500771892631,0.06960095418222527,-1.0271981993717698,-0.05652114988897855,-0.1500992264267464,-0.192990904616441,-0.10569426496102902,0.1466751582267264,0.08543377244687572,-0.21579351719855663,-324.03560073907596,-168.17785196497834,-349.3451188621886,282.4173045815482,62.68146361114239,-0.874557755916489
-0.05561015986037881,0.23129853894014968,-0.3119614322851117,0.06989427308065436,-1.0270266098838186,-0.05695403903387156,-0.15009805015305147,-0.19301272942766723,-0.10567754792428824,0.1466594492145474,0.08579474397559753,-0.2164445724465076,-325.1765637442629,-169.12648066197443,-348.5587416975563,282.2560755486502,63.029899030968416,-0.8773325800361712
-0.055910353978627675,0.23091247563413933,-0.31217276114330833,0.0701875606497801,-1.0268543014357916,-0.057388229191755534,-0.15009705912443322,-0.19303165300516886,-0.10566442909831436,0.14664378456287092,0.08615422401352148,-0.21709507894198402,-326.3146025828012,-170.0706010733785,-347.7696265605905,282.09414357361743,63.37813669970642,-0.8801112121883938
-0.056210546430091705,0.23052637940759327,-0.31238406987456996,0.07048081696106766,-1.026681276619836,-0.057823719402336486,-0.1500962257320169,-0.19304811327302573,-0.10565436563082319,0.1466281556437765,0.08651240797769534,-0.21774510529047608,-327.4497066368261,-171.01019890538618,-346.9777807801674,281.9315098960166,63.72617612724554,-0.8828935610698236
-0.056510737483098046,0.2301402544434868,-0.3125953636676475,0.07077404207110317,-1.0265075376966908,-0.05826050882244874,-0.15009552650317093,-0.1930624820532398,-0.10564689653878694,0.14661255501776035,0.08686946157261993,-0.21839471005612668,-328.58186537118394,-171.94526002947703,-346.1832116595732,281.76817564012885,64.07401678357604,-0.8856795519749516
-0.0568109273660502,0.22975410429338697,-0.31280664692840915,0.071067236023665,-1.0263330866460454,-0.05869859670888207,-0.15009494147607882,-0.19307507504991248,-0.1056416303808214,0.14659697628091825,0.08722552532269245,-0.2190439432166677,-329.7110683250791,-172.8757704678029,-345.38592648395985,281.60414183257546,64.42165810496476,-0.8884691242847489
-0.05711111627339191,0.22936793197274363,-0.31301792339796347,0.07136039885152186,-1.0261579252092496,-0.059137982403699045,-0.15009445367085394,-0.19308616032167245,-0.10563823477715276,0.14658141392842355,0.08758071839784738,-0.2196928474084866,-330.8373051049868,-173.80171638076098,-344.5859325266689,281.43940941729835,64.76909949918968,-0.8912622293325537
-0.05741130437067503,0.22898174004179747,-0.31322919625297224,0.07165353057798916,-1.02598205492555,-0.05957866532168271,-0.15009404864155965,-0.1930959654730794,-0.10563642750439177,0.1465658632336523,0.08793514184976722,-0.22034145899183152,-331.9605653786406,-174.72308405643204,-343.78323705459457,281.2739792682865,65.11634034997621,-0.8940588285918574
-0.05771149179886769,0.22859553067427824,-0.3134404681908335,0.071946631218273,-1.0258054771628435,-0.06002064493960663,-0.1500937140963305,-0.19310468375961753,-0.10563596893063106,0.14655032014191266,0.08828888135331063,-0.22098980896195888,-333.0808388699369,-175.63985990160876,-342.97784733272886,281.1078522003868,65.46338002075738,-0.8968588921381564
-0.058011678678017646,0.22820930571573647,-0.313651741502014,0.07223970078062805,-1.0256281931437818,-0.060463920787063384,-0.15009343957497906,-0.19311247927087632,-0.10563665559026487,0.14653478117753096,0.08864200953084914,-0.22163792372837732,-334.19811535461616,-176.552030434183,-342.1697706280146,280.94102897848666,65.81021785786027,-0.8996623973438054
-0.05831186511036809,0.22782306673307376,-0.3138630181314689,0.072532739267354,-1.0254502039679336,-0.06090849243862576,-0.15009321617521962,-0.19311949133134976,-0.10563831472741703,0.14651924336297195,0.08899458792405716,-0.22228582578118983,-335.31238465660687,-177.45958227668808,-341.3590142126095,280.77351032531215,66.15685319320653,-0.9024693277707869
-0.05861205118300822,0.2274368150565996,-0.3140742997307934,0.07282574667565136,-1.0252715106305992,-0.06135435950714741,-0.15009303632006502,-0.193125838237078,-0.10564079966227045,0.14650370414868155,0.08934666866720432,-0.2229335342608229,-336.42363664493087,-178.3625021508283,-340.5455853666494,280.60529692805005,66.50328534660056,-0.9052796722315066
-0.05891223697012848,0.22705055181574274,-0.31428558770250614,0.07311872299835617,-1.0250921140387843,-0.06180152163803761,-0.15009289356012825,-0.19313162042842916,-0.10564398585636273,0.14648816135240292,0.08969829590744267,-0.22358106544509826,-337.5318612310872,-179.26077687284828,-339.7294913805879,280.4363894439727,66.84951362766857,-0.9080934239921583
-0.05921242253493955,0.22666427796937447,-0.3144968832376491,0.07341166822456979,-1.0249120150247633,-0.06224997850436881,-0.15009278240553814,-0.1931369231841418,-0.10564776757149942,0.14647261310680734,0.09004950701050429,-0.22422843316559937,-338.6370483668419,-180.15439334961758,-338.91073955717457,280.26678850521296,67.1955373375013,-0.9109105800970736
-0.05951260793130554,0.2262779943315567,-0.31470818734771466,0.07370458234019857,-1.0247312143575946,-0.06269972980269595,-0.1500926981829962,-0.19314181890888182,-0.10565205503277415,0.14645705781438578,0.09040033358431565,-0.2248756491635669,-339.73918804236365,-181.0433385753255,-338.0893372131263,280.0964947228197,67.54135577004607,-0.9137311407956799
-0.05981279320513392,0.2258917015934054,-0.31491950089175397,0.07399746532841588,-1.0245497127528984,-0.0631507752494841,-0.15009263691418898,-0.19314636907565402,-0.10565677201965977,0.1464414941086545,0.09075080234807108,-0.22552272339408194,-340.83827028465134,-181.92759962869337,-337.2652916805391,279.9255086902015,67.886968213286,-0.9165551090565056
-0.06011297839555861,0.22550540034165512,-0.3151308245993952,0.07429031717005755,-1.024367510881158,-0.06360311457805617,-0.15009259521234675,-0.19315062587514784,-0.10566185382059246,0.1464259208208336,0.09110093587011989,-0.22616966428603333,-341.9342851562126,-182.80716367063005,-336.4386103080771,279.7538309860506,68.23237395023924,-0.9193824901550068
-0.06041316353594706,0.22511909107442266,-0.3153421590903876,0.07458313784396006,-1.024184609374769,-0.06405674753598474,-0.15009257019422775,-0.19315463361623575,-0.10566724549620639,0.14641033695125666,0.09145075319448169,-0.22681647896428203,-343.02722275395246,-183.6820179422623,-335.6093004619744,279.5814621768254,68.57757225980524,-0.9222132913240042
-0.0607133486547575,0.2247327742145923,-0.3155535048911969,0.07487592732724979,-1.0240010088340235,-0.06451167388286376,-0.15009255940521884,-0.19315842991517054,-0.10567290040464826,0.14639474164486152,0.0918002703728053,-0.22746317343950911,-344.1170732082439,-184.55214976328523,-334.7773695268766,279.408402818859,68.9225624174822,-0.925047521457211
-0.06101353377626868,0.2243464501211816,-0.31576486244909574,0.07516868559559019,-1.0238167098321913,-0.06496789338840464,-0.15009256075559133,-0.19316204670536105,-0.1056787789494256,0.14637913417019507,0.0921495009160451,-0.2281097527704393,-345.2038266821491,-185.41754653058516,-333.94282490654575,279.2346534601487,69.26734369597455,-0.9278851908578045
-0.061313718921201174,0.223960119098992,-0.3159762321441282,0.07546141262339306,-1.0236317129198353,-0.06542540583080955,-0.15009257246624602,-0.19316551109479682,-0.10568484751620943,0.14636351390143912,0.09249845617797224,-0.22875622120245293,-346.2874733707724,-186.2781957170939,-333.1056740244501,279.0602146418761,69.6119153657076,-0.9307263110251673
-0.06161390410724624,0.22357378140680378,-0.31618761429926834,0.07575410838399912,-1.0234460186284737,-0.06588421099538158,-0.15009259302253222,-0.1931688460941076,-0.10569107757007855,0.14634788030303086,0.09284714568080862,-0.2294025822860178,-347.36800350072224,-187.13408487083916,-332.2659243242554,278.885086899697,69.95627669526411,-0.9335708944740254
-0.06191408934951611,0.22318743726433424,-0.31639900918904634,0.07604677284983215,-1.0232596274736903,-0.06634430867333733,-0.15009262113493643,-0.19317207123477487,-0.10569744488899416,0.14633223291650885,0.09319557739171798,-0.2300488389778741,-348.44540732966817,-187.98520161416377,-331.4235832702326,278.70927076483713,70.30042695175356,-0.9364189545810362
-0.06221427466092735,0.2228010868581461,-0.31661041704687226,0.07633940599253068,-1.0230725399577751,-0.06680569866079229,-0.15009265570561756,-0.1931752030940692,-0.10570392891294804,0.1463165713492667,0.0935437579575707,-0.23069499372748092,-349.5196751459761,-188.8315336430859,-330.57865834759355,278.532766765022,70.64436540112554,-0.9392705054546691
-0.06251446005252718,0.2224147303466645,-0.3168218380712549,0.07663200778306056,-1.0228847565719665,-0.06726838075789403,-0.15009269579991819,-0.19317825574078543,-0.10571051219132849,0.14630089526494075,0.09389169290427915,-0.23134104855086807,-350.5907972684121,-189.6730687267811,-329.7311570627672,278.35557542526647,70.98809130843526,-0.9421255618248264
-0.0628146455337714,0.22202836786443705,-0.31703327243108226,0.07692457819181095,-1.0226962777983544,-0.06773235476808148,-0.15009274062211087,-0.19318124111372584,-0.10571717991368285,0.1462852043751963,0.0942393868060504,-0.2319870050937257,-351.658764045903,-190.50979470716663,-328.8810869436238,278.1776972685447,71.3316039380685,-0.944984138949215
-0.06311483111276091,0.2216419995257509,-0.31724472027010486,0.07721711718867637,-1.0225071041114961,-0.06819762049745208,-0.15009278949475,-0.1931841693430773,-0.1057239195112916,0.14626949843271073,0.09458684342909593,-0.23263286468529845,-352.72356585734667,-191.34169949857346,-328.02845553965506,277.9991328163592,71.67490255393233,-0.9478462525339104
-0.0634150167964431,0.2212556254277043,-0.3174561817107426,0.07750962474312673,-1.0223172359797887,-0.06866417775422093,-0.15009284184109212,-0.193187049023299,-0.10573072031886843,0.14625377722517996,0.09493406585365313,-0.23327862838442268,-353.7851931114625,-192.1687710874921,-327.1732704221172,277.8198825892234,72.01798641961703,-0.9507119186659614
-0.06371520259078335,0.22086924565281463,-0.3176676568573172,0.07780210082426713,-1.0221266738666335,-0.06913202634825863,-0.15009289717012944,-0.19318988744483587,-0.10573757328731286,0.14623804057019998,0.09528105657759177,-0.23392429701885054,-354.8436362466776,-192.99099753238164,-326.31553918414215,277.63994710707186,72.3608547985331,-0.9535811537562062
-0.06401538850091104,0.2204828602712329,-0.3178791457987968,0.07809454540088892,-1.0219354182314246,-0.0696011660906963,-0.15009295506384698,-0.1931926907908706,-0.1057444707398115,0.1462222883108962,0.09562781760438414,-0.23456987121883927,-355.8988857310431,-193.80836696353202,-325.455269440822,277.4593268896074,72.70350695402773,-0.9564539744907381
-0.06431557453124379,0.2200964693426241,-0.3180906486111263,0.0783869584415133,-1.021743469530389,-0.07007159679358799,-0.15009301516637366,-0.19319546430438883,-0.10575140616474611,0.1462065203121918,0.09597435051779904,-0.2352153514458406,-356.95093206217524,-194.6208675829717,-324.5924688292699,277.2780224565964,73.04594214948365,-0.959330397789719
-0.06461576068559327,0.21971007291776404,-0.318302165359206,0.07867933991442855,-1.0215508282172985,-0.070543318269622,-0.15009307717474527,-0.19319821243003654,-0.10575837403985441,0.14619073645762204,0.09632065654532286,-0.23586073801700458,-357.999765767218,-195.42848766441372,-323.7271450086618,277.096034328119,73.38815964840283,-0.9622104407724075
-0.06491594696725535,0.2193236710398949,-0.3185136960985719,0.07897168978772177,-1.0213574947440744,-0.07101633033187421,-0.15009314083104022,-0.19320093893457338,-0.10576536968292707,0.1461749366466147,0.09666673661200903,-0.23650603112610766,-359.04537740282404,-196.23121555323394,-322.8593056602614,276.91336302478163,73.73015871447784,-0.9650941207274664
-0.06521613337908672,0.21893726374587658,-0.31872524087682197,0.07926400802930611,-1.021163469561302,-0.07149063279359706,-0.1500932059156838,-0.19320364700915063,-0.1057723891250366,0.146159120792169,0.09701259138620068,-0.23715123086142617,-360.0877575551516,-197.0290396664773,-321.98895848743024,276.73000906789645,74.07193861165229,-0.9679814550877502
-0.06551631992357021,0.21855085106716426,-0.31893679973482775,0.07955629460694386,-1.0209687531186653,-0.07196622546803906,-0.1500932722417473,-0.1932063393561571,-0.10577942900289784,0.14614328881887417,0.09735822131835255,-0.23779633722100085,-361.1268968398728,-197.82194849288683,-321.11611121562686,276.54597297963466,74.41349860417245,-0.9708724614088741
-0.0658165066028704,0.21816443303063834,-0.3191483727077627,0.0798485494882663,-1.0207733458653174,-0.0724431081682904,-0.15009333965009425,-0.19320901826296058,-0.10578648646747286,0.1461274406612187,0.097703626673994,-0.23844135012567247,-362.1627859021954,-198.6099305929529,-320.24077159239454,276.36125528315534,74.75483795663085,-0.9737671573510069
-0.0661166934188809,0.2177780096593093,-0.3193599598259754,0.08014077264079059,-1.020577248250194,-0.07292128070715083,-0.1500934080052482,-0.19321168566452238,-0.10579355910636878,0.14611157626214713,0.09804880756171695,-0.23908626943021394,-363.19541541689136,-199.39297459897801,-319.36294738734057,276.17585650271525,75.09595593400383,-0.9766655606633892
-0.06641688037326465,0.21739158097291617,-0.3195715611157313,0.08043296403193424,-1.0203804607222802,-0.07340074289701651,-0.1500934771918741,-0.1932143431965638,-0.10580064487794723,0.14609569557182872,0.09839376395694008,-0.23973109493283634,-364.2247760883356,-200.1710692151567,-318.4826463921082,275.9897771637616,75.43685180168319,-0.9795676891711604
-0.06671706746748822,0.21700514698843473,-0.31978317659984207,0.08072512362902745,-1.020182983730836,-0.07388149454978311,-0.1500935471117829,-0.19321699224071037,-0.10580774205537778,0.1460797985466064,0.09873849572208629,-0.24037582638330623,-365.2508586505497,-200.94420321766606,-317.5998764203416,275.8030177930107,75.77752482550345,-0.9824735607641499
-0.06701725470285098,0.2166187077205091,-0.3199948062982003,0.08101725139932366,-1.0199848177255886,-0.07436353547676287,-0.15009361768138124,-0.19321963396282377,-0.10581484917913495,0.14606388514810012,0.099083002623715,-0.24102046348987688,-366.27365386725245,-201.712365454767,-316.71464530764604,275.6155789185145,76.11797427176506,-0.9853831933873254
-0.06731744208050998,0.21623226318181799,-0.32020645022823363,0.08130934731000854,-1.0197859631568944,-0.07484686548861329,-0.15009368882949992,-0.19322226934554973,-0.1058219650166641,0.14604795534244164,0.0994272843470689,-0.24166500592520637,-367.2931525319144,-202.47554484691238,-315.8269609115425,275.42746106971634,76.4581994072544,-0.9882966050326495
