Joohwan-Seo/mujoco_sysID/Fanuc/Dataset/square_PIH_fanuc_new_real_2.csv
q1,q2,q3,q4,q5,q6,dq1,dq2,dq3,dq4,dq5,dq6,t1,t2,t3,t4,t5,t6
-4.319784096194547e-06,0.4617798851435633,-0.3926968453596278,1.4736201509335254e-05,-0.19999114245969743,3.3023168445002045e-05,-0.0021598920480972736,-0.009751327793085688,0.0011181695481810234,0.007368100754667627,0.004428770151284791,0.016511584222501024,0.022063916070054278,20.448371966221984,-32.709899681056356,16.150620694301487,-10.033445421496047,11.338543263998758
-1.2953113487786552e-05,0.4617409613255955,-0.3926923305646045,4.3980306749840714e-05,-0.19997346960003104,9.745397496212871e-05,-0.004316664695796003,-0.019461908983899212,0.0022573975116367694,0.014622052620252731,0.008836429833197056,0.03221540325856333,-0.03212210492862107,20.60527570451157,-32.6852306835969,16.076916011412067,-10.0501529894016,10.707808339261193
-2.5935692822138528e-05,0.46168276638322014,-0.3926854563335079,8.753040282038997e-05,-0.1999469882779955,0.00019174885027206775,-0.006491289667175989,-0.02909747118767453,0.0034371155483215966,0.02177504803527463,0.013240661017765356,0.047147437654969516,-0.08554745350270518,20.762576627957465,-32.659674467649026,16.003723943024436,-10.067551432860022,10.106706710975883
-4.330162048705899e-05,0.46160545072034986,-0.39267614165354847,0.00014519189272862342,-0.19991170584771398,0.00031443596299980995,-0.008682963832460231,-0.03865783143513953,0.004657339979694296,0.02883074495411672,0.01764121514076034,0.06134355636387111,-0.13821923675739745,20.920250542191326,-32.63325166843012,15.931024381723525,-10.085629614834932,9.533858117968185
-6.508344778794137e-05,0.4615091650942467,-0.3926643054841491,0.00021677713064524611,-0.199867630175933,0.00046411188044432147,-0.010890913650441193,-0.048142813051578956,0.005918084699675809,0.03579261895831134,0.022037835890483914,0.07483795872225577,-0.19014426060058537,21.078274692599294,-32.60598278043291,15.858798585694231,-10.104377976495837,8.987946604582508
-9.131223548921368e-05,0.46139406060240806,-0.39264986676262625,0.00030210507445158806,-0.19981476965490563,0.0006394383850079131,-0.013114393850636157,-0.05755224591932452,0.007219360761422439,0.04266397190317098,0.02643026051369097,0.0876632522817958,-0.24132903881561651,21.23662759782472,-32.57788813613534,15.78702912035108,-10.123788328584899,8.467717519462543
-0.00012201760784393359,0.46126028866901203,-0.39263274441059526,0.0004010009547678971,-0.1997531332129543,0.0008391394390208439,-0.015352686177359956,-0.06688596669801626,0.008561176015496707,0.049447940158154506,0.03081822097567155,0.09985052700646538,-0.2917798023653254,21.395288899988167,-32.54898788811028,15.71569980252799,-10.14385366554005,7.971974654494207
-0.0001572278042295902,0.4611080010309975,-0.39261285734100687,0.0005132959596882183,-0.19968273032297545,0.0010619982910364564,-0.0176050981928283,-0.0761438190072555,0.009943534794181341,0.056147502460160606,0.035201444989417505,0.11142942600780631,-0.34150250882403066,21.554239230010822,-32.519301994097745,15.644795647115485,-10.164568000048481,7.499577517357022
-0.0001969697285026708,0.4609373497238459,-0.3925901244657325,0.0006388269344842775,-0.19960357100912077,0.001306854716995921,-0.019870962136540302,-0.08532565357580531,0.01136643763719163,0.0627654873980296,0.03957965692734356,0.12242821297973235,-0.39050285185397465,21.71346008658201,-32.48885020465508,15.574302816035608,-10.185926215933442,7.049438731437189
-0.00024126899617930484,0.4607484870671238,-0.3925644647036235,0.0007774360955756117,-0.19951566585186534,0.0015726023899702252,-0.022149633838317015,-0.09443132836107446,0.012829881054502272,0.06930458054566711,0.043952578627716614,0.13287383648715206,-0.4387862706592994,21.872933727447908,-32.45765205304221,15.504208569447824,-10.207923937485788,6.620521557148749
-0.000290149979544294,0.46054156564983934,-0.39253579698897867,0.0009289707580963649,-0.19941902599165182,0.0018581863724811175,-0.024440491682494576,-0.10346070864224118,0.014333857322423323,0.07576733126037659,0.04831993010675545,0.1427919912554462,-0.4863579593645884,22.03264307182561,-32.425726847041375,15.434501219082842,-10.230557413538019,6.211837528988431
-0.00034363585078606607,0.4603167383156593,-0.3925040402803598,0.0010932830764207662,-0.19931366313127924,0.002162600725682986,-0.026742935620886043,-0.11241366709003058,0.015878354309437757,0.0821561591622007,0.05268143018628547,0.1522071766009343,-0.5332228762766619,22.19257161286179,-32.393093662444976,15.365170083604664,-10.253823414748807,5.822444202915657
-0.0004017486232505378,0.4600741581480276,-0.3924691135697025,0.00127022979703941,-0.19919958953718753,0.002484886229954773,-0.029056386232235866,-0.12129008381584941,0.017463355328656095,0.0884733603093219,0.05703679704585748,0.16114275213589352,-0.5793857529980151,22.35270333915402,-32.35977133797543,15.296205445905157,-10.277719142718064,5.451443008902533
-0.000464509190902529,0.4598139784552222,-0.3924309358916744,0.0014596720232071267,-0.1990768180397728,0.0028241282117056356,-0.031380283825995586,-0.1300898464027032,0.019088839014053498,0.09472111308385832,0.06138574870735727,0.1696209908754313,-0.6248511033683348,22.513022664450936,-32.32577847143109,15.227598512238949,-10.302242149690107,5.097977203740181
-0.0005319373660792267,0.45953635275538207,-0.39238942633323853,0.0016614749908105502,-0.19894536203285415,0.003179454471440735,-0.033714087588348825,-0.13881284992006787,0.020754779217935393,0.10090148380171171,0.0657280034593353,0.17766312986754967,-0.669623232217183,22.67351436472996,-32.29113341687673,15.159341373110404,-10.327390267728635,4.7612299194176915
-0.0006040519156162438,0.45924143476153273,-0.3923445040433839,0.0018755078549295024,-0.19880523547239903,0.0035500333083648473,-0.03605727476850855,-0.14745899692466094,0.022461144927331558,0.10701643205947609,0.07006328022756395,0.1852894184620562,-0.7137062439163782,22.83416352192733,-32.2558542827183,15.091426965828159,-10.353161546357214,4.440422302609214
-0.0006808705954230441,0.458929378366635,-0.3922960882429894,0.002101643486591101,-0.19865645287460368,0.0039350716370219726,-0.03840933990340012,-0.15602819744885243,0.0242079001972482,0.11306781583079936,0.07439129889767787,0.1925191643285627,-0.7571040507250582,22.99495547366564,-32.219958930521386,15.023849038646306,-10.37955419776232,4.134811741013608
-0.0007624101835809038,0.45860033762867847,-0.39224409823479156,0.0023397582792391066,-0.19849902931341334,0.004333813191679279,-0.040769794078929826,-0.16452036897827027,0.02599500409891545,0.11905739632400276,0.07871178059516375,0.19937077732865338,-0.799820380923996,23.15587576838731,-32.183464974453074,14.956602116415056,-10.406566548746273,3.8436901724901595
-0.0008486865120331458,0.4582544667558385,-0.39218845341342884,0.002589731964463514,-0.19833298041755848,0.004745536814364057,-0.043138164226121,-0.17293543641998912,0.02782241068135506,0.12498684261220358,0.08302444792743281,0.2058618113423888,-0.8418587867386397,23.31691012535842,-32.146389781237815,14.889681467667202,-10.434196998700344,3.566382473123538
-0.0009397144969341028,0.45789192009171337,-0.3921290732755393,0.002851447436556822,-0.198158322367174,0.00516955482265331,-0.04551399245047851,-0.18127333206254118,0.029690068944763257,0.13085773604665404,0.08732902519222892,0.21200900414462662,-0.8832226520526086,23.478044399059037,-32.108750470537395,14.823083073070126,-10.462443982942474,3.302244920532043
-0.0010355081677201376,0.4575128521006557,-0.3920658774298906,0.0031247905854838256,-0.19797507189006164,0.005605211453497662,-0.047896835393017395,-0.18953399552885283,0.03159792282435641,0.13667157446350187,0.0916252385561902,0.21782831542217604,-0.9239151999151763,23.639264547523744,-32.07056391567102,14.756803595176399,-10.491305940831078,3.0506637289055263
-0.0011360806949630635,0.4571174173532095,-0.39199878560752366,0.003409650137871215,-0.19778324625764765,0.006051881379534757,-0.050286263621462976,-0.19771737372309006,0.033545911183466386,0.1424297761936947,0.09591281620699037,0.22333496301854758,-0.963939499847623,23.80055660423769,-32.03184674460866,14.690840349409335,-10.5207812881269,2.811053652423625
-0.0012414444170634608,0.45670577051166494,-0.39192771767189405,0.003705917505641796,-0.1975828632806834,0.006508968294512767,-0.0526818610501986,-0.20582342077228538,0.0355339678147968,0.1481336838852906,0.10019148848213164,0.22854345748900512,-1.0032984749543676,23.961906653231132,-31.99261534117529,14.625191276222802,-10.550868393129827,2.5828566538614934
-0.0013516108658386651,0.4562780663157379,-0.3918525936289963,0.004013486641935794,-0.1973739413047291,0.006975903564602291,-0.05508322438760218,-0.2138520979635226,0.037562021448864766,0.1537845681469986,0.10446098797714203,0.23346763504476198,-1.0419949088455087,24.123300807052345,-31.952885846415825,14.55985491437767,-10.581565556165197,2.36554063533947
-0.001466590791057616,0.4558344595683832,-0.3917733336374588,0.004332253903978504,-0.19715649920545783,0.007452144942525249,-0.05748996260947541,-0.2218033736773666,0.03962999576875431,0.15938363102135544,0.10872104963564165,0.238120688961479,-1.0800314523779058,24.284725187326643,-31.9126741600756,14.494830375280038,-10.61287099204009,2.158598228315376
-0.0015863941839722741,0.4553751051217469,-0.391689858018598,0.0046621179225696,-0.19693055638381085,0.007937175341572672,-0.059901696457329144,-0.22967722331814658,0.04173780943039956,0.1649320092955479,0.11297141082348305,0.24251519952371162,-1.1174106302222302,24.446165907641294,-31.871995942158865,14.430117318329199,-10.644782815128822,1.961545640053671
-0.001711030299892965,0.45490015786326365,-0.3916020872664226,0.005002979477884621,-0.19669613276103298,0.008430501666719884,-0.06231805796034545,-0.23747362924163132,0.04388537608769869,0.17043077765751038,0.11721181138893647,0.24666316257360596,-1.15413484726356,24.607609058519373,-31.83086661453399,14.36571592722576,-10.67729902678257,1.7739215539350348
-0.0018405076798527478,0.4544097727019025,-0.39150994205757894,0.005354741381293757,-0.19645324877361162,0.008931653700177794,-0.0647386899798914,-0.24519258068057034,0.046072604421834286,0.1758809517045677,0.12144199371068029,0.25057601672895463,-1.190206394843122,24.769040694269066,-31.789301362558437,14.30162688719298,-10.710417504791215,1.5952860810929756
-0.001974834171403771,0.4539041045545655,-0.39141334326123045,0.0057173083629168545,-0.1962019253681413,0.009440183038843156,-0.06716324577551155,-0.2528340736685194,0.048299398174242676,0.18128349081154904,0.12566170273516686,0.2542646693326813,-1.2256274568486867,24.93044682151745,-31.747315136700923,14.237851363066586,-10.744135994653325,1.425219760981677
-0.002114016948586523,0.45338330833264084,-0.39131221194886495,0.0060905869646467985,-0.19594218399613178,0.009955662081229007,-0.06959138859137592,-0.2603981109623169,0.050565656182736014,0.18663930086497202,0.12987068600476304,0.2577395211929254,-1.2604001156609748,25.09181338925496,-31.704922654142923,14.174390978210768,-10.778452102437214,1.2633226085911187
-0.0022580625311109386,0.45284753892871377,-0.39120646940402426,0.006474485438385966,-0.19567404660877596,0.010477683061569277,-0.07202279126220777,-0.26788470196353337,0.05287127242033466,0.19194923686958384,0.13406869367791116,0.26101049017013545,-1.2945263579632216,25.25312628023469,-31.662138400344503,14.111247794219977,-10.81336328903868,1.1092132061321953
-0.0024069768027864596,0.45229695120343544,-0.3910960371319514,0.006868913649252467,-0.19539753565169113,0.011005857128899168,-0.07445713583776059,-0.27529386263917505,0.0552161360364169,0.1972141054332503,0.138255478542418,0.26408703366494524,-1.3280080804207635,25.414371303586737,-31.618976630562916,14.048424291368487,-10.848866865663052,0.9625278371163661
-0.0025607650292363746,0.45173169997255164,-0.39098083686915175,0.007273782983524266,-0.1951126740596454,0.011539813469015364,-0.07689411322495743,-0.28262561544188713,0.05760013139983687,0.20243466713589967,0.14243079602285447,0.2669781700580978,-1.3608470952372167,25.575534188521132,-31.575451371314017,13.985923349771271,-10.884959990376965,0.8229196608512486
-0.002719431874930068,0.4511519399940919,-0.3908607905928643,0.007689006261100187,-0.19481948525127954,0.012079198467317939,-0.07933342284684672,-0.28987998922986946,0.06002313814370128,0.20761163878796035,0.14659440418293818,0.2696924991512877,-1.3930451355935123,25.73660057900472,-31.531576421769998,13.92374823122193,-10.921639665592735,0.6900579254659599
-0.002882981419565205,0.4505578259557185,-0.39073582053044126,0.008114497652267134,-0.1945179931238322,0.012623674910628963,-0.08177477231756836,-0.2970570191866893,0.062485031211530886,0.21274569558347348,0.15074606372366978,0.2722382216555114,-1.4246038609756844,25.89755602931164,-31.487365355088574,13.861902561674981,-10.958902736364344,0.563627217668258
-0.003051417173830328,0.44994951246223625,-0.3906058491686321,0.00855017259857277,-0.19420822204787638,0.013172921226171646,-0.08421787713256165,-0.30415674674115045,0.06498568090456476,0.21783747315281773,0.15488553797790486,0.2746231577713423,-1.455524862396995,26.05838600035412,-31.442831519669515,13.80039031434148,-10.996745889385675,0.4433267475193199
-0.003224742094576893,0.4493271540232615,-0.3904707992627721,0.008995947737612272,-0.19389019686207246,0.013726630755978587,-0.08666246037328248,-0.31117921948735516,0.06752495292999379,0.2228875695197512,0.15901259290196249,0.2768547649034702,-1.4858096675195953,26.219075856711797,-31.397988040337328,13.739215793368656,-11.035165652596241,0.3288696665922185
-0.003402958599428356,0.44869090504105136,-0.39033059384587226,0.009451740831546778,-0.19356394286794285,0.014284511065078337,-0.08910825242573166,-0.3181244911050754,0.07010270844993562,0.22789654696725234,0.163126997064799,0.2789401545498744,-1.5154597456806151,26.37961086428477,-31.352847819448645,13.678383618075667,-11.074158395308741,0.2199824179563411
-0.0035860685808526143,0.4480409197984903,-0.3901851562376103,0.00991747069917964,-0.19322948582467242,0.014846283281886556,-0.09155499071212905,-0.32499262128053286,0.07271880413098603,0.23286493381643186,0.16722852163521135,0.28088610840410977,-1.5444765128271838,26.539976188505428,-31.30742353792524,13.617898707718957,-11.113720328783524,0.11640411650288185
-0.0037740734197228135,0.447377352447235,-0.39003441005322187,0.010393057151424811,-0.19288685194393745,0.015411681469301344,-0.09400241943509956,-0.33178367562767036,0.07537309219420239,0.2377932261225852,0.17131694036747674,0.2826990937073942,-1.572861336364584,26.700156893047513,-31.26172765621388,13.557766266762279,-11.153847507184066,0.0178859581957036
-0.003966973998390347,0.446700356996015,-0.38987827921229107,0.01087842093000934,-0.19253606788476588,0.015980452025072287,-0.09645028933376673,-0.3384977256099854,0.0780654204653929,0.2426818892922642,0.17539202958578295,0.28438527788547147,-1.6006155399214024,26.86013793898064,-31.215772415173888,13.49799177062745,-11.194535828854447,-0.0758093431018404
-0.004164770713292704,0.44601008729908903,-0.38971668794743985,0.011373483649259468,-0.19217716074843036,0.01655235311007947,-0.09889835745117836,-0.34513484846298265,0.08079563242560205,0.24753135962506342,0.1794535681677586,0.2859505425035913,-1.6277404080352196,27.019904184321668,-31.16956983689654,13.438580951903385,-11.235781037867726,-0.16490809251066263
-0.004367463487117736,0.4453066970448544,-0.3895495608129165,0.011878167740826753,-0.19181015807337562,0.01712715410322226,-0.10134638691251578,-0.35169512711729234,0.08356356726169689,0.25234204578364267,0.18350133752737083,0.28740049657139494,-1.6542371907620685,27.1794403839399,-31.123131725457984,13.379539786991984,-11.277578725800497,-0.24962612595669686
-0.004575051780544864,0.44459033974460943,-0.38937682269308255,0.012392396401217436,-0.1914350878301808,0.017704635081678275,-0.10379414671356413,-0.3581786501224934,0.08636905991697205,0.25711433019534147,0.18753512159742167,0.28874048922800843,-1.680107108212638,27.338731189779047,-31.07646966760958,13.320874483170593,-11.319924333693333,-0.3301692980977845
-0.004787534603582756,0.4438611687214661,-0.38919839881079915,0.012916093541994602,-0.1910519784165571,0.018284586325350745,-0.10624141151894609,-0.36458551157166985,0.08921194114170267,0.26184857038858345,0.19155470681184142,0.2899756218362347,-1.7053513550178556,27.497761151359917,-31.029595033409464,13.262591466051846,-11.362813154163181,-0.4067339474712657
-0.005004910526522046,0.44311933709941265,-0.38901421473571196,0.013449183742528837,-0.19066085865238122,0.01886680784437752,-0.10868796146964492,-0.37091581102672383,0.09209203754358485,0.2665451002671179,0.19555988208794906,0.29111075951338616,-1.7299711047262825,27.6565147165352,-30.98251897679947,13.204697367422646,-11.406240333637577,-0.4795073399249067
-0.005227177690520776,0.44236499779252375,-0.38882419639243593,0.013991592205178842,-0.19026175777476356,0.019451108928627548,-0.11113358199936514,-0.3771696534444617,0.09500917163801227,0.2712042313250022,0.1995504388088234,0.2921505421250146,-1.7539675141354452,27.81497623246775,-30.93525243613047,13.147199013445048,-11.450200874684375,-0.5486680913439226
-0.005454333817839378,0.44159830349431684,-0.38862827006863965,0.014543244712789026,-0.18985470543315175,0.02003730771816069,-0.11357806365930076,-0.3833471491034647,0.09796316189814575,0.2758262538050925,0.20352617080590646,0.29309939476657193,-1.7773417275590315,27.97312994680893,-30.887806134642197,13.09010341320265,-11.494689638414798,-0.6143865706399665
-0.005686376221741181,0.44081940666725333,-0.3884263624230302,0.015104067588396386,-0.18943973168446787,0.020625230793674423,-0.1160212019509015,-0.389448413531751,0.10095382280473927,0.28041143780368005,0.20748687434194,0.2939615377568652,-1.8000948810316237,28.130960009054846,-30.84019058089974,13.033417747577063,-11.539701346939749,-0.6768252839225178
-0.0059233018160736745,0.44002845953238284,-0.3882184004932388,0.015673987657043958,-0.18901686698827924,0.02121471278600654,-0.11846279716624686,-0.3954735674352323,0.10398096489569288,0.2849600343237859,0.21143234809431893,0.29474099616605853,-1.8222281064524335,28.288450472061886,-30.792416069193163,12.977149358439682,-11.585230585863199,-0.7361392407303783
-0.006165107124544988,0.4392256140591289,-0.38800431170360816,0.016252932209602975,-0.18858614220200137,0.021805596003806365,-0.12090265423565644,-0.40142273662696426,0.1070443948153077,0.2894722762795093,0.21536239313892927,0.2954416088999121,-1.8437425356693073,28.44558529370417,-30.744492679902905,12.92130573814498,-11.631271806798535,-0.792476303159893
-0.006411788289709354,0.43841102195521453,-0.3877840238728817,0.0168408289685104,-0.1881475885761323,0.022397730078528237,-0.12334058258218303,-0.4072960519571888,0.11014391536322374,0.2939483794537115,0.21927681293452472,0.2960670373609362,-1.8646393045040752,28.60234833865755,-30.696430279836346,12.865894519312057,-11.677819329895112,-0.8459775186875608
-0.006663341081674656,0.4375848346567262,-0.3875574652217956,0.017437606055332823,-0.18770123774951694,0.02299097162594059,-0.12577639598265142,-0.4130936492441624,0.11327932554302494,0.2983885434112111,0.22317541330768392,0.29662077370617584,-1.884919556720135,28.75872338029747,-30.648238522538954,12.810923464882041,-11.724867346365441,-0.8967774374473916
-0.006919760906544501,0.4367472033183147,-0.3873245643805746,0.01804319196007195,-0.18724712174464017,0.02358518392338143,-0.12820991243492236,-0.4188156692057629,0.11645042061050001,0.30279295236956305,0.22705800243838006,0.29710614872042035,-1.9045844479329843,28.914694102698533,-30.599926848585326,12.756400458439588,-11.772409921004453,-0.9450044146879861
-0.007181042814606654,0.43589827880353094,-0.3870852503963315,0.01865751551213074,-0.1867852729629478,0.024180236602026943,-0.13064095403107642,-0.42446225739186705,0.11965699212155029,0.30716177602939637,0.23092439084618493,0.29752633932275613,-1.9236351494642951,29.070244102724708,-30.551504485853126,12.702333494787231,-11.820440994693595,-0.9907808991003828
-0.007447181508279108,0.43503821167529594,-0.386839452740372,0.01928050585286313,-0.18631572418019357,0.024776005353474035,-0.133069346836227,-0.43003356411748855,0.1228988279797394,0.3114951703661949,0.2347743913771221,0.2978843757235463,-1.9420728521399087,29.225356892202274,-30.502980449784243,12.648730670762124,-11.868954386884248,-1.034223707675598
-0.0077181713498244795,0.4341671521865026,-0.3865871013154051,0.019912092409633757,-0.18583850854181122,0.02537237164997028,-0.13549492077268593,-0.4355297443966653,0.1261757124834811,0.3157932783853134,0.23860781919117668,0.29818314824812303,-1.9598987700320663,29.380015900166086,-30.454363543637516,12.595600176285165,-11.917943798056097,-1.0754442877199386
-0.007994006368842916,0.43328525027074843,-0.38632812646265935,0.020552204871317637,-0.1853536595583103,0.02596922247765572,-0.13791750950921813,-0.4409509578770851,0.12948742637286426,0.32005623084194046,0.242424491750463,0.29842541384271953,-1.9771141441459932,29.53420447517323,-30.405662358735768,12.5429502856331,-11.967402812146233,-1.1145489666269353
-0.008274680269553187,0.43239265553319756,-0.3860624589689071,0.021200773165172913,-0.1848612111006942,0.02656645008221061,-0.14033695035513497,-0.4462973687754369,0.13283374687611554,0.32428414692763696,0.24622422880804704,0.2986138022774453,-1.9937202460508863,29.687905887676465,-30.35688527471212,12.49078934892465,-12.017324898947226,-1.1516391899767964
-0.008560186437871162,0.4314895172415706,-0.38579003007339574,0.02185772743502292,-0.18436119739589937,0.027163951726331445,-0.14275308415898744,-0.45156914581347574,0.136214447755702,0.3284771349250042,0.2500068523974157,0.2987508220604169,-2.0097183814551824,29.84110333245362,-30.30804045975758,12.4391257838123,-12.067703416471186,-1.1868117485076528
-0.008850517948294426,0.430575984317261,-0.3855107714746876,0.022522998020686844,-0.1838536530222542,0.027761629458484444,-0.1451657552116322,-0.45676646215478856,0.13962929935407642,0.3326352928319608,0.25377218682258157,0.29883886607650006,-2.0251098937259657,29.993779931086713,-30.259135870874385,12.387968067371833,-12.1185316132796,-1.220158994477508
-0.009145667570601335,0.4296522053265765,-0.3852246153374095,0.023196515438600924,-0.1833386129049566,0.028359389892411425,-0.14757481115345444,-0.461889495342248,0.1430780686390704,0.3367587089570408,0.2575200586488081,0.2988802169634898,-2.0398961673521754,30.14591873448763,-30.21017925413748,12.337324728182022,-12.169802630776978,-1.2517690479115633
-0.00944562777637242,0.4287183284721042,-0.3849314942989116,0.023878210363575035,-0.18281611231156872,0.028957143996887345,-0.14998010288554212,-0.4669384272361417,0.1465605192489399,0.3408474624870559,0.2612502966939394,0.2988770522379595,-2.0540786313512465,30.297502725466348,-30.161178144967813,12.287204338587511,-12.221509505469049,-1.2817259932065652
-0.00975039074534165,0.4277745015841983,-0.38463134147583744,0.024568013611631846,-0.1822861868475281,0.02955480689525222,-0.15238148448461533,-0.4719134439529646,0.15007641153706924,0.34490162402840463,0.26496273202031384,0.29883144918243765,-2.067658762618728,30.44851482133869,-30.112139868419753,12.237615507138166,-12.273645171185166,-1.3101100665418546
-0.010059948371584701,0.42682087211258857,-0.3843240904706048,0.025265856123878345,-0.1817488724516736,0.030152297674262276,-0.1547788131215255,-0.47681473580486144,0.15362550261634042,0.3489212561232495,0.2686571979272426,0.2987453895050292,-2.0806380892203125,30.598937876570886,-30.06307153948606,12.188566871198638,-12.326202461265414,-1.3369978345257487
-0.010374292269550995,0.42585758711810917,-0.38400967537779845,0.025971668951361798,-0.18120420539178553,0.030749539201826437,-0.15717194898314663,-0.4816424972397085,0.15720754640317386,0.35290641374172604,0.27233352994402915,0.29862076378207975,-2.0930181936256846,30.748754685458785,-30.013980063421837,12.140067089722233,-12.379174110712887,-1.3624623644860172
-0.010693413779945975,0.42488479326454553,-0.383688030790476,0.026685383240864387,-0.18065222226013852,0.03134645795321441,-0.15956075519749038,-0.48639692678182106,0.1608222936612485,0.35685714475129393,0.2759915658235086,0.29845937569398573,-2.1048007158834574,30.897947984839377,-29.964872136091316,12.09212483618349,-12.432552758313095,-1.3865733867940473
-0.011017303975469744,0.423902636810599,-0.38335909180638617,0.027406930221592962,-0.18009295996906635,0.031942983845341985,-0.1619450977618848,-0.49107822697327713,0.16446949204490832,0.3607734903642869,0.27963114553608115,0.2982629460637856,-2.115987356736522,31.04650045683364,-29.915754244339325,12.044748791664272,-12.48633094872024,-1.4093974495942836
-0.011345953666417871,0.4229112636019673,-0.38302279403410167,0.028136241192722303,-0.17952645574653792,0.03253905007875742,-0.16432484547406398,-0.4956866043158449,0.1681488861422627,0.3646554855646704,0.2832521112642172,0.2980331167077149,-2.1265798806769367,31.19439473161839,-29.866632666388565,11.997947638088464,-12.540501134513015,-1.4309980662930415
-0.01167935340614992,0.4219108190635403,-0.38267907359906567,0.028873247511752236,-0.1789527471317431,0.033134592986970385,-0.16669986986602406,-0.5002222692135043,0.17186021751798852,0.36850315951496715,0.28685430739740786,0.29777145410648254,-2.1365801189395555,31.34161339022643,-29.817513472266437,11.951730051600558,-12.595055678220271,-1.451435856144454
-0.012017493496430933,0.42090144819170916,-0.38232786714955397,0.029617880583640767,-0.17837187197068805,0.033729551892781616,-0.1690700451405071,-0.5046854359155524,0.17560322475584153,0.37231653594426606,0.2904375805275383,0.29747945290561656,-2.1459899724334734,31.488138967374173,-29.768402524262292,11.906104696083922,-12.649986854319064,-1.470768678255426
-0.012360363992650898,0.4198832955467886,-0.3819691118625522,0.030370071850677145,-0.17778386841179872,0.034323868971287294,-0.1714352481099825,-0.5090763224602819,0.1793776435008843,0.3760956335181886,0.29400177944465705,0.29715853925283836,-2.154811414610363,31.63395395431526,-29.719305477417045,11.861080216814603,-12.705286851206049,-1.4890517593166583
-0.012707954708926899,0.4188565052455501,-0.38160274544954936,0.031129752783060433,-0.17718877490153248,0.03491748911924741,-0.1737953581380004,-0.5133951506192255,0.18318320650143863,0.3798404661916428,0.29754675513311857,0.2968100739800546,-2.1630464942687233,31.779040801719976,-29.670227780046798,11.81666523424687,-12.760947773143883,-1.506337815352282
-0.013060255223092497,0.4178212209538662,-0.3812287061622478,0.03189685487015075,-0.17658663017999635,0.03551035983052181,-0.17615025708279916,-0.517642145841955,0.1870196436507693,0.38355104354515956,0.30107236076807453,0.29643535563720147,-2.1706973382930266,31.9233819225794,-29.621174674302768,11.772868337926898,-12.816961642184541,-1.5226771677672306
-0.013417254881578605,0.41677758587946334,-0.38084693279819076,0.032671309612361886,-0.17597747327657176,0.03610243107729149,-0.1784998292430541,-0.5218175372014292,0.1908866820285069,0.3872273711055659,0.3045784517122897,0.2960356233848392,-2.1777661543267537,32.066959695134415,-29.5721511967675,11.729698080531358,-12.873320400071474,-1.5381178539583016
-0.013778942804189925,0.4157257427647836,-0.38045736470630714,0.03345304851366532,-0.17536134350554525,0.03669365519679564,-0.18084396130566002,-0.5259215573398803,0.19478404594181598,0.3908694506517163,0.30806488551325983,0.2956120597520738,-2.18425523337822,32.20975646582872,-29.523162179090733,11.687162972027636,-12.930015910121408,-1.5527057327426221
-0.014145307888780817,0.4146658338799531,-0.3800599417923745,0.03424200307467726,-0.17473828046174403,0.03728398678332779,-0.1831825422954462,-0.5299544424152333,0.19871145696631606,0.3944772805059689,0.3115315219006081,0.29516579326607606,-2.1901669523581537,32.3517545522847,-29.47421224866319,11.645271473952915,-12.98703995908848,-1.5664845848453184
-0.01451633881583427,0.413598001015857,-0.379654604524401,0.03503810478630138,-0.17410832401617654,0.03787338258524614,-0.18551546352672668,-0.53391643204805,0.20266863398676155,0.3980508558120607,0.314978222783739,0.2946979009591762,-2.1955037765479037,32.49293624630396,-29.425305829332878,11.604031993809325,-13.044384259011336,-1.579496208676956
-0.01489202405294746,0.412522385477319,-0.379241293937926,0.03584128512390139,-0.1734715143116771,0.038461801406764605,-0.18784261855659418,-0.5378077692689923,0.20665529323748694,0.4015901688000059,0.318404852249727,0.2942094107592334,-2.200268261997177,32.63328381689019,-29.376447142162732,11.563452879572655,-13.102040449045967,-1.591780511620616
-0.0152723518592272,0.41143912807638544,-0.37881995164124077,0.03665147554197862,-0.17282789175855426,0.039049204014302036,-0.19016390313986994,-0.5416287004667973,0.21067114834262368,0.4050952090386131,0.32181127656142,0.2937013037687154,-2.2044630578501874,32.77277951329504,-29.32764020623062,11.52354241431225,-13.160000097284485,-1.6033755970382317
-0.015657310289598454,0.41034836912571193,-0.37839051982052857,0.03746860746933099,-0.1721774970302428,0.03963555304717737,-0.19247921518562694,-0.5453794753367589,0.21471591035609408,0.4085659636761867,0.32519736415573725,0.29317451643766856,-2.2080909085990994,32.91140556808642,-29.278888839472987,11.48430881091998,-13.21825470256235,-1.614317847195983
-0.01604688719902887,0.4092502484320525,-0.3779529412449258,0.0382926123046709,-0.1715203710589585,0.040220812932448405,-0.19478845471520714,-0.5490603468297102,0.2187892878013882,0.41200241766995443,0.3285629856421417,0.2926299426355187,-2.2111546562636155,33.04914420024021,-29.23019665957372,11.44576020694616,-13.276795696255276,-1.624642002299375
-0.016441070246672185,0.4081449052898495,-0.3775071592715035,0.039123421412680374,-0.17085655503135597,0.04080494980370123,-0.1970915238216584,-0.5526715711015023,0.22289098671112875,0.4154045540047357,0.33190801380126894,0.29206843562641227,-2.213657242495607,33.18597761825286,-29.18156708489722,11.407904659540659,-13.335614444066726,-1.6343812358196301
-0.016839846899933224,0.4070324784749235,-0.37705311785017065,0.039960966120483055,-0.17018609038418858,0.04138793142360641,-0.19938832663051936,-0.5562134074629744,0.22702071066642915,0.41877235390134143,0.3352323235836936,0.2914908099525887,-2.2156017106076558,33.32188802327754,-29.133003335467112,11.3707501404973,-13.394702247807919,-1.64356722628466
-0.017243204438456994,0.4059131062382627,-0.3765907615284986,0.040805177714513405,-0.16950901879997096,0.04196972711006654,-0.20167876926188533,-0.5596861183304094,0.23117816083604972,0.4221057970151747,0.3385357921088169,0.29089784323006496,-2.2169912075243725,33.45685761228116,-29.084508433991736,11.33430453140016,-13.454050347171457,-1.6522302256997923
-0.017651129958044375,0.40478692629990976,-0.3761200354564679,0.04165598743776436,-0.16882538220264326,0.04255030766578797,-0.2039627597936907,-0.5630899691764727,0.23536303601535621,0.42540486162547725,0.3418182986638578,0.2902902778607148,-2.217828985655406,33.59086858122367,-29.036085206935464,11.298575618870117,-13.513649921499313,-1.6603991247556982
-0.01806361037449667,0.4036540758429465,-0.3756408853911377,0.042513326487395656,-0.1681352227532374,0.04312964531111724,-0.20624020822614722,-0.5664252284816296,0.23957503266508512,0.42866952481564846,0.3450797247029325,0.2896688226646344,-2.21811840468904,33.723903128258534,-28.987736285637535,11.263571089910396,-13.57349209154726,-1.668101514973765
-0.01848063242739123,0.4025146915075744,-0.37515325770123786,0.043377126012685736,-0.16743858284554497,0.04370771361999025,-0.20851102644728045,-0.569692167686037,0.24381384494991998,0.4318997626450416,0.3483199538462063,0.2890341544365049,-2.2178629333052804,33.855943456955075,-28.939464107477924,11.229298527349812,-13.63356792124562,-1.675363747932032
-0.01890218268379025,0.4013689093852906,-0.3746570993716841,0.04424731711331099,-0.16673550510178675,0.04428448745884923,-0.2107751281995094,-0.5728910611419069,0.24807916477688224,0.43509555031262453,0.3515388718791039,0.2883869194294905,-2.2170661508073755,33.98697177954135,-28.891270917090186,11.19576540538266,-13.693868419458472,-1.6822109917082124
-0.019328247541884686,0.4002168650131579,-0.37415235800801705,0.04512383083793673,-0.16602603236828362,0.04485994292838932,-0.21303242904721745,-0.576022186066338,0.2523706818335405,0.43825686231287314,0.3547363667515639,0.2877277347700453,-2.2157317486707524,34.11697032016788,-28.843158767623052,11.16297908520407,-13.754384541741324,-1.6886672846700335
-0.019758813234575217,0.3990586933681687,-0.373638981840765,0.04600659818310523,-0.16531020771112898,0.045434057308003005,-0.21528284634526568,-0.5790858224946125,0.2566880836260411,0.4413836725842495,0.35791232857732425,0.28705718980684414,-2.21386353200828,34.24592131819249,-28.795129522048633,11.130946810740056,-13.815107192098939,-1.6947555867369322
-0.02019386583299202,0.3978945288617008,-0.37311691972973104,0.046895550092406424,-0.16458807441186252,0.046006809002796814,-0.2175262992084011,-0.5820822532339553,0.26103105551696404,0.4444759546505991,0.3610666496332257,0.28637584739690536,-2.2114654209509346,34.3738070314843,-28.74718485451878,11.099675704471279,-13.87602722474342,-1.7004978282315415
-0.020633391249955054,0.3967245053340653,-0.37258612116820505,0.047790617455918,-0.16385967596314546,0.04657817749306047,-0.21976270848151616,-0.5850117638177533,0.26539928076300606,0.4475336817557874,0.36419922435852176,0.2856842451318285,-2.2085414519428257,34.500609739748796,-28.699326251769918,11.069172763349815,-13.937135445853697,-1.7059149564337424
-0.021077375243376488,0.3955487560491448,-0.37204653628710005,0.048691731109901756,-0.16312505606443709,0.04714814328607434,-0.22199199671071715,-0.5878746424602312,0.2697924405524946,0.45055682699187943,0.36730994935418315,0.28498289650693454,-2.205095778949714,34.62631174787156,-28.6515550145743,11.039444854808206,-13.998422615336965,-1.7110269799449291
-0.02152580341960681,0.39436741368912165,-0.3714981158590146,0.049598821836744064,-0.16238425861767272,0.047716687870146275,-0.22421408811516202,-0.5906711800115834,0.2742102140427346,0.4535453634211536,0.3703987233821864,0.28427229203596704,-2.201132674580026,34.750895389281354,-28.603872259239925,11.01049871286017,-14.05987944859286,-1.7158530109650991
-0.02197866123672607,0.3931806103492945,-0.37094081130222023,0.05051182036512852,-0.16163732772294317,0.04828379367077405,-0.22642890855962958,-0.5934016699135575,0.2786522783971913,0.456499264192226,0.37346544736477555,0.2835529003138878,-2.1966565311175557,34.874343029332096,-28.556278919157485,10.982340934292457,-14.121496618280585,-1.7204113055805186
-0.022435934007781638,0.39198847753298355,-0.3703745746845752,0.051430657370429615,-0.1608843076741758,0.04884944400883442,-0.22863638552778462,-0.5960664081554893,0.2831183088225101,0.4594185026505494,0.37651002438368814,0.2828251690301839,-2.1916718614649824,34.996637068702796,-28.50877574639469,10.954977974947285,-14.183264756089963,-1.7247193021553757
-0.022897606903973848,0.390791146146522,-0.3697993587273644,0.052355263475316695,-0.16012524295481714,0.0494136230607044,-0.23083644809610512,-0.598665693230786,0.2876079786053764,0.46230305244353875,0.37953235967933485,0.28208952593498954,-2.18618329999739,35.117759946815426,-28.461363313337422,10.92841614609502,-14.24517445451637,-1.7287936579162422
-0.023363664957790728,0.3895887464943343,-0.369215116809066,0.05328556925055782,-0.15936017823351728,0.04997631582022483,-0.23302902690843946,-0.601199826093856,0.29212095914921743,0.4651528876205627,0.38253236064992546,0.2813463797602191,-2.1801956033250445,35.237694145269835,-28.414042014377575,10.90266161089659,-14.307216268640339,-1.732650283814262
-0.023834093066093055,0.38838140827409934,-0.3686218029690445,0.054221505216013884,-0.1585891583598162,0.050537508062420446,-0.23521405415116348,-0.6036691101174838,0.2966569200107473,0.46796798272803086,0.3855099368505317,0.28059612109780613,-2.1737136509646904,35.35642219129572,-28.366812067647807,10.877720380955441,-14.369380717912087,-1.7363043777458698
-0.02430887599315087,0.387169260571998,-0.3680193719111718,0.05516300184181347,-0.15781222835983205,0.05109718630889454,-0.23739146352890875,-0.6060738510506475,0.3012155289363571,0.4707483128997935,0.38846499999207945,0.279839123237045,-2.1667424459186853,35.47392666122023,-28.319673516801345,10.85359831295865,-14.43165828794085,-1.7397704562092164
-0.02478799837363254,0.38595243185804445,-0.3674077790073751,0.0561099895496996,-0.15702943343195153,0.05165533779482041,-0.23956119024083483,-0.6084143569767777,0.30579645189835186,0.4734938539430637,0.3913974639402632,0.27907574296293897,-2.1592871151613506,35.59019018395137,-28.272626232838007,10.830301105406983,-14.494039432290176,-1.7430623844697701
-0.02527144471554738,0.38473104998149954,-0.366786980301113,0.05706239871453971,-0.15624081894252279,0.052211950437455155,-0.24172317095742019,-0.610690938272456,0.3103993531310352,0.4762045824200585,0.3943072447143751,0.27830632131737,-2.1513529100319326,35.70519544447616,-28.225669915975615,10.807834295433711,-14.55651457427825,-1.7461934053052794
-0.025759199403142873,0.38350524216636644,-0.36615693251077974,0.05802015966599081,-0.1554464304215507,0.052767012806104796,-0.24387734379774734,-0.612903907566551,0.3150238951666437,0.4788804757255494,0.3971942604860426,0.27753118432482143,-2.14294520653363,35.81892518737298,-28.178804097565,10.786203255712024,-14.61907410878429,-1.7491761663968841
-0.026251246699757393,0.38227513500696686,-0.3655175930330375,0.05898320269031182,-0.15464631355839498,0.0533205140934734,-0.2460236483072596,-0.6150535796997902,0.31966973887113126,0.4815215121605023,0.4000584315778679,0.27675064368430385,-2.13406950553822,35.931362220337626,-28.13202814205023,10.765413191450815,-14.68170840406082,-1.7520227464302245
-0.026747570750629328,0.3810408544635973,-0.3648689199460779,0.059951458032315774,-0.15384051419747105,0.053872444088331514,-0.2481620254359676,-0.6171402716847668,0.32433654347980556,0.4841276710019787,0.4028996804619636,0.275964997429057,-2.124731432895824,36.04248941772147,-28.08534124897186,10.745469137478874,-14.744407803551567,-1.754744679967216
-0.0272481555856635,0.3798025258582646,-0.36421087201281227,0.0609248558974547,-0.1530290783339543,0.05442279314944257,-0.25029241751708575,-0.6191643026663782,0.32902396663281674,0.48669893256946245,0.4057179317583791,0.27517453055552876,-2.1149367394494165,36.152289724082344,-28.038742455013328,10.726375955417268,-14.807162627715805,-1.7573529811465711
-0.027752985122155658,0.3785602738704992,-0.36354340868399126,0.06190332645403024,-0.15221205210948746,0.05497155218068869,-0.25241476824607867,-0.6211259938826962,0.3337316644104996,0.4892352782877688,0.4085131122334122,0.27437951562306145,-2.104691300953782,36.26074615774618,-27.992230636089438,10.708138330939967,-14.869963175857862,-1.7598581662682844
-0.02826204316747586,0.37731422253324665,-0.3628664901012541,0.0628867998355236,-0.15138948180789186,0.05551871260733999,-0.2545290226601003,-0.6230256686262653,0.3384592913685702,0.4917366907466844,0.4112851507978013,0.273580213325649,-2.09400111789858,36.36784181437913,-27.945804509476964,10.690760771122559,-14.932799727963488,-1.7622702753147603
-0.028775313421711475,0.376064495228835,-0.36218007710010774,0.06387520614303857,-0.15056141385088226,0.05606426635341412,-0.2566351271178082,-0.6248636522058295,0.3432065005731777,0.49420315375748103,0.41403397850479345,0.27277687303706616,-2.0828723152353645,36.473559870569346,-27.899462635986556,10.674247601879134,-14.995662546541354,-1.7645988924589355
-0.02929277948027055,0.37481121468501805,-0.3614841312128361,0.06486847544785145,-0.1497278947937861,0.056608205820075336,-0.25873302927953695,-0.6266402719084833,0.3479729436358116,0.4966346524064387,0.4167595285480839,0.2719697333306087,-2.0713111420083643,36.57788358741675,-27.85320342217373,10.658602965487269,-15.058541878470198,-1.7668531656071975
-0.029814424836446182,0.37355450297109355,-0.36077861467134,0.06586653779406246,-0.14888897132126686,0.05715052386502459,-0.26082267808781573,-0.628355856962247,0.3527582707480662,0.49903117310550776,0.41946173625962324,0.271159022474628,-2.059323970888866,36.68079631413174,-27.807025122591405,10.643830818201168,-15.121427956852067,-1.7690418250228979
-0.030340232883942615,0.37229448149409544,-0.3600634904099075,0.06686932320134292,-0.14804469024305228,0.05769121378283456,-0.26290402374821575,-0.6300107384990635,0.35756213071626136,0.5013927036402329,0.4221405391072881,0.270344958904986,-2.046917297613274,36.78228149163964,-27.760925842079594,10.62993492795287,-15.18431100287035,-1.771173201073962
-0.030870186919363645,0.371031270995059,-0.3593387220679156,0.06787676166777304,-0.14719509848966744,0.05823026928618557,-0.2649770177105144,-0.631605249518214,0.3623841709959214,0.5037192332150581,0.4247958766924122,0.2695277516755067,-2.034097740324743,36.882322656191384,-27.714903538094617,10.616918872141728,-15.24718122765336,-1.7732552411461608
-0.03140427014466397,0.3697649915453587,-0.3586042739924634,0.06888878317276528,-0.1463402431081731,0.058767684487960464,-0.26704161265016296,-0.6331397248501519,0.36722403772611206,0.5060107524961232,0.427427690747174,0.2687076008874473,-2.020872038818542,36.98090344297911,-27.668956023074287,10.604786035511964,-15.310028834142642,-1.775295525761691
-0.03194246566956407,0.36849576254311717,-0.35786011124093614,0.06990531768006861,-0.1454801712579094,0.0593034538841584,-0.2690977624500468,-0.6346145011207525,0.37208137576363604,0.5082672536516611,0.4300359251318382,0.2678846980989677,-2.0072470536912306,37.07800758975582,-27.623080966841197,10.593539608118544,-15.372844018965962,-1.7773012839407825
-0.03248475651392912,0.36722370270968524,-0.357106199583502,0.0709262951408488,-0.14461493020624572,0.059837572337589455,-0.27114542218252646,-0.636029916715974,0.3769558287170879,0.5104887303900971,0.432620525831848,0.2670592267155291,-1.99322976539389,37.17361894045743,-27.57727589904013,10.583182583381262,-15.43561697431478,-1.7792794078423941
-0.033031125610112615,0.3659489300861914,-0.3563425055055404,0.0719516454968407,-0.1437445673243362,0.06037003506231368,-0.27318454809174975,-0.6373863117469314,0.38184703898076827,0.512675177995947,0.43518144095476563,0.26623136236211,-1.9788272731896692,37.26772144882702,-27.531538211611515,10.573717756227124,-15.498337889825724,-1.7812364667183092
-0.03358155580526506,0.36467156203016066,-0.3555689962100035,0.07298129868356792,-0.14286913008288207,0.06090083760878985,-0.27521509757622425,-0.6386840280153776,0.3867546477684583,0.5148265933636085,0.4377186207270581,0.26540127323808665,-1.9640467940159554,37.3602991820397,-27.485865161298108,10.565147721321052,-15.560996954465717,-1.7831787202133997
-0.03413602986360835,0.3633917152122015,-0.3547856396197094,0.07401518463362619,-0.1419886660479006,0.06142997584970102,-0.2772370291716425,-0.6399234089795908,0.3916782951470541,0.5169429750291346,0.44023201749072666,0.2645691204555859,-1.9488956612515784,37.45133632432713,-27.4402538721851,10.557474871384986,-15.623584358420802,-1.7851121310432672
-0.03469453046867625,0.3621095056127602,-0.35399240437956925,0.07505323328002633,-0.14110322287650107,0.06195744596642518,-0.27925030253394967,-0.6411047997206653,0.3966176200700624,0.5190243232000725,0.44272158569977726,0.26373505836207967,-1.9333813233895265,37.5408171806004,-27.394701338272036,10.550701395605287,-15.68609029498764,-1.7870423770790271
-0.03525704022552155,0.36082504851894176,-0.35318925985874733,0.07609537455959324,-0.140212848312668,0.06248324443612109,-0.28125487842264746,-0.642228546909203,0.40157226041095706,0.5210706397834507,0.44518728191652973,0.26289923484795574,-1.9175113426156458,37.62872618007091,-27.34920442607654,10.544829278128596,-15.748504962467907,-1.7889748628676188
-0.0358235416628902,0.35953845852139693,-0.3523761761527545,0.07714153841641722,-0.13931759018305248,0.06300736801940061,-0.28325071868432544,-0.6432949987724026,0.406541852996397,0.523081928411989,0.44762906480776465,0.26206179163976484,-1.9012933932940033,37.71504787986653,-27.303759877267616,10.539860296646061,-15.81081856606464,-1.790914730614742
-0.03639401723536303,0.35824984951127387,-0.3515531240854759,0.07819165480535444,-0.13841749639277107,0.06352981374856023,-0.2852377862364136,-0.6443045050615448,0.4115260336393062,0.525058194468608,0.45004689514070567,0.2612228645798109,-1.8847352603594594,37.799766968644,-27.25836431132867,10.535796021065986,-15.873021319780875,-1.792866870656126
-0.03696844932546533,0.3569593346772341,-0.35072007521113224,0.07924565369557304,-0.1375126149212134,0.06405057891634568,-0.2872160450511496,-0.6452574170198679,0.4165244371718157,0.5269994451093065,0.45244073577883553,0.2603825838927217,-1.8678448376182977,37.88286827019435,-27.213014228248834,10.532637812274842,-15.93510344831908,-1.7948359314418625
-0.037546820245744836,0.35566702650253246,-0.3498770018161761,0.08030346507414199,-0.1366029938178583,0.06456966106522488,-0.2891854601397546,-0.6461540873508347,0.4215366974780685,0.5289056892844736,0.4548105516775448,0.2595410744396055,-1.8506301259575886,37.96433674704157,-27.16770601124147,10.530386820986656,-15.997055188981932,-1.7968263290571118
-0.03812911224081846,0.35437303676215887,-0.3490238769211223,0.08136501894965939,-0.13568868119809907,0.06508705797714563,-0.2911459975368118,-0.6469948701867828,0.42656244752688677,0.5307769377587007,0.4571563098796118,0.25869845596037383,-1.8330992314642431,38.04415750403227,-27.12243592948902,10.529043986680723,-16.058866793573515,-1.7988422563016793
-0.038715307489388145,0.35307747652004295,-0.3481606742823137,0.0824302453559177,-0.13476972523907804,0.0656027676637552,-0.29309762428484337,-0.6477801210579599,0.431601319404303,0.5326132031291545,0.45947797951051234,0.25785484330478015,-1.8152603634545872,38.12231579191656,-27.077200140913412,10.528610036627551,-16.12052853030011,-1.8008876913496636
-0.0393053881062263,0.3517804561263191,-0.3472873683936218,0.08349907435560283,-0.13384617417553094,0.0661167883570606,-0.2950403084190797,-0.6485101968619362,0.43665294434595453,0.5344144998425677,0.4617755317735585,0.25701034665270167,-1.797121832415543,38.198797010916614,-27.03199469497037,10.52908548500308,-16.18203068567113,-1.8029664060095814
-0.03989933614413114,0.3504820852146523,-0.3464039344880831,0.08457143604402464,-0.1329180762956412,0.06662911850050893,-0.2969740189524179,-0.6491854558333939,0.441716952769342,0.536180844210905,0.46404893994486524,0.2561650717241654,-1.7786920478583936,38.27358671428447,-26.986815535467013,10.53047063209091,-16.24336356639843,-1.8050819736042913
-0.04049713359585227,0.3491824726996237,-0.3455103485394712,0.08564726055287616,-0.1319854799369049,0.06713975674046813,-0.29889872586056404,-0.6498062575142881,0.4467929743059525,0.5379122544257565,0.4662981793681439,0.2553191199795963,-1.7599795160862817,38.34667061184524,-26.94165850340207,10.532765563572644,-16.304517501294526,-1.8072377764891812
-0.04109876239598698,0.34788172677417495,-0.3446065872638047,0.08672647805401919,-0.13104843348200626,0.06764870191808961,-0.3008144000673568,-0.6503729627243758,0.4518806378332476,0.5396087505715101,0.46852322744932196,0.2544725888107437,-1.7409928378766732,38.418034573526185,-26.896519339826405,10.535970149906,-16.3654828431685,-1.8094370132262845
-0.041704204422847516,0.34657995490711074,-0.3436926281207917,0.08780901876329389,-0.13010698535470427,0.06815595306153505,-0.3027210134302676,-0.6508859335321102,0.4569795715065165,0.5412703546373495,0.4707240636509885,0.25362557172272077,-1.7217407060799483,38.48766463286957,-26.8513936887244,10.540084045790774,-16.426249970719685,-1.8116827054310278
-0.04231344150029966,0.34527726384065893,-0.3427684493152105,0.08889481294435014,-0.12916118401573096,0.06866150937855019,-0.30461853872607475,-0.6513455332258943,0.46208940279059496,0.5428970905281264,0.47290066948666415,0.2527781585075709,-1.7022319031355098,38.55554699052793,-26.806277099913387,10.545106689722285,-16.486809290427747,-1.813977704307658
-0.04292645539957308,0.34397375958808757,-0.3418340297982276,0.08998379091249845,-0.12821107795870115,0.0691653702493697,-0.30650694963670905,-0.6517521262856921,0.46720975849145047,0.5444889840741499,0.4750530285148955,0.2519304354097569,-1.6824752985067812,38.62166801774137,-26.761165031961745,10.551037303632269,-16.547151238439746,-1.8163246968885534
-0.043543227841043614,0.34266954743137756,-0.34088934926865233,0.09107588303857832,-0.1272567157060348,0.0696675352199376,-0.30838622073526695,-0.6521060783549913,0.47234026478763413,0.5460460630399352,0.4771811263331735,0.2510824852839492,-1.6624798460364785,38.68601425979408,-26.716052855122847,10.557874892616919,-16.607266282452557,-1.8187262119919976
-0.044163740495987994,0.34136473191895134,-0.33993438817412913,0.09217101975284223,-0.12629814580489146,0.07016800399542854,-0.31025632747218984,-0.6524077562131141,0.47748054726159983,0.5475683571319521,0.4792849505716753,0.2502343877454725,-1.6422545812237797,38.74857243945024,-26.670935854285556,10.565618244751878,-16.667144923590698,-1.8211846259122173
-0.044787974988311205,0.3400594168634556,-0.33896912771226734,0.09326913154885305,-0.1253354168231178,0.07066677643405604,-0.3121172461616067,-0.6526575277478712,0.48263023093089075,0.549055898005412,0.48136449088682903,0.2493862193137536,-1.6218086184248044,38.80932946036715,-26.625809231938476,10.574265930993974,-16.72677769827903,-1.8237021678549326
-0.04541591289624688,0.3387537053395985,-0.33799354983170893,0.0943701489873933,-0.1243685773452084,0.07116385254115423,-0.3139689539678382,-0.6528557619285558,0.4877889402791944,0.5505087192701299,0.4834197389547017,0.24853805354909636,-1.6011511479781855,38.86827241048387,-26.580668111147368,10.583816305169254,-16.786155180109258,-1.8262809251308996
-0.046047535754031,0.3374476996820399,-0.33700763723313437,0.0954740027003843,-0.12339767596827998,0.07165923246352042,-0.3158114288920604,-0.6530028287792704,0.4929562992872665,0.5519268564954967,0.48545068846420986,0.24768996118309602,-1.5802914332573033,38.92538856538596,-26.535507538545946,10.594267504047302,-16.84526798170053,-1.8289228481195967
-0.04668282505354925,0.33614150148333477,-0.3360113733702069,0.09658062339481348,-0.12242276129805968,0.0721529164840064,-0.3176446497591259,-0.6530990993525848,0.49813193146372386,0.553310347214595,0.4874573351101526,0.246842010242989,-1.5592388076510306,38.98066539164179,-26.490322487335945,10.605617447501146,-16.904106756552427,-1.831629755014281
-0.04732176224595833,0.33483521159192775,-0.33500474245045553,0.09768994185666846,-0.12144388194488755,0.07264490501634685,-0.3194685962045419,-0.6531449457035174,0.503315459875708,0.5546592309274916,0.4894396765860674,0.24599426617022158,-1.538002671474688,39.03409055011281,-26.445107860298908,10.617863838752754,-16.96266220089104,-1.8344033363594365
-0.04796432874328154,0.3335289301102001,-0.33398772943609667,0.09880188895487593,-0.12046108651973372,0.07313519860021386,-0.3212832486616025,-0.6531407408638376,0.5085065071794184,0.5559735491037352,0.49139771257690834,0.2451467919335075,-1.516592488813186,39.085651899232715,-26.39985849281507,10.63100416470348,-17.02092505550641,-1.837245159390916
-0.04861050591997889,0.3322227563925667,-0.33296032004479564,0.09991639564524411,-0.11947442363023063,0.07362379789648713,-0.32308858834867543,-0.6530868588166813,0.5137046956505176,0.5572533451840911,0.4933314447515467,0.24429964813663146,-1.4950177842981685,39.13533749825768,-26.354569155891255,10.645035696349188,-17.078886107581663,-1.8401566721887053
-0.04926027511449217,0.33091678904362376,-0.33192250075036683,0.1010333929744072,-0.11848394187672044,0.07411070368272961,-0.32488459725664026,-0.6529836744714778,0.5189096472144084,0.5584986645815389,0.4952408767550947,0.24345289312124413,-1.4732881398212143,39.18313561048326,-26.309234559194024,10.659955489279547,-17.1365361925125,-1.8431392076516073
-0.04991361763076513,0.3296111259163454,-0.3308742587834141,0.10215281208377032,-0.11748968984831834,0.07459591684885937,-0.3266712581364792,-0.6528315636391793,0.524120983476383,0.559709554681561,0.4971260142010516,0.24260658306488245,-1.451413191185054,39.22903470642874,-26.2638493540887,10.675760384261121,-17.19386619571729,-1.8461939873029645
-0.05057051473973916,0.3283058641103298,-0.3298155821319108,0.10327458421345381,-0.1164917161189918,0.07507943839300825,-0.3284485544870179,-0.6526309030077903,0.5293383257516465,0.5608860648417477,0.49898686466327324,0.24176077207443833,-1.4294026246949625,39.27302346698663,-26.21840813668223,10.692447007903622,-17.250867054436178,-1.8493221249358036
-0.0512309476808248,0.3270010999700934,-0.3287464595417204,0.1043986407062353,-0.11549006924365626,0.07556126941755882,-0.33021647054281644,-0.6523820701181894,0.534561295095213,0.562028246390742,0.5008234376677644,0.2409155122752885,-1.407266173692335,39.31509078653621,-26.172905450869322,10.710011773409011,-17.307529759520037,-1.8525246301056337
-0.05189489766334922,0.3256969290834129,-0.327666880517057,0.10552491301148839,-0.11448479775428767,0.0760414111253514,-0.3319749912622094,-0.6520854433402402,0.539789512331678,0.5631361526265487,0.5026357446842951,0.24007085389628813,-1.385013615032769,39.35522577601954,-26.12733579137931,10.728450881402651,-17.36384535720672,-1.85580241147859
-0.052562345867980205,0.32439344627971456,-0.32657683532088727,0.10665333268911685,-0.113475950156052,0.07651986481605304,-0.33372410231549426,-0.6517414018491829,0.5450225980848658,0.5642098388142303,0.5044237991178405,0.23922684535082142,-1.3626547655107517,39.39341776597907,-26.081693606824977,10.74776032084617,-17.419804950886387,-1.859156280042305
-0.05323327344812674,0.32309074562851,-0.3254763149752726,0.10778383141348287,-0.11246357492345231,0.07699663188268123,-0.33546379007326815,-0.6513503256023032,0.5502601728073526,0.5652493621830099,0.5061876162998457,0.23838353331409393,-1.3401994782333024,39.429656309555114,-26.03597330274921,10.767935870031284,-17.475399702853164,-1.8625869521864995
-0.05390766153131656,0.3217889204378782,-0.32436531126165286,0.10891634097732847,-0.11144772049649368,0.07747171380827492,-0.33719404159491223,-0.6509125953158711,0.5555018568098683,0.5662547819228029,0.5079272134793138,0.23754096279684178,-1.3176576389448473,39.46393118544198,-25.99016924467113,10.788973097654033,-17.530620836044115,-1.8660950526600377
-0.05458549122055101,0.3204880632529935,-0.3232438167210717,0.11005079329568886,-0.11042843527686624,0.07794511216270616,-0.33891484461722265,-0.6504285924423444,0.5607472702905751,0.5672261591801958,0.5096426098137212,0.23669917721562594,-1.2950391623056818,39.496232400801624,-25.944275761128424,10.810867363968638,-17.585459635764153,-1.8696811174107084
-0.05526674359563739,0.31918826585469784,-0.3221118246543433,0.11118712040979664,-0.10940576762414674,0.07841682859962591,-0.34062618754318913,-0.6498986991478308,0.5659960333642255,0.5681635570538924,0.5113338263597565,0.23585821845987073,-1.2723539881264463,39.52655019413328,-25.898287146715596,10.83361382202051,-17.639907451396553,-1.8733455963138688
-0.05595139971449922,0.31788961925811826,-0.3209693291221609,0.11232525449097593,-0.10837976585201896,0.0788868648535375,-0.34232805943091926,-0.649323298289802,0.5712477660912,0.5690670405896436,0.5130008860638869,0.2350181269557992,-1.2496120775610318,39.554875038097684,-25.852197665117124,10.85720741895745,-17.69395569809866,-1.8770888557956462
-0.05663944061446464,0.3165922137113282,-0.31981632494514806,0.11346512784452528,-0.10735047822451346,0.07935522273699233,-0.3440204499827095,-0.6487027733950539,0.5765020885064254,0.569936676774679,0.5146438137527508,0.23417894172741077,-1.2268234092603683,39.58119764229524,-25.806001552133896,10.881642897418486,-17.747595858481905,-1.8809111813562096
-0.05733084731353316,0.3152961386940524,-0.3186528077038517,0.1146066729135886,-0.1063179529522667,0.0798219041379016,-0.34570334953426196,-0.6480375086379071,0.5817586206481749,0.5707725345316569,0.5162626361233777,0.23334070045463898,-1.2039979754896604,39.60550895599574,-25.759693018701864,10.906914796999398,-17.8008194842759,-1.884812779998306
-0.05802560081162126,0.3140014829164151,-0.31747877373867817,0.1157498222830129,-0.10528223818880023,0.08028691101695926,-0.34737674904404725,-0.6473278888186405,0.5870169825867502,0.5715746847121477,0.5178573817332365,0.23250343952882216,-1.1811457782115538,39.627800170819604,-25.713266253901757,10.933017455794335,-17.853618197975944,-1.8887937825660117
-0.05872368209178688,0.3127083343177308,-0.31629422014977204,0.11689450868319222,-0.10424338202682,0.08075024540517048,-0.34904064008281244,-0.6465742993421512,0.5922767944530477,0.5723432000896662,0.5194280809901118,0.23166719410561218,-1.1582768251378255,39.64806272336849,-25.66671542795909,10.959945012012444,-17.90598369447328,-1.8928542459984188
-0.05942507212143335,0.31141678006533713,-0.31509914479683804,0.11804066499389676,-0.10320143249453638,0.08121190940148136,-0.3506950148232349,-0.6457771261968365,0.5975376764670083,0.5730781553522674,0.5209747661418106,0.23083199815544175,-1.1354011257522227,39.666288297804364,-25.62003469523261,10.987691405668887,-17.957907742667828,-1.896994155502759
-0.06012975185349279,0.31012690655346975,-0.31389354629890615,0.1191882242480862,-0.10215643755200499,0.08167190517050468,-0.3523398660297213,-0.6449367559336884,0.6027992489659528,0.5737796270947186,0.5224974712656976,0.2299978845116644,-1.1125286873070568,39.68246882837574,-25.57321819719031,11.016250380349167,-18.0093821870627,-1.9012134266511478
-0.060837702227589496,0.30883879940217857,-0.31267742403404053,0.12033711963570673,-0.10110844508748885,0.08213023494033764,-0.3539751870483515,-0.6440535756455958,0.6080611324328039,0.5744476938102635,0.5239962322580628,0.2291648849164764,-1.0896695107961847,39.69659650189,-25.52626006537218,11.045615485045918,-18.06039894933975,-1.9055119074050701
-0.06154890417118343,0.30755254345628485,-0.31145077813899213,0.1214872845074707,-0.10005750291384222,0.08258690100046709,-0.3556009717969681,-0.6431279729468476,0.6133229475241947,0.5750824358819874,0.5254710868233199,0.2283330300647247,-1.0668335869071104,39.70866376013048,-25.47915442433795,11.075780076067261,-18.110950029916403,-1.9098893800714483
-0.06226333860069425,0.3062682227843792,-0.31021360950879523,0.1226386523786183,-0.09900365876491614,0.08304190569975849,-0.3572172147554101,-0.6421603359528288,0.6185843150984663,0.5756839355737988,0.5269220744630374,0.22750234964569951,-1.044030891954841,39.71866330221709,-25.431895394599515,11.106737319015691,-18.16102750948215,-1.9143455631938822
-0.06298098642260604,0.3049859206778594,-0.3089659197963081,0.12379115693266038,-0.09794696029198653,0.08349525144452451,-0.3588239109558916,-0.6411510532599043,0.6238448562435538,0.5762522770210381,0.5283492364648035,0.226672872383007,-1.02127138380028,39.72658808690937,-25.384477095535637,11.138480190836418,-18.210623550515372,-1.918880113382583
-0.06370182853455308,0.3037057196500084,-0.30770771141169856,0.12494473202510183,-0.09688745506020469,0.08394694069666973,-0.36042105597352553,-0.6401005139254822,0.6291041923047627,0.5767875462207237,0.5297526158909242,0.22584462607261122,-0.9985649977558526,39.73243133485069,-25.336893648289067,11.171001481934336,-18.259730398778807,-1.923492627086272
-0.06442584582638707,0.30242770143511194,-0.3064389875218737,0.12609931168714472,-0.09582519054507077,0.084396975971908,-0.3620086459169909,-0.6390091074482509,0.6343619449124369,0.5772898310214476,0.5311322575669576,0.22501763761913193,-0.9759216424810369,39.73618653075319,-25.289139178644675,11.204293798358359,-18.308340384794512,-1.928182642309198
-0.06515301918122575,0.30115194698761477,-0.3051597520498547,0.12725483012937058,-0.0947602141289306,0.08484535983804896,-0.36358667741934503,-0.6378772237485819,0.6396177360095183,0.57775922111293,0.532488208070084,0.22419193307048005,-0.9533511958707854,39.73784742552065,-25.2412078198863,11.238349564052083,-18.356445925296363,-1.932949640276176
-0.0658833294764837,0.29987853648131657,-0.30387000967409666,0.12841122174540107,-0.09369257309749597,0.08529209491335077,-0.3651551476289794,-0.6367052531490918,0.6448711878789999,0.5781958080152431,0.5338205157173126,0.22336753765090853,-0.9308635009392896,39.73740803831056,-25.193093715633317,11.273161023169862,-18.404039524661048,-1.937793047048505
-0.06661675758488514,0.29860754930860584,-0.30256976582775413,0.1295684211155365,-0.09262231463638891,0.08573718386493588,-0.36671405420071956,-0.6354935863553564,0.6501219231712728,0.5785996850677136,0.5351292305535267,0.22254447579255363,-0.9084683617021749,39.73486265853206,-25.144791022653806,11.308720242456772,-18.451113776315836,-1.9427122350934565
-0.06735328437545927,0.2973390640797323,-0.3012590266978914,0.13072636301037152,-0.09154948582771018,0.08618062940726695,-0.3682633952870685,-0.6342426144367703,0.6553695649313688,0.5789709474175135,0.5364144043393682,0.22172277116553726,-0.8861755390596406,39.730205847780155,-25.096293913654485,11.345019113691716,-18.497661364123758,-1.9477065248097833
-0.06809289071451846,0.29607315862211725,-0.2999377992246392,0.13188498239438742,-0.09047413364663226,0.08662243430068035,-0.36980316952959313,-0.6329527288075439,0.6606137366260982,0.5793096920079466,0.5376760905389615,0.22090244670669812,-0.8639947466835456,39.723432441704745,-25.047596580045962,11.382049356192132,-18.543675063744786,-1.9527751860116773
-0.06883555746661937,0.2948099099797016,-0.298606091100297,0.1330442144295203,-0.0893963049580173,0.08706260134997439,-0.3713333760504544,-0.6316243212078316,0.6658540621710863,0.579616017566441,0.5389143443074796,0.22008352464701622,-0.8419356469110708,39.71453755181325,-24.998693234682182,11.419802519379413,-18.58914774397353,-1.9579174393735137
-0.06958126549550753,0.29354939441233163,-0.2972639107683816,0.13420399447870482,-0.0883160465130602,0.08750113340304998,-0.37285401444407923,-0.6302577836849832,0.6710901659577063,0.5798900245922547,0.5401292224785518,0.21926602653779237,-0.8200078466478038,39.70351656720613,-24.949578114572894,11.458269985403494,-18.634072368051932,-1.963132457837392
-0.07032999566504548,0.2922916873951818,-0.29591126742262175,0.13536425810939262,-0.08723340494595717,0.08793803334960126,-0.3743650847689754,-0.6288535085749122,0.6763216728799121,0.5801318153439025,0.5413207835515146,0.21844997327564114,-0.7982208932830659,39.69036515624405,-24.90024548356857,11.497442971825514,-18.678441994957495,-1.968419367985611
-0.07108172884012486,0.2910368636182146,-0.2945481710058998,0.13652494109704524,-0.08614842677060015,0.08837330411985397,-0.37586658753968805,-0.6274118884835734,0.6815482083609712,0.5803414938263108,0.5424890876785086,0.21763538512635328,-0.7765842706201265,39.675079268146575,-24.8506896350163,11.537312534357332,-18.72224978066643,-1.9737772513799656
-0.07183644588756265,0.28978499698567756,-0.2931746322091396,0.13768597942860067,-0.08506115837729732,0.08880694868334933,-0.3773585237188977,-0.6259333162685422,0.6867693983800983,0.58051916577771,0.5436341966514193,0.21682228174768098,-0.7551073948242153,39.65765513452011,-24.800904894386033,11.577869569656388,-18.765488979390568,-1.9792051458696724
-0.07259412767698196,0.2885361606156362,-0.2917906624701416,0.1388473093059132,-0.08397164602951998,0.08923897004777152,-0.3788408947096595,-0.624418185020689,0.691984869498991,0.5806649386562679,0.5447561738886668,0.21601068221109657,-0.7337996103909794,39.63808927081531,-24.750885621865404,11.61910481817474,-18.8081529447888,-1.9847020468696281
-0.07335475508167753,0.2872904268395443,-0.2903962739723651,0.14000886714916616,-0.0828799358606763,0.08966937125781667,-0.3803137023477823,-0.6228668880459415,0.6971942488882676,0.5807789216264748,0.5458550844218419,0.21520060502257346,-0.7126701861381779,39.61637847771284,-24.700626214923297,11.661008867060815,-18.85023513115185,-1.9902669086106748
-0.07411830897946622,0.28604786720185005,-0.2889914796436575,0.14117058960025672,-0.08178607387091191,0.09009815539410154,-0.3817769488943484,-0.6212798188471269,0.7023971643538102,0.580861225545284,0.5469309948821933,0.21439206814243514,-0.6917283112232986,39.59251984243653,-24.650121110840313,11.703572153112702,-18.89172909456024,-1.9958986453633258
-0.07488477025352297,0.28480855245963826,-0.2875762931549315,0.14233241352615275,-0.08069010592393798,0.09052532557211017,-0.38323063702837207,-0.6196573711058879,0.7075932443630102,0.580911962948015,0.5479839734869641,0.21358508900431647,-0.670983091189838,39.56651073999311,-24.599364789205488,11.746784965781263,-18.932628494015194,-2.0015961326364353
-0.07565411979320216,0.28357255258230896,-0.2861507289187897,0.1434942760222208,-0.07959207774388681,0.09095088494117673,-0.3846747698395969,-0.6179999386646646,0.7127821180709213,0.5809312480340258,0.5490140900255817,0.21277968453327922,-0.6504435440448963,39.53834883433808,-24.54835177437836,11.790637450221986,-18.97292709254197,-2.0073582083521844
-0.07642633849484502,0.2823399367512915,-0.284714802088097,0.14465611441552514,-0.0784920349121954,0.09137483668350298,-0.3861093508214312,-0.6163079155087354,0.7179634153463177,0.5809191966521603,0.5500214158456996,0.21197587116312178,-0.6301185963707843,39.5080320794663,-24.49707663791512,11.835119610393866,-19.012618758265283,-2.0131836739985935
-0.07720140726257306,0.28111077335979484,-0.2832685285545017,0.1458178662680971,-0.07739002286451721,0.09179718401320883,-0.3875343838640202,-0.6145816957483093,0.7231367667976594,0.5808759262859748,0.5510060238390957,0.2111736648529213,-0.6100170794732143,39.4755587204276,-24.445534000958943,11.880221312204139,-19.05169746545692,-2.0190712957608365
-0.07797930700906797,0.2798851300125935,-0.28181192494690377,0.1469794693801746,-0.07628608688766236,0.09221793017541452,-0.3889498732474552,-0.6128216736006633,0.7283018037989658,0.5808015560387526,0.5519679884274246,0.21037308110284458,-0.5901477255687912,39.440927294265755,-24.393718536591855,11.925932286697094,-19.09015729555417,-2.025019805632485
-0.07876001865633821,0.2786630735258489,-0.28034500862987255,0.1481408617934112,-0.07518027211656671,0.09263707844535304,-0.3903558236351178,-0.6110282433723171,0.7334581585155979,0.5806962066183081,0.552907385547829,0.20957413496926222,-0.5705191640142653,39.404136630880814,-24.341624972149347,11.9722421332858,-19.127992438150372,-2.0310279025076317
-0.07954352313647252,0.2774446699269664,-0.27886779770201264,0.14930198179405438,-0.07407262353128989,0.09305463212751144,-0.391752240067159,-0.6092017994412384,0.73860546392995,0.5805600003215888,0.5538242926384097,0.20877684107919928,-0.5511399175801657,39.365185853813955,-24.289248091495125,12.019140323024901,-19.165197191955436,-2.037094253255053
-0.08032980139238075,0.27622998445448826,-0.27738031099427857,0.15046276791609253,-0.07296318595404278,0.09347059455479975,-0.3931391279541121,-0.6073427362390716,0.7437433538670507,0.5803930610190788,0.5547187886235546,0.2079812136441538,-0.5320183987713203,39.32407438095424,-24.236582737256263,12.066616201923305,-19.201765965727756,-2.0432174937752148
-0.08111883437852202,0.2750190815580215,-0.2758825680682384,0.15162315894437056,-0.07185200404624452,0.09388496908774638,-0.3945164930706383,-0.6054514482333829,0.7488714630200762,0.5801955141390085,0.5555909538991312,0.20718726647331337,-0.5131629061967322,39.28080192516687,-24.183623813017576,12.114658994294965,-19.23769327917601,-2.0493962300410633
-0.08191060306162083,0.27381202489820167,-0.27437458921428687,0.1527830939176733,-0.07073912230560944,0.09429775911371878,-0.3958843415494036,-0.6035283299099149,0.753989426975774,0.5799674866513763,0.5564408703175412,0.20639501298619786,-0.49458162099124126,39.23536849484242,-24.13036628547416,12.163257806146271,-19.272973763831164,-2.055629039123358
-0.082705088421371,0.272608877346692,-0.2728563954498073,0.15394251213177687,-0.06962458506326416,0.0947089680461683,-0.3972426798750869,-0.601573775754844,0.7590968822397985,0.5797091070517867,0.5572686211726405,0.20560446622475642,-0.4762826032913954,39.187774394366414,-24.076805186542046,12.212401628598696,-19.307602163888504,-2.061914470201388
-0.08350227145112804,0.2714097009862179,-0.27132800851728334,0.1551013531424671,-0.06850843648089511,0.09511859932389818,-0.398591514878517,-0.5995881802370342,0.7641934662619604,0.5794205053451086,0.5580742911845248,0.20481563886494383,-0.45827378876788094,39.13802022450887,-24.022935615425418,12.26207934134472,-19.341573337019046,-2.0682510455597054
-0.08430213315858992,0.27021455711063735,-0.26978945088236056,0.15625955676852502,-0.06739072054792675,0.0955266564103538,-0.3999308537309383,-0.5975719377902783,0.769278817461388,0.5791018130289596,0.5588579664841832,0.20402854322780167,-0.44056298521681647,39.08610688273379,-23.968752740640113,12.312279716135851,-19.374882255150364,-2.074637261571571
-0.08510465456646672,0.2690235062250463,-0.26824074573185736,0.15741706309467907,-0.06627148107873071,0.09593314279293393,-0.40126070393840285,-0.5955254427955233,0.7743525752516035,0.5787531630770192,0.5596197345980214,0.2032431912900674,-0.4231578692122162,39.032035563427485,-23.914251801992762,12.362991420300846,-19.40752400521668,-2.081071589669722
-0.0859098167131393,0.26783660804592013,-0.26668191697172633,0.15857381247452343,-0.0651507617098662,0.0963380619823226,-0.40258107333628884,-0.5934490895630707,0.7794143800655119,0.5783746899221764,0.5603596844322555,0.20245959469433428,-0.4060659828217501,38.97580775804629,-23.859428112514806,12.414203020292735,-19.43949378987792,-2.087552477305028
-0.08671760065330718,0.26665392150129064,-0.26511298922496573,0.15972974553340247,-0.06402860589735183,0.09674141751184016,-0.40389197008394284,-0.5913432723147459,0.7844638733803062,0.5779665294395158,0.5610779062571785,0.2016777647587831,-0.3892947303881211,38.91742525518227,-23.804277060350234,12.465902985262897,-19.47078692820746,-2.0940783488935635
-0.08752798745862607,0.2654755047309586,-0.2635339878294812,0.16088480317126075,-0.06290505691396923,0.09714321293681318,-0.4051934026594452,-0.5892083851660304,0.7895006977422864,0.5775288189291446,0.5617744916913007,0.20089771248650667,-0.37285137537804136,38.85689014054815,-23.74879411059747,12.518079690660592,-19.50139885634854,-2.1006476067525752
-0.08834095821833507,0.2643014150867423,-0.261944938835898,0.16203892656545849,-0.0617801578465985,0.09754345183396207,-0.40648537985449684,-0.5870448221081506,0.7945244967915942,0.5770616970988681,0.5624495336853661,0.20011944857444602,-0.35674303730094703,38.79420479687964,-23.692974807103617,12.570721421856213,-19.53132512813901,-2.1072586320258133
-0.08915649403987393,0.26313170913276207,-0.26034586900532425,0.16319205717355192,-0.06065395159358601,0.09794213780080599,-0.407767910769426,-0.5848529769901166,0.7995349152868637,0.5765653040467131,0.5631031265062463,0.1993429834219572,-0.34097668869944364,38.72937190375637,-23.63681477421154,12.623816377787104,-19.56056141570464,-2.1139097855985836
-0.08997457604949055,0.2619664426457607,-0.25873680580706465,0.16434413673603854,-0.059526480862144585,0.09833927445508404,-0.40904100480831335,-0.5826332435007047,0.8045315991297873,0.5760397812433075,0.5637353657207127,0.19856832713902614,-0.32555915221343845,38.66239443734004,-23.580309718458306,12.677352674623346,-19.58910351002024,-2.1205994090029714
-0.09079518539283903,0.26080567061545995,-0.25711777741628544,0.16549510727906677,-0.058397788165786405,0.09873486543419234,-0.41030467167423423,-0.580386015150377,0.8095141953895981,0.5754852715141164,0.5643463481790909,0.1977954895541487,-0.31049709771986134,38.59327567003124,-23.523455430225162,12.731318349452973,-19.61694732143899,-2.1273258253135188
-0.09161830323556826,0.2596494472449537,-0.2554888127116305,0.16664491111710986,-0.05726791582178881,0.09912891439463613,-0.4115589213646155,-0.5781116852531344,0.8144823523274684,0.5749019190215418,0.5649361719987963,0.1970244802218914,-0.29579703954980063,38.52201917004273,-23.46624778533804,12.785701363983993,-19.644088880189642,-2.134087340033691
-0.09244391076390167,0.25849782595113713,-0.2538499412727888,0.16779349085560363,-0.056136905948693305,0.09952142501149643,-0.4128037641667062,-0.5758106469082936,0.8194357194208246,0.5742898692468861,0.5655049365477546,0.19625530843014874,-0.28146533378482896,38.44862880089177,-23.40868274661844,12.840489608262297,-19.670524336841616,-2.1408822419734195
-0.09327198918520799,0.25735085936517277,-0.25220119337801367,0.168940789393548,-0.05500480046383789,0.09991240097791065,-0.4140392106531599,-0.5734832929821857,0.8243739473875789,0.5736492689721865,0.5660527424277083,0.19548798320711122,-0.2675081756342861,38.37310872080891,-23.350756365384004,12.895670904403195,-19.696249962737596,-2.147708804117961
-0.09410251972856344,0.2562085993329932,-0.2505426000015931,0.17008674992607184,-0.05387164108092307,0.10030184600456657,-0.4152652716777267,-0.5711300160897678,0.8292966882102761,0.572980266261922,0.5665796914574107,0.19472251332795804,-0.2539315968950393,38.29546338206542,-23.29246478289861,12.951233010335418,-19.72126215039409,-2.1545652844882817
-0.09493548364530555,0.25507109691584096,-0.2488741928112728,0.17123131594696103,-0.052737469307611654,0.10068976381920915,-0.4164819583710537,-0.5687512085761447,0.8342035951601586,0.5722830104445968,0.56708588665571,0.1939589073212877,-0.24074146349549874,38.215697530217895,-23.233804231771032,13.007163623555483,-19.74555741386909,-2.1614499269932335
-0.09577086220957873,0.253938402390845,-0.2471960041656305,0.17237443125114943,-0.05160232644316261,0.10107615816615974,-0.41768928213659123,-0.5663472624979935,0.8390943228211459,0.571557652094205,0.5675714322245239,0.19319717347529913,-0.22794347312517882,38.13381620327139,-23.174771037302698,13.063450384891063,-19.769132389097948,-2.168360962273612
-0.09660863671887193,0.2528105652516352,-0.24550806711140305,0.17351603993717257,-0.05046625357609919,0.10146103280584721,-0.4188872546466039,-0.5639185696048863,0.8439685271137315,0.5708043430115779,0.5680364335317084,0.19243731984373516,-0.2155431529514722,38.04982473076036,-23.11536161878318,13.120080882271642,-19.791983834196014,-2.1752966085383245
-0.0974487884945485,0.2516876342089942,-0.24381041538076545,0.17465608640958383,-0.04932929158191155,0.10184439151435042,-0.4200758878382835,-0.5614655213205063,0.8488258653187947,0.5700232362056211,0.568480997093821,0.19167935425159977,-0.20354585742486364,37.963728732748066,-23.05557249073393,13.177042654504568,-19.814108629729308,-2.1822550723927376
-0.09829129888236841,0.2505696571915467,-0.2421030833885628,0.1757945153813327,-0.04819148112079399,0.10222623808295174,-0.4212551939099621,-0.5589885087237517,0.8536659961013285,0.5692144858744408,0.5689052305587813,0.1909232843006601,-0.19195676617396007,37.875534118744625,-22.995400264099246,13.234323195055183,-19.83550377895235,-2.1892345496593792
-0.09913614925300326,0.24945668134648727,-0.24038610622949463,0.17693127187610544,-0.04705286263541713,0.10260657631770123,-0.422425185317424,-0.556487922529723,0.8584885795340833,0.5683782473863659,0.5693092426884299,0.19016911737474346,-0.1807808819915735,37.7852470865438,-22.934841647385,13.291909955829016,-19.856166408013472,-2.1962332261910493
-0.0999833210025439,0.2483487530403461,-0.2386595196752524,0.17806630123062717,-0.045913476348735154,0.10298541003899091,-0.4235858747703136,-0.5539641530705887,0.863293277121124,0.5675146772608686,0.5696931433409885,0.18941686064483898,-0.1700230289130431,37.6928741209795,-22.873893447743953,13.349790350954802,-19.876093766127774,-2.2032492786763846
-0.10083279555300118,0.24724591785979344,-0.23692336017160978,0.17919954909692595,-0.044773362261828306,0.10336274308113894,-0.4247372752286369,-0.5514175902763249,0.8680797518213029,0.5666239331493866,0.5700570434534228,0.1886665210740136,-0.15968785038783162,37.59842199260113,-22.812552572008382,13.407951760566183,-19.895283225717364,-2.210280875438037
-0.10168455435279988,0.2461482206124828,-0.23517766483546648,0.18033096144455807,-0.04363256015178089,0.10373857929198324,-0.4258793998993556,-0.5488486236553246,0.8728476680716459,0.5657061738160514,0.5704010550237091,0.18791810542215112,-0.14977980754547549,37.50189775626991,-22.75081602766899,13.466381534580933,-19.913732282519234,-2.2173261772233936
-0.10253857887726603,0.24505570532793305,-0.23342247145184516,0.1814604845627947,-0.04249110956959487,0.10411292253248429,-0.4270122622330705,-0.5462576422748726,0.8775966918106526,0.5647615591183246,0.5707252910930086,0.18717162025052264,-0.14030317755686283,37.40330874967489,-22.68868092380079,13.525066996475669,-19.93143855566085,-2.2243833379879394
-0.10339485062910761,0.2439684152584501,-0.23165781847084216,0.1825880650627698,-0.04134904983813937,0.10448577667633668,-0.42813587592079266,-0.5436450347414808,0.8823264905015082,0.5637902499875487,0.5710298657277497,0.18642707192619673,-0.13126205209156439,37.30266259177051,-22.62614447193497,13.583995447054772,-19.94839978770309,-2.2314505056712473
-0.10425335113888921,0.24288639288008793,-0.22988374500453174,0.18371364987958863,-0.04020642005013613,0.10485714560958928,-0.42925025489079965,-0.5410111891810824,0.8870367331552087,0.5627924084094125,0.5713148940016207,0.1856844666262968,-0.12266033587233416,37.19996718113509,-22.56320398687709,13.643154168211556,-19.96461384465117,-2.238525822965566
-0.10511406196550037,0.24180967989364976,-0.22810029082382455,0.1848371862743973,-0.03906325906618118,0.1052270332302735,-0.43035541330557486,-0.5383564932190779,0.891727090353596,0.5617681974043376,0.5715804919774756,0.1849438103421131,-0.1145017453270496,37.09523069425218,-22.499856887471914,13.702530426680404,-19.980078715933423,-2.245607428077112
-0.10597696469661802,0.2407383172257293,-0.22630749635527994,0.18595862183641287,-0.03791960551280287,0.10559544344803966,-0.4314513655588275,-0.5356813339602332,0.8963972342723051,0.5607177810077879,0.5718267766891539,0.1842051088830759,-0.10678980733920529,36.98846158371396,-22.436100697313904,13.762111477777951,-19.994792514347644,-2.2526934554798688
-0.1068420409491632,0.23967234502979246,-0.2245054026778727,0.18707790448491388,-0.036775497780556436,0.10596238018380086,-0.43253812627259114,-0.5329860979684234,0.9010468387036197,0.5596413242505064,0.5720538661232177,0.18346836788059714,-0.09952785809719433,36.879668576348166,-22.37193304540419,13.821884569132171,-20.008753475976,-2.259782036661982
-0.107709272369752,0.2386118026873,-0.22269405151971422,0.18819498247119124,-0.035630974022155225,0.10632784736938443,-0.4336157102943979,-0.5302711712462204,0.9056755790792368,0.558538993138683,0.5722618792006071,0.18273359279178608,-0.09271904204307768,36.768860671269195,-22.30735166675357,13.881836944397136,-20.021959960067615,-2.2668713008646844
-0.10857864063514105,0.23755672880887135,-0.22087348525472833,0.18930980438045936,-0.03448607215063879,0.10669184894719053,-0.4346841326945267,-0.5275369392143212,0.9102831324929396,0.5574109546340571,0.5724509357582167,0.1820007889030453,-0.08636631092111813,36.65604713785397,-22.24235440293205,13.941955846952677,-20.034410448889826,-2.2739593758136665
-0.1094501274526677,0.23650716123548973,-0.21904374689928197,0.19042231913372726,-0.033340829837578,0.10705438886985763,-0.4357434087633227,-0.5247837866908149,0.9148691777231763,0.5562573766339574,0.5726211565303949,0.18126996133355275,-0.08047242292656875,36.541237513643075,-22.176939202564263,14.00222852358673,-20.046103547547638,-2.281044388442875
-0.11032371456068488,0.23546313703974917,-0.21720488010877087,0.19153247598962983,-0.032195284511317264,0.1074154710999349,-0.436793554008585,-0.5220120978702839,0.9194333952555449,0.5550784279512849,0.5727726631303687,0.18054111503863488,-0.07503994195486197,36.42444160216844,-22.111104121771465,14.062642228159168,-20.057037983771984,-2.288124465610591
-0.11119938372899092,0.23442469252714368,-0.2153569291741605,0.1926402245462187,-0.031049473355254074,0.10777509960956098,-0.4378345841530218,-0.5192222563027387,0.9239754673051821,0.5538742782944414,0.5729055780315951,0.17981425481303626,-0.07007123695145623,36.30566947070829,-22.04484732456033,14.123184225245641,-20.0672126076767,-2.295197734807827
-0.11207711675925446,0.2333918632373989,-0.21349993901848238,0.19374551474271312,-0.02990343330615599,0.10813327838014916,-0.43886651513176866,-0.5164146448723838,0.9284950778390557,0.5526450982472065,0.5730200245490428,0.1790893852940905,-0.06556848136241866,36.18493144796967,-21.978167083157928,14.183841793759735,-20.076626391484467,-2.3022623248588645
-0.11295689548543439,0.2323646839458465,-0.21163395519328607,0.19484829686121027,-0.02875720105251518,0.10849001140207876,-0.43988936308996873,-0.5135896457762118,0.9329919125981583,0.5513910592485698,0.5731161268204044,0.17836651096479686,-0.06153365268585986,36.06223812170051,-21.911061778294094,14.244602230552076,-20.085278429222004,-2.309316366613871
-0.11383870177419521,0.23134318866484166,-0.20975902387504686,0.19594852152835532,-0.027610813032940693,0.10884530267439237,-0.440903144380412,-0.5107476405024256,0.9374656591196017,0.550112333572518,0.5731940097872436,0.1776456361568072,-0.057968532124041516,35.93760033623136,-21.843529899430862,14.30545285398506,-20.09316793638463,-2.3163579936335337
-0.11472251752531767,0.2303274106452243,-0.20787519186152964,0.19704613971697088,-0.026464305434588536,0.10919915620449902,-0.44190787556123107,-0.507889009808685,0.9419160067586106,0.5488090943077852,0.5732537991760781,0.17692676505332708,-0.05487470433624608,35.811029189947526,-21.77557004493859,14.366381007481383,-20.100294249570453,-2.323385342865564
-0.11560832467210498,0.22931738237782395,-0.20598250656810882,0.19814110274764601,-0.025317714191629734,0.10955157600788289,-0.4429035733936511,-0.5050141337001786,0.9463426467104137,0.5474815153375671,0.5732956214794004,0.17620990169193526,-0.05225355729200132,35.68253603269399,-21.7071809222208,14.427374063045274,-20.106656826084475,-2.3303965553130075
-0.11649610518178456,0.2283131355950089,-0.20408101602404477,0.19923336229028443,-0.024171074983756455,0.10990256610781754,-0.44389025483979144,-0.5021233914075183,0.9507452720320296,0.5461297713192036,0.5733196039366397,0.17549504996732512,-0.05010628222459168,35.55213246311268,-21.63836134778608,14.488419424755183,-20.11225524351265,-2.337389776694222
-0.11738584105590559,0.22731470127227998,-0.20217076886871688,0.2003228703656121,-0.02302442323472632,0.11025213053508548,-0.4448679370605163,-0.4992171613644568,0.9551235776639495,0.5447540376638359,0.5733258745150669,0.17478221363397162,-0.048433873684433415,35.41983032591371,-21.569110247268526,14.549504532225967,-20.117089199266445,-2.344363158094452
-0.11827751433073226,0.22632210962990912,-0.20025181434781344,0.2014095793466442,-0.021877794110945033,0.11060027332770293,-0.44583663741333235,-0.4962958211854262,0.9594772604517102,0.5433544905160391,0.5733145618906439,0.17407139630872698,-0.047237129691838575,35.28564170908223,-21.49942665539723,14.610616864039729,-20.121158510098162,-2.3513148566088606
-0.11917110707763293,0.2253353901346233,-0.19832420230947873,0.20249344196011107,-0.02073122252008739,0.11094699853064963,-0.4467963734503303,-0.49335974764289786,0.9638060191673593,0.5419313067334364,0.5732857954288216,0.17336260147334856,-0.04651665198888599,35.14957894102122,-21.429309715914044,14.671743941143944,-20.12446311158673,-2.358243035976888
-0.12006660140346526,0.22435457150133417,-0.19638798320041712,0.20357441128784368,-0.019584743109756816,0.11129231019560355,-0.44774716291616834,-0.49040931664456405,0.9681095545308094,0.5404846638662979,0.5732397051652872,0.17265583247696156,-0.046272846389682876,35.0116545876315,-21.35875868144106,14.73287333021506,-20.127003057595246,-2.3651458672078762
-0.12096397945095745,0.22337968169491348,-0.19444320806195495,0.20465244076811792,-0.018438390266183487,0.11163621238068047,-0.4486890237460948,-0.48744490321034,0.9723875692310795,0.5390147401371291,0.573176421786664,0.17195109253845972,-0.04650592322835134,34.87188144933134,-21.287772913298614,14.79399264698715,-20.128778519699708,-2.37202152919781
-0.12186322339908547,0.2224107479320151,-0.19248992852606012,0.20572748419695844,-0.017292198112961156,0.11197870915017817,-0.44962197406400756,-0.4844668814491879,0.9766397679474217,0.5375217144202526,0.5730960766111657,0.1712483847488464,-0.04721589790431979,34.73027255801492,-21.21635188127246,14.855089559543451,-20.129789786589594,-2.378868209337035
-0.12276431546344656,0.22144779668294357,-0.19052819681131947,0.2067994957294012,-0.01614620050982274,0.11231980457432521,-0.4505460321805478,-0.4814756245357628,0.9808658573703317,0.5360057662213868,0.5729988015692082,0.1705477120735189,-0.0484025915238524,34.58684117395261,-21.14449516333265,14.916151791570277,-20.130037263440755,-2.385684104108875
-0.123667237896629,0.2204908536735698,-0.1885580657188746,0.20786842988071566,-0.015000431051454778,0.1126595027290342,-0.4514612165912259,-0.4784715046868808,0.9850655462224402,0.5344670756572268,0.5728847291839807,0.16984907735449806,-0.05006563163716704,34.441600782633685,-21.0722024453036,14.977167125571674,-20.12952147126057,-2.3924674196790257
-0.12457197298857815,0.21953994388729417,-0.18657958862831603,0.20893424152758572,-0.01385492306635082,0.11299780769565941,-0.4523675459745765,-0.47545489313781164,0.9892385452792845,0.5329058234350315,0.5727539925519789,0.1691524833126057,-0.052204453070201495,34.29456509155263,-20.99947352048565,15.038123406043686,-20.12824304620611,-2.3992163724755717
-0.12547850306695885,0.2185950915670574,-0.18459281949353612,0.20999688590925017,-0.012709709615703814,0.11333472356075859,-0.45326503919034083,-0.47242616011839567,0.9933845673899558,0.53132219083222,0.572606725323503,0.168457932549592,-0.05481829885005407,34.14574802694086,-20.92630828922983,15.0990085426075,-20.12620273887552,-2.4059291897595534
-0.12638681049751418,0.21765632021739942,-0.18259781283854087,0.21105631862860214,-0.01156482349233757,0.11367025441585903,-0.45415371527767356,-0.46938567482898763,0.9975033274976239,0.5297163596759841,0.5724430616831222,0.16776542755021456,-0.05790622122316336,33.99516373044479,-20.852706758464862,15.159810513099572,-20.123401413572633,-2.412604110185944
-0.12729687768442094,0.21672365260656695,-0.180594623753221,0.21211249565324797,-0.010420297219677351,0.11400440435722757,-0.4550335934533722,-0.4663338054162283,1.0015945426599324,0.5280885123229181,0.5722631363301095,0.16707497068427157,-0.06146708276497259,33.84282655575192,-20.778669041178546,15.22051736661848,-20.11984004754598,-2.4192393843549302
-0.1282086870706412,0.21579711076866967,-0.17858330788908247,0.21316537331652533,-0.009276163050759656,0.11433717748564474,-0.45590469311012616,-0.46327091894864664,1.0056579320692656,0.5264388316386734,0.572067084458848,0.1663865642085903,-0.0654995575801327,33.6887510651665,-20.704195355852978,15.281117226526803,-20.115519730201655,-2.4258332753533747
-0.12912222113827077,0.21487671600588548,-0.1765639214549367,0.2142149083184806,-0.008132452967281231,0.11466857790618269,-0.45676703381478384,-0.4601973813920937,1.0096932170728834,0.5247675009776399,0.5718550417392125,0.16570021026897305,-0.07000213259186028,33.532952026135526,-20.629286025855194,15.341598293407312,-20.1104416622912,-2.43238405928636
-0.13003746240888403,0.21396248889071545,-0.17453652121255087,0.21526105772680593,-0.006989198678687376,0.1149986097279869,-0.4576206353066346,-0.4571135575850118,1.0137001211929224,0.5230747041626598,0.5716271442969278,0.16501591090210196,-0.07497310891934728,33.37544440772771,-20.553941478783088,15.401948847972607,-20.104607155074454,-2.438890025798726
-0.13095439344387544,0.21305444926828837,-0.17250116447225836,0.21630377897773548,-0.0058464316212995604,0.1153272770640617,-0.4584655174957043,-0.4540198112135409,1.0176783701462595,0.5213606254647787,0.5713835286939075,0.16433366803740426,-0.08041060334174865,33.21624337706567,-20.47816224576816,15.462157253926668,-20.098017629457868,-2.4453494785864143
-0.13187299684479756,0.21215261625871543,-0.17045790908852987,0.21734302987690154,-0.00470418295748241,0.11565458403105947,-0.4593017004610612,-0.45091650478646533,1.0216276918642375,0.5196254495830372,0.5711243319085753,0.16365348349887923,-0.08631254984750791,33.05536429571376,-20.401948960735023,15.522211960777975,-20.09067461510899,-2.4517607358976363
-0.1327932552536958,0.21125700825949542,-0.16840681345550537,0.21837876860015015,-0.003562483574850067,0.11598053474907324,-0.4601292044491308,-0.4478039996100042,1.0255478165122485,0.5178693616243086,0.5708496913161712,0.16297535900688848,-0.09267670126747873,32.89282271602249,-20.32530235961888,15.582101506603042,-20.082579749546902,-2.4581221310236634
-0.13371515135343984,0.21036764294797053,-0.16634793650248703,0.2194109536943165,-0.002421364085511974,0.11630513334143307,-0.46094804987201704,-0.4446826557624488,1.0294384765091726,0.5160925470831864,0.5705597446690466,0.16229929617991048,-0.09950063099043494,32.728634377431796,-20.24822327954209,15.641814520759482,-20.073734777209914,-2.4644320127791937
-0.13463866786805148,0.20948453728383323,-0.16428133768939368,0.22043954407796038,-0.0012808548253580771,0.11662838393450559,-0.4617582573058278,-0.44155283206865037,1.0332994065466719,0.5142951918219273,0.5702546300769483,0.1616252965362608,-0.10678173475941932,32.56281520273378,-20.1707126579495,15.701339726547793,-20.064141548500142,-2.4706887459721854
-0.13556378756302948,0.2086077075116845,-0.162207077002177,0.22146449904206128,-0.00014098585338347992,0.11695029065749714,-0.4625598474890027,-0.43841488607436274,1.0371303436083321,0.5124774820504534,0.5699344859872986,0.16095336149577885,-0.11451723254730783,32.395381294297295,-20.09277153170474,15.760665943821078,-20.053802018805953,-2.476890711863074
-0.13649049324567075,0.20773716916364363,-0.1601252149481997,0.22248577825067412,0.0009982130489474578,0.1172708576422601,-0.4633528413206409,-0.4352691740204433,1.0409310269886554,0.5106396043064181,0.5695994511654688,0.16028349238148262,-0.1227041705100369,32.226348930255675,-20.01440103614715,15.819782091541809,-20.04271824750247,-2.4830363086132836
-0.13741876776538842,0.2068729370620098,-0.15803581255157592,0.2235033417415448,0.002136712378297566,0.11759008902310249,-0.4641372598588272,-0.43211605081691734,1.0447011983118957,0.5087817454353412,0.569249664675054,0.15961569042119184,-0.13133942301574697,32.05573456065924,-19.93560240411091,15.8786771902852,-20.03089239693086,-2.489123951722931
-0.13834859401402633,0.20601502532197596,-0.15593893134847445,0.22451714992668642,0.003274482910013862,0.11790798893660073,-0.46491312431895426,-0.42895587001690966,1.0484406015507384,0.5069040925708169,0.568885265858148,0.15894995674912082,-0.14041969474816174,31.883554803593974,-19.856376964907128,15.937340364687984,-20.018326731356403,-2.4951520744577236
-0.1392799549261704,0.20516344735439507,-0.15383463338238482,0.22552716359291602,0.00441149569864511,0.11822456152141561,-0.4656804560720389,-0.42578898379044905,1.0521489830448187,0.5050068331148002,0.5685063943156243,0.1582862924074419,-0.14994152288246543,31.709826441268845,-19.776726143269308,15.995760845842565,-20.0050236159065,-2.5011191282648326
-0.14021283347945646,0.20431821586859877,-0.15172298119934666,0.22653334390235197,0.005547722078419957,0.11853981091811125,-0.46643927664303103,-0.42261574289814996,1.055826091519078,0.5030901547179751,0.5681131898874233,0.15762469834781995,-0.15990127933182618,31.534566416072057,-19.696651458263872,16.053927973635254,-19.990985515488447,-2.507023583177828
-0.14114721269487468,0.20347934287526923,-0.14960403784314275,0.22753565239287238,0.006683133663685659,0.11885374126897709,-0.46718960770911283,-0.4194364966647773,1.0594716781019529,0.5011542452602112,0.567705792632851,0.15696517543291885,-0.17029517306276842,31.357791826599467,-19.61615452216598,16.111831199028522,-19.976214993687826,-2.5128639282105123
-0.14208307563707065,0.20264683968936384,-0.14747786685045594,0.2285340509785346,0.00781770234930744,0.11916635671785285,-0.4679314710979867,-0.41625159295269937,1.0630854963433967,0.4991992928311114,0.5672843428108904,0.1563077244378809,-0.18111925247752225,31.179519923655366,-19.53523703930192,16.169460086286293,-19.960714711648166,-2.5186386717396436
-0.14302040541464295,0.20182071693309336,-0.14534453224599048,0.22952850194995592,0.008951400311028498,0.1194776614099564,-0.4686648887861503,-0.41306137813523536,1.0666673022327284,0.4972254857106563,0.566848980860529,0.15565234605177938,-0.1923694078614302,30.999768106228505,-19.453900804858975,16.22680431514203,-19.944487426931726,-2.5243463418764316
-0.14395918518043727,0.20100098453895357,-0.14320409853755786,0.23051896797465582,0.010084200005790711,0.1197876594917145,-0.4693898828971567,-0.40986619706990257,1.0702168542163084,0.4952330123499501,0.5663998473811068,0.15499904087904504,-0.2040413738934599,30.818553917444245,-19.37214770366387,16.283853682909164,-19.92753599236278,-2.5299854868268534
-0.14489939813183697,0.20018765175281042,-0.14105663071112778,0.23150541209735997,0.01121607417201608,0.12009635511059623,-0.4701064756998584,-0.40666639307157004,1.073733913215035,0.49322206135207275,0.5659370831126844,0.15434780944086723,-0.21613073221795176,30.635895040494898,-19.28997970893017,16.340598106532962,-19.909863354853155,-2.5355546752406584
-0.14584102751105024,0.19938072713703936,-0.13890219422584446,0.23248779774026607,0.012346995829848956,0.12040375241494937,-0.47081468960663314,-0.4034623078855251,1.0772182426416619,0.4911928214530417,0.5654608289164382,0.15369865217657008,-0.22863291407542974,30.45180929454989,-19.20739888097652,16.39702762458398,-19.89147255421097,-2.541052496549044
-0.14678405660539343,0.19858021857371844,-0.1367408550090086,0.23346608870327185,0.013476938281359123,0.1207098555538393,-0.4715145471715904,-0.400254281660459,1.080669608417932,0.4891454815028899,0.564971225755083,0.15305156944496406,-0.24154320299063503,30.266314630647457,-19.124407365916166,16.453132399192313,-19.87236672193319,-2.5464775612910318
-0.14772846874757095,0.19778613326787567,-0.13457267945102555,0.23444024916416556,0.014605875110705773,0.12101466867689065,-0.4722060710887572,-0.39704265292137897,1.0840877789915238,0.4870802304468628,0.5644684146733255,0.15240656152567372,-0.254856737515615,30.07942912756952,-19.041007394318633,16.50890271792254,-19.85254907998192,-2.5518285014283926
-0.14867424731595144,0.19699847775079077,-0.13239773440031993,0.23541024367877905,0.01573378018426248,0.12131819593413153,-0.47288928419024084,-0.3938277585424533,1.0874725253528104,0.4849972573067407,0.5639525367783534,0.1517636286204418,-0.26856851402590554,29.89117098770144,-18.95720127984513,16.56432899558875,-19.83202293954568,-2.5571039706492322
-0.1496213757348402,0.19621725788335118,-0.1302160871582171,0.23637603718110364,0.016860627650703203,0.12162044147584035,-0.4735642094443691,-0.39060993371979696,1.0908236210514246,0.4828967511622891,0.5634237332203608,0.1511227708544101,-0.28267338956760435,29.7015585328784,-18.872991417858195,16.61940177600983,-19.81079169978591,-2.5623026446601376
-0.1505698374747478,0.19544247885946275,-0.12802780547379183,0.23733759498336934,0.01798639194104943,0.1219214094523951,-0.47423086995380426,-0.3873895119442053,1.0941408422126289,0.4807789011328435,0.5628821451731144,0.15048398827737763,-0.2971660847532993,29.510610200220324,-18.78838028400699,16.674111733704265,-19.788858846568964,-2.5674232214668495
-0.15151961605265507,0.19467414520951506,-0.12583295753868487,0.2382948827760874,0.019111047768678557,0.12222110401412517,-0.4748892889536316,-0.38416682497384264,1.0974239675534876,0.4786438963590319,0.5623279138145643,0.1498472808650364,-0.3120411867047759,29.318344537956477,-18.703370432788915,16.72844967552456,-19.766227951184696,-2.5724644216435646
-0.15247069503227392,0.19391226080390128,-0.1236316119818872,0.2392478666280567,0.02023457012929356,0.12251952931116554,-0.4755394898094204,-0.38094220280689484,1.1006727783988375,0.4764919259846401,0.5617611803075004,0.14921264852018482,-0.32729315204025244,29.124780201241865,-18.617964496089137,16.78240654223102,-19.742902669051787,-2.577424988590779
-0.15342305802430445,0.1931568288565929,-0.1214238378644931,0.24019651298633393,0.02135693430085408,0.12281668949331338,-0.4761814960152564,-0.3777159736541926,1.1038870586970533,0.47432317913862404,0.5611820857802601,0.14858009107391948,-0.3429163099041279,28.929935947967387,-18.53216518169833,16.835973410004787,-19.718886738410276,-2.5823036887816535
-0.15437668868668794,0.19240785192876927,-0.11920970467442188,0.24114078867616848,0.022478115843469055,0.12311258870988699,-0.47681533119174463,-0.37448846391181473,1.1070665950356071,0.47213784491727373,0.5605907713074881,0.14794960828680542,-0.3589048650369686,28.733830634564633,-18.445975271810575,16.88914149189999,-19.6941839790023,-2.587099311997008
-0.1553315707248559,0.19166533193250193,-0.11698928232110904,0.24208066090090155,0.023598090599250963,0.12340723110958704,-0.47744101908398173,-0.37125999813367855,1.1102111766564162,0.46993611236653304,0.5599873778909539,0.14732119985002493,-0.37525290088364827,28.53648321180768,-18.359397621501685,16.94190213923485,-19.668798290741247,-2.5918106715489024
-0.1562876878919749,0.19092927013449368,-0.11476264113016708,0.24301609724183051,0.02471683469213182,0.12370062084036006,-0.4780585835594971,-0.368030899004127,1.1133205954709777,0.46771817046447994,0.559372046440428,0.1466948653865054,-0.39195438273748806,28.337912720613375,-18.272435157189467,16.994246842921925,-19.642733652369827,-2.596436604492809
-0.15724502398918722,0.19019966715987263,-0.1125298518380165,0.24394706565803845,0.025834324527641065,0.12399276204926411,-0.4786680486061613,-0.3648014873105206,1.116394646075287,0.4654842081039712,0.5587449177546222,0.14607060445202646,-0.40900316091813815,28.138138287841652,-18.185090875077172,17.046167234737418,-19.6159941201079,-2.600975971828466
-0.15820356286584733,0.18947652299604095,-0.11029098558648744,0.24487353448618937,0.026950536792645457,0.12428365888233672,-0.47926943833006175,-0.3615720819158428,1.1194331257645365,0.46323441407545585,0.5581061325021952,0.14544841653630644,-0.42639297398111253,27.937179122097564,-18.09736783958037,17.0976550885293,-19.588583826290304,-2.60542765868935
-0.15916328841975402,0.1887598369965783,-0.10804611391739226,0.2457954724402893,0.028065448455051115,0.12457331548446486,-0.4798627769533443,-0.3583429997313284,1.122435834547592,0.4609689770499621,0.5574558312028284,0.14482830106406838,-0.44411745195673724,27.73505450953684,-18.00926918173952,17.148702321364844,-19.5605069779956,-2.6097905745209484
-0.16012418459737807,0.18804960788520006,-0.10579530876706977,0.24671284861141382,0.029179036763467864,0.12486173599925704,-0.48044808881202056,-0.35511455568912326,1.125402575161244,0.4586880855622607,0.5567941542083744,0.14421025739608595,-0.46217011961643273,27.53178380967645,-17.920798097618203,17.19930099461724,-19.531767855665844,-2.6140636532477037
-0.16108623539408554,0.1873458337597701,-0.10353864246090132,0.24762563246740224,0.030291279246836028,0.12514892456891746,-0.4810253983537402,-0.35188706271498543,1.1283331530842295,0.45639192799421047,0.5561212416840822,0.14359428483020936,-0.4805443997640251,27.327386451211737,-17.831957846688866,17.24944331499156,-19.502370811718368,-2.618245853428842
-0.16204942485435658,0.186648512096368,-0.10127618770779927,0.2485337938525188,0.03140215371401583,0.1254348853341222,-0.4815947301355272,-0.34866083170103607,1.1312273765510241,0.45408069255828815,0.5554372335899014,0.14298038260237142,-0.4992336165500646,27.121881927841944,-17.7427517502067,17.29912163549033,-19.47232026914979,-2.62233615840302
