Joohwan-Seo/mujoco_sysID/Fanuc/Dataset/square_PIH_fanuc_new_real_real_1.csv
q1,q2,q3,q4,q5,q6,dq1,dq2,dq3,dq4,dq5,dq6,t1,t2,t3,t4,t5,t6
5.21779152794548e-06,0.46178046518894206,-0.39269658774163785,-8.600492617929712e-06,-0.19999125027293818,4.312517631041176e-05,0.00260889576397274,-0.009461305103682609,0.0012469785431480362,-0.004300246308964856,0.004374863530917991,0.021562588155205877,-0.02655778100303912,20.445586812756943,-32.71135170430779,-19.732085931502844,-10.033227962071487,19.13637133006142
1.5588169135806398e-05,0.46174270174905546,-0.3926915577573702,-2.5986996418255514e-05,-0.1999737964249552,0.00012725099001142029,0.005185188803930459,-0.01888171994328821,0.0025149921338216393,-0.008693251900162902,0.0087269239914992,0.04206290685050426,-0.02930530576642691,20.478353517500032,-32.67720836578252,-19.688289859078406,-10.155911987092738,18.31358998390868
3.105994370886336e-05,0.4616861303324988,-0.3926839307443609,-5.2338897717839396e-05,-0.19994779489738337,0.00025035538032054655,0.00773588728652848,-0.028285708278341086,0.0038135065046366566,-0.01317595064979194,0.013000763785912627,0.06155219515456313,-0.03230933685524492,20.512333959903728,-32.64232869711146,-19.643624596028996,-10.279081632190634,17.529966872606096
5.158323008324981e-05,0.46161078470193473,-0.392673645630062,-8.782423029929593e-05,-0.19991340131555727,0.00041051308120524353,0.010261643187193224,-0.03767281528203395,0.005142557149449107,-0.017742666290728265,0.01719679091305096,0.08007885044234847,-0.035573190680951966,20.547484604299,-32.606711575497854,-19.598128206912648,-10.402668918119284,16.783635241264243
7.710937295539311e-05,0.4615166995323831,-0.39266064126832484,-0.00013260019423492106,-0.1998707705188387,0.000605890992538879,0.012763071436071648,-0.047042584775815646,0.006502180868586602,-0.022387981967812564,0.021315398359289243,0.09768895566681769,-0.03909991136751804,20.58376532779411,-32.57035683351741,-19.551837195858432,-10.526611787831301,16.07281759796121
0.00010759087651445159,0.4614039104123134,-0.3926448564382574,-0.00018681365002136014,-0.19982005658590551,0.000834743772836814,0.015240751779529235,-0.056394560034870214,0.007892415033711518,-0.027106727893219544,0.025356966466593273,0.11442639014896748,-0.042892278505286305,20.621139077310325,-32.533265164212864,-19.504786590286727,-10.650853549920193,15.395821440011073
0.00014298133762314028,0.46127245384331456,-0.39262622984437634,-0.00025060158922269503,-0.19976141285583443,0.001095409642942152,0.017695230554344344,-0.0657282844994147,0.009313296940525321,-0.03189396960066745,0.029321865035546003,0.13033293505266905,-0.04695281637456807,20.659571559534335,-32.49543803572407,-19.457010020944747,-10.77534237469192,14.751035185414098
0.00018323538238050287,0.4611223672385114,-0.3926047001178963,-0.0003240915827610523,-0.19969499194545312,0.0013863063905428892,0.0201270223786813,-0.07504330240155924,0.010764863240029211,-0.03674499676917864,0.03321045519065624,0.1454483738003686,-0.05128380424969314,20.699030960655378,-32.45687761445031,-19.408539798334896,-10.90003083786014,14.136924299592064
0.00022830860590793703,0.46095368891987837,-0.3925802058190163,-0.0004074022079381338,-0.19962094576338796,0.0017059275658894237,0.022536611763717077,-0.08433915931652154,0.012247149439987143,-0.041655312588540765,0.03702309103258771,0.15981058767326728,-0.05588728745896448,20.739487693049504,-32.417586695843355,-19.359406985624865,-11.024875507338495,13.552027607994187
0.00027815751520714367,0.4607664581145861,-0.39255268544007815,-0.0005006434552181075,-0.19953942552118897,0.002052838859544934,0.024924454649603304,-0.09361540264612674,0.013760189469078634,-0.046620623639986855,0.04076012109948568,0.17345564682775516,-0.0607650889312018,20.78091416634306,-32.37756864202721,-19.309641468136405,-11.149836569033965,12.994953785616964
0.00033273947494567277,0.4605607149505026,-0.3925220774094842,-0.0006039171157519356,-0.19945058174187424,0.002425674653442184,0.02729097986926455,-0.10287158204174356,0.015304015296987397,-0.051636830266914055,0.04442188965735825,0.18641789694862504,-0.06591882100661887,20.823284580529908,-32.33682732552553,-19.25927201951618,-11.274877487938154,12.464378014916285
0.0003920126560324024,0.4603365004509564,-0.3924883200962755,-0.0007173171505753339,-0.19935456426619932,0.0028231347369399857,0.02963659054336483,-0.11210724977310209,0.01687865660435711,-0.05670001741169909,0.04800873783746558,0.1987300417489008,-0.0713498973298071,20.866574739036935,-32.29536707845183,-19.208326364696312,-11.399964701164338,11.95903880400374
0.00045593598685163267,0.4600938565288588,-0.3924513518152812,-0.0008409300423670253,-0.1992515222569256,0.0032439811799718924,0.03196166540961513,-0.12132196104879958,0.018484140497163418,-0.061806445895845705,0.05152100463686324,0.21042322151595336,-0.07705954467658384,20.910761879834183,-32.2531926465883,-19.156831239754943,-11.525067339899781,11.477734957412117
0.0005244691070305229,0.45983282598027136,-0.39241111083276,-0.0009748351306106632,-0.19914160420133237,0.003687035355759727,0.034266560089445106,-0.13051527429372303,0.020120491260608667,-0.06695254412181892,0.054959027796615906,0.22152708789391745,-0.08304881459524836,20.95582452286314,-32.210309147838345,-19.104812448788785,-11.650156977531006,11.019322692088727
0.0005975723236203647,0.4595534524774952,-0.39236753537246366,-0.0011191049309626343,-0.1990249579121909,0.004151175105926201,0.03655160829492092,-0.13968675138809455,0.02178773014814838,-0.07213490017598558,0.05832314457072714,0.23206987508323687,-0.08931859476712989,21.001742332223934,-32.1667220345918,-19.052294917909787,-11.775207401460895,10.58271289163056
0.0006752065695776793,0.4592557805617504,-0.39232056362206025,-0.0012738054395888194,-0.1989017305273959,0.004635332041185065,0.03881712297865732,-0.14883595787237294,0.023485875201711713,-0.07735025431309253,0.06161369239750605,0.24207846762943197,-0.09586962001182181,21.04849599170847,-32.12243705959307,-18.999302746477888,-11.90019440637311,10.166868492113148
0.000757333364436371,0.45893985563550677,-0.3922701337398611,-0.0014389964231961718,-0.1987720685084281,0.005138488971114818,0.04106339742934584,-0.1579624631218177,0.025214941099586132,-0.08259549180367624,0.06483100948389671,0.2515784649648765,-0.10270248287974772,21.096067092400517,-32.07746024494316,-18.945859255680435,-12.025095606913656,9.77080199318621
0.0008439147770671724,0.4586057239545185,-0.39221618386180346,-0.001614731695449596,-0.19863611763780367,0.005659677456833758,0.04329070631540075,-0.16706584049413545,0.026974939028804556,-0.0878676361267121,0.06797543531221949,0.2605942428594701,-0.10981764378915225,21.14443803118838,-32.03179785390758,-18.89198703456722,-12.149890267951236,9.393573088415101
0.0009349133904253931,0.45825343261961193,-0.39215865210864503,-0.001801059380430959,-0.19849402301564806,0.006197975480690913,0.04549930667911036,-0.17614566745328028,0.028765876579204316,-0.0931638424906814,0.07104731107780321,0.2691490119285772,-0.11721544067667164,21.193591919140864,-31.98545636523644,-18.83770798364792,-12.274559150755099,9.034286409137389
0.0010302922681925389,0.4578830295682676,-0.3920974765933318,-0.00199802216376508,-0.19834592905551784,0.006752505227369823,0.047689438883572854,-0.18520152567216366,0.030587757656625508,-0.09848139166706059,0.07404698006511334,0.27726487333945515,-0.12489609814066834,21.24351249880207,-31.938442449733248,-18.783043356156092,-12.399084373584474,8.692089376380693
0.001130014923221724,0.45749456356603413,-0.3920325954285058,-0.002205657532007126,-0.19819197947957945,0.007322430971071003,0.049861327514592595,-0.19423300111674585,0.03244058241298486,-0.10381768412102309,0.07697478796919414,0.2849628718505898,-0.1328597360648043,21.294184069546837,-31.890762948838862,-18.728013797081204,-12.523449285329932,8.366170155650957
0.001234045287700953,0.45708808419780667,-0.39196394673412344,-0.0024239980008569076,-0.1980323173132424,0.007906957063694781,0.052015182239614405,-0.20323968411372365,0.03432434719120237,-0.10917023442489071,0.07983108316853417,0.2922630463118891,-0.14110637771614448,21.345591420223208,-31.84242485502068,-18.672639380067082,-12.647638350972732,8.055755709650535
0.0013423476849523117,0.45666364185899905,-0.39189146864515706,-0.002653071332738072,-0.19786708487933274,0.008505326019189829,0.05415119862567942,-0.21222116940379726,0.03623904448317535,-0.11453666594058207,0.08261621695482689,0.29918447774752427,-0.14963595731765433,21.397719768379872,-31.793435293778394,-18.61693964227205,-12.771637047748854,7.760109944223637
0.001454886802788905,0.45622128774663445,-0.3918150993193587,-0.0028929007442540316,-0.1976964237918837,0.009116816689464532,0.05626955891829675,-0.22117705618229055,0.03818466289918962,-0.11991470575797979,0.08533054372452391,0.30574533513735175,-0.1584483270994615,21.45055470544552,-31.74380150710165,-18.56093361728277,-12.895431771007187,7.478531943053358
0.001571627668354984,0.455761073850377,-0.39173477694506403,-0.0031435051040075916,-0.19752047494961059,0.009740742527479074,0.05837043278303945,-0.23010694812871033,0.040161187147332855,-0.1253021798767801,0.08797442113656252,0.31196291900727136,-0.16754326383686674,21.50408214728575,-31.6935308382268,-18.50463986617051,-13.019009748849227,7.210354286849945
0.0016925356243781679,0.45528305294352367,-0.39165043974902075,-0.003404899121247588,-0.19733937852913022,0.01037644993334622,0.06045397801159198,-0.23901045342666022,0.04216859802163279,-0.130697008619998,0.09054821024018467,0.317853702933572,-0.17692047488595605,21.558288289619917,-31.64263071756183,-18.448076506775372,-13.142358964722833,6.9549414529752465
0.0018175763067659635,0.45478727857397294,-0.3915620260042252,-0.003677093525783349,-0.19715327397797752,0.01102331667946875,0.06252034119389784,-0.24788718477537214,0.044206872397784175,-0.1360972022678806,0.09305227557634722,0.32343337306126546,-0.1865796037298856,21.613159567828205,-31.591108649659112,-18.391261241300406,-13.265468087221848,6.711688291643448
0.0019467156234819277,0.454273805055185,-0.3914694740377543,-0.003960095239586414,-0.1969623000074658,0.011680750410931959,0.06456965835798203,-0.2567367593939804,0.04627598323545535,-0.1415008569015329,0.09548698525584874,0.32871686573160436,-0.19652023505062186,21.668682620725356,-31.538972201128843,-18.334211382294747,-13.388326406413782,6.480018575024005
0.0020799197346398303,0.4537426874571459,-0.3913727222385817,-0.00425390754047858,-0.1967665945854319,0.01234818721755077,0.06660205557895132,-0.26555879901953905,0.04837589958627907,-0.1469061504460827,0.09785271101696053,0.3337184033094057,-0.2067418993421646,21.724844257917397,-31.486228989399827,-18.276943877101136,-13.51092377608182,6.25938361574944
0.0022171550337570446,0.4531939815973466,-0.39127170906536823,-0.004558530218286,-0.1965662949289018,0.01302509027414367,0.06861764955860729,-0.27435292989967297,0.05050658660673398,-0.15231133890371046,0.10014982826504794,0.33845152829644953,-0.21724407708218052,21.781631430394825,-31.432886672240627,-18.219475330840567,-13.63325056132616,6.049260951498985
0.0023583881301111284,0.4526277440317853,-0.3911663730542178,-0.004873959723820685,-0.196361537496709,0.013710948545769824,0.07061654817704194,-0.2831187827806508,0.05266800557521481,-0.15771475276734237,0.10237871609639597,0.34292913581307755,-0.22802620247955485,21.839031204048943,-31.378952937966787,-18.161822028003304,-13.75529759102096,5.849153092489151
0.002503585832146175,0.45204403204600213,-0.39105665282639246,-0.005200189311033195,-0.1961524579820926,0.014405275554822175,0.07259885101752338,-0.29185599289157965,0.054860113912670726,-0.16311479360625494,0.10453975730820989,0.3471635045261754,-0.23908766681570626,21.897030735828423,-31.324435496266034,-18.103999952712748,-13.87705611467199,5.6585863288546365
0.0026527151318780137,0.45144290364615147,-0.39094248709597995,-0.005537209172663729,-0.19593919130529952,0.015107608207018107,0.07456464986591942,-0.3005641999253402,0.05708286520626462,-0.16850993081526697,0.10663333839654335,0.3511663260979661,-0.2504278213976475,21.955617252279325,-31.269342069580297,-18.046024807725725,-13.998517763261999,5.477109595048191
0.0028057431902497134,0.4508244175501179,-0.3908238146775088,-0.005885006569702932,-0.1957218716062121,0.015817505673471052,0.07651402918584997,-0.3092430480168069,0.05933620923557147,-0.17389869851960163,0.10865984954371061,0.3549487332264718,-0.26204598014074265,22.014778030238737,-31.213680384992657,-17.987912032229758,-14.119674513710521,5.304293388525888
0.0029626373233911226,0.4501886331786802,-0.39070057449350704,-0.006243565954958707,-0.19550063223701897,0.01653454832616125,0.07844706657070472,-0.31789218571883515,0.061620092000892135,-0.1792796926278874,0.11061968459656428,0.35852132634509853,-0.2739414217989396,22.07450037947129,-31.157458166568418,-17.9296768184955,-14.240518656609561,5.139728740115824
0.003123364989738343,0.4495356106467273,-0.3905727055820004,-0.006612869091010976,-0.19527560575494524,0.017258336724252376,0.08036383317361019,-0.3265112659764369,0.06393445575331128,-0.18465156802613436,0.112513241036863,0.36189419904556314,-0.2861133918600084,22.134771627061284,-31.10068312811046,-17.871334127439503,-14.361042766928785,4.9830262335932165
0.0032878937779711047,0.4488654107545283,-0.3904401471039481,-0.0069928951628227196,-0.1950469239150556,0.017988490648822974,0.08226439411638096,-0.33509994609951615,0.06627923902617426,-0.19001303590587165,0.11434091994481317,0.36507696228529857,-0.2985611041229453,22.195579103389264,-31.043362966287816,-17.812898703150353,-14.481239677412386,4.833815072103921
0.003456191395727988,0.4481780949790593,-0.3903028383506127,-0.007383620885262647,-0.19481471766314212,0.018724648183698057,0.08414880887844163,-0.34365788773448624,0.06865437666769972,-0.1953628612199637,0.11610312595674334,0.36807876743754203,-0.3112837419743119,22.256910129539108,-30.985505354106024,-17.754385086428574,-14.601102454416377,4.691742189191644
0.00362822565906131,0.4474737254653892,-0.3901607187508637,-0.007785020605782525,-0.1945791171287066,0.01946646484017709,0.08601713166666099,-0.3521847568350524,0.07105979987448068,-0.20069986025993924,0.11780026721775744,0.3709083282395177,-0.32428045937980826,22.318752005996295,-30.92711793468672,-17.69580762738835,-14.720624375958057,4.556471402292094
0.0038039644825953022,0.44675236501812443,-0.3900137278784124,-0.008197066402480458,-0.19434025161804638,0.020213612723560027,0.08786941176699621,-0.3606802236324036,0.07349543622566053,-0.2060228983489664,0.11943275533011322,0.3735739416914681,-0.3375503816068985,22.381092002512773,-30.868208315330932,-17.63718049716712,-14.83979891177192,4.4276826066596655
0.003983375870352909,0.4460140770929144,-0.3898618054589772,-0.008619728177770247,-0.19409824960745042,0.020965779739473542,0.08970569387880334,-0.36914396260502486,0.07596120971759886,-0.21133088764489388,0.12100100529798269,0.3760835079567582,-0.3510926056937983,22.443917349024098,-30.80878406184157,-17.5785176987868,-14.958619705183926,4.305071007790322
0.00416642790721817,0.4452589257880178,-0.38970489137737946,-0.009052973747866344,-0.19385323873651208,0.021722668838095278,0.09152601843263043,-0.37757565244831254,0.07845704079886782,-0.2166227850480485,0.1225054354691717,0.3784445493108675,-0.36490620067960766,22.5072152275175,-30.74885269308333,-17.519833077208304,-15.077080556635813,4.188346390496998
0.004353088751002715,0.4444869758359295,-0.38954292568456855,-0.00949676892828382,-0.19360534580156347,0.022483997294464864,0.0933304218922722,-0.3859749760441482,0.08098284640544302,-0.2218975902087379,0.12394646747430495,0.3806642281847938,-0.3789902076098448,22.570972764757762,-30.68842167576158,-17.461140328619354,-15.19517540870498,4.077232422882544
0.004543326625086371,0.4436982925950684,-0.38937584860457664,-0.009951077615543126,-0.19335469674923564,0.02324949602315728,0.09511893704182808,-0.3943416204305631,0.08353853999597258,-0.22715434362965314,0.12532452616391943,0.38274936434620793,-0.3933436393311196,22.635177025788863,-30.62749841940294,-17.4024530089935,-15.312898332481364,3.9714659935394363
0.004737109811603315,0.4428929420415252,-0.3892036005414026,-0.010415861865260324,-0.19310141667014794,0.024018908925676527,0.09689159325847178,-0.40267527677160525,0.08612403158702625,-0.23239212485859867,0.12664003954385322,0.38470645125962294,-0.40796548008816,22.699815008135587,-30.56609027152269,-17.343784541956524,-15.430243515174972,3.8707965803856634
0.004934406645146528,0.4420709907608702,-0.3890261220858261,-0.010891081966794721,-0.1928456297927294,0.02479199226900625,0.09864841677160659,-0.4109756403275025,0.08873922778824209,-0.23761005076719902,0.1278934387092668,0.3865416716648618,-0.4228546849358845,22.76487363663761,-30.504204512965387,-17.28514822599483,-15.5472052488398,3.774985649622564
0.005135185506964627,0.4412325059400198,-0.3888433540221515,-0.011376696514617608,-0.19258745947717423,0.025568514093828702,0.10038943090904966,-0.4192424104251987,0.09138403183730176,-0.24280727391144347,0.1290851577775897,0.38826091241122584,-0.43801017897874206,22.83033975885595,-30.44184835340763,-17.226557241038805,-15.66377792011076,3.6838060833730566
0.005339414819626343,0.4403775553591611,-0.3886552373348821,-0.011872662476557867,-0.19232702820953293,0.02634825365099465,0.1021146563308581,-0.4274752904293258,0.09405834363467816,-0.24798298097012966,0.13021563382064597,0.38986977858297317,-0.45343085644902437,22.896200140996065,-30.379028927011213,-17.16802465445242,-15.779956000859666,3.597041634627833
0.005547063042129105,0.4395062073837338,-0.3884617132153259,-0.012378935259072785,-0.19206445759594057,0.02713100086489467,0.10382411125138094,-0.43567398771366256,0.09676205977810935,-0.2531363912574588,0.1312853067961777,0.3913736069500097,-0.4691155796354162,22.962441464298557,-30.315753288218843,-17.109563426459243,-15.895734039685133,3.514486408192982
0.005758098665429293,0.4386185309564676,-0.38826272306813236,-0.012895468769685217,-0.19179986835698265,0.02791655582244681,0.10551781165009363,-0.4438382136331195,0.0994950735967621,-0.25826675530621607,0.13229461947895485,0.3927774787760716,-0.48506317767258395,23.02905032185354,-30.252028407683284,-17.051186415033204,-16.01110665415969,3.435944366395216
0.005972490208372784,0.437714595589475,-0.38805820851776224,-0.013422215476721504,-0.19153338032219938,0.028704728286477074,0.10719577147174562,-0.4519676834962792,0.10225727518505658,-0.26337335351814317,0.1332440173916327,0.3940862320151303,-0.5012724452021706,23.09601321579821,-30.1878611683226,-16.992906380281692,-16.12606852376396,3.361228858360417
0.006190206214005437,0.436794471356398,-0.38784811141488995,-0.013959126466478051,-0.1912651124247284,0.029495337232327636,0.10885800281632634,-0.4600621165385142,0.1050485514361308,-0.26845549487827364,0.1341339487354943,0.3953044729252807,-0.517742140915168,23.1633165548621,-30.123258361496546,-16.934735988346628,-16.240614383444687,3.29016217173816
0.006411215246244099,0.43585822888460657,-0.3876323738427401,-0.014506151497938366,-0.190995182696086,0.030288210406583575,0.11050451611933118,-0.46812123589569615,0.10786878607492921,-0.2735125157301577,0.134964864321195,0.3964365871279692,-0.5344709859852097,23.230946652227374,-30.05822668329644,-16.876687814848697,-16.354739017739334,3.222575105798828
0.006635485886889673,0.43490593934744953,-0.38741093812335825,-0.015063239055156472,-0.19072370826108678,0.03108318390686175,0.11213532032278654,-0.4761447685785044,0.11071785969090543,-0.278543778609053,0.1357372174996066,0.3974867501390863,-0.5514576624019888,23.298889723675572,-29.992772730945013,-16.818774347898266,-16.468437255415502,3.158306564881524
0.006862986732964614,0.43393767445655484,-0.38718374682381757,-0.015630336397417066,-0.1904508053329011,0.0318801017816561,0.11375042303747077,-0.4841324454473364,0.11359564977033354,-0.28354867113029747,0.13645146409284384,0.3984589373971763,-0.5687008112136152,23.367131885995548,-29.926902999302456,-16.761007990695553,-16.581703964577592,3.0972031712197845
0.00709368639435811,0.4329535064541792,-0.38695074276236113,-0.016207389607277498,-0.19017658920825,0.03267881564928172,0.1153498306967477,-0.4920840011878176,0.11650203072822589,-0.2885266049302163,0.1371080623255412,0.399356933812808,-0.5861990306864024,23.435659155627263,-29.860623877472527,-16.703401063741847,-16.694534048198747,3.0391188962190103
0.007327553491762929,0.4319535081056054,-0.3867118690144814,-0.01679434363659158,-0.18990117426273714,0.03347918433500572,0.11693354870240961,-0.4999991742869048,0.11943687393985916,-0.2934770146570422,0.1377074727564359,0.4001843428619992,-0.6039508743902409,23.504457447523663,-29.793941645509108,-16.645965806682238,-16.806922440038754,2.983914709303657
0.007564556654888743,0.43093775269158624,-0.38646706891893756,-0.01739114235061048,-0.18962467394631655,0.034281073525496704,0.11850158156290726,-0.5078777070095741,0.12240004777191264,-0.2983993570094495,0.13825015821030226,0.40094459524549086,-0.6219548492174115,23.573512574209033,-29.726862471216535,-16.58871437979967,-16.91886410091361,2.931458243494692
0.007804664520937398,0.42990631400083407,-0.3862162860837111,-0.01799772857025132,-0.189347200778896,0.03508435543976595,0.12005393302432726,-0.51571934537608,0.12539141761322548,-0.3032931098204198,0.13873658371027378,0.40164095713462417,-0.6402094133423925,23.64281024501919,-29.65939240704448,-16.53165886517912,-17.030354015284466,2.881623476917992
0.008047845733326318,0.4288592663225545,-0.38595946439190076,-0.01861404411261985,-0.18906886634607484,0.03588890851581311,0.1215906061944598,-0.5235238391397723,0.12841084590518098,-0.3081577711842652,0.13916721641058105,0.4022765380235792,-0.6587129741299501,23.71233606550811,-29.591537387073352,-16.47481126755989,-17.141387188137767,2.8342904294826226
0.008294068940646883,0.4277966844390236,-0.3856965480075573,-0.019240029829869332,-0.1887897812950154,0.03669461711222669,0.12311160366028305,-0.5312909417654542,0.1314581921717283,-0.3129928586247408,0.13954252552972662,0.4028542982067892,-0.6774638859985205,23.782075537007415,-29.523303224089886,-16.418183514893265,-17.251958642130457,2.7893448740044957
0.008543302795845234,0.42671864361820705,-0.3854274813814592,-0.01987562564647389,-0.18851005533044715,0.037501371224025574,0.12461692759917589,-0.5390204104082632,0.13453331304905228,-0.31779790830227855,0.13986298228411287,0.40337705589944267,-0.6964604482456581,23.852014056327242,-29.454695606750192,-16.361787458621976,-17.36206341497649,2.746678061085539
0.008795515955613543,0.4256252196064209,-0.3851522092568294,-0.020520770594990825,-0.18822979721080288,0.038309066212061836,0.12610657988415486,-0.5467120058930566,0.1376360623149039,-0.32257247425846725,0.14012905982213306,0.40384749401812936,-0.7157009028420704,23.92213691558849,-29.385720096829594,-16.30563487369719,-17.471696557053818,2.7061864570915852
0.00905067707998038,0.42451648862103236,-0.3848706766749942,-0.021175402850382816,-0.18794911474448542,0.039117602545337575,0.12758056218341798,-0.5543654926942807,0.14076629091760412,-0.3273161276959964,0.14034123315873231,0.404268166637869,-0.7351834322005556,23.992429302176063,-29.316382126559105,-16.249737458348147,-17.580853129212368,2.667771494603663
0.009308754832089308,0.42339252734319976,-0.3845828289809847,-0.021839459762967545,-0.18766811478626452,0.039926885555619546,0.12903887605446426,-0.561980638916305,0.14392384700473443,-0.3320284562923648,0.14049997911044151,0.4046415051409853,-0.7549061569259246,24.062876298805968,-29.246686996045973,-16.194106833618772,-17.689528200765853,2.631339334747347
0.009569717878155398,0.4222534129106514,-0.3842886118290817,-0.022512877890059024,-0.18738690323380275,0.04073682520376464,0.13048152303304483,-0.569557216274198,0.14710857595152818,-0.33670906354573893,0.1406057762308839,0.4049698240725473,-0.7748671335517938,24.13346288369847,-29.176639870779887,-16.13875454268522,-17.797716847651287,2.596800640833222
0.009833534887589777,0.4210992229105015,-0.38398797118830374,-0.023195593026361865,-0.18710558502430924,0.041547335857197436,0.13190850471718987,-0.577095000074926,0.15032032038897633,-0.3413575681514212,0.14065910474675256,0.4052553267163962,-0.7950643522699494,24.20417393085132,-29.1062457792223,-16.083692049967375,-17.905414150742438,2.5640703627688475
0.010100174533282864,0.4199300353721036,-0.3836808533478404,-0.023887540233176796,-0.18682426413132072,0.042358336078007645,0.13331982284654367,-0.5845937691989527,0.15355892023166198,-0.3459736034074654,0.1406604464942541,0.4055001104051048,-0.8154957346577761,24.274994210406255,-29.0355096104795,-16.028930740047137,-18.01261519430404,2.5330675317282836
0.010369605492037321,0.41874592875993916,-0.38336720492242976,-0.02458865386647288,-0.1865430435616087,0.0431697484211608,0.13471547937722897,-0.5920533060822181,0.15682421270533758,-0.3505568166480434,0.1406102848560133,0.4057061715765785,-0.8361591314090993,24.345908389106015,-28.964436112059964,-15.97448191640553,-18.119315064575797,2.5037150645899215
0.010641796445142224,0.4175469819665422,-0.38304697285768124,-0.025298867603879355,-0.18626202535221184,0.0439814992423396,0.13609547655245163,-0.5994733966984772,0.16011603237425884,-0.35510686870323677,0.1405091046984312,0.4058754105893984,-0.8570523200735829,24.416901030835387,-28.893029887714626,-15.920356799990332,-18.225508848474618,2.475939577676807
0.010916716079080317,0.41633327430545825,-0.38272010443534465,-0.026018114470647336,-0.18598131056759287,0.04479351851495646,0.1374598169690463,-0.6068538305419775,0.163434211168289,-0.35962343338399033,0.14035739230948963,0.4060096363084292,-0.8781730028097041,24.48795659724369,-28.82129539536043,-15.866566527625332,-18.331191632406806,2.4496712093558637
0.011194333086360626,0.41510488550423735,-0.38238654727852506,-0.026746326864629383,-0.18570099929691888,0.04560573965589978,0.13880850364015448,-0.6141944006104549,0.166778578409787,-0.36410619699102353,0.1401556353369929,0.4061105704716623,-0.8995188041561308,24.559059448445115,-28.749236945087624,-15.813122150271912,-18.43635850118124,2.4248434510737433
0.01147461616646906,0.4138618956974605,-0.38204624935684445,-0.027483436580322495,-0.1854211906514644,0.04641809935959726,0.14014154005421714,-0.6214949033884294,0.17014896084029268,-0.3685548578465554,0.13990432272723863,0.40617985184874134,-0.9210872688262134,24.63019384379467,-28.67685869725109,-15.760034631153278,-18.54100453701558,2.401392986427152
0.011757534026929972,0.41260438541979894,-0.3816991589915504,-0.028229374832018,-0.18514198276213617,0.04723053743999949,0.14145893023045542,-0.6287551388307813,0.17354518264702182,-0.3729691258477527,0.13960394466410794,0.40621904020111554,-0.9428758595301417,24.701343942736266,-28.604164660644827,-15.70731484375109,-18.645124818629192,2.3792595378848818
0.012043055384471982,0.41133243559910576,-0.38134522486057204,-0.028984072276099726,-0.18486347277711904,0.04804299668010608,0.14276067877100504,-0.6359749103465893,0.17696706548918328,-0.3773487220408631,0.1392549925085667,0.40622962005329416,-0.9648819548291702,24.77249380572176,-28.53115869076121,-15.654973569684076,-18.748714420416157,2.3583857207968393
0.012331148966291706,0.41004612754953934,-0.3809843960035238,-0.029747459032529816,-0.1845857568596419,0.048855422688674516,0.14404679090986183,-0.6431540247832136,0.18041442852413062,-0.3816933782150451,0.138857958738568,0.40621300428421886,-0.9871028470262082,24.84362739519924,-28.457844488134135,-15.603021496477567,-18.851768411692923,2.3387169043431935
0.012621783511409284,0.4087455429647181,-0.38061662182665706,-0.030519464705559725,-0.1843089301858632,0.0496677637637692,0.14531727255878832,-0.6502922924106064,0.18388708843335916,-0.386002836514954,0.13841333688934762,0.4061705375473419,-1.009535740096922,24.914728576668313,-28.384225596767564,-15.551469215232807,-18.95428185601599,2.3202010790929224
0.012914927772109933,0.40743076391090643,-0.38024185210776035,-0.0313000184037021,-0.18403308694287498,0.05047997076282437,0.1465721303503247,-0.6573895269058336,0.18738485944836025,-0.3902768490711878,0.13792162149410375,0.40610349952758706,-1.032177747665358,24.98578111980201,-28.310305402648545,-15.500327218204298,-19.056249810564175,2.302788730857257
0.013210550515466013,0.40610187282023086,-0.3798600370010077,-0.03208904875899758,-0.18375832032682488,0.05129199697891033,0.14781137167804054,-0.6644455453377929,0.19090755337634274,-0.3945151776477405,0.1373833080250527,0.40601310804297924,-1.0550258910280268,25.056768699634034,-28.236087132346363,-15.449605896293368,-19.157667325582658,2.2864327205382295
0.013508620524934326,0.4047589524839266,-0.379471127041756,-0.032886483945608884,-0.18348472254115517,0.05210379802290704,0.1490350047341565,-0.6714601681521118,0.19445497962583227,-0.39871759330564965,0.13679889283485272,0.4059005219983562,-1.078077097230183,25.127674897810536,-28.16157385169697,-15.39931553646557,-19.25852944388417,2.271088169687166
0.013809106602023648,0.40340208604561417,-0.3790750731512917,-0.03369225169777301,-0.18321238479495838,0.052915331711303484,0.1502430385446608,-0.6784332191562139,0.19802694523215786,-0.4028838760820658,0.13616887309838918,0.40576684419822223,-1.1013281971980051,25.198483203905536,-28.086768464574185,-15.34946631909942,-19.358831200404726,2.2567123515013234
0.014111977568027723,0.40203135699460507,-0.378671826641526,-0.03450627932714102,-0.18294139730144857,0.053726557959354417,0.15143548300203738,-0.685364525504537,0.20162325488283514,-0.40701381468400705,0.13549374675491338,0.40561312402546634,-1.1247759239302093,25.269177016799873,-28.01167371174738,-15.300068315273663,-19.4585676218107,2.2432645870001005
0.01441720226581916,0.40064684915923726,-0.3782613392196403,-0.035328493739533215,-0.1826718492765475,0.054537438679339106,0.15261234889571892,-0.6922539176838935,0.20524371094285496,-0.41110720619609736,0.1347740124505296,0.4054403599923448,-1.1484169107525328,25.339739646123288,-27.936292169826434,-15.251131483999902,-19.557733726155014,2.2307061461344633
0.014724749561699904,0.39924864670023935,-0.3778435629926805,-0.036158821451136455,-0.18240382893758544,0.05534793768367875,0.15377364794037157,-0.6991012294989595,0.2088881134798855,-0.4151638558016213,0.13401016948102423,0.40524950216982425,-1.1722476896384217,25.41015431375937,-27.860626250293883,-15.202665669407203,-19.656324522579794,2.219000153595016
0.015034588347304131,0.39783683410412357,-0.3774184504721017,-0.03699718860416897,-0.18213742350211537,0.05615802059268093,0.1549193928021136,-0.7059062980578799,0.21255626028939634,-0.41918357651625876,0.13320271773503156,0.40504145450108875,-1.1962646895991331,25.480404155412575,-27.784678198625407,-15.154680597885118,-19.754335011063485,2.208111499095509
0.015346687541549662,0.3964114961766076,-0.3769859545782623,-0.03784352098203676,-0.1818727191868403,0.0569676547466904,0.15604959712276523,-0.7126689637579826,0.21624794691971105,-0.4231661889338951,0.13235215763753225,0.4048170770047373,-1.2204642351463573,25.550472222238195,-27.70845009349808,-15.10718587519122,-19.851760182211045,2.1980067519189714
0.01566101609263411,0.39497271803606443,-0.3765460286448683,-0.038697744024004624,-0.18160980120665296,0.057776809122436275,0.15716427554222295,-0.7193890702715894,0.21996296669699628,-0.4271115209839294,0.13145899009367984,0.40457718787293473,-1.2448425448303735,25.620341482534872,-27.63194384608788,-15.06019098352902,-19.948595017085214,2.188654079524107
0.0159775429800722,0.3935205851070006,-0.37609862642336794,-0.03955978283940369,-0.18134875377378706,0.05858545425337533,0.15826344371904613,-0.7260664645319134,0.22370111075019314,-0.4310194076995319,0.13052371643295216,0.40432256546952705,-1.2693957298566092,25.68999482349905,-27.55516119945546,-15.013705278602071,-20.044834487077196,2.18002317001906
0.016296237216770884,0.3920551831135625,-0.37564370208729614,-0.04042956222139634,-0.1810896600970798,0.05939356215384112,0.15934711834934112,-0.7327009967190374,0.22746216803589778,-0.4348896909963279,0.12954683835362435,0.4040539502328933,-1.294119792783421,25.759415053042705,-27.47810372802195,-14.967737986649556,-20.14047355381649,2.172085158318959
0.01661706785113893,0.3905765980730706,-0.37518121023656975,-0.04130700666031836,-0.1808326023813447,0.06020110624681727,0.16041531718402283,-0.7392925202459631,0.23124592536319633,-0.43872221946101014,0.12852885786756144,0.4037720464880775,-1.3190106263037378,25.82858490167297,-27.40077283713378,-14.922298201468832,-20.235507169117497,2.164812555812454
0.01694000396922799,0.38908491628958114,-0.37471110590173284,-0.04219204035661717,-0.18057766182685403,0.06100806129516233,0.16146805904453082,-0.745840891744724,0.23505216741846033,-0.44251684814940523,0.12747027724532833,0.4034775241725283,-1.3440640121131846,25.897487024434827,-27.323169762717395,-14.877394881429796,-20.32993027496286,2.158179183370623
0.01726501469690214,0.387580224347476,-0.3742333445481526,-0.04308458723340426,-0.1803249186289308,0.06181440333612146,0.16250536383707326,-0.7523459710525553,0.23888067679010733,-0.44627343839354244,0.12637159896161582,0.40317102047956604,-1.369275619867125,25.966104002916513,-27.24529557102492,-14.83303684648616,-20.423737803522307,2.1521601075398875
0.017592069202033076,0.3860626091050798,-0.37374788208016596,-0.04398457094863885,-0.18007445197764885,0.06262010961896847,0.1635272525654684,-0.7588076211981153,0.24273123399333152,-0.44999185761729515,0.12523332564098175,0.4028531414235015,-1.3946410062290049,26.034418347318137,-27.167151158468727,-14.789232775188221,-20.516924677206127,2.146731579767787
0.017921136696718378,0.3845321576883043,-0.3732546748451763,-0.04489191490695922,-0.17982634005764103,0.06342515854562875,0.1645337473426505,-0.7652257083877514,0.24660361749480905,-0.4536719791601845,0.12405596000390685,0.4025244633301421,-1.4201556140122396,26.102412498582844,-27.08873725154775,-14.745991201701635,-20.609485808753085,2.141870978517982
0.018252186439520184,0.38298895748432066,-0.37275367963770156,-0.045806542271177135,-0.1795806600480147,0.06422952961414123,0.16552487140090358,-0.7716001019918062,0.250497603737382,-0.4573136821089558,0.1228400048131653,0.4021855342562437,-1.44581477141782,26.170068830591482,-27.01005440686377,-14.703320512836694,-20.701416101351615,2.1375567541375107
0.018585187737721953,0.3814330961352587,-0.3722448537033721,-0.04672837597345025,-0.17933748812237368,0.06503320336482382,0.16650064910088422,-0.7779306745309585,0.25441296716472483,-0.4609168511365556,0.12158596282051023,0.40183687534129625,-1.471613691369662,26.237369652420103,-26.931103011228565,-14.661228945092132,-20.792710448793926,2.1337683763459503
0.018920109949600934,0.37986466153193355,-0.3717281547428801,-0.04765733872614656,-0.17909689944894633,0.06583616132901356,0.16746110593949076,-0.7842173016625958,0.258349480245997,-0.46448137634815584,0.12029433671367519,0.401478982094869,-1.4975474709496581,26.30429721066138,-26.851883281861898,-14.619724581717648,-20.88336373566311,2.130486284222315
0.019256922486714203,0.3782837418075991,-0.37120354091587915,-0.048593353032414334,-0.17885896819081895,0.06663838598025873,0.1684062685566348,-0.7904598621672132,0.2623069135004853,-0.4680071531338871,0.11896562906369255,0.4011123256225884,-1.523611090934256,26.370833691808816,-26.77239526668027,-14.578815349798969,-20.97337083755194,2.1276918385714634
0.01959559481619614,0.3766904253317294,-0.3706709708448347,-0.049536341196470254,-0.1786237675062739,0.06743986068784608,0.1693361647409674,-0.7966582379348358,0.2662850355222382,-0.4714940820279609,0.11760034227253063,0.40073735379367426,-1.5497994154342893,26.43696122470434,-26.69263884467682,-14.538509017369174,-21.062726621313853,2.1253672765574536
0.01993609646306536,0.3750848007038265,-0.3701304036188253,-0.050486225333618004,-0.1783913695492318,0.06824056967255171,0.17025082343461104,-0.8028123139514629,0.270283613004696,-0.47494206857387467,0.11619897852105106,0.40035449235281917,-1.5761071916396847,26.502661883049203,-26.61261372639111,-14.498813190549942,-21.151425945345196,2.123495668496555
0.02027839701253925,0.37346695674725544,-0.3695817987972947,-0.051442927380008815,-0.17816184546979721,0.06904049796450984,0.17115027473694455,-0.808921978285529,0.2743024107653187,-0.47835102319540745,0.11476203971728886,0.3999641459790662,-1.6025290496705622,26.567917687978586,-26.532319454470585,-14.459735310726153,-21.239463659898746,2.1220608767078573
0.02062246611235423,0.3718369825031067,-0.36902511641375424,-0.05240636910215508,-0.1779352654149071,0.06983963136309826,0.1720345499074882,-0.8149871220743812,0.2783411917702142,-0.48172086107313017,0.1132900274450576,0.3995666992942098,-1.6290595025361105,26.632710610698616,-26.451755404321947,-14.421282651757167,-21.32683460742839,2.121047516324218
0.020968273475090095,0.3701949672240852,-0.3684603169794367,-0.053376472106207405,-0.17771169852908134,0.07063795639874451,0.17290368136793202,-0.8210076395107696,0.28239971715876905,-0.48505150202616454,0.11178344291288224,0.39916251782312645,-1.6556929462025516,26.697022575186892,-26.37092078485251,-14.383462317227977,-21.41353362296416,2.120440917970902
0.021315788880496796,0.36854100036842646,-0.36788736148690016,-0.054353157847005285,-0.1774912129552748,0.07143546029656117,0.1737577027033498,-0.8269834278293513,0.2864777462682836,-0.48834287039894,0.11024278690326282,0.3987519489083266,-1.6824236597713678,26.760835460955786,-26.28981463930267,-14.34628123774335,-21.499555534518215,2.1202270922237574
0.021664982177822072,0.36687517159384003,-0.36730621141358294,-0.0553363476369107,-0.17727387583583026,0.07223213094172298,0.17459664866263883,-0.8329143872932039,0.29057503665861373,-0.4915948949527079,0.10866855972227207,0.39833532258090903,-1.709245805768858,26.824131105878063,-26.208435846167053,-14.309746168267818,-21.58489516352084,2.120392695762878
0.02201582328813852,0.36519757075147935,-0.3667168287253093,-0.05632596265443387,-0.17705975331353127,0.07302795684650297,0.17542055515822355,-0.8388004211803494,0.29469134413682013,-0.4948075087615855,0.10706126114949038,0.39791295238999635,-1.736153430548003,26.886891309075057,-26.12678312020556,-14.273863685514499,-21.66954732528675,2.120924999141766
0.02236828220666864,0.3635082878799388,-0.36611917587974563,-0.05732192395265969,-0.1768489105327547,0.07382292711888823,0.17622945926506017,-0.8446414357702874,0.29882642278182725,-0.49798064911291035,0.10542139038828173,0.3974851361926292,-1.7631404648034548,26.949097833867096,-26.044855013543685,-14.238640185385243,-21.7535068295115,2.1218118560958215
0.022722329005106595,0.3618074131992777,-0.36551321582980745,-0.05832415246748309,-0.17664141164072186,0.07461703143270024,0.17702339921897695,-0.8504373403305364,0.3029800249690931,-0.5011142574116995,0.10374944601641437,0.39705215690600465,-1.7902007242004365,27.010732410784748,-25.962649916860826,-14.204081880464955,-21.83676848079712,2.123041674317533
0.023077933833935364,0.36009503710507135,-0.36489891202701685,-0.05933256902566112,-0.1764373197888478,0.07541025999914794,0.1778024144143837,-0.8561880471031837,0.30715190139529075,-0.5042082790890148,0.10204592593703003,0.3966142832238524,-1.817327910118125,27.071776740642324,-25.880166060667506,-14.170194797572353,-21.91932707920827,2.1246033876292945
0.02343506692473813,0.35837125016248844,-0.36427622842481083,-0.060347094352689215,-0.17623669713418788,0.07620260353974526,0.17856654540138295,-0.8618934712914433,0.311341801103003,-0.5072626635140465,0.10031132732996599,0.3961717702986578,-1.8445156105080671,27.132212497671098,-25.79740151666932,-14.136984775369726,-22.00117742085682,2.1264864294879913
0.023793698592502757,0.356636143100396,-0.36364512948179994,-0.061367649080508686,-0.17603960484098102,0.07699405326052798,0.17931583388231265,-0.867553531046222,0.3155494715054312,-0.5102773639097358,0.09854614660343378,0.3957248603913596,-1.871757300868004,27.192021332713427,-25.714354199218842,-14.104457462033833,-22.082314298516717,2.1286807077586762
0.024153799237918258,0.3548898068054906,-0.3630055801649777,-0.062394153755052216,-0.1758461030822889,0.07778460082750813,0.18005032270775068,-0.8731681474526941,0.31977465841111835,-0.5132523372717648,0.09675087934605918,0.3952737834900714,-1.8990463453314022,27.25118487647605,-25.631021866852986,-14.072618312990215,-22.162732502266977,2.131176580697553
0.024515339349662275,0.3531323323164568,-0.36235754595288033,-0.06342652884363373,-0.17565625104173033,0.07857423834330673,0.1807700558720083,-0.8787372445168854,0.32401710604868816,-0.5161875442907529,0.09492602027928762,0.3948187578993033,-1.9263759978728496,27.309684742842464,-25.547402123916754,-14.041472588712928,-22.242426820164287,2.1339648340874255
0.024878289506678555,0.35136381081815227,-0.3617009928386971,-0.06446469474218873,-0.17547010691531,0.07936295832490892,0.18147507850814015,-0.8842607491522667,0.3282765570916002,-0.5190829492775019,0.09307206321015951,0.394359990801089,-1.9537394036293834,27.367502532243957,-25.46349242227176,-14.011025352591721,-22.321392038943923,2.137036659471443
0.025242620380443545,0.34958433363581953,-0.36103588733333125,-0.06550857178237102,-0.1752877279133411,0.08015075368248763,0.18216543688249573,-0.8897385911663576,0.3325527526829213,-0.5219385200911448,0.09118950098446002,0.39389767878935694,-1.9811296003376717,27.424619835087043,-25.379290063088497,-13.981281468868442,-22.399622944749204,2.1403836334334647
0.02560830273722122,0.34779399222932483,-0.360362196468411,-0.06655808023851113,-0.17510917026246062,0.08093761769924526,0.18284117838883762,-0.8951707032473415,0.3368454324601144,-0.5247542280700555,0.08927882544024779,0.39343200837882014,-2.0085395198869023,27.481018235238984,-25.29479219872276,-13.95224560064463,-22.47711432388923,2.143997697875868
0.02597530744030532,0.34599287818742347,-0.3596798877992513,-0.0676131403344419,-0.17493448920773708,0.08172354401222447,0.18350235154204952,-0.9005570209506932,0.3411543345798448,-0.5275300479653856,0.08734052736176716,0.3929631564895989,-2.0359619899870625,27.53667931356799,-25.209995834673713,-13.923922207961798,-22.553860963624718,2.147871141248098
0.026343605452248234,0.3441810832220518,-0.3589889294077657,-0.0686736722501961,-0.17476373901486958,0.08250852659404193,0.18414900597145673,-0.9058974826858198,0.34547919574280367,-0.5302659578771024,0.08537509643374863,0.39249129090873214,-2.0633897359522297,27.59158465153928,-25.12489783162428,-13.896315545956138,-22.6298576529813,2.1519965806811197
0.026713167837075797,0.3423586991626464,-0.3582892899053286,-0.06973959612858091,-0.17459697297247737,0.08329255973550129,0.18478119241378052,-0.9111920297027156,0.3498197512185501,-0.5329619391924032,0.08338302119610212,0.39201657072967855,-2.0908153825983233,27.64571583486395,-25.03949490756109,-13.869429663089045,-22.7050991835907,2.1563669449854745
0.02708396576248729,0.34052581795048914,-0.35758093843558786,-0.07081083208163369,-0.17443424339447935,0.084075638029043,0.18539896270574738,-0.9164406060786336,0.3541757348703705,-0.5356179765263921,0.08136478899900751,0.39153914677085605,-2.118231456254729,27.699054457201907,-24.953783639974844,-13.843268399455031,-22.77958035055881,2.160975458472338
0.027455970502040034,0.3386825316330796,-0.35686384467722754,-0.0718873001969635,-0.17427560162256253,0.08485775635299143,0.1860023697763723,-0.9216431587047739,0.35854687918015665,-0.5382340576649084,0.07932088595840736,0.39105916197421836,-2.1456303868890094,27.75158212391596,-24.867760468138712,-13.817835385168244,-22.853295953360895,2.1658156255589844
0.027829153437317906,0.3368289323585336,-0.3561379788466809,-0.0729689205439823,-0.1741210980287387,0.08563890985656107,0.18659146763893558,-0.9267996372729898,0.36293291527330135,-0.5408101735094004,0.07725179691190623,0.39057675178481904,-2.1730045103438504,27.80328045587646,-24.781421695463933,-13.79313403882888,-22.92624079676326,2.170881216122046
0.028203486060083247,0.3349651123700086,-0.3554033117007937,-0.07405561318002979,-0.17397078201798855,0.08641909394558561,0.1871663113826709,-0.9319099942625153,0.3673335729436126,-0.5433463180237454,0.0751580053750812,0.39009204451226953,-2.200346070685293,27.85413109331592,-24.694763491931447,-13.76916756607071,-22.998409691771123,2.1761662515633287
0.02857893997441161,0.33309116400015515,-0.35465981453943723,-0.07514729815639562,-0.17382470203099212,0.08719830426893552,0.18772695716418206,-0.9369741849267129,0.3717485806782451,-0.5458424881829189,0.07303999349820826,0.389605161674953,-2.227647222661126,27.904115699731683,-24.607781896598933,-13.74593895819075,-23.06979745660285,2.1816649915550457
0.02895548689880882,0.3312071796655955,-0.35390745920807193,-0.07624389552424246,-0.1736829055469453,0.08797653670559115,0.18827346219860522,-0.9419921672798449,0.37617766568265054,-0.5482986839234232,0.07089824202340897,0.38911621832781573,-2.2549000342682644,27.953215965835124,-24.52047282018072,-13.723450990862107,-23.140398917688984,2.1873719214325353
0.029333098668309885,0.32931325186142774,-0.35314621810026087,-0.07734532534043323,-0.17354543908646086,0.08875378735234019,0.1888058847505321,-0.9469639020838686,0.3806205539055442,-0.5507149080953874,0.06873323024222192,0.38862532337451855,-2.2820964894278055,28.001413613547015,-24.43283204770048,-13.701706222930957,-23.210208910697187,2.1932817402042586
0.029711747236559304,0.32740947315575725,-0.35237606416013306,-0.07845150767326574,-0.17341234821455365,0.08953005251206957,0.18932428412470986,-0.9518893528352582,0.38507697006389036,-0.5530911664162572,0.06654543595360343,0.38813257986469296,-2.3092284907663245,28.048690400036715,-24.344855241214656,-13.680706995298491,-23.279222281581387,2.1993893491501297
0.030091404677872368,0.32549593618425354,-0.35159697088479724,-0.07956236260811772,-0.17328367754370894,0.09030532868262359,0.1898287206565319,-0.956768485751854,0.38954663766790354,-0.5554274674259944,0.06433533542236189,0.3876380852770119,-2.336287862501891,28.09502812180413,-24.256537942605295,-13.660455429888604,-23.347433887655676,2.205689840980806
0.030472043189277036,0.32357273364473405,-0.35080891232670514,-0.08067781025300515,-0.1731594707370329,0.09107961254620109,0.19031925570233363,-0.9616012697597401,0.39402927904606744,-0.5577238224437114,0.06210340333802987,0.38714193178875056,-2.3632663534331715,28.14040861880292,-24.16787557644121,-13.640953428702062,-23.41483859869188,2.212178489531568
0.03085363509253605,0.3216399582917737,-0.35001186309596477,-0.08179777074405649,-0.17303977051148453,0.09185290095926606,0.19079595162950672,-0.9663876764801538,0.39852461537017003,-0.55998024552567,0.059850112774178475,0.3866442065324813,-2.390155640029852,28.184813778603477,-24.078863452905033,-13.622202672957759,-23.48143129804054,2.218850739966018
0.031236152836148938,0.31969770293134087,-0.34920579836260407,-0.08292216425090564,-0.1729246186411882,0.09262519094294709,0.19125887180644438,-0.9711276802164259,0.40303236668035475,-0.5621967534245745,0.05757593514817796,0.3861449918405153,-2.41694732962256,28.228225540593566,-23.98949677078607,-13.604204622321625,-23.54720688377505,2.225702199465572
0.0316195689973336,0.31774606041545894,-0.3483906938587837,-0.08405091098200583,-0.17281405596082536,0.09339647967390244,0.1917080805923302,-0.9758212579409562,0.4075522519101873,-0.5643733655500954,0.05528134018140872,0.3856443654776744,-2.4436329636902983,28.270625900215936,-23.899770620536017,-13.586960514223692,-23.61216026985805,2.232728628382263
0.032003856283987164,0.3157851236368945,-0.3475665258809602,-0.08518393118986696,-0.17270812236910552,0.09416676447562834,0.19214364332678205,-0.9804683892822225,0.412083988911738,-0.5665101039305616,0.0529667958599267,0.3851424008629501,-2.4702040212433483,28.311996913240293,-23.809679987386613,-13.57047136326375,-23.676286387330094,2.239925931833114
0.03238898753662589,0.3138149855238708,-0.3467332712919989,-0.08632114517621849,-0.17260685683231433,0.0949360428101895,0.19256562631936253,-0.9850690565118272,0.4166272944806786,-0.5686069931757609,0.0506327683955871,0.3846391672805783,-2.496651922299465,28.352320700068198,-23.719219754527124,-13.5547379607059,-23.739580185519237,2.2472901517155046
0.03277493573030382,0.31183573903480766,-0.3458909075232361,-0.08746247329710008,-0.17251029738793908,0.09570431227035156,0.19297409683896635,-0.989623244531582,0.4211818843813938,-0.5706640604407948,0.04827972218763017,0.38413473008103427,-2.5229680314511294,28.391579450069447,-23.628384706340803,-13.539760874062349,-23.802036633272067,2.254817459123938
0.033161673976510014,0.3098474771530864,-0.3450394125764919,-0.08860783596788194,-0.1724184811483696,0.09647157057209642,0.19336912310309534,-0.994130940860631,0.4257474733721061,-0.5726813353909307,0.04590811978473297,0.38362915087242855,-2.5491436615214735,28.42975542594762,-23.537169531697437,-13.525540446766623,-23.863650720204685,2.262504147149422
0.03354917552504408,0.3078502928818412,-0.3441787650260319,-0.08975715366821674,-0.17233144430467454,0.09723781554750194,0.19375077426703058,-0.9985921356226156,0.43032377523001436,-0.5746588501674039,0.04351842184753054,0.38312248770276064,-2.575170077306421,28.46683096813328,-23.445568827300832,-13.512076797936402,-23.924417457973483,2.2703466240436643
0.0339374137658699,0.30584427923877544,-0.343308944020479,-0.09091034694692497,-0.17224922213045132,0.09800304513796887,0.19411912041291135,-1.0030068215328805,0.4349105027764447,-0.5765966393541176,0.04111108711161021,0.38261479523346686,-2.6010384994005222,28.502788499202687,-23.35357710108995,-13.49936982222603,-23.984331881565257,2.278341406731015
0.034326362230947365,0.303829529251004,-0.34242992928467497,-0.09206733642681536,-0.17217184898574936,0.09876725738777822,0.19447423253872964,-1.007374993885723,0.43950736790201395,-0.5784947399451972,0.03868657235098233,0.38210612490467644,-2.6267401081038018,28.537610528320254,-23.261188775690318,-13.487419189768707,-24.04338905060551,2.286485114652029
0.03471599459604186,0.3018061359499206,-0.34154170112149135,-0.09322804280944207,-0.1720993583210653,0.09953045043796337,0.19481618254724895,-1.0116966505416876,0.44411408159180416,-0.5803531913133521,0.03624533234203085,0.3815965250925717,-2.6522660474069086,28.571279655702675,-23.16839819191533,-13.47622434620844,-24.10158405068494,2.294774463923092
0.03510628468251157,0.2997741923660908,-0.34064424041359026,-0.09439238687980007,-0.1720317826814094,0.10029262252048182,0.1951450432348555,-1.0159717919149047,0.4487303539505484,-0.5821720351790053,0.033787819827946985,0.38108604125922857,-2.67760742905176,28.603778577102943,-23.075199612315124,-13.46578451282154,-24.15891199470302,2.30320626179741
0.03549720645907227,0.29773379152416984,-0.3397375286251346,-0.09556028951096038,-0.1719691537104421,0.10105377195267241,0.1954608882803499,-1.0202004209604765,0.4533558942278266,-0.5839513155801487,0.031314485483648985,0.38057471609529575,-2.702755336664741,28.63509008831155,-22.981587224770177,-13.456098686727564,-24.215368024228198,2.3117774014133072
0.03588873404353964,0.295685026437846,-0.3388215478034481,-0.09673167166864616,-0.17191150215467974,0.10181389713198412,0.19576379223368653,-1.0243825431619102,0.4579904108432709,-0.5856910788428868,0.02882577788119114,0.380062589655854,-2.727700829959497,28.66519708967398,-22.887555146129202,-13.447165641189523,-24.270947310874035,2.320484856816389
0.036280841704548976,0.2936279901048088,-0.33789628058062454,-0.09790645441575142,-0.17185885786776842,0.10257299653096368,0.1960538305046677,-1.0285181665185994,0.4626336114117805,-0.5873913735526326,0.026322143455664856,0.3795496994897806,-2.752434949006248,28.694082590620887,-22.793097425887865,-13.438983926003003,-24.325645057690473,2.3293256782428626
0.036673503863252174,0.2915627755017421,-0.3369617101750871,-0.09908455891680326,-0.17181124981482523,0.10333106869248954,0.19633107935159974,-1.0326073015333548,0.46728520276874375,-0.5890522505259197,0.02380402647159456,0.3790360807629294,-2.776948718564471,28.721729714210383,-22.698208049907546,-13.431551867974013,-24.379456500569724,2.3382969876517183
0.03706669509499201,0.2894894755793421,-0.3360178203930965,-0.10026590644236887,-0.17176870607684558,0.10408811222524038,0.1965956158699171,-1.0366499611999849,0.47194489099526843,-0.5906737627827991,0.021271868989831202,0.37852176637541995,-2.8012331524757292,28.748121701678862,-22.602880944170703,-13.424867571485043,-24.432376909665884,2.3473959744942254
0.03746039013095357,0.2874081832573603,-0.3350645956302097,-0.10145041837340844,-0.17173125385517568,0.10484412579938701,0.19684751798078104,-1.0406461609909268,0.47661238144341866,-0.5922559655197884,0.01872611083494579,0.3780067870733186,-2.8252792581133814,28.773241916999456,-22.507109978572558,-13.418928919148975,-24.484401590827666,2.356619891709621
0.03785456385979289,0.28531899141967043,-0.33410202087268676,-0.10263801620557512,-0.17169891947604943,0.10559910814249697,0.19708686441965825,-1.0445959188449285,0.48128737876145766,-0.5937989160833428,0.01616718956312549,0.3774911715549772,-2.8490780408857703,28.79707385144456,-22.410888970744942,-13.413733572550319,-24.535525887043434,2.3659660519364074
0.03824919132924266,0.28322199290936084,-0.33313008169884856,-0.10382862155346277,-0.17167172839518827,0.10635305803564155,0.19731373472488548,-1.0484992551547834,0.4859695869190957,-0.5953026739438206,0.01359554043057454,0.3769749465722858,-2.872620508789492,28.819601128151525,-22.314211689912092,-13.409278973073354,-24.585745179897767,2.37543182392917
0.038644247747695114,0.2811172805238506,-0.3321487642803831,-0.1050221561548026,-0.17164970520246342,0.1071059743096957,0.19752820922622513,-1.0523561927551155,0.4906587092327424,-0.596767300669915,0.01101159636242227,0.3764581370270811,-2.895897677009257,28.84080750668854,-22.21707186077464,-13.405562342816381,-24.635054891038845,2.3850146291713
0.03903970848576195,0.27900494701003015,-0.33115805538360155,-0.10621854187460966,-0.17163287362661914,0.10785785584182159,0.19773036903341698,-1.056166756910218,0.4953544483907629,-0.5981928599035263,0.008415787922140188,0.3759407660629421,-2.918900572560791,28.860676887618343,-22.119463167421095,-13.40258068559167,-24.683450483656006,2.3947119386744142
0.03943554907781141,0.2768850850594263,-0.33015794237064405,-0.10741770070927976,-0.1716212565400562,0.10860870155212678,0.19792029602473069,-1.0599309753019444,0.5000565064787363,-0.5995794173350508,0.005808543281470216,0.3754228551525935,-2.9416202389731474,28.879193317057684,-22.021379257263366,-13.400330788010226,-24.730927463966246,2.4045212699556995
0.039831745223482456,0.27475778730339095,-0.3291484132006346,-0.10861955479063788,-0.17161487596367447,0.10935851040048902,0.1980980728355236,-1.0636488780176523,0.5047645850047164,-0.600927040679061,0.003190288190865834,0.37490442418112613,-2.9640477410068335,28.89634099123076,-21.922813744995036,-13.398809220650836,-24.777481382709603,2.414440184184881
0.040228272789176074,0.2726231463083146,-0.3281294564307856,-0.1098240263899386,-0.17161375307177357,0.1101072813835395,0.19826378284680823,-1.0673204975382007,0.5094783849244929,-0.6022357996503568,0.0005614459504479073,0.374385491525234,-2.986174169403966,28.912104261012963,-21.82376021656943,-13.398012339312398,-24.823107836651733,2.424466283492725
0.04062510780952374,0.2704812545708626,-0.3271010612174519,-0.11103103792181933,-0.17161790819701062,0.11085501353179682,0.1984175101738331,-1.0709458687259985,0.5141976066668533,-0.6035057659403652,-0.00207756261852326,0.3738660741286589,-3.0079906456667853,28.926467636464185,-21.724212233196255,-13.39793628634889,-24.867802470093572,2.4345972084335603
0.0410222264888331,0.26833220451323636,-0.3260632173171342,-0.11224051194820707,-0.17162736083541394,0.11160170590694486,0.19855933965468098,-1.0745250288131076,0.5189219501588435,-0.6047370131938679,-0.004726319201658074,0.373346187574023,-3.0294883268606667,28.939415791348154,-21.62416333535341,-13.398576992086014,-24.91156097638705,2.4448306355945135
0.041419605202510874,0.2661760884784576,-0.32501591508743216,-0.11345237118217914,-0.17164212965145179,0.11234735759924731,0.19868935683888786,-1.078058017389398,0.5236511148510263,-0.6059296169860385,-0.007384408018928746,0.3728258461512224,-3.050658410437844,28.950933567636238,-21.523607046812746,-13.399930176318676,-24.954379099455718,2.4551642753444702
0.041817220498463044,0.2640129987256761,-0.3239591454879467,-0.11466653849177869,-0.17166223248315507,0.1130919677250924,0.1988076479760862,-1.081544876390755,0.5283847997427386,-0.6070836547997708,-0.01005141585164003,0.37230506292254595,-3.0714921390779475,28.961005979992564,-21.422536878676638,-13.4019913498882,-24.99625263532014,2.465595869716213
0.042215049098472394,0.2618430274255014,-0.32289290008113203,-0.11588293690378525,-0.17168768634729284,0.11383553542466175,0.19891430000467514,-1.0849856500873374,0.5331227034073424,-0.6081992060032793,-0.012726932068878507,0.37178384978467593,-3.0919808055414757,28.969618220239134,-21.32094633342411,-13.404755816338499,-25.037177433626443,2.476123190415372
0.042613067899553436,0.25966626665535764,-0.3218171710330971,-0.11710148960744116,-0.1717185074445997,0.1145780598597172,0.19900940054052102,-1.0883803850718892,0.5378645240174733,-0.6092763518279575,-0.01541054865343941,0.3712622175277194,-3.112115757532266,28.976755661797423,-21.21882890896311,-13.408218673649955,-25.077149399177596,2.486744036950147
0.04301125397528482,0.25748280839486143,-0.32073195111435654,-0.1183221199581341,-0.17175471116505417,0.11531954021150002,0.1990930378656904,-1.0917291302481003,0.542609959370282,-0.6103151753464763,-0.018101860227230156,0.37074017589141245,-3.13188840256503,28.9824038641053,-21.116178102687986,-13.41237481605009,-25.116164493466652,2.4974562348760467
0.043409584577119256,0.2552927445212234,-0.3196372337005312,-0.11954475148103633,-0.17179631209320648,0.11605997567873728,0.19916530091721854,-1.0950319368190187,0.5473587069126691,-0.6113157614511088,-0.020800464076149768,0.37021773361863286,-3.1512902128339553,28.986548577005752,-21.012987415538287,-13.417218935899829,-25.154218736210815,2.5082576341501466
0.04380803713567109,0.2530961668046724,-0.31853301277299817,-0.12076930787470086,-0.17184332401355537,0.11679936547574998,0.19922627927591507,-1.0982888582755106,0.5521104637665116,-0.6122781968322661,-0.02350596017444362,0.3696948985063492,-3.1703127300784244,28.989175745106063,-20.909250356058628,-13.422745525654229,-25.19130820688569,2.519146107589592
0.0442065892619815,0.25089316690390284,-0.3174192829194904,-0.12199571301461533,-0.17189575991597245,0.11753770883065824,0.19927606315520938,-1.101499950384771,0.5568649267538813,-0.6132025699572321,-0.026217951208532948,0.36917167745412977,-3.188947570441822,28.990271512104194,-20.80496044445498,-13.428948879896474,-25.227429046258518,2.5301195494293225
0.044605218748761576,0.2486838363615451,-0.3162960393346459,-0.12322389095671349,-0.17195363200117308,0.11827500498367889,0.19931474339003744,-1.1046652711788805,0.5616217924222517,-0.6140889710490818,-0.02893604260031878,0.36864807651032816,-3.207186429319467,28.98982222508099,-20.700111216647763,-13.435823097444054,-25.262577457920298,2.54117587397426
0.045003903571613116,0.24646826659965826,-0.3151632778205065,-0.12445376594084503,-0.17201695168623302,0.119011253185511,0.19934241142577167,-1.107784880943409,0.5663807570696944,-0.6149374920657745,-0.03165984252995995,0.36812410091605624,-3.2250210861916013,28.987814438754878,-20.594696228317197,-13.44336208352552,-25.296749709814836,2.552313014341315
0.04540262189022751,0.24424654891524614,-0.3140209947869664,-0.12568526239420386,-0.17208572961014926,0.11974645269580511,0.19935915930719567,-1.1108588422060657,0.5711415167700622,-0.6157482266794073,-0.03438896195812515,0.36759975514705084,-3.242443409437488,28.984234919697464,-20.488709058939577,-13.451559552027055,-25.329942135764746,2.5635289212868955
0.04580135204956256,0.24201877447579534,-0.31286918725217006,-0.1269183049347151,-0.17215997563944468,0.12048060278171219,0.19936507966752479,-1.1138872197253924,0.575903767398159,-0.6165212702556185,-0.037123014647718854,0.36707504295353527,-3.259445361126584,28.979070650507524,-20.382143315813295,-13.460409027807042,-25.362151136993287,2.574821562115715
0.04620007258099751,0.23978503431483633,-0.3117078528428603,-0.12815281837438136,-0.17223969887381485,0.12121370271650853,0.19936026571747412,-1.1168700804795009,0.580667204654894,-0.6172567198331324,-0.03986161718508134,0.36654996739817125,-3.276019001782791,28.97230883394083,-20.27499263806989,-13.469903849077609,-25.393373183640712,2.5861889196668755
0.04659876220346626,0.23754541932752662,-0.3105369897946754,-0.12938872772258822,-0.17232490765181618,0.12194575177829291,0.19934481123437467,-1.1198074936548505,0.58543152409242,-0.6179546741034326,-0.04260438900066293,0.36602453089219356,-3.2921564951178097,28.963936896993882,-20.167250700670706,-13.480037169851638,-25.423604816275137,2.5976289913734756
0.046997399824568936,0.2353000202662565,-0.3093565969523969,-0.13062595818936934,-0.17241560955659452,0.12267674924875253,0.19931881055133874,-1.1226995306350678,0.590196421139254,-0.6186152333905575,-0.04535095238917276,0.36549873522981385,-3.307850112729625,28.95394249493906,-20.05891121838473,-13.490801962453878,-25.452842647396242,2.60913978839201
0.04739596454166189,0.2330489277362769,-0.30816667377014617,-0.13186443518863136,-0.17251181142165292,0.12340669441199449,0.19928235854647522,-1.1255462649898025,0.5949615911253776,-0.6192384996310063,-0.04810093252920266,0.364972581620977,-3.3230922387621797,28.942313515309007,-19.94996794974649,-13.502191020094747,-25.48108336293123,2.6207193347981605
0.0477944356429262,0.23079223219134964,-0.3069672203115315,-0.13310408434133886,-0.17261351933665758,0.12413558655343959,0.19923555063215528,-1.1283477724636228,0.5997267293073192,-0.61982457635375,-0.05085395750232645,0.36444607072254914,-3.3378753745223073,28.929038081828196,-19.840414700992227,-13.51419695950527,-25.508323723722608,2.632365666845597
0.04819279260841486,0.22853002392941976,-0.3057582372497451,-0.13434483147865953,-0.17272073865328094,0.12486342495877562,0.1991784827443289,-1.1311041309649443,0.6044915308932123,-0.6203735686603368,-0.053609658311675634,0.36391920266801253,-3.3521921430500328,28.91410455828902,-19.73024532997071,-13.5268122236319,-25.53456056700593,2.6440768322845956
0.04859101511107864,0.22626239308830978,-0.3045397258676094,-0.1355866026450697,-0.17283347399108093,0.1255902089129671,0.1991112513318926,-1.1338154205549926,0.6092556910678317,-0.6208855832050866,-0.056367668899992035,0.363391977095739,-3.3660352936383697,28.897501552370706,-19.61945375002812,-13.540029084389401,-25.55979080787785,2.6558508897374753
0.04898908301777086,0.2239894296414362,-0.3033116880575742,-0.13682932410142043,-0.17295172924341523,0.12631593769931893,0.19903395334610866,-1.1364817234367983,0.6140189050176048,-0.6213607281753666,-0.059127626167158394,0.3628643931759103,-3.379397706298804,28.879217919398606,-19.50803393386399,-13.553839645470546,-25.584011440752718,2.6676859081279076
0.049386976390231006,0.22171122339354776,-0.302074126321663,-0.1380729223279643,-0.17307550758338966,0.12704061059859123,0.19894668623007514,-1.1391031239442204,0.6187808679555961,-0.6217991132719409,-0.06188916998720793,0.3623364496361501,-3.3922723961686745,28.85924276604201,-19.39597991735646,-13.568235845211024,-25.60721954080705,2.6795799661613247
0.0497846754860475,0.21942786397648575,-0.30082704377137004,-0.1393173240273431,-0.1732048114698393,0.12776422688816308,0.1988495479082476,-1.141679708530998,0.6235412751464648,-0.6222008496893898,-0.06465194322481399,0.3618081447859303,-3.404652517856662,28.837565453947974,-19.283285803354346,-13.583209459507817,-25.629412265411574,2.691531151853767
0.050182160759599526,0.21713944084496611,-0.2995704441275073,-0.14056245612753626,-0.1733396426533418,0.1284867858412427,0.19874263677601153,-1.1442115657598266,0.6282998219313929,-0.6225660500965905,-0.06741559175126106,0.3612794765398098,-3.4165313697227724,28.814175603309295,-19.16994576543445,-13.598752104789675,-25.650586855549196,2.703537562106646
0.05057941286297814,0.21484604327238319,-0.2983043317200013,-0.14180824578477078,-0.17348000218226162,0.12920828672612183,0.19862605168930517,-1.1466987862914593,0.6330562037529816,-0.6228948286172553,-0.07017976445989847,0.3607504424395621,-3.4279023980891075,28.78906309636514,-19.055954051622212,-13.614855241038107,-25.670740637218653,2.715597302324963
0.05097641264688672,0.21254776034663553,-0.2970287114876411,-0.14305462038639183,-0.17362589040882379,0.12992872880547232,0.19849989195429263,-1.1491414628738261,0.6378101161801161,-0.6231873008105228,-0.07294411328107822,0.36022103967524555,-3.438759201377855,28.762218080831147,-18.941304988072925,-13.631510174856935,-25.689871022822924,2.727708486076672
0.0513731411615209,0.21024468096597318,-0.29574358897777553,-0.14430150755369503,-0.17377730699521693,0.13064811133568285,0.19836425731708626,-1.151539690331175,0.6425612549327963,-0.6234435836515948,-0.07570829319657865,0.3596912651052667,-3.449095534172938,28.733630973257956,-18.825992982712133,-13.648708062589309,-25.707975512541168,2.739869234790982
0.051769579657427935,0.20793689383486672,-0.2944489703459617,-0.14554883514471986,-0.17393425091972395,0.13136643356623381,0.19821924795351778,-1.1538935655532259,0.6473093159069304,-0.6236637955124179,-0.07847196225351546,0.35916111527548567,-3.45890531120194,28.70329246231622,-18.710012528833353,-13.66643991347996,-25.725051695684023,2.7520776774934266
0.05216570958634585,0.20562448745989803,-0.2931448623555635,-0.14679653125700468,-0.17409672048287944,0.13208369473910864,0.1980649644589572,-1.156203187484341,0.6520539951990924,-0.6238480561424022,-0.081234781577742,0.3586305864374089,-3.468182611234794,28.671193512005704,-18.593358208650855,-13.684696592881583,-25.74109725203096,2.7643319505757242
0.05256151260202221,0.20330755014567262,-0.291831272377301,-0.14804452423030304,-0.17426471331365292,0.13279989408823967,0.19790150783817864,-1.1584686571127045,0.6567949891312387,-0.6239964866491764,-0.08399641538674073,0.35809967456551445,-3.4769216808959804,28.637325364786975,-18.476024696805762,-13.703468825503213,-25.75610995314916,2.776630197598454
0.05295697056101275,0.20098616999075358,-0.29050820838875024,-0.1492927426492618,-0.17443822637565695,0.13351503083898716,0.19772897949527213,-1.1606900774595112,0.6615319942753851,-0.624109209479373,-0.0867565310020078,0.3575683753737503,-3.4851169383869456,28.601679544633647,-18.35800676382378,-13.72274719869923,-25.770087663692877,2.7889705691246793
0.053352065523459946,0.19866043488361726,-0.28917567897379376,-0.15054111534606068,-0.17461725597337882,0.13422910420764966,0.19754748122359986,-1.1628675535681612,0.6662647074782395,-0.6241863483994431,-0.08951479886093293,0.3570366843312465,-3.492762977115554,28.564247860003707,-18.239299279522395,-13.742522165797112,-25.783028342683064,2.801351222582763
0.05374677975385154,0.19633043249863036,-0.2878336933220222,-0.15178957140301366,-0.17480179775843518,0.13494211340100423,0.19735711519579605,-1.1650011924934567,0.67099282588579,-0.6242280284764956,-0.09227089252817677,0.35650459667727874,-3.4998545692295076,28.525022406728162,-18.119897216366265,-13.76278404946233,-25.79493004476555,2.8137703221566723
0.05414109572175915,0.19399625029204876,-0.2864822612280865,-0.15303804015513198,-0.17499184673584828,0.13565405761587526,0.19715798395380885,-1.1670911032908005,0.6757160469678467,-0.6242343760591594,-0.09502448870654809,0.35597210743551894,-3.506386669050623,28.483995570814713,-17.999795652768384,-13.783523045098665,-25.80579092144816,2.826226038702149
0.05453499610255712,0.19165797549803798,-0.28512139309100143,-0.15428645119264892,-0.17518739727034305,0.13636493603873048,0.1969501903989829,-1.16913739700539,0.6804340685425342,-0.6242055187584655,-0.09777526724738324,0.35543921142760826,-3.51235441640716,28.44116003116586,-17.878989776336102,-13.804729224282166,-25.815609222314983,2.8387165496871463
0.05492846377812148,0.18931569512471516,-0.2837510999134,-0.1555347343635064,-0.1753884430926639,0.13707474784530266,0.19673383778218112,-1.1711401866614073,0.6851465888007335,-0.6241415854287472,-0.10052291116043038,0.35490590328608423,-3.5177531398612443,28.396508762209052,-17.757474887059693,-13.826392538227152,-25.824383296217874,2.851240039155137
0.055321481837509366,0.18696949595021276,-0.282371393300739,-0.15678281977580352,-0.1755949773059104,0.13778349220023606,0.1965090296939439,-1.1730995872511991,0.6898533063304716,-0.6240427061485567,-0.10326710662324115,0.3543721774666937,-3.522578359828671,28.35003503643734,-17.63524640044218,-13.84850282128234,-25.832111592444008,2.8637946977097695
0.055714033577618734,0.18461946451876388,-0.2809822854604565,-0.1580306378002067,-0.17580699239189054,0.1384911682567563,0.19627587005468433,-1.175015715724446,0.6945539201412553,-0.6239090122015957,-0.10600754299007246,0.35383802826012073,-3.5268257915884638,28.30173242686002,-17.51229985056898,-13.871049794455637,-25.838792661858758,2.8763787225196022
0.05610610250382857,0.18226568713680924,-0.2795837892010798,-0.15927811907232203,-0.17602448021749115,0.1391977751563626,0.19603446310491743,-1.1768886909773177,0.6992481296883496,-0.6237406360576587,-0.1087439128003013,0.3533034498031584,-3.530491348179543,28.251594809360206,-17.388630893115018,-13.894023068965511,-25.844425158023625,2.888990317341528
0.056497672330619614,0.179908249869126,-0.2781759179312858,-0.16052519449502922,-0.17624743204106386,0.1399033120285413,0.19578491339552173,-1.1787186338416087,0.7039356348969961,-0.623537711353589,-0.11147591178635541,0.35276843608935055,-3.533571143182145,28.19961636495949,-17.264235308289063,-13.917412149817595,-25.849007838288024,2.901627692561746
0.056888726982175675,0.1775472385349783,-0.2767586856589127,-0.1617717952407777,-0.17647583851882617,0.14060777799049956,0.19552732577803128,-1.1805056670738538,0.7086161361865702,-0.6233003728742441,-0.11420323888116293,0.35223298097912925,-3.5360614933815206,28.145791581987517,-17.1391090037128,-13.941206439404471,-25.85253956485477,2.9142890652529823
0.05727925059296559,0.17518273870428946,-0.27533210698992333,-0.16301785275384464,-0.17670968971127643,0.14131117214691852,0.19526180539495608,-1.1822499153444206,0.713289334494676,-0.6230287565334717,-0.1169255962251241,0.35169707820947266,-3.5379589213117755,28.09011525815525,-17.01324801723362,-13.965395241127109,-25.855019305817954,2.9269726592469527
0.057669227508305845,0.17281483569383632,-0.273896197127321,-0.16426329875255483,-0.17694897508962165,0.14201349358972473,0.19498845767012896,-1.1839515052265726,0.717954931301175,-0.6227229993550945,-0.11964268917260816,0.3511607214031059,-3.5392601576775897,28.032582502531234,-16.886648519670022,-13.989967763036072,-25.85644613617359,2.9396767052208297
0.058058642284904,0.17044361456346532,-0.2724509718700167,-0.16550806523146264,-0.17719368354221762,0.14271474139787926,0.1947073882990768,-1.1856105651855027,0.7226126286521469,-0.6223832394539042,-0.12235422629797879,0.35062390407726696,-3.5399621436518682,27.973188737418717,-16.759306817487698,-14.01491312149087,-25.85681923880107,2.952399440796841
0.05844747969138282,0.16806916011233067,-0.27099644761164915,-0.16675208446349596,-0.17744380338101992,0.1434149146371834,0.19441870323941407,-1.1872272255673333,0.727262129183781,-0.6220096160166638,-0.12505991940115166,0.3500866196520592,-3.5400620330473265,27.911929700133683,-16.631219355405527,-14.040220344835763,-25.856137905416205,2.96513911065388
0.058835724708785335,0.16569155687515452,-0.2695326413393568,-0.1679952890020622,-0.1776993223480453,0.1441140123601002,0.1941225087012564,-1.1888016185880772,0.731903136146195,-0.6216022692831188,-0.12775948351268723,0.3495488614584094,-3.539557194360256,27.84880144468169,-16.502382718930082,-14.06587837709003,-25.854401537494088,2.977893966650215
0.05922336253106064,0.1633108891185094,-0.2680595706325024,-0.16923761168311624,-0.17796022762184216,0.14481203360559153,0.19381891113765204,-1.1903338783225597,0.7365353534271792,-0.6211613405270161,-0.13045263689842265,0.34901062274565087,-3.5384452126847137,27.783800343333436,-16.37279363681766,-14.091876081651453,-25.851609647162288,2.990662267956469
0.0596103785655307,0.16092724083712281,-0.26657725366135065,-0.17047898562719052,-0.17822650582396946,0.14550897739896904,0.1935080172350288,-1.1918241406932948,0.7411584855758642,-0.6206869720371336,-0.1331391010636463,0.3484718966887498,-3.536723891495594,27.716923088097104,-16.24244898346216,-14.118202245010789,-25.84776185806268,3.0034422811978634
0.05999675843333801,0.15854069575020419,-0.265085709185698,-0.17171934424138716,-0.17849814302548309,0.1462048427517594,0.19318993390365455,-1.193272543459316,0.7457722378263075,-0.620179307098318,-0.13581860075681862,0.34793267639519126,-3.5343912542990994,27.6481666920878,-16.11134578120853,-14.144845580475947,-25.842857906182367,3.016232280605089
0.06038248796987423,0.1561513372977943,-0.26358495655345604,-0.1729586212213322,-0.17877512475342877,0.1468996286615825,0.19286476826810836,-1.1946792262049541,0.7503763161210013,-0.6196384899725332,-0.13849086397284338,0.34739295491154226,-3.531445546149252,27.57752849079202,-15.979481202590147,-14.171794731903912,-25.83689764065285,3.0290305481727846
0.06076755322518975,0.15375924863713716,-0.26207501569918745,-0.17419675055309206,-0.17905743599734056,0.1475933341120419,0.19253262765776058,-1.196044330328561,0.7549704271342931,-0.6190646658799204,-0.14115562195589287,0.3468527252297059,-3.527885235029266,27.505006143227565,-15.846852572489546,-14.199038277438815,-25.829881024516354,3.041835373825128
0.06115194046438427,0.1513645126390748,-0.260555907142596,-0.1754336665150518,-0.17934506121574414,0.14828595807262765,0.19219361959725892,-1.1973679990311767,0.7595542782957213,-0.6184579809798694,-0.14381260920179123,0.34631198029288285,-3.52370901309661,27.430597632997184,-15.713457370220937,-14.22656473325457,-25.82180813545998,3.054645055587595
0.0615356361679783,0.14896721188446455,-0.2590276519869695,-0.176669303679756,-0.17963798434266406,0.14897749949863015,0.19184785179701852,-1.1986503773051338,0.7641275778132613,-0.6178185823521039,-0.14646156345995998,0.345770713001253,-3.518915797790828,27.35430126923599,-15.579293231534717,-14.25436255730026,-25.81267916651612,3.0674578997643795
0.06191862703226573,0.14656742866061936,-0.2574902719175765,-0.17790359691571156,-0.17993618879413392,0.14966795733106494,0.19149543214371334,-1.1998916119225969,0.7686900346964797,-0.6171466179777811,-0.14910222573492982,0.34522891621739143,-3.5135047328032627,27.276115687451778,-15.444357950542162,-14.28242015304666,-25.80249442672942,3.0802722211206857
0.062300899969647265,0.1441652449577713,-0.2559437892000173,-0.17913648138915278,-0.18023965747470877,0.1503573304966078,0.19113646869076653,-1.201091851424035,0.773241358779594,-0.6164422367206082,-0.15173434028742303,0.3446865827714308,-3.50747518890792,27.19603985025796,-15.308649481559982,-14.310725873232332,-25.791254341789564,3.093086343069401
0.06268244210894494,0.14176074246555806,-0.25438822667852845,-0.18036789256576874,-0.18054837278397878,0.15104561790753976,0.19077106964883733,-1.20225124610662,0.7777812607444365,-0.615705588307975,-0.15435765463501047,0.34414370546598255,-3.5008267646528664,27.11407304799834,-15.17216594087401,-14.339268023607627,-25.778959454629252,3.1058985978614406
0.06306324079569754,0.13935400256953295,-0.25282360777424184,-0.18159776621239296,-0.18086231662308347,0.15173281846170142,0.19039934337630207,-1.2033699480125513,0.7823094521433176,-0.614936823312108,-0.15697191955234788,0.343600277080828,-3.493559286911717,27.030214899263385,-15.034905608421099,-14.368034866674904,-25.76561042598779,3.118707326779281
0.06344328359243699,0.13694510634769835,-0.25124995648339826,-0.18282603839865544,-0.18118147040122545,0.1524189310424562,0.19002139836972678,-1.2044481109173009,0.7868256454217877,-0.614136093131245,-0.15957688907099565,0.3430562903773909,-3.4856728112948323,26.94446535129838,-14.896866929389567,-14.397014625423576,-25.751208034938685,3.1315108803331384
0.06382255827894565,0.1345341345670628,-0.24966729737551568,-0.1840526454985971,-0.1815058150421831,0.1531039545186622,0.18963734325432893,-1.2054858903177765,0.7913295539412948,-0.6133035499708335,-0.1621723204788268,0.34251173810300073,-3.477167622419943,26.85682468030175,-14.758048515735673,-14.42619548705805,-25.735753179382343,3.1443076184592207
0.0642010528524945,0.13212116768022203,-0.2480756555915122,-0.1852775241922466,-0.18183533099082116,0.15378788774465213,0.18924728677442587,-1.2064834434203975,0.7958208920017341,-0.6124393468247549,-0.1647579743190273,0.34196661299495806,-3.468044234042208,26.767293491615128,-14.618449147618108,-14.45556560671748,-25.719246876502098,3.157095910719651
0.06457875552806223,0.12970628582196386,-0.24647505684178442,-0.18650061146715977,-0.18216999821959856,0.15447072956022095,0.1888513377838677,-1.2074409291290829,0.8002993748638885,-0.611543637456577,-0.16733361438869396,0.34142090778440937,-3.458303389043617,26.67587271980352,-14.478067774748013,-14.485113111185276,-25.701690263184418,3.1698741365035734
0.06495565473853514,0.12728956880589756,-0.24486552740424092,-0.18772184461992145,-0.18250979623507263,0.15515247879062105,0.18844960523645185,-1.2083585080331454,0.8047647187717558,-0.6106165763808372,-0.1698990077370339,0.3408746152000422,-3.4479460592819438,26.582563628626236,-14.336903517655347,-14.514826102587332,-25.683084596402512,3.1826406852289715
0.06533173913488777,0.12487109612110739,-0.2432470941222914,-0.18894116125761015,-0.18285470408439897,0.15583313424656425,0.18804219817631718,-1.2092363423950903,0.8092166409747615,-0.609658318844359,-0.1724539246631708,0.3403277279716076,-3.436973445299512,26.4873678108988,-14.194955668870666,-14.544692662076978,-25.66343125356287,3.195393956544831
0.06570699758634439,0.12245094692883077,-0.2416197844027917,-0.19015849929922535,-0.1832047003618261,0.15651269472423082,0.18762922572831517,-1.210074596138313,0.8136548597498529,-0.6086690208076039,-0.17499813871356268,0.3397802388332787,-3.425386975892134,26.390287188244923,-14.052223694022196,-14.574700853505627,-25.642731732814827,3.2081323605332437
0.0660814191805211,0.12002920005916137,-0.23998362621394476,-0.1913737969770775,-0.18355976321518416,0.15719115900528452,0.1872107970883558,-1.2108734348346948,0.818079094423473,-0.6076488389260637,-0.17753142667903576,0.3392321405268526,-3.4131883075387863,26.291324010739856,-13.90870723284823,-14.604838727077311,-25.620987653323144,3.220854317911043
0.06645499322354856,0.11760593400777719,-0.23833864808315794,-0.19258699283814087,-0.18391987035236704,0.15786852585689412,0.186787021513726,-1.2116330256920913,0.8224890653934117,-0.6065979305316933,-0.18005356859143967,0.33868342580480315,-3.4003793236926576,26.190480856444488,-13.764406100124319,-14.635094322985847,-25.598200755502464,3.2335582602307085
0.06682770924017531,0.11518122693269377,-0.2366848790948569,-0.19379802574536964,-0.1842849990478069,0.1585447940317605,0.1863580083133779,-1.2123535375417112,0.8268844941505293,-0.6055164536143889,-0.18256434771992858,0.33813408743319123,-3.3869621339342544,26.0877606308306,-13.619320286505065,-14.665455675033158,-25.574372901214808,3.246242630080094
0.06719955697385167,0.112755156651043,-0.23502234888825618,-0.19500683487897666,-0.18465512614894064,0.15921996226814938,0.1859238668381853,-1.2130351408253814,0.8312651033003534,-0.6044045668035151,-0.1850635505668737,0.33758411819443895,-3.372939072987581,25.98316656609785,-13.47344995928109,-14.695910814227346,-25.549506073928626,3.2589058812807536
0.067570526386794,0.11032780063587762,-0.2333510876550871,-0.19621335973767562,-0.18503022808266748,0.15989402928992932,0.18548470647116555,-1.2136780075826972,0.8356306165845429,-0.6032624293494825,-0.18755096686341177,0.33703351088997463,-3.3583126996002846,25.876702220382377,-13.326795463050331,-14.726447772358995,-25.52360237884026,3.2715464790845328
0.06794060766002934,0.10789923601300151,-0.23167112613728266,-0.19741754013988638,-0.18541028086179676,0.16056699380661482,0.18504063661766504,-1.2142823114380499,0.8399807589022183,-0.6020902011053814,-0.19002638956463477,0.3364822583427536,-3.3430857952889244,25.768371476858132,-13.17935732030439,-14.757054585554828,-25.496664042957143,3.2841629003681483
0.06830979119342034,0.10546953955782644,-0.22998249562462036,-0.19861931622490372,-0.18579526009148561,0.16123885451341413,0.18459176669550603,-1.214848227587534,0.8443152563311559,-0.6008880425086733,-0.1924896148444262,0.3359303533996608,-3.3272613629506056,25.658178542730646,-13.031136231929445,-14.78771929780668,-25.4686934151429,3.2967536338254892
0.06867806760567052,0.10303878769225498,-0.22828522795232267,-0.19981862845402962,-0.18618514097566552,0.16190961009128174,0.18413820612509285,-1.2153759327857274,0.8486338361488407,-0.5996561145629453,-0.19494044208994857,0.33537778893380116,-3.3108426253423278,25.546127948124237,-12.882133077622463,-14.818429964475104,-25.43969296612403,3.309317180157425
0.06904542773430947,0.1006070564815903,-0.2265793554986159,-0.20101541761166908,-0.1865798983234571,0.1625792592069751,0.18368006431947534,-1.2158656053323413,0.8529362268533794,-0.5983945788197298,-0.19737867389578792,0.3348245578466811,-3.293833023429533,25.432224544863665,-12.732348916222563,-14.849174655766015,-25.4096652884585,3.32185205225886
0.0694118626356582,0.09817442163147282,-0.22486491118224738,-0.20220962480638988,-0.1869795065555726,0.1632478005131157,0.1832174506743678,-1.2163174250587394,0.8572221581842668,-0.5971035973603948,-0.19980411605776016,0.3342706530702879,-3.276236214605357,25.316473505149624,-12.581784985957654,-14.879941460179188,-25.37861309646592,3.3343567754027843
0.06977736358477445,0.09574095848484418,-0.22314192845996136,-0.2034011914719461,-0.18738393971070538,0.16391523264825383,0.18275047455812124,-1.2167315733143207,0.8614913611430051,-0.5957833327781075,-0.20221657756638456,0.33371606756907046,-3.2580560707823425,25.19888032013013,-12.43044270460696,-14.910718487927438,-25.346539226119116,3.346829887421232
0.07014192207537774,0.09330674201893865,-0.22141044132393423,-0.20459005936826585,-0.18779317145190544,0.1645815542369375,0.18227924530164763,-1.2171082329527645,0.8657435680135729,-0.594433948159876,-0.20461587060002986,0.33316079434182555,-3.239296676358422,25.079450798368292,-12.278323669579898,-14.941493874325172,-25.313446634897808,3.359269938882825
0.07050552981975433,0.09087184684230239,-0.21967048429916874,-0.2057761705824032,-0.1882071750729409,0.1652467638897845,0.1818038721882938,-1.2174475883181333,0.8699785123827419,-0.5930556070686731,-0.20700181051773814,0.3326048264234945,-3.219962326058927,24.95819106420612,-12.125429657910608,-14.972255783145215,-25.27933840160359,3.371675493266811
0.07086817874864165,0.08843634719184072,-0.21792209244084826,-0.2069594675294545,-0.18862592350464438,0.16591086020355825,0.18132446444366382,-1.2177498252308327,0.8741959291602375,-0.591648473525646,-0.2093742158517318,0.3320481568868735,-3.200057522656855,24.835107556027552,-11.971762626170886,-15.002992409942934,-25.24421772613679,3.3840451271333887
0.07122986101109242,0.08600031692989388,-0.21616530133165077,-0.20813989295343932,-0.1890493893212436,0.16657384176124673,0.18084113122538806,-1.2180151309734244,0.8783955545987409,-0.5902127119924165,-0.21173290829960914,0.3314907788442419,-3.179586974573242,24.710207024419233,-11.817324710299108,-15.033691985346103,-25.208087929235344,3.3963774302902507
0.0715905689743181,0.0835638295413413,-0.2144001470790233,-0.20931738992814627,-0.18947754474667608,0.16723570713214456,0.18035398161283747,-1.2182436942762882,0.8825771263137312,-0.5887484873534768,-0.21407771271623371,0.33093268544891136,-3.158555593360027,24.58349653023172,-11.662118225348078,-15.064342778309937,-25.170952452175094,3.4086710059550605
0.07195029522351166,0.08112695813073503,-0.21262666631241697,-0.21049190185794364,-0.18991036166088673,0.16789645487193797,0.17986312459678166,-1.2184357053031336,0.8867403833031643,-0.5872559648986835,-0.21640845710532305,0.33037386989669965,-3.1369684910676026,24.454983442541383,-11.506145665151259,-15.094933099335927,-25.132814856432734,3.420924470913903
0.07230903256164964,0.07868977541946232,-0.210844896180483,-0.21166337247855535,-0.19034781160610822,0.16855608352279264,0.17936866906898954,-1.2185913556363555,0.8908850659669849,-0.5857353103058562,-0.2187249726107419,0.3298143254273323,-3.1148309774994827,24.324675436514585,-11.349409701908137,-15.12545130365348,-25.0936788233104,3.4331364556754176
0.07266677400927318,0.07625235374293785,-0.20905487434823006,-0.21283174585780232,-0.19078986579312324,0.16921459161344418,0.17887072381177102,-1.218710838262233,0.8950109161264713,-0.5841866896234845,-0.22102709350750566,0.32925404532577485,-3.0921485573565044,24.192580491174702,-11.191913185689678,-15.155885794363513,-25.053548153522836,3.4453056046206996
0.0730235128042481,0.07381476504782591,-0.20725663899414323,-0.2139969663963094,-0.19123649510750823,0.16987197765929118,0.17836939748745897,-1.2187943475559686,0.8991176770434087,-0.5826102692535476,-0.22331465719249932,0.328693022923499,-3.068926927273214,24.05870688707421,-11.033659143864558,-15.186225025542957,-25.012426766747147,3.4574305761487123
0.07337924240150376,0.07137708088929279,-0.20545022880726505,-0.2151589788281783,-0.19168767011585808,0.17052824016249055,0.1778647986278303,-1.2188420792665648,0.9032050934390891,-0.5810062159344521,-0.22558750417491716,0.3281312515996849,-3.0451719727489475,23.923063203871454,-10.874650780446391,-15.216457505309087,-24.97031870113491,3.469510042817179
0.07373395647275069,0.06893937242828971,-0.20363568298423879,-0.21631772822162648,-0.19214336107199093,0.17118337761205527,0.17735703562346494,-1.2188542305015375,0.9072729115131357,-0.5793746967240918,-0.22784547806642885,0.32756872478236293,-3.0208897649764914,23.78565831781566,-10.714891475364027,-15.246571798843139,-24.927228112787606,3.4815426914789294
0.07408764890617678,0.06650171042886678,-0.2018130412263145,-0.21747315997959255,-0.1926035379231331,0.17183738848395425,0.17684621671304235,-1.2188309997114617,0.9113208789621494,-0.5777158789830356,-0.2300884255710774,0.3270054359494966,-2.9960865575709565,23.646501399139204,-10.554384783654207,-15.276556531371972,-24.883159275194963,3.4935272234135395
0.07444031380612193,0.06406416525551809,-0.19998234373631815,-0.21862521984030825,-0.19306817031608292,0.17249027124121427,0.17633244997257444,-1.2187725866743493,0.9153487449981741,-0.5760299303578467,-0.23231619647491397,0.3264413786300097,-2.970768783201872,23.505601909360628,-10.393134434578908,-15.30640039110714,-24.83811657863678,3.50546235445428
0.07479194549273108,0.061626806870558375,-0.1981436312155842,-0.21977385387783732,-0.19353722760335368,0.1731420243340238,0.17581584330457448,-1.2186791924798566,0.9193562603669795,-0.5743170187645392,-0.23452864363537562,0.3258765464047597,-2.944943050131353,23.362969598498058,-10.231144330667284,-15.33609213214055,-24.792104529548443,3.517346815110276
0.07514253850158539,0.059189704831531735,-0.1962969448608519,-0.22091900850258167,-0.1940106788492945,0.1737926461998387,0.17529650442716133,-1.218551019513319,0.923343177366159,-0.5725773123721772,-0.23672562297041064,0.32531093290745927,-2.9186161386614033,23.21861450219609,-10.068418546683812,-15.365620577295825,-24.74512774985036,3.529179350683867
0.07549208758331159,0.05675292828865251,-0.19444232636112582,-0.22206063046175492,-0.19448849283618921,0.17444213526348978,0.1747745408630989,-1.2183882714396113,0.9273092498630401,-0.5708109795866195,-0.23890699344735747,0.3247445318255485,-2.8917949974934127,23.072546938766592,-9.904961328523637,-15.394974620934864,-24.697190976241952,3.5409587213830775
0.07584058770316914,0.05431654598227885,-0.19257981789450102,-0.22319866683982376,-0.19497063807033238,0.17509048993729182,0.17425005992877013,-1.2181911531868332,0.9312542333124051,-0.5690181890344177,-0.24107261707158223,0.3241773369010196,-2.864486740002952,22.92477750614541,-9.740777092035664,-15.424143231718613,-24.648299059459898,3.5526837024292606
0.0761880340406153,0.05188062624041922,-0.19070946212495296,-0.2243330650589175,-0.19545708278808213,0.1757377086211542,0.1737231687230856,-1.2179598709298156,0.9351778847740203,-0.5671991095468701,-0.24322235887488028,0.3236093419311956,-2.8366986404331147,22.775317078766754,-9.575870421775104,-15.453115455321479,-24.598456963501615,3.5643530841598023
0.07653442198884795,0.04944523697627232,-0.18883130219909303,-0.225463772879206,-0.19594779496188944,0.17638378970269314,0.17319397411632667,-1.217694632073449,0.9390799629299715,-0.5653539101442382,-0.2453560869036472,0.3230405407694659,-2.8084381300095984,22.62417680435673,-9.410246069686483,-15.481880417098838,-24.54766976481411,3.5759656721259017
0.0768797471543258,0.047010445685800664,-0.1869453817428894,-0.22659073839924626,-0.1964427423063031,0.1770287315573451,0.17266258273892315,-1.2173956452358314,0.9429602281018036,-0.5634827600201295,-0.24747367220682448,0.3224709273259789,-2.779712792980823,22.47136810064744,-9.243908953717785,-15.510427324706926,-24.495942651448395,3.5875202871854173
0.07722400535626613,0.04457631944533819,-0.1850517448583545,-0.22771391005629837,-0.19694189228395034,0.1776725325484817,0.1721291009701659,-1.2170631202312343,0.946818442267462,-0.5615858285260534,-0.24957498882362497,0.3219004955682945,-2.7505303625864594,22.31690265201439,-9.076864156367865,-15.538745470674561,-24.443280922180342,3.599015765590858
0.07756719262611983,0.042142924909232424,-0.1831504361201984,-0.22883323662661068,-0.19744521211149244,0.1783151910275257,0.17159363492685423,-1.216697268052886,0.9506543690780354,-0.5596632851561529,-0.2516599137710439,0.32132923952199816,-2.720898716957711,22.16079240603755,-8.909116923167467,-15.566824234926088,-24.389689985597588,3.610450959072283
0.07790930520702359,0.03971032830752128,-0.1812415005724498,-0.22994866722567492,-0.19795266876555476,0.17895670533406824,0.1710562904518791,-1.2162983008555706,0.9544677738742954,-0.5577152995321193,-0.25372832703116005,0.32075715327127696,-2.690825874952756,22.003049569989134,-8.74067266109558,-15.594653087255118,-24.335175359154146,3.6218247349154664
0.07825033955322908,0.037278595443645195,-0.17932498372504374,-0.2310601513084515,-0.19846422898863122,0.17959707379598716,0.17051717310274225,-1.2158664319380426,0.9582584237030342,-0.5557420413882935,-0.25578011153823255,0.32018423095946025,-2.6603199919308604,21.843686607249225,-8.571536936932562,-15.622221589748687,-24.27974266819178,3.6331359760349873
0.0785902923295091,0.034847791692194686,-0.17740093155037734,-0.2321676386695654,-0.19897985929496242,0.1802362947295662,0.16997638814001226,-1.2154018757252556,0.9620260873331961,-0.5537436805569602,-0.2578151531655985,0.3196104667895256,-2.629389355468583,21.682716233651476,-8.401715475551057,-15.649519399160928,-24.223397644929843,3.6443835810425593
0.07892916041054054,0.03241798199669388,-0.17546939047983373,-0.23327107944347308,-0.19949952597638718,0.18087436643961535,0.169434040515718,-1.2149048477504047,0.9657705352718023,-0.5517203869538381,-0.2598333407123765,0.319035855024572,-2.598042381021589,21.520151413760424,-8.231214158146019,-15.676536269236614,-24.166146127423143,3.6555664643104153
0.07926694088026391,0.029989230867420315,-0.1735304074002744,-0.23437042410460063,-0.20002319510816713,0.18151128721959187,0.16889023486168084,-1.2143755646367818,0.9694915397796677,-0.5496723305637734,-0.26183456588998116,0.31846038998826093,-2.566287607535635,21.356005357082623,-8.060039020405519,-15.703262052983254,-24.107994058488963,3.6666835560298328
0.07960363103121948,0.02756160237926143,-0.17158402965050057,-0.23546562346745392,-0.20055083255478404,0.18214705535172232,0.16834507547778638,-1.2138142440794424,0.9731888748869065,-0.5475996814266401,-0.2638187233084532,0.3178840660652273,-2.534133693010282,21.190291514213854,-7.888196250623997,-15.729686704892316,-24.048947484603385,3.6777338022649433
0.07993922836385987,0.025135160169608053,-0.1696303050176841,-0.23655662868670083,-0.20108240397570926,0.18278166910712523,0.16779866632019705,-1.2132211048266868,0.9768623164082275,-0.5455026096234518,-0.26578571046261096,0.3173068777014609,-2.501589410018824,21.023023572923424,-7.715692187758265,-15.755800283108478,-23.989012554767523,3.6887161650016713
0.08027373058583889,0.022709967436285353,-0.16766928173376808,-0.23764339125722622,-0.20161787483114532,0.18341512674593455,0.16725111098950693,-1.212596366661351,0.9805116419580152,-0.543381285262691,-0.26773542771802744,0.31672881940465974,-2.4686636411881127,20.85421545417865,-7.542533319429165,-15.781592951547191,-23.928195519344392,3.699629622191982
0.08060713561127657,0.02028608693552153,-0.1657010084718377,-0.23872586301415993,-0.202157210387739,0.18404742651742367,0.1667025127188401,-1.2119402503819108,0.9841366309651973,-0.5412358784668604,-0.26966777829683825,0.3161498857445569,-2.4353653746417865,20.6838813081108,-7.3687262798694135,-15.80705498195998,-23.866502728866678,3.710473167793431
0.08093944156000035,0.017863580979954736,-0.1637255343424619,-0.23980399613287845,-0.20270037572426577,0.1846785666601301,0.16615297436189436,-1.2112529777833965,0.9877370646878957,-0.5390665593592595,-0.2715826682633849,0.31557007135322085,-2.4017036994105436,20.5120355099249,-7.194277847819274,-15.832176755947302,-23.803940632816087,3.7212458118040894
0.08127064675676221,0.015442511436678494,-0.16174290889000617,-0.24087774312898044,-0.20324733573728518,0.18530854540198077,0.16560259838093178,-1.210534771638121,0.9913127262278612,-0.5368734980509942,-0.27348000650969867,0.31498937092533197,-2.367687800813022,20.33869265575553,-7.019194944372181,-15.85694876691894,-23.74051577837518,3.7319465802928242
0.08160074973043165,0.013022939725326057,-0.15975318208891678,-0.2419470568582369,-0.20379805514676683,0.18593736096041763,0.1650514868347182,-1.2097858556762189,0.9948634005446896,-0.5346568646282209,-0.2753597047408293,0.3144077792184347,-2.3333269558108842,20.16386755847013,-6.843484630770819,-15.88136162200154,-23.676234809151534,3.7425745154250842
0.08192974921316447,0.01060492681619406,-0.15775640433997715,-0.24301189051651614,-0.20435249850168688,0.18656501154252397,0.16449974136641346,-1.2090064545659989,0.9983888744698188,-0.5324168291396322,-0.2772216774600235,0.31382529105316737,-2.2986305283416724,19.987575243422864,-6.667154106156261,-15.905406043893308,-23.611104463875606,3.753128675484162
0.0822576441395473,0.00818853322840584,-0.15575262646653654,-0.24407219763968452,-0.20491063018559438,0.18719149534515092,0.16394746319141448,-1.208196793894109,1.0018889367203057,-0.5301535615841868,-0.2790658419537574,0.3132419013134704,-2.263607964633033,19.809830944160005,-6.490210705270991,-15.929072872665737,-23.545131575072478,3.7636081348880728
0.0825844336457176,0.0057738190281148094,-0.15374189971071178,-0.2451279321034827,-0.20547241442214764,0.18781681055504446,0.1633947530851536,-1.2073571001455157,1.0053633779123812,-0.5278672318990898,-0.2808921182766282,0.31265760494677397,-2.228268788501839,19.6306500980802,-6.312661896117893,-15.95235306751227,-23.478323067708324,3.774011984202012
0.08291011706845931,0.0033608438267482125,-0.1517242757295622,-0.24617904812337874,-0.20603781528061987,0.1884409553489728,0.1628417113708544,-1.2064876006832985,1.0088119905747843,-0.5255580099480262,-0.2827004292361089,0.31207239696416583,-2.192622596641759,19.450048342050547,-6.134515277576332,-15.975237708443883,-23.410685957811904,3.784339330146544
0.08323469394427381,0.0009496667792916955,-0.14969980659123847,-0.24722550025439805,-0.20660679668137422,0.18906392789385387,0.1622884379072474,-1.2055885237282584,1.0122345691618728,-0.5232260655096528,-0.28449070037717045,0.31148627244054056,-2.1566790539027836,19.268041507981664,-5.9557785769774885,-15.997717997931623,-23.342227351072186,3.7945892956015426
0.0835581640084263,-0.0014596534173849929,-0.14766854477110544,-0.24826724339093076,-0.20717932240130776,0.18968572634688333,0.16173503207624848,-1.2046600983383442,1.0156309100665093,-0.5208715682663531,-0.28626285996677614,0.310899226514731,-2.1204478885662335,19.08464561836312,-5.776459647640079,-16.01978526249597,-23.272954441412317,3.80476101960595
0.0838805271939675,-0.0038670585261607864,-0.14563054314784,-0.24930423276651728,-0.20775535607926426,0.19030634885566258,0.16118159277060262,-1.2037025543878968,1.0190008116327252,-0.5184946877932574,-0.28801683897825187,0.31031125438962276,-2.083938887618658,18.89987688176185,-5.596566466368333,-16.041430954243083,-23.202874509540983,3.814853657353451
0.0842017836307305,-0.006272490771254209,-0.1435858549995037,-0.25033642395361233,-0.20833486122141534,0.1909257935583271,0.1606282183814957,-1.2027161225467113,1.0223440741681575,-0.5160955935475345,-0.2897525710755371,0.3097223513322527,-2.0471618920281003,18.713751688285555,-5.416107130913929,-16.062646652348498,-23.131994921481468,3.8248663801841216
0.08452193364430277,-0.008675892839772053,-0.14153453399959115,-0.2513637728633282,-0.20891780120661,0.19154405858367488,0.1600750067861377,-1.2017010342589223,1.0256604999562626,-0.5136744548579575,-0.29146999259732,0.3091325126738924,-2.010126792026127,18.52628660501332,-5.235089857403278,-16.083424064487353,-23.060323127079396,3.834798375572027
0.08484097775497342,-0.011077207883215468,-0.13947663421305453,-0.2523862357451577,-0.20950413929169212,0.19216114205129511,0.15952205533531977,-1.2006575217217075,1.0289498932683023,-0.5112314409147467,-0.2931690425410612,0.3085417338101174,-1.9728435223989642,18.337498371395377,-5.053522977732058,-16.103755028212486,-22.987866658489587,3.84464884710912
0.08515891667665532,-0.013476379518943107,-0.1374122100923043,-0.2534037691866771,-0.21009383861678593,0.19277704207169685,0.15896946084094896,-1.1995858178638195,1.0322120603751053,-0.5087667207596956,-0.29484966254691003,0.3079500102008628,-1.9353220577910761,18.14740389462469,-4.871414936928527,-16.123631512279502,-22.91463312864297,3.8544170144851133
0.08547575131578244,-0.015873351831590988,-0.13534131647318712,-0.2544163301132303,-0.21068686221054897,0.1933917567464378,0.15841731956356372,-1.1984861563239404,1.0354468095586007,-0.5062804632765813,-0.29651179688151696,0.30735733737046655,-1.8975724080244616,17.956020244981964,-4.68877429048732,-16.14304561791979,-22.84063022969389,3.864102113463776
0.08579148277018211,-0.01826806937444872,-0.13326400857094087,-0.255423875787594,-0.21128317299539245,0.1940052841682532,0.15786572719983338,-1.1973587714288658,1.0386539511231274,-0.5037728371818633,-0.29815539242174616,0.3067637109077008,-1.859604613436887,17.7633646511564,-4.505609701675102,-16.16198958006103,-22.765865731448912,3.8737033958554816
0.0861061123279222,-0.020660477170791756,-0.13118034197612785,-0.25642636380962536,-0.21188273379266903,0.19461762242118477,0.15731477887004533,-1.196203898171518,1.0418332974065143,-0.5012440110156747,-0.29978039863829187,0.3061691264657927,-1.8214287402422955,17.56945449554498,-4.321929938810568,-16.180455768496103,-22.690347479777667,3.883220129486239
0.08641964146613337,-0.02305052071516934,-0.129090372650546,-0.2574237521158916,-0.21248550732782742,0.19522876958070964,0.15676456910558356,-1.195021772188792,1.0449846627909356,-0.49869415313310833,-0.3013867675792022,0.3055735797624343,-1.7830548759164058,17.374307309531247,-4.137743872519152,-16.198436689000065,-22.614083395006197,3.8926515981631544
