Joohwan-Seo/mujoco_sysID/Fanuc/Dataset/square_PIH_fanuc_new_real_real_2.csv
q1,q2,q3,q4,q5,q6,dq1,dq2,dq3,dq4,dq5,dq6,t1,t2,t3,t4,t5,t6
-4.3168738106471575e-06,0.46177989348780263,-0.3926968412024892,1.4726207830945197e-05,-0.19999114697789536,3.298037391807376e-05,-0.002158436905323579,-0.009747155673405877,0.001120248117474913,0.007363103915472598,0.004426511052326598,0.01649018695903688,0.022049033416055342,20.44832945117998,-32.70992115702395,16.15067121834867,-10.033422401461578,11.3394007632592
-1.2941624747713676e-05,0.46174099439492927,-0.3926923139873391,4.394077992929284e-05,-0.1999734871382012,9.728819534765303e-05,-0.004312375468533259,-0.01944954643667112,0.0022636075750568406,0.014607286049173822,0.008829919847071696,0.03215391071478963,-0.03216650698995692,20.605148669184977,-32.6852957613486,16.077065630187352,-10.050086108235318,10.710274367709216
-2.5907174478544335e-05,0.46168284846276153,-0.3926854150627818,8.74327605632643e-05,-0.1999470312886456,0.00019134624998040403,-0.00648277486541533,-0.02907296608387223,0.003449462278646947,0.021745990316985736,0.013227924777801211,0.047029027316375496,-0.08563664699787914,20.76232280534859,-32.65980566409141,16.004018975391432,-10.06741961529556,10.111458635353346
-4.324481762193139e-05,0.4616056138671005,-0.39267605950110185,0.00014499898081454451,-0.199911790701251,0.0003136525429356197,-0.008668821571693526,-0.03861729783053758,0.0046777808399715015,0.028783110125640103,0.017620293697293826,0.06115314647760783,-0.13836909824476384,20.919827483385703,-32.6334718599588,15.931509024750055,-10.08541162040208,9.541504898738681
-6.498428476694958e-05,0.46150944900476637,-0.3926641624421579,0.00021644366380023594,-0.19986777712781062,0.00046277670629149716,-0.010869733572509097,-0.04808243116705546,0.005948529471960088,0.03572234149284571,0.022006786720190304,0.07456208167793874,-0.19037124318607251,21.077639833727957,-32.60631517129147,15.859515036230608,-10.104052453595871,8.999033737494544
-9.115380260946238e-05,0.46139451248052615,-0.39264963909902517,0.00030157804908583624,-0.1998150028126483,0.0006373565784391754,-0.0130847589212564,-0.057468262120108984,0.0072616715663565735,0.04256719264280014,0.026387157581161856,0.08728993607383913,-0.24165014583451996,21.235738316174512,-32.57835622694002,15.788017688654767,-10.123333856404843,8.482731662771663
-0.00012178015134495216,0.4612609630935875,-0.3926324047643727,0.00040022003536416165,-0.19975348050297398,0.0008360949470320199,-0.015313174367744882,-0.06677469346932828,0.008617167326224907,0.04932099313916271,0.03076115483716697,0.09936918429642222,-0.2922125626534451,21.394102560790763,-32.54961544470079,15.716999018394565,-10.143248785737624,7.99134796054542
-0.00015688871944969783,0.46110895982373906,-0.39261237481747757,0.0005121938405199529,-0.19968322345711365,0.0010577564476974208,-0.01755428405237283,-0.07600163492421756,0.010014973447573496,0.055986902577895625,0.03512852293016176,0.1108307503327004,-0.3420649534998336,21.5527132252506,-32.520113016842636,15.646442358950221,-10.163791239879563,7.523691686161541
-0.00019650355597601243,0.4609386618172073,-0.3925894647317878,0.0006373296782425319,-0.19960424545086367,0.0013011646110541097,-0.019807418263157302,-0.08514900326589168,0.011455042844896885,0.06256791886128947,0.03948900312499336,0.12170408167834447,-0.39121349253327325,21.711551866993275,-32.489868898309986,15.576332283275617,-10.1849561042669,7.078628802869555
-0.00024064742048124287,0.4607502283722919,-0.3925635900829559,0.0007754634503894353,-0.1995165607821922,0.0015651990509356285,-0.022071932252615216,-0.09421672245768613,0.012937324415952618,0.06906688607345171,0.04384233433572947,0.1320172199407594,-0.43966407902480825,21.870600828723333,-32.458902797235694,15.506654548721716,-10.206739014950193,6.655079457438344
-0.00028934183070450955,0.46054381892483537,-0.39253466655727276,0.0009264364543425353,-0.19942018427448752,0.0018487927870609866,-0.024347205111633356,-0.10320472372827993,0.014461762841560468,0.07548650197654999,0.048188253852344695,0.14179686806267902,-0.48742234801438916,22.02984313592701,-32.4272341674439,15.437396044473038,-10.22913623787105,6.252015386280315
-0.0003426071080997108,0.46031959303357417,-0.3925026099604395,0.0010900951046348617,-0.19931513127853057,0.0021509296957175654,-0.02663263869760061,-0.11211294563058884,0.01602829841663458,0.08182932514616326,0.05252649797848152,0.15106845432828928,-0.5344936807778432,22.189262405206172,-32.39488220265766,15.368544741356942,-10.252144562266988,5.8684574458267
-0.0004004624213281197,0.4600777103654155,-0.39246733622662144,0.0012662906681612635,-0.19920141767335073,0.0024706420823297592,-0.02892765661420447,-0.12094133407934185,0.01763686690904164,0.0880977817632009,0.05685680258991874,0.159856193306097,-0.5808832150743927,22.34884276234969,-32.361865832164185,15.30008964391044,-10.27576120669117,5.503473261197162
-0.00046292582780895245,0.4598183306806756,-0.392428761427735,0.0014548790123192653,-0.1990790598661059,0.002807008370080451,-0.031231703240416353,-0.12968984236994444,0.019287399443223434,0.09429417207900086,0.06117890362240134,0.16818314387534572,-0.6265958551540517,22.508568769165798,-32.32820371771947,15.232020744594106,-10.29998373628981,5.156174987493014
-0.0005300143134215659,0.4595416138183137,-0.3923868017829233,0.0016557203654580846,-0.1989480747911127,0.003159150899031901,-0.03354424280630674,-0.1383584311809532,0.02097982240583341,0.10042067656940974,0.06549253749660298,0.17607126447572505,-0.6716362815110399,22.668425358196203,-32.2939142515004,15.164328980047419,-10.324809990117593,4.825717178315842
-0.0006017438304484502,0.4592477196811892,-0.39234137366818145,0.0018686790890438446,-0.19880847990813832,0.003526233830458714,-0.03586475851344215,-0.14694706856223605,0.022714057370918323,0.10647936179288002,0.06979744148719613,0.18354146571340654,-0.7160089603748542,22.828397774518486,-32.25901555493839,15.097006189284699,-10.350238017399619,4.511294756372312
-0.0006781293338438934,0.4589368082213679,-0.3922923936260966,0.002093623460977621,-0.19866029320005374,0.003907461151358816,-0.0381927516977216,-0.1554557299106665,0.0244900210424292,0.11247218596688809,0.07409335404228722,0.19061366045005101,-0.7597181529351007,22.988471523920786,-32.22352547828882,15.03004507373534,-10.376266021758905,4.212141081272737
-0.0007591848159091149,0.4586090394254979,-0.3922397783756724,0.002330425469530186,-0.19850353316993607,0.004302074774349519,-0.04052774103261077,-0.16388439793499876,0.026307625212074536,0.11840100427628253,0.07838001505882772,0.19730681149535118,-0.8027679242997268,23.148632326803806,-32.18746160080924,14.963439159036675,-10.402892312531613,3.927526109865818
-0.0008449233394507717,0.45826457330027515,-0.39218344482221096,0.0025789606173832066,-0.198338218837698,0.004709352728385295,-0.04286926177082839,-0.1722330626113879,0.028166776730734793,0.12426757392651024,0.08265716611902903,0.20363897701788813,-0.845162152189102,23.308866077228984,-32.150841231436424,14.897182758492011,-10.430115262383282,3.6567546446753147
-0.0009353570694960328,0.45790356985801345,-0.3921233100672273,0.0028391077352912858,-0.19816436973631343,0.005128607435952439,-0.04521686502263058,-0.18050172113085677,0.03006737749184287,0.13007355895403955,0.08692455069228411,0.2096273537835723,-0.8869045353705636,23.469158806587885,-32.11368140986692,14.831270938110883,-10.457933270521124,3.3991646662173545
-0.0010304973036338854,0.4575261891023337,-0.3920592914183767,0.0031107488049026888,-0.19798200590770018,0.005559184072603835,-0.04757011706892631,-0.18869037783986473,0.032009324425302556,0.13582053480570142,0.09118191430662653,0.21528831832569775,-0.9279986018397028,23.629496651421817,-32.07599890795905,14.765699483152279,-10.486344730872135,3.1541257451793805
-0.0011303545010489663,0.45713259101398374,-0.39199130639937535,0.00339376879029889,-0.1977911478983135,0.006000459004895134,-0.04992859870754045,-0.19679904417500202,0.03399250950066759,0.14150999269810055,0.09542900469333158,0.22063746614564933,-0.9684477167558858,23.789865824965354,-32.037810231385286,14.700464866095865,-10.515348004662421,2.9210375306346625
-0.0012349383103110066,0.4567229355367983,-0.39191927275989846,0.003688055477834305,-0.19759181675449775,0.00645183830297224,-0.05229190463102012,-0.20482773859271633,0.036016819738439704,0.14714334376770752,0.09966557190788157,0.22568964903855293,-1.0082550901403895,23.950252592031198,-31.99913162147424,14.635564215969703,-10.544941396893268,2.6993283106497197
-0.0013442575959799188,0.4562973825638086,-0.3918431084854415,0.003993499323877761,-0.1973840340176374,0.006912756324239516,-0.05465964283445608,-0.21277648649487238,0.03808213722846599,0.15272192302172774,0.10389136843017284,0.23045901063363813,-1.0474237843461083,24.110643246891257,-31.959979057190967,14.570995288966728,-10.575123136263255,2.4884536418167227
-0.0014583204640836447,0.4558560919235069,-0.39176273180713245,0.0043099933100764695,-0.19716782171914435,0.007382674364709075,-0.05703143405186292,-0.22064532015085178,0.040188339154525785,0.15824699309935422,0.10810614924653227,0.23495902023477946,-1.0859567213081462,24.271024093844815,-31.92036825721151,14.506756440285626,-10.60589135813372,2.287895044409206
-0.0015771342865231067,0.45539922336627325,-0.39167806121148385,0.004637432805781558,-0.19694320237531268,0.007861079374794246,-0.05940691121973096,-0.2284342786168156,0.04233529782429598,0.16371974785254437,0.11230967191583247,0.2392025050425854,-1.1238566895847588,24.431381430191855,-31.880314682053914,14.44284659713495,-10.63724409017742,2.0971587600178068
-0.0017007057244559636,0.4549269365509679,-0.3915890154500759,0.004975715437291596,-0.19671019898206918,0.008347482736465257,-0.061785718966428475,-0.2361434076526775,0.044522880703972575,0.16914131575501878,0.11650169662174506,0.243201680835505,-1.1611263511981316,24.591701531363746,-31.8398335362359,14.379265232842577,-10.669179240391067,1.9157745686733323
-0.001829040750708355,0.45443939103169334,-0.3914955135491621,0.0053247409635871126,-0.1964688350096433,0.008841419098832676,-0.06416751312619567,-0.24377275963726744,0.046750950456905714,0.17451276314775832,0.12068198621294617,0.2469681811837094,-1.1977682482843786,24.751970637982573,-31.798939770432746,14.316012342015476,-10.701694587184393,1.743294662608043
-0.0019621446712614183,0.45393674624472913,-0.3913974748191908,0.005684411158244861,-0.19621913439717753,0.009342445269364617,-0.06655196027653174,-0.25132239348210694,0.04901936498567735,0.17983509732887445,0.12485030623288704,0.25051308526597077,-1.2337848095619102,24.912174944647937,-31.757648083613564,14.253088416697597,-10.73478777129243,1.5792925739425987
-0.0021000221458570847,0.4534191614956408,-0.39129481886423656,0.0060546296972355555,-0.19596112154729642,0.009850139158077413,-0.06893873729783324,-0.2587923745441624,0.05132797747711479,0.1851092694953471,0.1290064249405615,0.25384694435639793,-1.2691783566270893,25.072300590267538,-31.7159729251403,14.190494423476425,-10.76845628928361,1.423362153716095
-0.0022426772077654786,0.452886795946565,-0.391187465591337,0.006435302052323077,-0.19569482132064933,0.010364098772166779,-0.07132753095419696,-0.26618277453789674,0.05367663644979105,0.19033617754376067,0.13315011332353954,0.2569798070446832,-1.3039511100857375,25.232333649768666,-31.673928496814387,14.128231781491241,-10.802697488462961,1.2751165998004788
-0.002390113282754182,0.45233980860367123,-0.39107533521972976,0.0068263353897967255,-0.19542025903044055,0.010883941258667713,-0.07371803749435174,-0.27349367144689696,0.056065185803614546,0.19551666873682452,0.137281145104391,0.2599212432504669,-1.3381051955286936,25.392260127043063,-31.631528754861435,14.066302341298664,-10.837508562990537,1.1341875313584397
-0.0025423332072976503,0.4517783583048006,-0.39095834828998743,0.007227638474280995,-0.19513746043695757,0.011409301992846758,-0.07610996227173408,-0.2807251494353165,0.05849346487115697,0.20065154224213502,0.14139929674149287,0.26268036708952236,-1.3716426493592455,25.5520659489928,-31.588787411844574,14.00470836455317,-10.872886551057222,1.000224107616118
-0.002699339246063188,0.45120260370728194,-0.3908364256730466,0.0076391215773796445,-0.19484645174210738,0.011939833710140159,-0.07850301938276878,-0.2878772987593407,0.060961308470409724,0.20574155154932444,0.14550434742509744,0.2652658586467005,-1.4045654244798427,25.711736960559847,-31.54571793850238,13.943452504462682,-10.908828332976409,0.8728921888286829
-0.002861133108708111,0.45061270327592423,-0.39070948857912924,0.008060696390922533,-0.1945472595839685,0.012475205679556041,-0.08089693132246153,-0.2949502156788513,0.0634685469586962,0.21078740677144459,0.1495960790694332,0.2676859847079413,-1.436875395845064,25.87125892063129,-31.502333565505438,13.88253778698127,-10.945330630067131,0.7518735374187193
-0.0030277159660210174,0.45000881527118536,-0.39057745856655424,0.008492275944594833,-0.19423991103136548,0.013015102916558352,-0.0832914286564531,-0.3019440023694421,0.0660150062875005,0.21578977683615003,0.1536742763015186,0.2699486185011554,-1.4685743658874344,26.030617498727352,-31.458647285130944,13.821967592703007,-10.982390004218638,0.636865057363919
-0.0031990884654384683,0.4493910977375155,-0.3904402575504382,0.008933774527738789,-0.19392443357847092,0.013559225433545138,-0.08568624970872556,-0.30885876683491353,0.06860050805800243,0.22074929157197723,0.1577387264472838,0.2720612584933927,-1.4996640698222206,26.189798272384856,-31.414671852853296,13.761745639422935,-11.020002858038369,0.5275780700029858
-0.003375250745966849,0.4487597084918748,-0.3902978078112839,0.009385107615128308,-0.19360085513943986,0.01410728752612403,-0.0880811402641904,-0.3156946228203546,0.07122486957713572,0.22566654369475936,0.16178921951552264,0.2740310462894455,-1.530146180836983,26.348786725161702,-31.370419788852267,13.701875965332786,-11.05816543549851,0.4237376245162484
-0.003556202452537699,0.448114805112423,-0.3901500320034559,0.009846191796526255,-0.1932692040430796,0.014659017093473772,-0.09047585328542512,-0.3224516897259019,0.07388790391400905,0.2305420906989736,0.16582554818012935,0.27586478367487133,-1.5600223151711932,26.50756824519245,-31.325903379437786,13.642362912820875,-11.096873823004426,0.3250818414210517
-0.0037419427498234206,0.4474565449273805,-0.38999685316354277,0.010316944709843427,-0.19292950902755757,0.015214154991162495,-0.09287014864286078,-0.32913009252125053,0.07658941995655114,0.23537645665858564,0.16984750776101668,0.2775689488443612,-1.5892940370909108,26.666128124235364,-31.281134678396246,13.58321111284721,-11.136123950819192,0.2313612875016261
-0.003932470335538933,0.44678508500405856,-0.38983819471860626,0.010797284977726898,-0.19258179923514945,0.01577245441487134,-0.09526379285775627,-0.3357299616609779,0.07932922246825953,0.24017013394173548,0.17385489620405878,0.27914971185442244,-1.6179628637630954,26.82445155715542,-31.236125508258333,13.524425469866156,-11.175911594786092,0.14233838066867122
-0.004127783453253589,0.4461005821380571,-0.38967398049431634,0.011287132147413698,-0.19222610420702874,0.016333680313546293,-0.09765655885732791,-0.34225143300072863,0.08210711214494937,0.24492358484339946,0.17784751406035545,0.2806129493374767,-1.646030270033767,26.98252364179577,-31.190887461493922,13.466011147270764,-11.216232378297441,0.05778682331615159
-0.004327879904736455,0.44540319284262847,-0.3895041347229735,0.011786406633693625,-0.19186245387809858,0.01689760883057169,-0.10004822574143286,-0.34869464771429987,0.0849228856714129,0.24963724313996327,0.1818251644650732,0.2819642585126988,-1.6734976931139376,27.140329379192607,-31.14543190163596,13.407973553333981,-11.257081774465675,-0.022508937188684408
-0.004532757061856924,0.4446930733382052,-0.3893285820514177,0.012295029664832527,-0.19149087857186642,0.017464026771626152,-0.10243857856023482,-0.3550597522116556,0.08777633577791406,0.2543115155694509,0.18578765311608156,0.28320897052723093,-1.7003665371768335,27.29785367409653,-31.099769964338865,13.350318327623352,-11.29845510845805,-0.09875422218066554
-0.0047424118780615395,0.4439703795420894,-0.3891472475488248,0.012812923231314475,-0.19111140899536128,0.018032731097945745,-0.10482740810230756,-0.36134689805789216,0.09066725129645323,0.258946783240974,0.18973478825257017,0.2843521631597971,-1.7266381778696909,27.455081335764895,-31.053912558374556,13.293051327867074,-11.340347559960568,-0.17114461077381216
-0.004956840899446858,0.4432352670583031,-0.3889600567143913,0.013340010037268061,-0.19072407623409368,0.018603528443780163,-0.10721451069265905,-0.36755624189316927,0.0935954172167482,0.2635434029767936,0.19366638063380429,0.28539867291720844,-1.7523139667430625,27.61199707899441,-31.00787036657115,13.236178617250355,-11.382754165742966,-0.23986640551748062
-0.005176040275447225,0.44248789116759585,-0.38876693548490754,0.013876213454448508,-0.19032891174705738,0.019176234656885748,-0.1095996880001836,-0.37368794535361566,0.096560614741886,0.26810170859022364,0.1975822435181494,0.2863531065527919,-1.777395235600315,27.768585525367815,-30.961653846699292,13.17970645212224,-11.425669822298596,-0.30509707575222567
-0.0054000057691553725,0.44172840681760944,-0.3885678102422203,0.014421457478653405,-0.18992594736177243,0.01975067436095452,-0.11198274685407379,-0.37974217499321367,0.09956262134360791,0.2726220121024484,0.20148219264247497,0.2872198520343849,-1.8018833007697364,27.924831204689273,-30.91527323230982,13.123641270094014,-11.469089288538592,-0.3670056797326221
-0.0056287327672928655,0.4409569686131961,-0.3883626078205859,0.014975666688455763,-0.18951521526936838,0.020326680538930948,-0.11436349906874674,-0.38571910220666233,0.10260121081719757,0.2771046049011792,0.20536604620202595,0.2880030889882149,-1.825779467301416,28.08071855658715,-30.868738533528195,13.06798967851135,-11.51300718852094,-0.4257532665329993
-0.005862216289846588,0.44017373080688965,-0.388151255513914,0.01553876620614363,-0.18909674801970672,0.020904094136218396,-0.1167417612768611,-0.3916189031532154,0.10567615333594757,0.281549758843934,0.20923362483083474,0.28870679864372456,-1.8490850330908333,28.236231932266612,-30.82205953781022,13.012758443283335,-11.557418014199639,-0.48149325870350534
-0.006100450999386631,0.4393788472895267,-0.3879336810829036,0.01611068166076081,-0.18867057851654126,0.0214827636828248,-0.11911735477002183,-0.3974417586814878,0.10878721550518552,0.2859577273085895,0.21308475158273016,0.2893347733032022,-1.8718012929308665,28.391355596392966,-30.775245810663712,12.957954478052343,-11.602316128179979,-0.534371816597529
-0.00634343121008021,0.43857247158101625,-0.3877098127620719,0.016691339153148264,-0.1882367400127153,0.022062544933542674,-0.12149010534678964,-0.4031878542552213,0.11193416041584515,0.2903287461937277,0.2169192519129874,0.2898906253589372,-1.8939295424937197,28.546073729093095,-30.72830669634039,12.903584833689605,-11.647695766469377,-0.5845281852474722
-0.006591150896415472,0.43775475682125625,-0.38747957926667675,0.01728066522289062,-0.187795266105394,0.022643300525301738,-0.12385984316763071,-0.4088573798799985,0.115116747697572,0.29466303487117784,0.22073695366065102,0.29037779587953233,-1.91547108224412,28.700370428059713,-30.681251318502728,12.849656688102158,-11.693551041214185,-0.6320950246238086
-0.006843603701648392,0.43692585576119447,-0.387242909799534,0.017878586817076693,-0.18734619073133088,0.023224899650873675,-0.12622640261646037,-0.41445053003089233,0.11833473357135674,0.29896079709303724,0.22453768703155352,0.29079956278596814,-1.9364272212848568,28.854229710749557,-30.634088580869918,12.796177336337651,-11.739875943415388,-0.6771987240724744
-0.007100782945985294,0.4360859207540324,-0.38699973405773064,0.018485031260787387,-0.1868895481621668,0.02380721774814774,-0.128589622168451,-0.4199675035810375,0.12158787090169217,0.3032222218553475,0.2283212845820425,0.29115904863703296,-1.9567992811356922,29.00763551666234,-30.586827167847424,12.743154180974084,-11.786664345616277,-0.7199597016874972
-0.007362681634512877,0.4352351037465702,-0.3867499822392341,0.019099926229228376,-0.18642537299975995,0.024390136204233318,-0.13094934426379137,-0.42540850373110883,0.12487590924825251,0.3074474842204946,0.23208758120342343,0.2914592280427895,-1.9765885994464087,29.16057170969413,-30.539475545143947,12.690594722782416,-11.833910004558224,-0.7604926893395973
-0.007629292464887076,0.43437355627069085,-0.38649358504939996,0.019723199721428983,-0.18595370017154572,0.024973542073681035,-0.13330541518709935,-0.43077373793969054,0.12819859491709568,0.3116367461003044,0.2358364141071171,0.29170293472385894,-1.9957965336446635,29.313022080555722,-30.49204196037974,12.638506551650536,-11.88160656380002,-0.7989070040470352
-0.007900607834791486,0.4335014294349818,-0.3862304737073772,0.0203547800354324,-0.18547456492592468,0.025557327810147936,-0.1356576849522049,-0.43606341785452163,0.1315556710113912,0.31579015700170815,0.23956762281052676,0.291892868233451,-2.014424464519184,29.4649703492502,-30.44453444369039,12.586897337757739,-11.929747556298361,-0.8353068063419782
-0.008176619849175556,0.4326188739164926,-0.38596057995241384,0.020994595744905926,-0.18498800282767747,0.026141391010864455,-0.13800600719203437,-0.44127775924459967,0.13494687748167788,0.31990785473676403,0.24328104912360463,0.2920316003582596,-2.03247379973868,29.61640016760252,-30.396960808328757,12.53577482298948,-11.978326406947321,-0.8697913462546364
-0.008457320327282237,0.4317260399526264,-0.3856838360500625,0.021642575677103395,-0.18449404975340525,0.026725634173291598,-0.14035023905334032,-0.4464169819331276,0.13837195117565684,0.32398996609873365,0.24697653713610362,0.29212158121357223,-2.0499459773067517,29.767295121837876,-30.3493286512702,12.48514681258263,-12.027336435075645,-0.9024551975074008
-0.008742700809474303,0.4308230773331638,-0.3854001747982875,0.022298648892115056,-0.18399274188699424,0.027309964463386013,-0.1426902410960333,-0.4514813097312867,0.14183062588752612,0.32803660750583113,0.25065393320549767,0.2921651450472074,-2.0668424689529683,29.917638735201777,-30.30164535382221,12.435021166992236,-12.076770856900957,-0.9333884804831126
-0.009032752563868074,0.4299101353924181,-0.38510952953347377,0.022962744663343426,-0.18348411571510315,0.027894293494918402,-0.1450258771968851,-0.45647097037281925,0.1453226324068644,0.3320478856141849,0.2543130859455505,0.2921645157661949,-2.0831647834601705,30.067414470620065,-30.253918082243608,12.385405793970897,-12.126622787940956,-0.9626770745043639
-0.00932746659278284,0.4289873630015193,-0.3848118341363396,0.023634792459146382,-0.18296820802267214,0.0284785371193173,-0.14735701445738322,-0.4613861954494055,0.14884769856707186,0.3360238979014775,0.2579538462155113,0.2921218121994487,-2.0989144699279527,30.216605733394914,-30.206153788374632,12.336308640852861,-12.176885245381662,-0.9904028199352807
-0.009626833639013897,0.4280549085608257,-0.38450702303775286,0.0243147219255917,-0.1824450558884523,0.0290626152255354,-0.14968352311552827,-0.4662272203468185,0.15240554929337655,0.3399647332226589,0.26157606710991366,0.292039053109049,-2.1140931209722247,30.365195873932805,-30.15835921028179,12.287737687034904,-12.227551150403352,-1.0166437105926078
-0.009930844191936648,0.427112919992462,-0.38419503122445203,0.025002462870269825,-0.1819146966805544,0.02964645154945969,-0.15200527646137538,-0.47099428418184175,0.15599590665041535,0.34387047233906154,0.26517960394895335,0.2919181619621452,-2.1287023758606307,30.513168190503897,-30.110540872920122,12.239700936646878,-12.278613330465191,-1.041474076929704
-0.010239488493448912,0.4261615447329821,-0.3838757942446732,0.025697945247114187,-0.18137716805201556,0.03022997349240953,-0.15432215075613173,-0.4756876297399346,0.15961848988939867,0.3477411884221814,0.26876431426941916,0.29176097147491914,-2.142743923583566,30.660505932028663,-30.06270508881377,12.192206411404968,-12.33006452154958,-1.0649647604348789
-0.010552756543758172,0.42520092972615486,-0.38354924821368347,0.026401099142180844,-0.18083250793638325,0.030813111948288528,-0.15663402515463054,-0.4803075034136314,0.16327301549486808,0.3515769475333285,0.2723300578161503,0.29156922793949885,-2.156219505860417,30.807192300892115,-30.01485795875999,12.145262143641288,-12.381897370367678,-1.087183279664362
-0.010870638107020195,0.42423122141587155,-0.38321532981922135,0.02711185476034143,-0.18028075454331527,0.031395801138976914,-0.15894078163101152,-0.48485415514165914,0.1669591972310566,0.3553778090802932,0.27587669653399394,0.2913445953441943,-2.1691309200806668,30.953210455781505,-29.967005372555878,12.09887616950362,-12.434104436527514,-1.1081939883101615
-0.011193122716835088,0.423252565739174,-0.3828739763268456,0.027830142412845666,-0.1797219463541948,0.03197797845757077,-0.16124230490744626,-0.4893278383487619,0.1706767461878606,0.35914382625211794,0.2794040945602364,0.2910886592969296,-2.1814800221793353,31.09854351454856,-29.919153009751867,12.053056522319665,-12.486678194666368,-1.1280582256838607
-0.011520199681606596,0.4222651081194016,-0.38252512558519275,0.028555892505711694,-0.17915612211775986,0.03255958431909332,-0.16353848238575455,-0.4937288098862176,0.1744253708264333,0.3628750464330139,0.2829121182174803,0.2908029307612739,-2.1932687294463125,31.243174557093575,-29.871306340432625,12.007811226120294,-12.539611036549204,-1.146834459979226
-0.011851858089770129,0.4212689934594555,-0.38216871603114394,0.029289035528904515,-0.17858332084574596,0.033140562018321364,-0.16582920408176607,-0.4980573299730351,0.1782047770244085,0.36657151159641027,0.2864006360069417,0.29048884961402494,-2.2044990232689363,31.38708662827134,-29.82347062602841,11.963148289316837,-12.592895273134918,-1.1645784246591582
-0.012188086814894706,0.42026436613517987,-0.3818046866949024,0.030029502046264672,-0.17800358180854167,0.0337208575943871,-0.16811436256228857,-0.5023136621378207,0.18201466812076406,0.37023325868007756,0.28986951860214094,0.2901477880328697,-2.215172951807305,31.530262740817548,-29.77565092015692,11.919075698527514,-12.646523136611869,-1.1813432482959485
-0.012528874520663808,0.41925136998885726,-0.38143297720498176,0.030777222686151115,-0.17741694453085574,0.034300419701831585,-0.17039385288455117,-0.506498073161301,0.18585474496033377,0.3738603199432205,0.2933186388429608,0.28978105372224044,-2.2252926326016027,31.672685878295177,-29.7278520694986,11.875601412548601,-12.700486782405289,-1.197179578178205
-0.012874209665739803,0.4182301483228183,-0.3810535277931058,0.031532128132763904,-0.17682344878739564,0.03487919948780177,-0.17266757253799742,-0.5106108330194931,0.18972470593797652,0.3774527233063935,0.296747871730047,0.2893898929850948,-2.234860255110808,31.814338998060162,-29.680078714705786,11.832733356466049,-12.754778291157706,-1.2121356979826337
-0.013224080508516423,0.41720084389316325,-0.38066627929902097,0.032294149118114006,-0.1762231345985566,0.03545715047509773,-0.17493542138830975,-0.5146522148275102,0.19362424704241088,0.3810104926750509,0.30015709441952626,0.2889754936479815,-2.2438780831820813,31.955205034246482,-29.632335291347413,11.790479415903622,-12.80938967068445,-1.2262576397948444
-0.013578475111763527,0.4161635989035953,-0.3802711731752215,0.03306321641460901,-0.17561604222612057,0.03603422845079053,-0.1771973016235522,-0.5186224947839946,0.19755306189972344,0.38453364824750424,0.30354618621801704,0.2885389878463985,-2.2523484574500787,32.095266900769445,-29.584626030890632,11.748847431403817,-12.864312857906235,-1.2395892907495947
-0.013937381347168177,0.41511855499936295,-0.3798681514915884,0.03383926082822506,-0.17500221216896475,0.03661039136014477,-0.17945311770232478,-0.5225219521161668,0.20151084181655884,0.38802220680802346,0.30691502857791064,0.2880814546771187,-2.2602737976654828,32.23450749434704,-29.536954961719047,11.707845192938116,-12.919539720760177,-1.252172494548035
-0.014300786899775831,0.414065853261312,-0.3794571569399424,0.03462221319223662,-0.17438168515877894,0.03718559920559244,-0.18170277630382742,-0.5263508690254841,0.20549727582299887,0.3914761820057816,0.31026350509289913,0.2876039227238362,-2.2676566049519464,32.37290969753966,-29.489325910191344,11.667480434543208,-12.97506206009157,-1.264047148097243
-0.014668679272335306,0.4130056342000442,-0.3790381328385121,0.03541200436147724,-0.1737545021557915,0.03775981395051681,-0.18394618627973752,-0.5301095306338988,0.20951205071513795,0.39489558462031094,0.31359150149372844,0.28710737246218504,-2.2744994639907192,32.510456381807025,-29.441742501737238,11.62776082908023,-13.030871611527287,-1.275251293505535
-0.015041045789550924,0.4119380377501828,-0.3786110231363174,0.03620856520710545,-0.1731207043445032,0.03833299942761659,-0.18618325860780913,-0.533798224930708,0.21355485109736205,0.39828042281410514,0.31689890564415535,0.2865927385498916,-2.280805045132129,32.64713041058266,-29.394208161995174,11.588693983114055,-13.08696004733326,-1.2858212056560159
-0.015417873602245138,0.4108632032647428,-0.3781757724174687,0.037011826611851394,-0.172480333129429,0.03890512125163168,-0.18841390634710703,-0.5374172427199898,0.2176253594243376,0.40163070237297216,0.32018560753708813,0.28606091200754735,-2.286576106433147,32.78291464236564,-29.34672611799013,11.55028743191004,-13.143318978256875,-1.295791475570009
-0.015799149691434724,0.4097812695096056,-0.37773232590538325,0.03782171946572082,-0.17183343013084723,0.039476146736222135,-0.19063804459479342,-0.5409668775686153,0.22172325604271692,0.4049464269347136,0.32345149929089123,0.2855127422952262,-2.2918154956202446,32.91779193382918,-29.29929939935269,11.512548634545638,-13.199939955356406,-1.3051950897621567
-0.0161848608723235,0.40869237465809594,-0.3772806294669181,0.03863817466213418,-0.17118003718055555,0.04004604481480198,-0.19285559044438863,-0.5444474257548332,0.22584821923256584,0.40822759820667864,0.3266964751458352,0.2849490392899207,-2.2965261519767335,33.05174514294582,-29.251930839580517,11.475484969134607,-13.256814471818306,-1.3140635057790981
-0.016574993798214366,0.4075966562856611,-0.37682062961642104,0.039461123094479605,-0.1705201963176342,0.040614785965139046,-0.195066462945432,-0.5478591862174181,0.22999992524851973,0.41147421617271446,0.32992043146067396,0.2843705751685347,-2.3007111081538048,33.18475713212949,-29.204623077341456,11.439103728161552,-13.31393396476415,-1.322426724104648
-0.01696953496434331,0.40649425136465034,-0.3763522735196997,0.04029049565305962,-0.16985394978421556,0.041182342137540934,-0.19727058306447226,-0.5512024605053784,0.23417804836067296,0.4146862792900099,0.333123266709332,0.28377808620094275,-2.3043734919044936,33.3168107713933,-29.157378557819488,11.403412113924857,-13.37128981704825,-1.3303133566055552
-0.017368470711637954,0.4053852962591939,-0.3758755089979093,0.04112622322241223,-0.16918134002126017,0.041748686686455753,-0.19946787364732074,-0.5544775527282164,0.23838226089520737,0.4178637846763056,0.33630488147768567,0.28317227445741155,-2.3075165277397502,33.447888941523914,-29.110199534103565,11.368417234086019,-13.428873359047252,-1.337750691683686
-0.01777178723040296,0.4042699267201804,-0.37539028453135975,0.04196823667898807,-0.16850240966433933,0.0423137943053247,-0.2016582593825042,-0.5576847695067375,0.24261223327476425,0.421006728287921,0.33946517846042223,0.2825538094344732,-2.3101435385059026,33.577974537271515,-29.063088068619162,11.3341260973237,-13.486675870442912,-1.3447647562924996
-0.018179470563934676,0.40314827788033164,-0.3748965492632426,0.04281646688916613,-0.1678172015394234,0.04287764096453099,-0.20384166676585697,-0.5608244199244007,0.24686763405856474,0.4241151050890275,0.3426040624579622,0.2819233296031454,-2.312257946882724,33.70705047055525,-29.016046034603487,11.300545609090765,-13.544688581998962,-1.35138037496817
-0.018591506612067068,0.4020204842493732,-0.37439425300327805,0.04367084470759128,-0.16712575865867654,0.0434402038522974,-0.2060180240661958,-0.5638968154792077,0.2511481299822828,0.4271889092125754,0.3457214403734308,0.2812814438832068,-2.31386327680138,33.83509967368381,-28.96907511762298,11.267682567472821,-13.60290267733319,-1.3576212260186002
-0.019007881134651114,0.400886679709301,-0.3738833462312827,0.044531300975817804,-0.16642812421625722,0.04400146131839152,-0.20818726129202328,-0.5669022700361256,0.25545338599767514,0.4302281341132646,0.34881722120966485,0.2806287330470587,-2.3149631547815366,33.96210510259129,-28.92217681713499,11.23554365914692,-13.661309294685328,-1.363509895006555
-0.019428579754969533,0.3997469975097409,-0.3733637801006588,0.04539776652124366,-0.16572434158412475,0.04456139282050459,-0.21034931015920885,-0.5698410997800383,0.2597830653119716,0.4332327727129286,0.35189131606624263,0.2799657510565369,-2.315561311186923,34.088049740087115,-28.87535244809166,11.204135455438928,-13.719899528682362,-1.3690679256568856
-0.01985358796308873,0.3986015702634025,-0.37283550644180474,0.04627017215632103,-0.1650144543078517,0.04511997887317634,-0.21250410405959871,-0.5727136231692223,0.2641368294270298,0.4362028175386848,0.35494363813652413,0.27929302633587455,-2.3156615813987025,34.21291659912055,-28.828603142587202,11.173464408478512,-13.778664432100998,-1.3743158683114003
-0.020282891119149746,0.3974505299416238,-0.3722984777654482,0.047148448678029406,-0.16429850610244232,0.045677200999144074,-0.21465157803050913,-0.5755201608893442,0.2685143381782578,0.4391382608541868,0.3579741027046909,0.278611062983866,-2.3152679069059587,34.33668872605903,-28.78192985154841,11.143536847450562,-13.837595017629022,-1.3792733260491747
-0.020716474456599864,0.39629400787000785,-0.3717526472659016,0.048032526867598006,-0.16357654084815676,0.046233041683000346,-0.2167916687250595,-0.5782610358079749,0.2729152497733073,0.44203909478429876,0.36098262714277385,0.2779203419281356,-2.314384336312722,34.45934920397943,-28.735333346466472,11.114358974941938,-13.896682259625436,-1.3839589985843994
-0.021154323085366473,0.3951321347241486,-0.37119796882424055,0.048922337490465,-0.16284860258634143,0.0467874843270489,-0.21892431438330387,-0.5809365729296168,0.2773392208305409,0.4449053114334958,0.3639691309076596,0.27722132202427513,-2.3130150262609126,34.580881155972946,-28.688814221172734,11.085936863382694,-13.955917095880345,-1.3883907240485778
-0.021596421994974718,0.3939650405254461,-0.370634397011406,0.04981781129646156,-0.1621147355152653,0.047340513209253865,-0.22104945480412225,-0.5835470993512413,0.2817859064172762,0.4477369029982814,0.36693353553806457,0.27651444110248413,-2.311164242268659,34.701267748461675,-28.64237289365502,11.058276451580788,-14.015290429375064,-1.3925855187587048
-0.02204275605761039,0.39279285463700947,-0.3700618870912304,0.050718879020209356,-0.16137498398596237,0.0478921134431823,-0.2231670313178348,-0.586092944218333,0.28625496008780904,0.4505338618738966,0.3698757646514692,0.27580011696421947,-2.3088363594834402,34.820492194528015,-28.596009607916706,11.031383541349541,-14.074793130043084,-1.3965596150683404
-0.022493310031129397,0.3916157057596466,-0.369480395023388,0.05162547138172053,-0.16062939249808036,0.04844227093984479,-0.22527698675950383,-0.588574438681437,0.2907460339212188,0.4532961807555859,0.372795743941002,0.2750787483312417,-2.3060358633495803,34.938537757254686,-28.549724435876364,11.005263794227002,-14.134416036531729,-1.4003284973936891
-0.02294806856201518,0.3904337219279402,-0.36888987746627006,0.052537519087189864,-0.15987800569573582,0.04899097237134345,-0.2273792654428908,-0.5909919158532054,0.2952587785589576,0.4560238527346686,0.37569340117226663,0.27435071574933195,-2.302767350189652,35.0553877530758,-28.503517279308465,10.97992272828658,-14.194149957965646,-1.4039069365026002
-0.023407016188285255,0.3892470305064083,-0.3682902917797856,0.05345495282996918,-0.1591208683633756,0.04953820513624114,-0.22947381313503712,-0.593345710765942,0.29979284324222616,0.4587168713896553,0.3785686661801036,0.2736163824488442,-2.2990355276993135,35.17102555513874,-28.457387871824565,10.955365715038338,-14.253985675712011,-1.407309022150049
-0.023870137342348132,0.388055758185749,-0.36768159602808737,0.05437770329171445,-0.15835802542164504,0.050083957326569443,-0.23156057703143906,-0.5956361603296393,0.3043478758491374,0.46137523087263627,0.3814214708652799,0.2728760951641536,-2.29484521535527,35.28543459667473,-28.411335780893914,10.931597976420203,-14.313913945147538,-1.4105481941397593
-0.02433741635381171,0.386860030979168,-0.36706374898222405,0.05530570114369677,-0.15758952192326284,0.05062821769639737,-0.2336395057317893,-0.5978636032905077,0.308923522931671,0.46399892599115894,0.38425174919109945,0.2721301849139656,-2.290201344735977,35.398598374379155,-28.365360409904117,10.908624581878737,-14.37392549742811,-1.4136372718878234
-0.024808837452244225,0.385659974218788,-0.3664367101227192,0.05623887704826837,-0.15681540304890298,0.05117097563188608,-0.2357105492162582,-0.6000283801899916,0.3135194297524192,0.4665879522857992,0.38705943717992825,0.2713789677443534,-2.285108959754796,35.51050045179962,-28.319461000259807,10.886450445538868,-14.434011041260518,-1.4165884825604875
-0.025284384769888806,0.38445571255213945,-0.365800439642077,0.057177161660475616,-0.15603571410308373,0.05171222112275869,-0.23777365882229046,-0.6021308333242706,0.3181352403211266,0.4691423061036245,0.38984447290962815,0.27062274543630493,-2.27957321680538,35.6211244627319,-28.273636633519576,10.865080323462085,-14.494161264677006,-1.4194134878549503
-0.02576404234433259,0.383247369938731,-0.36515489844721494,0.058120485629811085,-0.15525050051006395,0.052251944735117635,-0.2398287872218934,-0.6041713067042425,0.3227705974310253,0.4716619846677348,0.39260679650989394,0.26986180617947464,-2.273599384819031,35.730454114622674,-28.22788623357112,10.844518810992778,-14.554366836812386,-1.4221234094886175
-0.02624779412113138,0.38203506964669903,-0.364500048161825,0.05906877960209721,-0.15445980780974697,0.05279013758554514,-0.2418758883993947,-0.6061501460159853,0.327425142694966,0.47414698614305983,0.3953463501584883,0.269096425213753,-2.2671928452339314,35.838473191978125,-28.182208568841908,10.82477034019226,-14.614618409683528,-1.4247288534592022
-0.02673562395639068,0.38081893424953567,-0.36383585112866235,0.06002197422149437,-0.15366368165359223,0.05332679131642552,-0.2439149176296486,-0.6080676985816957,0.3320985165813476,0.47659730969858277,0.39806307807737,0.2683268654401924,-2.2603590918760803,35.94516555977801,-28.136602254547412,10.805839177360053,-14.674906619972218,-1.4272399331350858
-0.027227515619304022,0.37959908562289346,-0.36316227041176263,0.06098000013262667,-0.1528621678005348,0.053861898072431025,-0.2459458314566712,-0.6099243133211005,0.3367903584498461,0.4790129555661513,0.4007569265287106,0.2675533780027522,-2.253103730751906,36.050515166894385,-28.09106575497415,10.787729420642304,-14.735222090809962,-1.4296662912324503
-0.027723452794649394,0.3783756449414668,-0.36247926979858874,0.061942787982818735,-0.1520553121129132,0.05439545047811554,-0.2479685876726859,-0.6117203407133378,0.34150030658694336,0.48139392509603074,0.4034278438107955,0.2667762028422567,-2.2454324797525316,36.154506049513074,-28.04559738579684,10.770444997726752,-14.795555433565891,-1.4320171207331347
-0.028223419085244516,0.3771487326759482,-0.36178681380210626,0.06291026842443742,-0.15124316055240558,0.05492744161656333,-0.24998314529756133,-0.6134561327593061,0.3462279982412578,0.4837402208093458,0.40607578025380564,0.26599556922389433,-2.237351168269728,36.2571223345592,-28.000195316430773,10.75398966362415,-14.855897249636955,-1.4343011847944223
-0.028727398014361766,0.37591846859005923,-0.3610848676627889,0.06388237211733253,-0.15042575917597462,0.055457865009042366,-0.2519894645586258,-0.6151320429444773,0.35097306965867775,0.48605184644755084,0.4087006882154757,0.26521169623952034,-2.2288657367236318,36.35834824312363,-27.95485757241658,10.738366998535858,-14.9162381322405,-1.43652683569964
-0.029235373028103452,0.37468497173765486,-0.3603733973505543,0.06485902973137064,-0.14960315413182138,0.0559867145956143,-0.25398750687084226,-0.6167484262021713,0.3557351561172982,0.4883288070190616,0.4113025220766262,0.2644247932859688,-2.2199822360023864,36.45816809389048,-27.909582037837172,10.723580405807155,-14.976568668209232,-1.4387020328961466
-0.02974732749773811,0.37344836045990026,-0.35965236956663,0.06584017194905699,-0.14877539165534825,0.056513984716655336,-0.2559772348173292,-0.6183056388772882,0.3605138919621624,0.490571108843176,0.4138812382365653,0.2636350605205176,-2.210706826813891,36.55656630656502,-27.864366457766927,10.70963310996632,-15.036879439787903,-1.4408343601648952
-0.03026324472199854,0.37220875238251927,-0.35892175174535035,0.0668257294682398,-0.14794251806513153,0.057039670095244535,-0.25795861213021387,-0.6198040386904962,0.36530891063980836,0.492778759591404,0.4164367951083585,0.26284268929460014,-2.2010457789498843,36.65352740530042,-27.819208440751204,10.69652815484904,-15.097161026432278,-1.4429310419638541
-0.03078310792934215,0.37096626441311353,-0.3581815120558851,0.06781563300489243,-0.14710457975890362,0.057563765820378136,-0.25993160367180485,-0.6212439847028711,0.3701198447326225,0.4949517683263228,0.4189691531139628,0.26204786256680107,-2.1910054704627013,36.74903602212271,-27.77410546131571,10.68426840180798,-15.157404006609246,-1.444998958985391
-0.03130690028017429,0.36972101273855157,-0.3574316194038991,0.06880981329596857,-0.14626162320954517,0.058086267330970394,-0.2618961754160718,-0.6226258372809843,0.37494632599299976,0.4970901455380667,0.421478274679223,0.26125075529612746,-2.1805923867550323,36.84307690035254,-27.729054862504803,10.672856528007305,-15.217598959598547,-1.4470446629659288
-0.03183460486903513,0.3684731128224267,-0.3566720434331445,0.06980820110232568,-0.14541369496108772,0.058607170400603384,-0.2638522944304208,-0.6239499580624365,0.37978798537731207,0.499193903178556,0.4239641242287282,0.26045153481649674,-2.1698131195830594,36.93563489802341,-27.684053858448184,10.662295024801983,-15.277736467295613,-1.4490743907842574
-0.03236620472675064,0.367222679402583,-0.35590275452698517,0.0708107272117128,-0.14456084162472665,0.05912647112299006,-0.26579992885775483,-0.6252167099218332,0.3846444530796855,0.5012630546935656,0.4264266681805261,0.2596503611933392,-2.1586743659735332,37.02669499129502,-27.6390995369546,10.652586196201568,-15.337807116014737,-1.4510940778831958
-0.03290168282254826,0.3659698264887086,-0.355123723809854,0.07181732244181827,-0.14370310987484528,0.0596441658981164,-0.2677390478988093,-0.626426456937199,0.38951535856558667,0.5032976150527273,0.4288658749406933,0.2588473875631699,-2.147182927055189,37.1162422778604,-27.594188862131755,10.643732157418377,-15.397801498293424,-1.4531093710476526
-0.03344102206613776,0.36471466735999497,-0.35433492314864357,0.07282791764337337,-0.14284054644504976,0.06016025141903029,-0.26966962179475296,-0.6275795643568268,0.3944003306052199,0.5052976007775577,0.43128171489775957,0.2580427604569437,-2.13534570680518,37.204261980345834,-27.549318677031632,10.635734833499729,-15.457710214696027,-1.455125640570556
-0.033984205309757855,0.36345731456286184,-0.3535363251540301,0.07384244370330857,-0.1419731981242158,0.060674724659246226,-0.2715916218100456,-0.6286763985665588,0.3992989973067346,0.5072630299675965,0.4336741604169854,0.2572366201079681,-2.123169710711103,37.29073944970338,-27.50448570632021,10.628595958044171,-15.517523875617712,-1.4571479918365204
-0.034531215350188944,0.36219787990874686,-0.35272790318173164,0.07486083154795806,-0.14110111175254683,0.06118758286073645,-0.2735050202155443,-0.629717327057495,0.40421098614924506,0.5091939223247395,0.4360431858344902,0.25642910074511227,-2.110662044349304,37.3756601685936,-27.459686558970724,10.622317072001337,-15.577233103087604,-1.4591812763518752
-0.03508203493073264,0.3609364744719586,-0.3519096313337003,0.07588301214630974,-0.14022433421764438,0.06169882352248048,-0.2754097902718505,-0.6307027183941263,0.40913592401566184,0.5110902991758426,0.43838876745123073,0.2556203308720148,-2.0978299118802575,37.45900975475828,-27.414917730979234,10.616899522555395,-15.636828532570888,-1.4612301022481438
-0.035636646743158425,0.35967320858759283,-0.35108148445924964,0.0769089165132971,-0.13934291245059072,0.062208444389546404,-0.2773059062128903,-0.6316329421828878,0.4140734372253369,0.5129521834936737,0.4407108835268284,0.2548104335329597,-2.0846806144617505,37.54077396438158,-27.37017560810169,10.6123444620917,-15.696300814769577,-1.4632988442848445
-0.03619503342961787,0.35840819184951056,-0.3502434381561166,0.07793847571312966,-0.13845689342204423,0.06271644344267852,-0.27919334322972195,-0.6325083690411284,0.4190231515665219,0.5147795999162824,0.4430095142732444,0.25399952656605707,-2.0712215485808088,37.62093869543893,-27.325456468611613,10.608652847246505,-15.755640617421431,-1.4653916533762377
-0.036757177584527,0.3571415331083776,-0.34939546877145927,0.07897162086265937,-0.13756632413834763,0.06322281888836719,-0.2810720774545635,-0.6333293705664931,0.4239846923286414,0.5165725747648565,0.4452846418483016,0.25318772284433655,-2.0574602043051993,37.69948999103201,-27.280756486077017,10.605825438039526,-15.814838627096673,-1.467512465665458
-0.037323061756417066,0.35587334046976415,-0.3485375534027905,0.08000828313477963,-0.1366712516376495,0.06372756914937784,-0.2829420859450351,-0.6340963193067136,0.4289576843343805,0.5183311360601295,0.4475362503490524,0.25237513050533034,-2.0434041634555467,37.77641404270919,-27.236071732156237,10.603862797089024,-15.873885550991792,-1.4696650111683662
-0.03789266844975429,0.35460372129230455,-0.34766966989884734,0.08104839376185444,-0.1357717229860395,0.06423069285571724,-0.28480334666861107,-0.6348095887298033,0.43394175197158896,0.5200553135374013,0.44976432580499287,0.25156185316969637,-2.029061097699019,37.85169719376974,-27.19139817941092,10.602765288909223,-15.932772118720887,-1.4718528220083242
-0.03846598012672884,0.35333278218591524,-0.34679179686039735,0.0820918840391749,-0.13486778527369728,0.06473218883601606,-0.28665583848727505,-0.6354695531946521,0.43893651922500154,0.5217451386602311,0.4519688561711206,0.2507479901494061,-2.014438766565763,37.92532594255104,-27.146731704135124,10.602533079289785,-15.991489084102444,-1.4740792402621883
-0.03904297920901359,0.3520606290100712,-0.3459039136409818,0.08313868532844063,-0.1339594856110556,0.06523205610930805,-0.28849954114237536,-0.6360765879220173,0.44394160970777546,0.5234006446328586,0.454149831320838,0.24993363664599505,-1.9995450153891114,37.99728694569774,-27.102068089200568,10.603166134756986,-16.05002722694293,-1.4763474254367428
-0.03962364807949294,0.35078736687213935,-0.3450060003475961,0.08418872906126344,-0.1330468711249782,0.06573029387718675,-0.2903344352396749,-0.6366310689659049,0.44895664669284585,0.5250218664114078,0.4563072430386992,0.24911888393935236,-1.9843877731708313,38.06756702141104,-27.05740302691576,10.604664222116408,-16.108377354815577,-1.478660361593898
-0.040207969083962125,0.3495131001257687,-0.3440980378413079,0.08524194674269128,-0.1321299889549522,0.06622690151632175,-0.2921605022345921,-0.6371333731853391,0.4539812531440998,0.5266088407139234,0.45844108501300024,0.2483038195675006,-1.9689750503726324,38.136153152677664,-27.012732121898434,10.607026908076797,-16.16653030483413,-1.481020864142161
-0.04079592453279738,0.34823793236933565,-0.34318000773781315,0.08629826995474986,-0.13120888624929578,0.06672187857131735,-0.2939777244176291,-0.6375838782165125,0.4590150517473701,0.5281616060292902,0.46055135282821386,0.24748852749779787,-1.9533149366352447,38.203032490476915,-26.96805089396038,10.610253558954703,-16.22447694542101,-1.4834315863109533
-0.041387496702597344,0.346961966444445,-0.34225189240793064,0.08735763036000002,-0.13028361016138124,0.06721522474789729,-0.2957860848999832,-0.6379829624453146,0.46405766494124867,0.5296802026250802,0.46263804395726665,0.24667308828997167,-1.937415598426366,38.26819235696458,-26.923354781003425,10.61434334045964,-16.282208178070015,-1.4858950253236245
-0.04198266783779602,0.34568530443448453,-0.3413136749780352,0.08841995970510877,-0.12935420784587393,0.06770693990640005,-0.2975855675993391,-0.6383310049802329,0.46910871494772116,0.5311646725543744,0.4647011577536603,0.24585757925137572,-1.9212852766189905,38.33162024863273,-26.878639141925333,10.619295217559374,-16.339714939102073,-1.4884135282841595
-0.042581420152247695,0.3444080476632333,-0.34036533933042995,0.08948518982443197,-0.12842072645498706,0.06819702405556972,-0.2993761572258383,-0.6386283856256215,0.47416782380262334,0.5326150596615989,0.4667406954434356,0.24504207458484162,-1.9049322840014282,38.39330383944438,-26.833899259535414,10.62510795442498,-16.39698820141422,-1.4909892977920378
-0.043183735830784144,0.34313029669352263,-0.3394068701036581,0.09055325264360681,-0.1274832131347531,0.06868547734662868,-0.30115783926822354,-0.6388754848553333,0.47923461338591977,0.5340314095874183,0.46875666011698036,0.24422664552947967,-1.8883650027206706,38.45323098394084,-26.789130343477172,10.631780114455204,-16.454018976221292,-1.4936243972987377
-0.043789597030744455,0.3418521513259492,-0.3384382526927545,0.09162408018315225,-0.12654171502131176,0.06917230006761821,-0.30293059998015465,-0.639072683786709,0.4843087054518059,0.5354137697727235,0.4707490567206806,0.24341136049476622,-1.8715918816605353,38.511389720322,-26.744327533158643,10.63931006037985,-16.510798314789568,-1.496320756218995
-0.04439898588347785,0.34057371059763936,-0.33745947324943726,0.09269760456207575,-0.12559627923721492,0.06965749263799469,-0.30469442636669497,-0.6392203641549197,0.4893897216586343,0.5367621894617508,0.4727178920484158,0.2425962851882389,-1.8546214337562406,38.567768273497144,-26.699485900688355,10.647695954441646,-16.567317310161773,-1.4990801748090763
-0.045011884495819776,0.339295072781064,-0.3364705186822399,0.09377375800148449,-0.12464695288774913,0.0701410556034689,-0.30644930617096505,-0.6393189082876565,0.49447728359866616,0.5380767197043693,0.47466317473289776,0.24178148273710556,-1.837462233247113,38.62235505810572,-26.65460045381581,10.656935758656155,-16.623567098873476,-1.5019043288239264
-0.0456282749515417,0.3380163353829037,-0.3354713766565846,0.09485247282819963,-0.12369378305727542,0.07062298963107701,-0.308195227860962,-0.6393686990801626,0.499571012827648,0.5393574133575674,0.4765849152368544,0.24096701380405833,-1.8201229128690146,38.67513868150669,-26.609666138875923,10.667027235149359,-16.679538862659967,-1.504794773964289
-0.046248139312774786,0.33673759514296253,-0.3344620355947962,0.09593368147837197,-0.1227368168055873,0.07110329550447214,-0.30993218061654276,-0.639370119970602,0.5046705308942159,0.5406043250861732,0.47848312584405794,0.24015293669757007,-1.8026121609883479,38.7261079467353,-26.564677843736167,10.677967946572227,-16.735223830152805,-1.5077529501245068
-0.04687145962140792,0.33545894803313103,-0.33344248467605797,0.09701731650109766,-0.1217761011642869,0.07158197411942602,-0.3116601543165698,-0.6393235549157598,0.5097754593691269,0.5418175113628378,0.4803578206501982,0.23933930747693766,-1.7849387186793266,38.77525185542598,-26.519630400744724,10.689755256591988,-16.790613278566408,-1.5107801854511136
-0.047498217900460354,0.3341804892563969,-0.3324127138363093,0.09810331056203228,-0.12081168313317969,0.07205902647953066,-0.3133791395262172,-0.6392293883670678,0.5148854198743195,0.5429970304673115,0.48220901555360196,0.23852618005232332,-1.767111376746458,38.82255961070014,-26.47451858967962,10.702386330459362,-16.8456985353732,-1.5138777002218804
-0.04812839615542923,0.33290231324590297,-0.33137271376808575,0.09919159644700236,-0.1198436096766881,0.07253445369209073,-0.31508912748443635,-0.6390880052469512,0.5200000341118027,0.5441429424850401,0.484036728245798,0.2377136062800338,-1.7491389726939692,38.868020620018186,-26.429337140696823,10.715858135651406,-16.900470979967757,-1.5170466105544576
-0.04876197637561239,0.331624513664052,-0.330322475920301,0.10028210706561258,-0.11887192772028424,0.07300825696419726,-0.3167901100915794,-0.6388997909254891,0.5251189238923771,0.5452553093051099,0.48584097820192923,0.23690163605326534,-1.7310303876442386,38.91162449799371,-26.38408073727701,10.730167442589106,-16.954922045318455,-1.5202879319533615
-0.04939894053540675,0.3303471834016572,-0.3292619924979726,0.1013747754548477,-0.11789668414694221,0.07348043759897432,-0.3184820798971802,-0.6386651311973838,0.530241711164186,0.546334194617564,0.48762178667101186,0.23609031738853165,-1.7127945432071,38.953361069169496,-26.33874401916899,10.745310825429508,-17.009043219606916,-1.523602582703582
-0.05003927059558253,0.3290704145771387,-0.3281912564618904,0.10246953478266793,-0.11691792579361013,0.07395099699199029,-0.3201650300878904,-0.6383844122592333,0.5353680180410995,0.5473796639101176,0.48937917666604286,0.23527969650798186,-1.694440398301993,38.99322037075371,-26.293321585329814,10.761284662931333,-17.062826047854557,-1.526991387118745
-0.05068294850453367,0.32779429853576453,-0.32711026152822853,0.10356631835159652,-0.11593569944770221,0.0744199366278259,-0.3218389544755711,-0.6380580206871008,0.5404974668309328,0.5483917844642925,0.49111317295395596,0.23446981791780525,-1.6759769459351066,39.03119265531504,-26.247807996859365,10.778085139393795,-17.116262133535155,-1.5304550786513067
-0.05132995619950475,0.32651892584893577,-0.32601900216810153,0.10466505960229851,-0.11495005184361136,0.07488725807679171,-0.3235038474855383,-0.637686343414375,0.5456296800634979,0.5493706253509958,0.49282380204542703,0.23366072448291028,-1.6574132099334316,39.06726839343628,-26.202197779929712,10.795708245667756,-17.16934314017407,-1.5339943028718999
-0.051980275607794675,0.32524438631351593,-0.3249174736070646,0.10576569211714963,-0.1139610296592423,0.07535296299178783,-0.3251597041449615,-0.6372697677099154,0.5507642805184916,0.550316257425562,0.49451109218452965,0.23285245749805666,-1.638758241637964,39.101438276324096,-26.156485428706155,10.814149780238532,-17.22206079293243,-1.5376096203246818
-0.052633888647937506,0.32397076895120297,-0.32380567182455816,0.10686814962379419,-0.11296867951256583,0.07581705310529904,-0.3268065200714151,-0.6368086811564768,0.5559008912532198,0.5512287533222803,0.4961750733382418,0.23204505675561046,-1.6200211165580574,39.133693218375434,-26.110665408261355,10.833405350379781,-17.274406880176677,-1.5413015092650857
-0.05329077723086067,0.32269816200794416,-0.32268359355329784,0.10797236599869105,-0.11197304795819421,0.0762795302265192,-0.3284442914615816,-0.6363034716294063,0.5610391356301598,0.5521081874484259,0.49781577718580394,0.231238560610084,-1.6012109309892057,39.164024359697535,-26.064732157479355,10.85347037337755,-17.32637325503239,-1.5450703682861244
-0.05395092326102088,0.32142665295339296,-0.3215512362786091,0.10907827527064667,-0.11097418148397835,0.07674039623859844,-0.33007301508010617,-0.6357545272756064,0.566178637344361,0.5529546359778142,0.4994332371079304,0.23043300603961508,-1.5823367985963914,39.192423068582,-26.018680091949754,10.874340077823813,-17.377951836922527,-1.5489165188390925
-0.05461430863751809,0.3201563284804074,-0.32040859823770773,0.11018581162433447,-0.1099721265076266,0.0771996530960075,-0.33169268824860165,-0.6351622364927597,0.5713190204506858,0.5537681768438953,0.501027488175874,0.22962842870453204,-1.5634078469651875,39.218880943931076,-25.972503606850367,10.896009504978839,-17.429134613088657,-1.552840207654169
-0.0552809152551877,0.3188872745045898,-0.31925567841892594,0.11129490940379928,-0.10896692937334591,0.07765730282201379,-0.3333033088348043,-0.6345269879088054,0.5764599093908916,0.5545488897324067,0.5025985671403447,0.22882486300314467,-1.544433214122943,39.24338981763555,-25.92619707981759,10.918473510201268,-17.479913640096058,-1.5568416090662707
-0.055950725005671456,0.3176195761638665,-0.31809247656088485,0.11240550311594648,-0.10795863634850535,0.07811334750626357,-0.3349048752418789,-0.6338491703616651,0.5816009290205547,0.5552968560735997,0.504146512420285,0.22802234212489395,-1.5254220450322622,39.26594175690212,-25.879754873803275,10.941726764445447,-17.53028104532069,-1.560920827251035
-0.0566237197784672,0.31635331781810805,-0.3169189931516132,0.1135175274340146,-0.10694729362032235,0.07856778930246555,-0.3364973863978733,-0.633129172879209,0.5867417046358374,0.5560121590340557,0.5056713640915005,0.22722089810098758,-1.5063834880590754,39.286529066530775,-25.83317133991701,10.965763755824899,-17.580229028418984,-1.5650778983758094
-0.057299881461957844,0.3150885830487891,-0.315735229427613,0.1146309172010308,-0.10593294729257205,0.07902063042617083,-0.33808084174532205,-0.6323673846594566,0.5918818620001,0.5566948835081068,0.5071731638751488,0.22642056185264192,-1.487326691417628,39.305144291139726,-25.786440820253212,10.990578791241141,-17.629749862778873,-1.5693127926700745
-0.05797919194441984,0.3138254546586871,-0.3145411873728723,0.11574560743324855,-0.10491564338231987,0.07947187315264492,-0.33965524123099833,-0.6315641950510057,0.5970210273703576,0.5573451161088764,0.5086519551260862,0.2256213632370452,-1.4682607995947459,39.32178021733751,-25.73955765070151,11.016165998077065,-17.67883589695233,-1.5736254164196488
-0.05866163311501147,0.31256401467161976,-0.3133368697178251,0.11686153332356645,-0.10389542781667772,0.07992151981482723,-0.34122058529581417,-0.6307199935336828,0.6021588275235847,0.5579629451589507,0.5101077828210752,0.2248233310911516,-1.449194949755643,39.33642987584166,-25.692516163739676,11.042519325953759,-17.727479556068772,-1.5780156138886723
-0.059347186864741205,0.31130434433222093,-0.31212227993825936,0.11797863024492786,-0.10287234642958402,0.08036957280137405,-0.3427768748648684,-0.6298351696994087,0.6072948897828669,0.5585484606806981,0.5115406935468513,0.22402649327341032,-1.4301382681337644,39.34908654354154,-25.645310691207737,11.06963254854999,-17.775673343228718,-1.5824831691733228
-0.060035835087416486,0.3100465241057544,-0.31089742225417255,0.11909683375370035,-0.10184644495860792,0.0808160345547811,-0.3443241113376421,-0.628910113233272,0.6124288420434019,0.5591017543862457,0.5129507354880527,0.22323087670352904,-1.4110998664069085,39.35974374550613,-25.597935567063367,11.097499265483325,-17.82340984087733,-1.5870278079908495
-0.06072755968057317,0.3087906336779648,-0.30966230162857583,0.12021607959303461,-0.1008177690417779,0.08126090756958183,-0.3458622965783413,-0.6279452138948047,0.6175603127983504,0.5596229196671269,0.5143379584150127,0.22243650740036602,-1.3920888380621124,39.36839525693465,-25.550385130115696,11.126112904251983,-17.870681712157904,-1.5916491994074755
-0.06142234254638594,0.3075367519549659,-0.30841692376624674,0.12133630369620184,-0.09978636421443507,0.08170419439061792,-0.3473914329063859,-0.626940861499453,0.6226889311645396,0.5601120515836113,0.5157024136714162,0.22164341051804107,-1.373114254751683,39.37503510504903,-25.502653726738373,11.155466722236252,-17.917481702244064,-1.5963469575083806
-0.062120165592560034,0.3062849570631654,-0.30716129511243073,0.1224574421899093,-0.09875227590611142,0.08214589761137862,-0.34891152308704587,-0.6258974459002354,0.6278143269080179,0.560569246853728,0.5170441541618215,0.22085161038035084,-1.3541851626427412,39.379657570928444,-25.454735713560243,11.18555380875868,-17.96380263965063,-1.6011206430129818
-0.06282101073320448,0.3050353263492262,-0.3058954228514918,0.12357943139759328,-0.09771554943743332,0.08258601987240577,-0.3504225703222226,-0.6248153569695836,0.6329361304694643,0.560994603841992,0.5183632343390493,0.22006113051357032,-1.3353105787627477,39.38225719128319,-25.406625460131785,11.21636708720171,-18.00963743752334,-1.605969764838442
-0.06352485988968723,0.30378793638006346,-0.30461931490551286,0.12470220784268897,-0.09667623001705045,0.0830245638597612,-0.3519245782413768,-0.6236949845813573,0.6380539729894525,0.5613882225478457,0.5196597101914389,0.21927199367771788,-1.3164994873433864,39.38282876016927,-25.358317351568527,11.247899317182075,-18.054979094905825,-1.6108937816141904
-0.06423169499147244,0.3025428629428774,-0.3033329799328457,0.1258257082518766,-0.0956343627385905,0.08346153230355392,-0.3534175508926008,-0.622536718593028,0.6431674863335715,0.5617502045938247,0.5209336392299739,0.21848422189635805,-1.2977608361652422,39.38136733064061,-25.30980579116785,11.280143096780467,-18.099820697984583,-1.6158921031501772
-0.06494149797694011,0.3013001810452214,-0.3020364273266109,0.12694986955830354,-0.09458999257763993,0.08389692797652394,-0.3549014927338368,-0.621340948828023,0.6482763031174024,0.5620806532134561,0.5221850804752787,0.2176978364850125,-1.2791035329057348,39.37786821633943,-25.26108520300052,11.313090864825607,-18.144155421310995,-1.6209640918613497
-0.06565425079418859,0.30005996491510495,-0.3007296672131482,0.12807462890478133,-0.09354316438875096,0.08433075369268044,-0.3563764086242389,-0.6201080650582256,0.6533800567313554,0.5623796732388998,0.5234140944444858,0.21691285807824606,-1.2605364414926221,39.37232699302377,-25.21215003447466,11.346734903231619,-18.18797652899983,-1.6261090641507066
-0.06636993540181994,0.2988222880011317,-0.29941271045041745,0.129199923646958,-0.092493922902475,0.08476301230599143,-0.35784230381567955,-0.6188384569866211,0.6584783813653652,0.5626473710883416,0.5246207431379776,0.21612930665549185,-1.2420683784656044,39.36473950003109,-25.16299475887199,11.381067339387435,-18.231277375904934,-1.6313262917533082
-0.06708853376970875,0.29758722297267154,-0.29808556862635055,0.1303256913564643,-0.09144231272242301,0.08519370670912278,-0.3592991839443994,-0.6175325142300857,0.6635709120334479,0.5628838547531452,0.5258050900260012,0.21534720156567633,-1.2237081093483844,39.35510184167707,-25.113613877854764,11.416080148597143,-18.274051408770056,-1.6366150030432405
-0.06781002787975435,0.29635484172006693,-0.2967482540571543,0.13145186982403384,-0.09038837832235269,0.08562283983222418,-0.36074705502280097,-0.6161906263023084,0.6686572845981191,0.5630892337847724,0.5269672000351604,0.2145665615507019,-1.2054643450335503,39.34341038858958,-25.064001923943756,11.451765156570136,-18.31629216735619,-1.641974384305661
-0.06853439972661711,0.29512521535487324,-0.29540077978556495,0.1325783970625968,-0.08933216404328312,0.08605041464175987,-0.36218592343138406,-0.6148131825968411,0.6737371357946764,0.5632636192814788,0.5281071395347843,0.21378740476784247,-1.1873457381827732,39.329661778976295,-25.014153462964764,11.488114041959747,-18.357993285543856,-1.6474035809757865
-0.06926163131843875,0.2938984142101327,-0.29404315957905425,0.13370521131034638,-0.08827371409063677,0.08647643413938208,-0.3636157959108242,-0.6134005723702698,0.6788101032553446,0.5634071238747926,0.5292249763231746,0.21300974881110452,-1.1693608796446031,39.31385291982539,-24.964063096463967,11.525118338949277,-18.39914849241078,-1.6529016988466543
-0.06999170467754713,0.29267450784068166,-0.2926754079279877,0.13483225103377794,-0.0872130725314093,0.08690090136084529,-0.3650366795541922,-0.6119531847254983,0.6838758255332874,0.563519861715783,0.5303207796137333,0.21223361073160307,-1.1515182948922753,39.29598098803953,-24.91372546409145,11.562769439884256,-18.439751613284113,-1.658467805247379
-0.07072460184114576,0.2914535650234914,-0.2912975400437347,0.1359594549307002,-0.08615028329136735,0.08732381937495928,-0.36644858179931494,-0.6104714085951416,0.6889339421264852,0.5636019484611265,0.5313946200209719,0.211459007057001,-1.1338264404838672,39.27604343150125,-24.863135245951277,11.601058597949317,-18.479796570767302,-1.6641009301934657
-0.07146030486198832,0.2902356537580414,-0.2899095718567317,0.13708676193321814,-0.08508539015227455,0.08774519128257939,-0.36785151042127623,-0.6089556327250178,0.69398409350148,0.5636535012589765,0.5324465695464041,0.21068595381005623,-1.1162937005471898,39.25403797006976,-24.81228716491734,11.639976929889038,-18.519277385740978,-1.6698000675107476
-0.07219879580903843,0.2890208412667259,-0.28851152001449776,0.13821411121068744,-0.0840184367491459,0.08816502021563204,-0.36924547352505793,-0.6074062456577357,0.6990259211169899,0.5636746387346436,0.5334767015643224,0.2099144665263205,-1.098928383291637,39.22996259650882,-24.76117598891556,11.679515418770798,-18.558188178338,-1.675564175934389
-0.07294005676811507,0.28780919399529314,-0.287103401879603,0.13934144217263963,-0.08294946656753098,0.0885833093361741,-0.3706304795383196,-0.6058236357163683,0.7040590674473919,0.5636654809760923,0.534485090807461,0.20914456027103032,-1.0817387175493813,39.20381557734468,-24.709796533169442,11.719664916788975,-18.596523168891682,-1.6813921801842526
-0.07368406984252371,0.2866007776133167,-0.28568523552759084,0.14046869447167815,-0.08187852294082588,0.08900006183548456,-0.37200653720431703,-0.6042081909882084,0.7090831760060765,0.5636261495192599,0.5354718133525473,0.2083762496552295,-1.0647328493481147,39.17559545365365,-24.65814366241087,11.760416148108638,-18.63427667885793,-1.6872829720179854
-0.07443081715367363,0.2853956570146995,-0.2842570397448535,0.14159580800634455,-0.0808056490476144,0.08941528093318689,-0.37337365557495755,-0.6025602993085979,0.7140978913686735,0.5635567673332049,0.5364369466057418,0.20760954885116056,-1.047918838517658,39.145301041778964,-24.606212293052458,11.801759711747977,-18.671443131710042,-1.6932354112629233
-0.07518028084168162,0.28419389631820985,-0.2828188340264612,0.14272272292395474,-0.07973088790903847,0.08982896987640081,-0.37473184400399295,-0.6008803482448243,0.7191028591961506,0.5634574588050878,0.5373805692879683,0.20684447160696004,-1.0313046553325806,39.112931433976456,-24.553997395324085,11.843686084497548,-18.70801705380665,-1.6992483268280125
-0.07593244306596231,0.28299555886804967,-0.2813706385739456,0.14384937962340472,-0.07865428238619819,0.09024113193892219,-0.3760811121403477,-0.5991687250800797,0.7240977262577849,0.5633283497249929,0.5383027614201381,0.20608103126069188,-1.0148981771930976,39.07848599898833,-24.501493995369447,11.886185623875505,-18.74399307523199,-1.7053205176968245
-0.07668728600580547,0.2818007072344547,-0.2799124742930376,0.1449757187579459,-0.07757587517758166,0.0906517704204297,-0.3774214699215823,-0.5974258167974735,0.7290821404540103,0.5631695672705941,0.539203604308267,0.20531924075375088,-0.99870718534636,39.041964382545075,-24.448697177305014,11.929248571117137,-18.779365930609,-1.7114507539025698
-0.07744479186094046,0.28060940321432654,-0.2784443627913593,0.14610168123792924,-0.07649570881652469,0.09106088864571703,-0.3787529275674913,-0.5956520100640942,0.7340557508391393,0.5629812399916706,0.5400831805284879,0.20455911264366658,-0.9827393616502986,39.0033665077946,-24.39560208523853,11.972865054197559,-18.814130459884282,-1.7176377774861304
-0.07820494285208812,0.2794217078318963,-0.2769663263760714,0.1472272082335182,-0.07541382566870077,0.0914684899639497,-0.38007549557383336,-0.5938476912151129,0.7390182076439613,0.5627634977944782,0.5409415739119622,0.20380065911633702,-0.9670022853820828,38.96269257565886,-24.342203925247773,12.01702509088592,-18.848281609085088,-1.723880303437924
-0.07896772122150052,0.27823768133942045,-0.27547838805147495,0.14835224117737017,-0.07433026792964138,0.09187457774794514,-0.3813891847061945,-0.5920132462379236,0.7439691622982183,0.5625164719259794,0.5417788695296878,0.2030438919977199,-0.9515034300933269,38.91994306511705,-24.288497967318392,12.061718591830143,-18.881814431048383,-1.7301770206244764
-0.07973310923348848,0.27705738321790785,-0.273980571516569,0.14947672176728605,-0.07324507762228696,0.09227915539347516,-0.38269400599398196,-0.5901490607563121,0.7489082674529585,0.5622402949579384,0.54259515367721,0.20228882276500762,-0.9362501605139935,38.87511873341558,-24.234479547240063,12.106935363670395,-18.914724086121147,-1.7365265927004174
-0.08050108917493758,0.27588087217787854,-0.27247290116256345,0.15060059196882783,-0.0721582965945685,0.09268222631858977,-0.3839899707245481,-0.5882555200146493,0.7538351770027688,0.5619351007708849,0.5433905138592336,0.20153546255731103,-0.9212497295070485,38.82822061620426,-24.180144068460866,12.152665112180088,-18.947005842832503,-1.7429276590066238
-0.08127164335581247,0.27470820616015434,-0.2709554020703477,0.15172379401790373,-0.07106996651702023,0.09308379396296153,-0.3852770904374432,-0.586333008862102,0.7587495461078868,0.5616010245379519,0.5441650387741391,0.2007838221858764,-0.906509275075754,38.779250027598536,-24.125487003899238,12.198897445433113,-18.97865507853688,-1.7493788354552158
-0.08204475410965006,0.27353944233668065,-0.2694281000079153,0.1528462704233209,-0.06998012888042342,0.09348386178724924,-0.3865553769187958,-0.5843819117368553,0.7636510312161926,0.5612382027085904,0.5449188182984048,0.2000339121438576,-0.892035817425596,38.72820856016773,-24.070503897712413,12.245621876995575,-19.00966728002846,-1.7558787154019688
-0.08282040379404171,0.27237463711138,-0.2678910214277451,0.15396796396930523,-0.06888882499348155,0.09388243327248057,-0.38782484219582,-0.58240261265034,0.7685392900850824,0.5608467729921663,0.5456519434709369,0.19928574261566584,-0.8778362560826034,38.675098084849296,-24.015190367021795,12.292827829140938,-19.040038044126597,-1.762425870506744
-0.08359857479110461,0.27121384612103705,-0.2663441934641387,0.15508881771798813,-0.06779609598052694,0.0942795119194524,-0.3890854985314473,-0.5803954951714614,0.7734139818032231,0.5604268743414443,0.5463645064773082,0.19853932348591716,-0.8639173670699702,38.619920750788,-23.959542103593677,12.340504636086951,-19.069763078232306,-1.7690188515825214
-0.08437924950794277,0.2700571242362154,-0.2647876439305143,0.15620877501186006,-0.06670198277925912,0.09467510124814839,-0.39033735841908307,-0.5783609424108211,0.7782747668121893,0.5599786469359608,0.5470566006339079,0.1977946643479974,-0.8502858001447176,38.562678985101485,-23.90355487547588,12.388641547252954,-19.098838200855166,-1.7756561894334222
-0.08516241037709775,0.26890452556220557,-0.26322140131665833,0.15732777947619064,-0.06560652613851511,0.09506920479717292,-0.3915804345774851,-0.576299337004928,0.7831213069279832,0.559502232165291,0.5477283203720053,0.1970517745122634,-0.8369480760961121,38.50337549257082,-23.847224528589308,12.437227730536247,-19.127259342111323,-1.782336395682295
-0.08594803985698928,0.2677561034400048,-0.26164549478593346,0.15844577502141508,-0.06450976661607166,0.09546182612320071,-0.3928147399457635,-0.5742110611003918,0.7879532653624373,0.5589977726122154,0.5483797612217264,0.1963106630138982,-0.8239105841075629,38.44201325525652,-23.79054698827361,12.486252275605867,-19.15502254419175,-1.7890579635882058
-0.08673612043234627,0.26661191044732857,-0.2600599541724445,0.15956270584548665,-0.06341174457647976,0.09585296880044158,-0.3940402876785005,-0.5720964963380951,0.7927703067445018,0.5584654120357856,0.5490110197959486,0.19557133862043696,-0.8111795791835767,38.378595532040684,-23.733518260787818,12.535704197212585,-19.18212396180128,-1.7958193688542796
-0.08752663461462824,0.2654719983996539,-0.2584648099781617,0.16067851643619524,-0.06231250018893153,0.09624263642011954,-0.3952570911409886,-0.5699560238373372,0.7975720971414156,0.557905295354298,0.5496221937741128,0.19483380983897997,-0.7987611796433916,38.31312585809361,-23.676134434763892,12.58557243851347,-19.208559862568002,-1.8026190704262128
-0.08831956494243741,0.264336418351294,-0.25686009337000215,0.1617931515734516,-0.06121207342515962,0.09663083258996576,-0.39646516390458536,-0.5677900241799451,0.8023583040797624,0.557317568628175,0.5502133818859558,0.19409808492310787,-0.786661364682816,38.24560804426713,-23.618391682614607,12.635845874409586,-19.234326627422774,-1.8094555112817958
-0.08911489398192178,0.2632052205965053,-0.25524583617686936,0.1629065563315371,-0.06011050405736929,0.09701756093372478,-0.3976645197421835,-0.565598877394346,0.8071285965664111,0.5567023790427597,0.5507846838951649,0.19336417187951382,-0.7748859720056762,38.17604617641297,-23.560286261893857,12.686513314895702,-19.259420750949708,-1.8163271192117725
-0.08991260432716937,0.2620784546706261,-0.2536220708866507,0.16401867608131918,-0.05900783165620338,0.09740282509067351,-0.39885517262379494,-0.5633829629395984,0.8118826451093427,0.5560598748910259,0.5513362005829561,0.19263207847436628,-0.7634406955264241,38.1044446146274,-23.501814516609954,12.737563508419983,-19.283838841706324,-1.8232323075922527
-0.09071267860059386,0.2609561693512474,-0.25198883064317396,0.1651294564924316,-0.057904095588740226,0.09778662871515234,-0.40003713671224683,-0.5611426596893738,0.8166201217383621,0.5553902055562097,0.5518680337315781,0.19190181223941577,-0.7523310831451564,38.0308079924216,-23.44297287849163,12.788985145252763,-19.307577622514305,-1.8301694761489822
-0.09151509945331184,0.2598384126594156,-0.25034614924312254,0.16623884353542032,-0.05679933501652474,0.09816897547610806,-0.4012104263589878,-0.5588783459158861,0.8213407000256957,0.5546935214943618,0.5523802861077445,0.19117338047785803,-0.7415625345963828,37.955141215818735,-23.383757868205947,12.840766860862612,-19.33063393072048,-1.837137011713645
-0.09231984956551184,0.25872523186086804,-0.2486940611329096,0.16734678348385398,-0.05569358889363275,0.09854986905664799,-0.4023750561000033,-0.5565903992737647,0.8260440551064758,0.5539699742168284,0.5528730614459946,0.19044679026996575,-0.7311402993728437,37.87744946237719,-23.324166096528554,12.892897239298556,-19.353004718428203,-1.844133288972444
-0.09312691164681551,0.25761667346730033,-0.24703260140551137,0.1684532229163993,-0.05458689596476878,0.098929313153605,-0.4035310406518378,-0.5542791967838647,0.8307298636991104,0.5532197162726605,0.5533464644319865,0.18972204847849977,-0.7210694747254691,37.79773818014114,-23.26419426546569,12.945364816576616,-19.37468705269876,-1.8511566712070877
-0.09393626843663096,0.2565127832376663,-0.24536180579726027,0.1695581087188612,-0.053479294763397335,0.09930731147711282,-0.4046783949077223,-0.5519451148170117,0.8353978041255398,0.552442901230958,0.5538006006857233,0.1889991617539112,-0.7113550037407523,37.71601308651777,-23.203839169327637,12.998158084069637,-19.395678115723364,-1.8582055110283728
-0.09474790270449857,0.2554136061795109,-0.2436817106845975,0.1706613880861875,-0.052370823609907906,0.0996838677501915,-0.40581713393380525,-0.5495885290776765,0.8400475563313793,0.5516396836631483,0.5542355767447146,0.18827813653934408,-0.7020016734965044,37.63228016708213,-23.14309769575342,13.05126549189859,-19.415975204965193,-1.8652781511025034
-0.09556179725042954,0.25431918655033575,-0.24199235308078562,0.1717630085244379,-0.05126152060981375,0.1000589857083424,-0.4069472729654853,-0.5472098145875747,0.8446788019059484,0.5508102191252067,0.5546515000470754,0.18755897907544877,-0.6930141132970165,37.54654567431026,-23.081966826687385,13.104675452324367,-19.435575733272206,-1.8723729248702088
-0.09637793490523723,0.25322956785899736,-0.24029377063258126,0.17286291785271754,-0.05015142365198463,0.10043266909915244,-0.4080688274038436,-0.5448093456691885,0.849291224102186,0.5499546641398182,0.5550484789145648,0.1868416954050153,-0.6843967929886281,37.45881612624031,-23.020443639306478,13.158376343138269,-19.454477228960123,-1.8794881572588755
-0.09719629853086158,0.2521447928671389,-0.23858600161686835,0.1739610642050745,-0.049040570406913495,0.10080492168190731,-0.4091818128121744,-0.5423874959292063,0.8538845078564526,0.5490731761784863,0.555426622535565,0.18612629137743528,-0.6761540213565853,37.36909830506238,-22.95852530689885,13.21235651104981,-19.472677335865843,-1.8866221653876445
-0.0980168710206868,0.25106490359065514,-0.23686908493725192,0.1750573960323617,-0.047928998325017486,0.10117574722721331,-0.4102862449126113,-0.5399446382418766,0.8584583398082171,0.5481659136435912,0.5557860409480045,0.18541277265300107,-0.6682899446039618,37.277399255638,-22.896209099693426,13.266604275070833,-19.49017381337187,-1.8937732592656356
-0.0988396352998525,0.2499899413011906,-0.23514306012061267,0.1761518621040625,-0.04681674463497303,0.10154514951662741,-0.4113821395828476,-0.537481144732272,0.8630124083196303,0.5472330358504004,0.5561268450222265,0.18470114470705,-0.6608085449135137,37.183726283949,-22.833492385640216,13.321107929893866,-19.506964536401053,-1.900939742483339
-0.09966457432555839,0.24891994652767166,-0.2334079673136227,0.17724441151008058,-0.04570384634208542,0.10191313234229533,-0.41246951285294897,-0.5349973867594617,0.8675464034949845,0.5462747030090345,0.5564491464438039,0.1839914128339613,-0.6537136390930609,37.088086955477124,-22.770372631142035,13.375855749264064,-19.523047495382016,-1.9081199128971598
-0.1004916710873629,0.2478549590578725,-0.2316638472792226,0.17833499366249336,-0.04459034022669281,0.10227969950659736,-0.4135483809022562,-0.5324937348995872,0.8720600172000568,0.5452910762063929,0.5567530576963047,0.18328358215101287,-0.6470088773050988,36.99048909351439,-22.706847401736887,13.430835989342748,-19.53842079618613,-1.9153120633072622
-0.10132090860747565,0.24679501794001482,-0.22991074139305992,0.17942355829726944,-0.04347626284260479,0.10264485482180158,-0.4146187600563757,-0.5299705589288395,0.8765529430813385,0.5442823173880413,0.5570386920440078,0.18257765760210487,-0.6406977418812634,36.89094077740496,-22.642914362731123,13.486036892061524,-19.55308266003468,-1.922514482128582
-0.10215226994104416,0.24574016148440214,-0.22814869163988963,0.18051005547594956,-0.042361650515575645,0.10300860210972429,-0.4156806667842564,-0.527428227806335,0.8810248765851484,0.5432485893400634,0.5573061635145735,0.18187364396135655,-0.6347835462220415,36.789450340719256,-22.578571279784278,13.541446688465474,-19.56703142337758,-1.929725454055133
-0.10298573817643486,0.24469042726508836,-0.22637774060993637,0.18159443558729133,-0.041246539341812306,0.10337094520139746,-0.4167341176953505,-0.5248671096568865,0.8854755149766304,0.5421900556708819,0.5575555868816685,0.1811715458365824,-0.6292694337822944,36.686026369361436,-22.513816019444384,13.597053602044301,-19.580265537743713,-1.9369432607175696
-0.10382129643550857,0.24364585212158102,-0.22459793149521912,0.18267664934887742,-0.04013096518651721,0.10373188793674276,-0.41777912953685625,-0.5222875717536678,0.8899045573586339,0.5411068807930508,0.5577870776475488,0.18047136767265384,-0.6241583771428991,36.58067769960967,-22.448646549634883,13.652845852049596,-19.592783569561952,-1.9441661813339568
-0.10465892787389065,0.24260647216057948,-0.22280930808583815,0.18375664780868747,-0.03901496368246601,0.10409143416425226,-0.4188157191910402,-0.5196899805007682,0.8943117046904782,0.539999229905022,0.5580007520256026,0.17977311375475147,-0.6194531771689227,36.473413416091574,-22.38306094009276,13.708811656797566,-19.604584199954438,-1.9513924933537652
-0.10549861568123593,0.2415723227577482,-0.22101191476622495,0.18483438234663324,-0.037898570228620296,0.1044495877406753,-0.4198439036726377,-0.5170747014156369,0.8986966598065972,0.5388672689728896,0.5581967269228553,0.17907678821151377,-0.6151564622544567,36.36424284969452,-22.317057362758277,13.764939236955408,-19.615666224501485,-1.9586204730950705
-0.10634034308148858,0.24054343855952537,-0.2192057965113548,0.18590980467605747,-0.03678181998877542,0.10480635253071147,-0.4208637001263283,-0.5144420991114129,0.9030591274350683,0.5377111647121153,0.5583751199224372,0.1783823950180869,-0.6112706876544824,36.25317557541163,-22.250634092115984,13.82121681881011,-19.62602855297822,-1.9658483963748754
-0.10718409333313715,0.2395198534849671,-0.21739099888292276,0.18698286684519594,-0.03566474789024338,0.10516173240670963,-0.42187512582428516,-0.5117925372791402,0.9073988142160198,0.5365310845692377,0.5585360492660189,0.17768993799908037,-0.6077981349036783,36.14022141012512,-22.18378950548847,13.877632637518813,-19.635670209063782,-1.9730745391325355
-0.10802984972946474,0.23850160072762736,-0.21556756802548294,0.18805352123860308,-0.03454738862257095,0.1055157312483725,-0.4228781981637953,-0.5091263786698658,0.9117154287199192,0.5353271967035685,0.5586796338362139,0.1769994208314333,-0.6047409113225064,36.025390410326985,-22.11652208328111,13.934174940338853,-19.64459033002244,-1.9802971780462717
-0.10887759559879463,0.2374887127574741,-0.21373555066255145,0.18912172057854085,-0.03342977663629305,0.1058683529424669,-0.4238729346649492,-0.5064439850766198,0.9160086814657411,0.5340996699688794,0.558805993138952,0.17631084704719543,-0.6021009496102838,35.90869286977839,-22.04883040918012,13.990831989836629,-19.652788166357837,-1.9875145911426344
-0.10972731430473143,0.23648122132284155,-0.21189499409267343,0.190187417926331,-0.0323119461417214,0.10621960138253934,-0.4248593529683971,-0.5037457173162759,0.9202782849390128,0.5328486738950818,0.558915247285825,0.175624220036227,-0.59988000752548,35.79013931710838,-21.98071317030258,14.047592067074204,-19.66026308143964,-1.99472505839893
-0.11057898924639777,0.23547915745241896,-0.21004594618545394,0.19125056668367083,-0.031193931107768583,0.10656948046863698,-0.4258374708331703,-0.5010319352112909,0.9245239536097372,0.5315743786699046,0.5590075169764074,0.17493954304882112,-0.598079667652855,35.669740513353545,-21.912169157299772,14.104443474771882,-19.66701455110335,-2.0019268623385247
-0.11143260385866689,0.2344825514572763,-0.20818845537755357,0.19231112059391198,-0.030075765260807477,0.1069179941070335,-0.4268073061345647,-0.4983029975713226,0.9287454039501924,0.5302769551205698,0.5590829234805539,0.17425681919825292,-0.5967013372574623,35.54750744943859,-21.843197264413494,14.161374540446037,-19.67304216322354,-2.009118288618916
-0.11228814161239106,0.23349143293292685,-0.20632257066864834,0.19336903374330291,-0.028957482083566126,0.10726514620996001,-0.4277688768620848,-0.4955592621747265,0.9329423544526069,0.5289565746954729,0.559141588620676,0.17357605146325814,-0.5957462482251348,35.423451343599645,-21.77379648948613,14.218373619521046,-19.678345617260568,-2.0162976266125754
-0.11314558601462596,0.232505830761427,-0.20444834161735492,0.19442426056219464,-0.027839114814058125,0.1076109406953409,-0.4287222011174461,-0.49280108574992826,0.9371145256467076,0.5276134094458683,0.559183634754,0.17289724269044499,-0.5952154570892421,35.29758363875105,-21.703965933924323,14.275429098413676,-19.682924723780964,-2.023463169980398
-0.11400492060885123,0.23152577311351366,-0.20256581833712065,0.19547675582620977,-0.026720696444548508,0.10795538148653418,-0.42966729711263285,-0.4900288239566744,0.9412616401171428,0.5262476320075655,0.5592091847548087,0.17222039559664218,-0.5951098451432633,35.16991599979689,-21.633704802617565,14.33252939758949,-19.68677940395232,-2.030613217237761
-0.11486612897518725,0.23055128745077935,-0.2006750514920791,0.19652647465737505,-0.02560225972055517,0.10829847251207655,-0.43060418316801025,-0.4872428313671593,0.9453834225207753,0.5248594155826367,0.5592183619966684,0.1715455127711862,-0.5954301186388786,35.04046031088759,-21.56301240381083,14.389662974589495,-19.689909689011984,-2.037746072313027
-0.11572919473060822,0.22958240052788528,-0.1987760922928714,0.19757337252521734,-0.024483837139885882,0.10864021770543286,-0.43153287771048754,-0.484443461447029,0.9494795996038478,0.5234489339211411,0.5592112903346446,0.17087259667815047,-0.5961768090689192,34.909228672624224,-21.49188814893283,14.446818327026357,-19.69231571971094,-2.0448600450984866
-0.11659410152915169,0.22861913839481277,-0.1968689924924334,0.19861740524782306,-0.023365460951710867,0.1089806210047499,-0.4324533992717311,-0.48163106653626264,0.9535499002190153,0.5220163613028687,0.5591880940875074,0.170201649658519,-0.5973502735348197,34.77623339920979,-21.420331552379732,14.503983995549122,-19.69399774573244,-2.0519534519936062
-0.11746083306212453,0.2276615263991529,-0.1949538043817489,0.19965852899286127,-0.022247163155671008,0.1093196863526145,-0.43336576648642405,-0.4788059978299315,0.9575940553422484,0.5205618725191056,0.5591488980199302,0.16953267393230742,-0.5989506951978436,34.64148701555018,-21.348342231254758,14.561148566774964,-19.6949561250859,-2.0590246164405133
-0.11832937305830567,0.22670958918843523,-0.1930305807855697,0.20069670027857012,-0.021128975501021642,0.10965741769581577,-0.4342699980905715,-0.47596860535883606,0.9616117980896003,0.5190856428544266,0.5590938273246827,0.1688656716006331,-0.600978083813474,34.50500225430511,-21.275919905064804,14.618300676187637,-19.695191323476468,-2.066071869451615
-0.11919970528414536,0.22576335071249518,-0.191099375058102,0.20173187597470715,-0.020010929485812,0.10999381898511125,-0.43516611291984797,-0.4731192379700229,0.9656028637338411,0.5175878480685159,0.5590230076048209,0.16820064464773712,-0.603432276348248,34.366792052890695,-21.20306439537371,14.675429011000775,-19.69470391365042,-2.073093550129265
-0.12007181354396133,0.2248228342258808,-0.1891602410786601,0.2027640133034632,-0.018893056356100245,0.11032889417499717,-0.4360541299079861,-0.47025824330718174,0.9695669897209545,0.5160686643780206,0.5589365648558775,0.16753759494296006,-0.6063129376783252,34.22686955043441,-21.12977562541332,14.732522312985957,-19.69349457471695,-2.0800880061774327
-0.12094568168013174,0.22388806229029898,-0.18721323324728711,0.20379306984034007,-0.01777538710520414,0.11066264722348251,-0.4369340680852034,-0.46738596779092395,0.9735039156864971,0.51452826843844,0.5588346254480528,0.16687652424267332,-0.6096195613688011,34.08524808468433,-21.05605361965278,14.789569381263872,-19.691564091446516,-2.087053594405212
-0.12182129357328507,0.2229590567771011,-0.18525840648034347,0.2048190035149922,-0.01665795247298732,0.11099508209186686,-0.43780594657666566,-0.46450275659894436,0.9774133834718183,0.5129668373260545,0.5587173161084111,0.16621743419216845,-0.6133514705331429,33.941941188873514,-20.981898503326505,14.846559075058002,-19.688913353546063,-2.0939886812221444
-0.12269863314248704,0.22203583886980896,-0.1832958162060632,0.205841772612032,-0.015540782945181155,0.11132620274452187,-0.4386697846009843,-0.461608953646068,0.9812951371401388,0.5113845485198965,0.5585847639030823,0.16556032632750542,-0.6175078187716263,33.796962588540545,-20.90731050192141,14.903480316409787,-19.685543354911694,-2.1008916431252302
-0.12357768434542453,0.22111842906668058,-0.1813255183600782,0.20686133577179952,-0.014423908752742208,0.11165601314867651,-0.4395256014687465,-0.4587049015641834,0.985148922992487,0.5097815798837673,0.5584370962194732,0.16490520207732243,-0.6220875911878343,33.65032619830812,-20.832289940624275,14.960322092854677,-19.681455192858916,-2.1077608671775794
-0.12445843117858668,0.22020684718331646,-0.17934756938091123,0.20787765199109612,-0.013307359871245228,0.11198451727420573,-0.4403734165810744,-0.45579094168206474,0.9889744895834901,0.5081581096483041,0.5582744407484898,0.16425206276460805,-0.6270896054822845,33.50204611862085,-20.756837243729436,15.017073460057583,-19.676650067330943,-2.1145947514785677
-0.1253408576774431,0.21930111235530628,-0.1773620262054372,0.20889068062388233,-0.012191166020311683,0.11231171909342261,-0.4412132494282135,-0.45286741400508496,0.9927715877370198,0.506514316393099,0.5580969254667726,0.16360090960843762,-0.6325125131220206,33.35213663244309,-20.68095293400809,15.073723544407736,-19.671129280085516,-2.1213917056254776
-0.1262249479166194,0.21840124304091663,-0.17536894626431382,0.2099003813819401,-0.011075356663073785,0.11263762258087395,-0.44204511958814613,-0.44993465719482273,0.9965399705616899,0.5048503790288744,0.5579046786189489,0.1629517437256752,-0.6383548005850477,33.200612201919256,-20.60463763203915,15.130261545571436,-19.6648942338606,-2.1281501511664644
-0.12711068601006986,0.21750725702381948,-0.1733683874773814,0.2109067143354995,-0.00995996100567398,0.11296223171313924,-0.4428690467252292,-0.44699300854856544,1.000279393466204,0.5031664767797182,0.5576978286999026,0.1623045661326422,-0.6446147906785806,33.04748746499636,-20.52789205550272,15.186676739002372,-19.657946431518994,-2.134868522044844
-0.12799805611124757,0.21661917141586207,-0.1713604082490323,0.21190963991383027,-0.00884500799679985,0.11328555046863274,-0.4436850505888539,-0.4440428039787116,1.003989614174552,0.5014627891653817,0.5574765044370651,0.16165937774675435,-0.65129064392967,32.89277723201201,-20.450717018436947,15.242958478408426,-19.650287475172842,-2.1415452650345665
-0.1288870424132718,0.2157370026598779,-0.1693450674635502,0.21290911890579756,-0.007730526327254391,0.113607582827409,-0.44449315101212544,-0.44108437799207517,1.007670392741052,0.4997394959836446,0.5572408347727295,0.16101617938812773,-0.6583803600471589,32.73649648224763,-20.373113430458837,15.299096198174599,-19.641919065288178,-2.1481788401668584
-0.12977762914909294,0.21486076653253972,-0.1673224244804197,0.21390511246038305,-0.0066165444295616105,0.11392833277097131,-0.44529336791056073,-0.4381180636690956,1.0113214915652393,0.49799677729274927,0.5569909488463902,0.16037497178115517,-0.6658817794535867,32.5786603604496,-20.29508229594987,15.35507941574111,-19.632842999769643,-2.1547677211478957
-0.13066980059165453,0.2139904781472538,-0.1652925391296065,0.21489758208717086,-0.005503090477607388,0.11424780428208342,-0.4460857212808023,-0.4351441926429569,1.014942675406595,0.49623481339390907,0.5567269759771111,0.15973575555605396,-0.673792584885732,32.4192841733186,-20.21662471320669,15.410897733935986,-19.623061173026386,-2.161310395767466
-0.1315635410540532,0.21312615195709655,-0.16325547170680826,0.21588648965679863,-0.004390192386315541,0.1145660013445842,-0.4468702311993464,-0.4321630950786192,1.0185337113991177,0.49445378481389307,0.5564490456459235,0.15909853125038598,-0.6821103030623741,32.258383385969545,-20.13774187355854,15.466540843261807,-19.61257557501895,-2.167805366298576
-0.1324588348896958,0.21226780175779303,-0.1612112829686768,0.21687179740137402,-0.0032778778113590253,0.1148829279432053,-0.44764691782128346,-0.42917509965176703,1.0220943690657327,0.4926538722876913,0.556157287478258,0.15846329931055098,-0.6908323064179136,32.095973618363196,-20.058435060451508,15.52199852413562,-19.601388290288156,-2.1742511498879376
-0.1333556664924539,0.21141544069073767,-0.15916003412801172,0.21785346791485655,-0.002166174148906202,0.11519858806339181,-0.4484158013790495,-0.42618053352767793,1.0256244203325384,0.49083525674126394,0.5558518312264117,0.15783006009325393,-0.6999558149004659,31.932070641710286,-19.97870564850008,15.577260649081644,-19.589501496965784,-2.1806462789371768
-0.13425402029681627,0.21056908124605764,-0.15710178684892595,0.2188314641534053,-0.0010551085354020967,0.11551298569112571,-0.44917690218118594,-0.42317972234001616,1.029123639542887,0.4889981192743776,0.5555328067520526,0.1571988138669472,-0.7094778978327754,31.766690374850768,-19.898555102508155,15.632317184876332,-19.576917465768236,-2.1869893014748882
-0.13515388077803847,0.20972873526571853,-0.15503660324198335,0.21980574943569237,5.5292152615435235e-05,0.1158261248127522,-0.44993024061110665,-0.42017299016955534,1.0325918034712982,0.48714264114353245,0.555200344008766,0.15656956081324844,-0.7193954758346273,31.59984888060886,-19.817984976458604,15.687158194644915,-19.563638558972883,-2.193278781519287
-0.1360552324522902,0.20889441394667285,-0.15296454585930894,0.22077628744318234,0.0011650012986647198,0.11613800941480887,-0.45067583712587045,-0.417160659522835,1.0360286913372025,0.48526900374498344,0.5548545730246423,0.15594230102833453,-0.7297053228051129,31.43156236212535,-19.736996912473558,15.741773839909271,-19.54966722937808,-2.199513299431554
-0.13695805987680013,0.20806612784405135,-0.1508856776896719,0.22174304222037805,0.0022739925464345437,0.1164486434838575,-0.4514137122549573,-0.41414305131075574,1.0394340848185142,0.4833773885978594,0.5544956238849119,0.1553170345243127,-0.7404040679631931,31.26184715916909,-19.65559263974551,15.796154382586657,-19.535006019247113,-2.2056914522597504
-0.13786234764999822,0.2072438868743971,-0.14880006215354183,0.22270597817503282,0.0033822397998637993,0.11675803100631864,-0.4521438865990464,-0.411120484827118,1.042807768065029,0.4814679773273828,0.5541236267146278,0.15469376123056902,-0.7514881979449815,31.090719744428597,-19.573773973440286,15.850290186938434,-19.519657559236403,-2.21181185407328
-0.1387680804116558,0.2064277003189429,-0.14670776309811853,0.2236650600783292,0.004489717223186595,0.11706617596830883,-0.45286638082879505,-0.40809327772710924,1.0461495277116464,0.4795409516481945,0.5537387116613978,0.15407248099509505,-0.7629540589561077,30.918196719785914,-19.491542813572835,15.90417172146901,-19.503624567308687,-2.217873136287854
-0.13967524284302305,0.2056175768269314,-0.1446088447923357,0.22462025306502478,0.0055963992409429385,0.11737308235548041,-0.4535812156836162,-0.40506174600574557,1.0494591528914148,0.47759649334778626,0.5533410088781717,0.1534531935857931,-0.7747978589774966,30.744294812573425,-19.408901143856674,15.957789560774192,-19.486909847631473,-2.2238739479809455
-0.14058381966696396,0.20481352441897888,-0.14250337192183893,0.22557152263356486,0.006702260537955106,0.11767875415286394,-0.4542884119704537,-0.40202620397627226,1.052736435248394,0.47563478427004446,0.5529306485060833,0.1528358986917606,-0.7870156700229725,30.569030871815727,-19.325851030527517,16.011134387338707,-19.469516289461403,-2.229812956197687
-0.14149379564808906,0.2040155504904818,-0.14039140958393825,0.22651883464616268,0.007807276059269808,0.11798319534471305,-0.45498799056255335,-0.3989869642485297,1.0559811689503376,0.4736560062989088,0.552507760657351,0.15222059592455403,-0.7996034304468278,30.39242186445791,-19.24239462114265,16.064196993282692,-19.451446866014564,-2.2356888462471227
-0.14240515559288552,0.20322366181506724,-0.13827302328253588,0.22746215532884698,0.008911421010066287,0.11828640991435191,-0.4556799723982285,-0.3959443377072902,1.0591931507011887,0.47166034134214907,0.5520724753982393,0.15160728481943286,-0.8125569472998655,30.214484871581103,-19.158534143356007,16.116968282056625,-19.432704633323787,-2.241500321988953
-0.14331788434984477,0.2024378645480861,-0.1361482789230291,0.2284014512714775,0.010014670855530457,0.11858840184402508,-0.45636437847961914,-0.39289863349057147,1.0623721797533898,0.46964797131526315,0.5516249227320847,0.1509959648365839,-0.8258718987319513,30.035237084608323,-19.074271903670933,16.169439270084766,-19.413292729083192,-2.2472461061105617
-0.14423196680958766,0.20165816423015023,-0.1340172428071891,0.2293366894277285,0.01111700132069523,0.11888917511474974,-0.4570412298714425,-0.3898501589679329,1.065518057920003,0.4676190781255002,0.5511652325823865,0.15038663536232624,-0.8395438364395558,29.854695801499762,-18.989610286170496,16.22160108835661,-19.3932143714802,-2.252924940394445
-0.14514738790498713,0.2008845657907127,-0.1318799816280158,0.23026783711504054,0.012218388390247166,0.11918873370617034,-0.4577105476997347,-0.3867992197187614,1.0686305895866386,0.4655738436560117,0.5506935347759676,0.14977929571029752,-0.8535681881562995,29.672878422941444,-18.904551751227086,16.273444983966286,-19.372472858015925,-2.2585355859760057
-0.14606413261128828,0.2001170735516916,-0.12973656246456944,0.23119486201454081,0.01331880830829958,0.11948708159641558,-0.45837235315058106,-0.38374611951055243,1.0717095817231903,0.46351244975013384,0.5502099590262066,0.14917394512262147,-0.8679402601849233,29.489802448526902,-18.819098834191323,16.324962321599664,-19.351071564313987,-2.2640768235916156
-0.14698218594622595,0.1993556912311372,-0.1275870527767787,0.23211773217093243,0.014418237578132266,0.11978422276195769,-0.45902666746883564,-0.3806911602771933,1.074754843895374,0.4614350781958049,0.5497146349163435,0.14857058277105717,-0.8826552399687557,29.305485472934382,-18.73325414406234,16.37614458496909,-19.329013942918788,-2.2695474538170926
-0.1479015329701396,0.1986004219469427,-0.12543152040022656,0.23303641599235267,0.015516652961897992,0.12008016117747394,-0.459673511956827,-0.37763464209725517,1.077766188276069,0.45934191071012004,0.5492076918828629,0.14796920775813022,-0.8977081987009394,29.11994518210039,-18.647020362139294,16.426983378195807,-19.3063035220831,-2.2749462972965167
-0.1488221587860857,0.1978512682205981,-0.12327003354091365,0.23395088225020072,0.016614031480295905,0.12037490081571044,-0.4603129079730504,-0.3745768631723005,1.080743429656458,0.4572331289240273,0.5486892591989561,0.14736981911824631,-0.9130940939696366,28.933199349391437,-18.560400240655405,16.477470427139306,-19.282943904545846,-2.2802721949613414
-0.14974404853994738,0.19710823198098767,-0.12110266076999972,0.23486110007893504,0.017710350412212035,0.12066844564734801,-0.460944876930845,-0.3715181198052132,1.0836863854569652,0.4551089143671678,0.5481594659580654,0.1467724158187871,-0.9288077724373185,28.745265831775402,-18.473396601395677,16.52759758067464,-19.25893876630075,-2.2855240082399195
-0.1506671874205415,0.19637131456823056,-0.11892947101852375,0.23576703897584078,0.01880558729432706,0.12096079964087039,-0.46156944029705477,-0.36845870637855827,1.0865948757379886,0.4529694484528634,0.5476184410575139,0.14617699676118887,-0.9448439725523947,28.556162565993567,-18.386012334299046,16.57735681191667,-19.23429185535558,-2.2907006192574064
-0.15159156065972285,0.1956405167375646,-0.1167505335721029,0.23666866880076728,0.019899719920691505,0.1212519667624344,-0.4621866195906727,-0.3653989153329778,1.0894687232104256,0.4508149124632542,0.5470663131822213,0.1455835607820039,-0.9611973272913401,28.36590756473529,-18.298250396045496,16.626740219391827,-19.209006990483353,-2.2958009310260383
-0.1525171535324858,0.19491583866327333,-0.11456591806561092,0.23756595977583647,0.02099272634226853,0.12154195097574229,-0.4627964363814673,-0.3623390371456314,1.0923077532459895,0.44864548753459,0.5465032107885116,0.1449921066539452,-0.9778623669294673,28.17451891281639,-18.210113808629977,16.67574002815713,-19.183088059965517,-2.3008238676258532
-0.15344395135706299,0.19419727994265595,-0.1123756944778363,0.23845888248512181,0.022084584866444552,0.12183075624191611,-0.4633989122885903,-0.3592793603086878,1.0951117938873136,0.4464613546426776,0.5459292620880121,0.14440263308691423,-0.9948335218385673,27.98201476336254,-18.121605657922817,16.724348590866878,-19.156539020327557,-2.305768374375873
-0.15437193949502132,0.1934848396000402,-0.11017993312612061,0.23934740787429878,0.02317527405650785,0.12211838651937414,-0.4639940689791653,-0.3562201713078749,1.097880675857842,0.4442626945884879,0.5453445950316487,0.14381513872901214,-1.012105125309538,27.78841333399958,-18.03272909221887,16.772558388786607,-19.129363895067858,-2.3106334179957595
-0.15530110335135502,0.19277851609083801,-0.1079787046609776,0.24023150725026662,0.024264772731095327,0.1224048457637092,-0.4645819281668557,-0.3531617546010971,1.1006142325715047,0.4420496879839244,0.5447493372937395,0.14322962216753463,-1.0296714163982532,27.593732903051375,-17.94348732077513,16.820362032754822,-19.101566773379886,-2.3154179867580416
-0.15623142837457585,0.19207830730564376,-0.10577208006069325,0.24111115228074215,0.025353059963607705,0.12269013792756911,-0.46516251161041267,-0.35010439259712556,1.1033123001421736,0.43982251523775745,0.5441436162561889,0.14264608192995037,-1.0475265427927676,27.397991805747385,-17.85388361233861,16.867752264092523,-19.073151808868484,-2.3201210906308307
-0.15716290005680025,0.19138421057437502,-0.10356013062590745,0.24198631499382559,0.026440115081593274,0.12297426696053884,-0.46573584111220134,-0.3470483656343712,1.105974717392899,0.4375813565417256,0.5435275589927853,0.14206451648486343,-1.0656645637001243,27.201208430440694,-17.76392129366489,16.91472195546062,-19.044123218260715,-2.3247417614112584
