Joohwan-Seo/mujoco_sysID/Fanuc/Dataset/square_PIH_fanuc_rework_3.csv
q1,q2,q3,q4,q5,q6,dq1,dq2,dq3,dq4,dq5,dq6,t1,t2,t3,t4,t5,t6
7.925450365066731e-10,-1.0507563227144204e-07,3.371250153258503e-07,0.00045904922855234784,-9.690998117211665e-08,0.00011463113531446338,3.9627251825333656e-07,-5.253781613572102e-05,0.00016856250766292516,0.2295246142761739,-4.8454990586058324e-05,0.05731556765723169,-0.0001767014856609764,-25.68724284876803,27.2320132026396,197.3607842933878,4.1069462347402785,21.702179972120913
2.4476016282080523e-09,-3.152261695117941e-07,1.0077521788089485e-06,0.0013764499798981297,-2.880950427416872e-07,0.00033262132331816766,8.275282958506895e-07,-0.00010507526862017604,0.00033531358174154904,0.4587003756728909,-9.559253078478527e-05,0.10899509400185213,0.999300171517809,-25.266600501200788,27.55001169894678,194.60930278104394,4.145829448971489,19.626267689864346
5.899589287950675e-07,-2.184834305309963e-07,2.6231052235759836e-06,0.002751505607405485,-4.800569635194863e-07,0.0006437849599900864,0.0002937556635834297,4.8371369490398904e-05,0.0008076765223835176,0.6875278137536776,-9.598096038889952e-05,0.1555818183359594,1.9952199180018848,-24.84821117642138,27.86450345926339,191.63042946836927,4.184237305288922,17.750316735405494
2.3463362224775205e-06,5.940395852967321e-07,5.787981074194193e-06,0.004583520155634106,-5.807662620761661e-07,0.0010389181550607574,0.0008781886468412264,0.0004062615079138642,0.0015824379253091046,0.9160072741143107,-5.035464927833988e-05,0.19756659753533545,2.987305221780075,-24.432309813448036,28.175238628177926,188.42450908462857,4.222162255665592,16.055060987652066
5.852421949409536e-06,2.527921976515431e-06,1.1100286159807532e-05,0.006871798395851475,-4.998105396128445e-07,0.0015097041437101993,0.0017530428634660075,0.0009669411956093495,0.0026561525428066696,1.1441391201086841,4.047786123166078e-05,0.23539299432472094,3.975281491200391,-24.019129224225278,28.48197313715836,184.9918858911859,4.259595005226015,14.523090607300897
1.1686709328915656e-05,5.9852124279140715e-06,1.9150582793524307e-05,0.009615645857853183,-1.485376187489212e-07,0.002048627811805669,0.00291714368975306,0.00172864522569932,0.004025148316858388,1.3719237310008543,0.00017563646043196167,0.2694618340477348,4.958876972946513,-23.608899831738487,28.7844687448111,181.33290368229922,4.296524505785646,13.138673184981482
2.0425161524893106e-05,1.1364211015582425e-05,3.052164592053329e-05,0.012814368858428512,5.598067257206942e-07,0.00264889845659392,0.004369226097988726,0.0026894992938341768,0.005685531563504492,1.5993615002876638,0.0003541721722348077,0.3001353223941254,5.937822862656569,-23.201849415236584,29.082493075489545,177.4479057858655,4.332937949401458,11.887592121695024
3.264103210992798e-05,1.9059255431434062e-05,4.578803052367323e-05,0.016467274526780283,1.7099466353161544e-06,0.0033043799893657322,0.006107935292517436,0.003847522207925819,0.007633192301569973,1.8264528341758863,0.0005750699547977301,0.327740766385906,6.91185341167064,-22.79820286232079,29.37581965580655,173.33723506413043,4.368820762050045,10.75700058122529
4.89046868631053e-05,2.946051172581253e-05,6.551564996132685e-05,0.02057367082717905,3.3844498144673706e-06,0.0040095278630621215,0.008131827376588657,0.005200628147189234,0.009863809718826812,2.0531981501993832,0.0008372515895756082,0.3525739368481945,7.880706029235403,-22.39818192767585,29.664227948636576,169.00123391437464,4.404156597564512,9.735289514168903
6.978342696261779e-05,4.295376966270158e-05,9.026136549857801e-05,0.025132866579105347,5.6636071220952045e-06,0.004759332076877192,0.010439370049756248,0.0067466289684445235,0.012372857768625579,2.279597875963149,0.0011395786538139169,0.37490210690753506,8.844121379511586,-22.002004998237663,29.94750338422447,164.44024426959012,4.438927331975833,8.811968397790919
9.584131363377273e-05,5.992024277799249e-05,0.00012057258727858401,0.03014417147511011,8.625318263487409e-06,0.005549265672341794,0.01302894333557747,0.008483236557645452,0.015155610890002998,2.505652448002381,0.0014808555706961018,0.394966797732301,9.801843472746434,-21.60988686461517,30.225437388054132,159.65460759916016,4.47311305841726,7.977557466541754
0.0001276389943124351,8.073637322722135e-05,0.00015698688696709874,0.03560689609660178,1.234498372661178e-05,0.006375238191786325,0.015898840339331186,0.010408065224614436,0.018207149844257368,2.731362310745835,0.0018598327315621855,0.41298625972226555,10.75361974998977,-21.222038498607528,30.497827405166095,154.6446649095553,4.506692082762484,7.223490326115369
0.0001657335303833466,0.00010577364150517655,0.00020003162228906098,0.041520351927749284,1.689540309625655e-05,0.007233553621059701,0.019047268035455756,0.0125186341389776,0.021522367660981114,2.95672791557375,0.002275209684822383,0.4291577146366882,11.69920116074774,-20.838666836688905,30.76447692065625,149.4107567450596,4.5396409201793215,6.542025950599259
0.0002106781901497911,0.0001353987915863637,0.00025022225718063256,0.047882049294614364,2.2347066770499104e-05,0.008120873448450184,0.02247232988322225,0.014812575040593573,0.025095317445785786,3.1808486834325382,0.0027258318371212783,0.44365991369524094,12.638359278155091,-20.459974215530643,31.025199970011556,143.96313458196886,4.571932661286036,5.92614783540479
0.00026302196353580523,0.00016997662392981774,0.0003080524903819806,0.05467464390337244,2.8770861766797856e-05,0.009034189923935992,0.02617188669300706,0.017288916171727016,0.028915116600674022,3.3962973043790394,0.003211897498149376,0.45665823774290415,13.571004175378723,-20.086151193207485,31.27984462214691,138.384744486632,4.603527754973338,5.369361055400214
0.0003233096356884553,0.00020986652762737274,0.00037400459679791224,0.061880417941939214,3.623482749879197e-05,0.009970785622287582,0.030143836076325037,0.0199449518487775,0.03297605320796584,3.602887019283387,0.003731982865997057,0.46829784917579503,14.496927987637207,-19.71737972468403,31.528224762569565,132.6863137641592,4.634402920114032,4.865967810403907
0.0003920816089973414,0.0002554223032346375,0.0004485491375076609,0.06948131346769282,4.480411411956873e-05,0.01092820544966302,0.034385986654443056,0.02277788780363237,0.03727227035487432,3.8004477628768005,0.004284643310388379,0.4787099136877192,15.415924085228271,-19.353834799284204,31.770158018156607,126.87857283554516,4.664535377858871,4.410819675014694
0.00046987372804202754,0.00030699199079768836,0.0005321446824552297,0.0774589657526145,5.45409566576533e-05,0.011904231347418099,0.03889605952234306,0.02578484378152545,0.04179777247378443,3.9888261424608444,0.004868421269042286,0.4880129488775395,16.327786841570585,-18.99568439829979,32.00546587924099,120.97223876877248,4.693903142412278,3.9992646661158715
0.0005572171076027102,0.0003649177031510808,0.0006252375458658867,0.08579473653567532,6.55046646009796e-05,0.012896859433285378,0.04367168978034136,0.02896285617669621,0.04654643170532851,4.167885391530407,0.005481853971663147,0.4963140429336394,17.23231141327305,-18.643089505384935,32.23397386475375,114.97799910778919,4.722485301030831,3.6270994098041136
0.0006546379638570343,0.00042953546456187084,0.0007282615344117096,0.094469747133273,7.77516265187896e-05,0.013904279345111738,0.04871042812716209,0.03230888070539501,0.0515119942729114,4.3375052987988365,0.006123480958905,0.50370995591318,18.12929353550189,-18.29620416696962,32.455511727872604,108.90649601913317,4.750262281119028,3.29052591642773
0.0007626574488734882,0.0005011750547930627,0.0008416377081279606,0.10346491135955996,9.133532924956102e-05,0.014924855574967252,0.054009742508226904,0.03581979511559597,0.05668808685812553,4.497582113143478,0.006791851365385708,0.5102881149277564,19.018529335887486,-17.955175599367145,32.66991369906482,102.76831077515435,4.777216102410975,2.986112519757738
0.0008817914884993387,0.0005801598586582087,0.000965774154062683,0.11276096820959672,0.0001063063911249021,0.015957110601881604,0.05956701981292521,0.03949240193257298,0.06206822296736124,4.648028425018376,0.007485530937670537,0.516127513457176,19.899815170091735,-17.62014433874209,32.87701876289378,96.57394859194207,4.803330612357909,2.7107585790924857
0.0010125506237286786,0.0006668067211367539,0.0011010657726243647,0.12233851425941275,0.0001227126086451082,0.01699970964993802,0.06537956761466991,0.043323431239272604,0.06764580928084085,4.7887730249080125,0.008203108760103049,0.5212995240282079,20.772947481946623,-17.291244429655666,33.07667096449495,90.3338238392163,4.828591702991625,2.4616625817529485
0.0011554398556239288,0.0007614258081171238,0.0012478940765768983,0.13217803573825623,0.00014059901597198246,0.01805144691514836,0.07144461594762504,0.047309543490184965,0.07341415197626683,4.919760739421744,0.008943203663437132,0.525868632605171,21.637722690782194,-16.968603647519025,33.268719741223435,84.0582456385702,4.8529875077000755,2.236293318356942
0.001310958493852152,0.0008643204728314755,0.0014066270026174119,0.14225994022956215,0.00016000795655881435,0.019111233119618355,0.0777593191141116,0.051447332357175815,0.07936646302025682,5.040952245652959,0.009704470293415953,0.5298931022349987,22.49393710819509,-16.65234374997104,33.453020274640366,77.75740386557891,4.876508576532969,2.0323638348265924
0.0014796000088858673,0.0009757871280424856,0.0015776187354608585,0.15256458795846212,0.00018097916619631008,0.0201780842651437,0.08432075751685766,0.055733327605505055,0.08549586642172335,5.152323864449983,0.01048560481874787,0.5334255727626737,23.34138688607828,-16.342580751957275,33.62943385774442,71.44135557040168,4.8991480288505755,1.8478078936076894
0.0016618518879067757,0.0010961151240385322,0.001761209544345512,0.1630723226249968,0.00020354986671698716,0.021251111470696117,0.09112593951045418,0.06016399799802336,0.09179540444232671,5.253867333267335,0.011285350260338538,0.536513602776208,24.17986799724941,-16.039425219130294,33.79782827217468,65.12001183061074,4.920901682335748,1.6807587023555566
0.001858195494439998,0.0012255866324891603,0.001957725631865654,0.17376350174356905,0.00022775486956927175,0.02232951178938991,0.09817180326661114,0.06473575422531408,0.0982580437600711,5.345589559286124,0.012102501426142295,0.5392001593468971,25.00917624949265,-15.742982574113363,33.958078170009756,58.803125049082155,4.941768157604735,1.529529691634885
0.00206910593173614,0.0013644765362078313,0.0021674789950316795,0.1846185264505913,0.0002536266884464339,0.023412559910578532,0.10545521864807089,0.06944495185933552,0.10487668158301269,5.427512353511116,0.012935909438581066,0.541524060594311,25.82910733328096,-15.453353410179767,34.11006545477555,52.50027670887923,4.961748957875656,1.392597144228817
0.002295051909908798,0.0015130523248636774,0.0023907672984534614,0.19561787074373005,0.00028119566013469206,0.02449960066182031,0.11297298908632902,0.07428789432792306,0.11164415171089094,5.499672146569383,0.013784485844129092,0.5435203756208882,26.639456902885456,-15.170633806990097,34.25367965634249,46.220865596153224,4.980848523380008,1.2685844976732747
0.002536495616826059,0.0016715739966783444,0.002627873759540006,0.20674211011763272,0.000310490072729408,0.0255900422336665,0.12072185345863075,0.07926083590733357,0.1185532305432724,5.562119686951335,0.01464720629735799,0.5452207859230953,27.44002069002175,-14.894915643202566,34.38881829454598,39.97409650117808,4.9990742604310086,1.1562481588198146
0.002793892592746157,0.0018402939661380628,0.0028790670456070046,0.21797194956253166,0.0003415363003583232,0.026683350057647305,0.12869848796004882,0.0843599847298592,0.12559664303349932,5.614919722449478,0.015523113814457595,0.5466539119904028,28.230594648641677,-14.626286901020553,34.515387226594925,33.768969406728985,5.0164365452891975,1.054464684761914
0.003067691608679765,0.002019456977744872,0.003144601182783722,0.2292882508936583,0.00037435894354626503,0.027779041274538785,0.13689950796680395,0.08958150580340453,0.13276706858835866,5.658150665563328,0.01641132159397092,0.5478456084457399,29.0109751289676,-14.364831958063109,34.63330097364002,27.61426917210825,5.032948703188827,0.9622191984948467
0.0033583345484544734,0.002209300025824498,0.0034247154766115697,0.24067205938095954,0.0004089809743566279,0.028876679736054716,0.14532146988735428,0.09492152403981302,0.14005714691392374,5.691904243650616,0.017311015405181453,0.5488192307579659,29.780959078395934,-14.110631862329209,34.74248302224599,21.51855572022071,5.048626963103939,0.8785949203617279
0.00366625629445078,0.002410052280401788,0.003719634444228513,0.2521046296501899,0.0004454238854511137,0.029975871488584504,0.15396087299815317,0.10037612728864494,0.14745948380847151,5.716285134615194,0.0182214555472429,0.5495958762648936,30.540344266478908,-13.863764586468374,34.84286609694497,15.490154734201454,5.063490389039385,0.8027637077995259
0.003991884616973478,0.002621935019147888,0.004029567758035987,0.2635674508280519,0.00048370784222055187,0.031076260692547594,0.16281416126134887,0.10594136937305004,0.15496665690373707,5.73141058893098,0.01914197838471908,0.5501946019815448,31.28892953083631,-13.624305258060176,34.93439240053229,9.537148869209354,5.077560788826602,0.7339775062546515
0.00433564006721762,0.0028451615653965778,0.004354710200748065,0.27504227090566946,0.0005238518371559109,0.03217752593540734,0.17187772512207125,0.111613273124345,0.16257122135603913,5.7374100388087905,0.020071997467679483,0.5506326214298731,32.02651504056108,-13.392326363129749,35.01701381928771,3.6673694841118962,5.090862601583879,0.6715606234970103
0.00469793587378425,0.0030799372322203684,0.0046952416317260545,0.2865111202963076,0.0005658738456496089,0.0332793769004288,0.1811479032833149,0.11738783341189528,0.17026571548899477,5.734424695319068,0.02101100424684897,0.5509254825107314,32.75290257346783,-13.167897920679051,35.09069209085865,-2.111611103085574,5.103422765165248,0.6149027480178959
0.005079177842697813,0.003326459272550198,0.0050513269645053385,0.29795633456488424,0.0006097909824426368,0.03438155135691711,0.19062098445678155,0.12326102016491493,0.1780426663896422,5.722607134288312,0.021958568396514,0.5510872282441552,33.4678958033963,-12.951087626580218,35.155398933112004,-7.792486833082537,5.115270565068307,0.56345263983899
0.005479764260874579,0.0035849168353158634,0.005423116155424964,0.30936057630846525,0.0006556196579624789,0.03548381244097329,0.20029320908838294,0.12922878138283267,0.18589459545981285,5.702120871790514,0.02291433775992102,0.5511305420280912,34.17130059372274,-12.7419609657471,35.21111613283702,-13.36822459426822,5.12643746639843,0.5167124289657851
0.0059000858029894295,0.003855490927577719,0.005810744203274048,0.3207068561685793,0.0007033757338299679,0.03658594619878671,0.21016077105742542,0.1352870461309279,0.19381402392454225,5.673139930057014,0.023878037933744562,0.55106687890671,34.86292529325121,-12.540581292066271,35.2578355937566,-18.83207038156274,5.13695693059402,0.474232462958769
0.006340525441687025,0.004138354382613747,0.006214331159872428,0.33197855295783746,0.0007530746768496402,0.037687759367178254,0.22021981934879775,0.14143172751801383,0.2017934782991899,5.635848394629073,0.024849471509836147,0.5509065841957733,35.54258103075081,-12.34700987611404,35.29555934385989,-24.17755492466036,5.146864218703587,0.43560665073465366
0.006801458361082545,0.004433671833919818,0.006633982151505945,0.3431594328849915,0.0008047317108373911,0.038789077368543645,0.23046645969775967,0.1476587256530355,0.2098254958167586,5.590439963577035,0.025828516993875415,0.5506590006826957,36.2100820045691,-12.161305921205619,35.32429950260186,-29.398498786035876,5.156196183070169,0.40046825480586856
0.007283251873496909,0.004741599695074926,0.007069787411139286,0.354233667864208,0.0008583619656808329,0.0398897424995469,0.24089675620718187,0.1539639305775544,0.21790262981667047,5.5371174896082405,0.02681512742172092,0.5503325655016273,36.86524576398108,-11.983526548807992,35.34407820901598,-34.489016929878815,5.164991049322504,0.3684860887707944
0.007786265339371536,0.005062286145417345,0.0075218223213312395,0.365185852895974,0.0009139806230712153,0.04098961229490264,0.2515067329373137,0.16034322517120939,0.22601745509597665,5.47609251588298,0.02780932869519117,0.5499348976778674,37.507893479219966,-11.813726754790029,35.354927512242774,-39.44352276390458,5.1732881905951,0.3393610810286289
0.008310850090308247,0.005395871121472087,0.007990147467778558,0.3760010225086813,0.0009716030583906009,0.042088558049382885,0.2622923754683557,0.16679248802737087,0.23416257322365977,5.407584806353641,0.028811217659692783,0.5494728772401223,38.13785019747046,-11.651959338375995,35.35688922638612,-44.25673165676308,5.18112789590157,0.3128231694523316
0.008857349355180823,0.00574248631406477,0.008474808703415234,0.3866646662515551,0.001031244978283703,0.04318646348280799,0.27324963243628786,0.17330759629634135,0.242330617818338,5.331821871436896,0.029820959946551016,0.5489527167125537,38.75494508248023,-11.498274806010789,35.35001475196818,-48.92366393451583,5.188551134568714,0.28862849515125777
0.009426098189265927,0.006102255171051967,0.008975837222993844,0.3971627432311998,0.0010929225534898838,0.04428322353424866,0.28437441704255173,0.17988442849359884,0.250514259789305,5.249038489822372,0.030838787603090483,0.5483800257203376,39.359011635849946,-11.352721252629177,35.33436486655368,-53.43964736038795,5.195599318603709,0.2665568665251239
0.01001742340634254,0.006475292905593421,0.009493249648074742,0.40748169568562703,0.0011566525465568189,0.04537874327299219,0.295662608538307,0.18651886727072722,0.258706212540449,5.159476227213616,0.031864996533467596,0.5477598693717648,39.949887898485514,-11.215344223048223,35.310009487357654,-57.800319102715875,5.202314064814049,0.2464094675855069
0.010631643513710702,0.006861706509887078,0.010027048122347124,0.4176084615912042,0.0012224524341027778,0.04647293691502427,0.30711005368408084,0.19320680214682864,0.2668992371361911,5.063382952788575,0.032899943772979494,0.5470968210160392,40.52741663113026,-11.086186556370901,35.27702740883472,-62.00162719670753,5.208736958432784,0.22800678702834956
0.011269068650082108,0.007261594774283811,0.010577220417203475,0.4275304862995183,0.001290340523338938,0.047565726934860685,0.31871256818570265,0.19994413219836654,0.27508614742817566,4.961012354157046,0.033944044618080156,0.5463950099182077,41.09144547332836,-10.96528821640168,35.23550601837507,-66.0398315063069,5.214909319920077,0.21118674680619778
0.011930000526297047,0.007675048311694892,0.011143740047485553,0.43723573320268194,0.0013603360626062136,0.04865704326354167,0.3304659381074697,0.20672676870554046,0.28325981514103915,4.852623451581827,0.03499776963363779,0.5456581643404952,41.64182708059378,-10.852686111130598,35.18554099330182,-69.91150419311003,5.220871976518653,0.19580301099655595
0.012614732368824095,0.008102149587201787,0.011726566397315917,0.44671269342711906,0.0014324593457223863,0.049746822564486044,0.34236592126352366,0.2135506377534472,0.2914131749151822,4.7384801122185705,0.036061641558086346,0.5448896504721866,42.178419239965855,-10.748413904349558,35.12723598238289,-73.61352969991243,5.226665040038283,0.18172345761224404
0.013323548866000958,0.008542972952774652,0.012325644855924077,0.4559503945573523,0.0015067318099745417,0.050835007579701254,0.35440824858843195,0.22041168278643306,0.2995392293040799,4.618850565116619,0.03713623212607768,0.5440925076076052,42.70108496451211,-10.652501822422698,35.06070227503952,-77.14310425707896,5.232327692231996,0.16882879767174813
0.014056726116976895,0.008997584687003032,0.012940906963370651,0.46493840839277134,0.001583176127628645,0.05192154653956775,0.36658862548796906,0.22730586711419026,0.30763105372328753,4.494006917709526,0.03822215882705161,0.5432694799332496,43.20969256768673,-10.564976459148948,34.986058461358475,-80.49773492051642,5.237897979010287,0.15701132735805476
0.014814531583319052,0.009466043039739623,0.013572270566066538,0.4736668577417902,0.0016618162908623069,0.0530063926300685,0.3789027331710785,0.23422917636829535,0.3156818013479435,4.3642246745094075,0.03932008161683091,0.5424230452503743,43.70411571876227,-10.485860581534428,34.90343008590219,-83.67523815059528,5.243412614616544,0.14617380045925613
0.015597224043246993,0.009948398281555677,0.014219639981976997,0.48212642225919816,0.001742677690058191,0.054089503511924236,0.3913462299639707,0.24117762090802702,0.3236847079552295,4.229782258703984,0.04043069959794196,0.5415554409278697,44.18423348081954,-10.415172939140682,34.81294929816401,-86.67373794190934,5.248906796763115,0.13622840951833468
0.01640505354846155,0.010444692757904554,0.014882906175392873,0.490308343333876,0.0018257871854239567,0.055170840886628034,0.4039147526072788,0.24814723817443793,0.33163309670793795,4.09096053733893,0.04155474768288285,0.5406686873519003,44.64993033300172,-10.352928079497367,34.71475450234411,-89.4916635142803,5.254414033601154,0.12709586523340846
0.01723826138353585,0.010954960947888122,0.015561946941142882,0.49820442803537857,0.0019111731719300257,0.05625037010485423,0.4166039175371498,0.25513409499178424,0.33952038287500497,3.948042350751279,0.042692993253034515,0.5397646091130989,45.101096178911554,-10.299136171871911,34.608990008925936,-92.12774657591031,5.259965983272874,0.11870456465778453
0.01809708002783806,0.011479229527519208,0.0162566270981121,0.5058070521291824,0.001998865637578746,0.057328059813152074,0.4294093221511044,0.2621342898155431,0.3473400784846085,3.8013120469019173,0.043846232824360315,0.5388448541489215,45.53762634315545,-10.253802841477754,34.4958056903252,-94.58101817005466,5.265592306671394,0.11098983965858575
0.01898173311995695,0.012017517437371941,0.016966798691922493,0.5131091621716561,0.0020888962150377266,0.058403881635227715,0.4423265460594453,0.26914395492636695,0.355085796905196,3.6510550212368336,0.04501528872949021,0.5379109110378194,45.959421558113846,-10.216929015983698,34.375356642662624,-96.85080511703202,5.271320533913805,0.10389327791580885
0.01989243542460284,0.012569835954510816,0.017692301206621703,0.5201042766970317,0.0021812982266862443,0.059477809884473605,0.4553511523229432,0.27615925856943735,0.3627512573496052,3.497557262687791,0.04620100582425887,0.5369641246229437,46.36638794304429,-10.188510785964311,34.24780285548839,-98.9367260638109,5.277175944917259,0.09736210948654234
0.02082939280195779,0.013136188768588394,0.01843296178521624,0.5267864865098386,0.0022761067231368143,0.06054982130472559,0.46847868867747605,0.2831764070387896,0.370330289297268,3.3411049064034217,0.047404248225284946,0.5360057101259912,46.75843697760733,-10.168539280708433,34.113308891060754,-100.83868715380552,5.28318146435785,0.09134865263074565
0.021792802179450284,0.013716572062000951,0.01918859545887493,0.5331504540974017,0.002373358515304337,0.061619894836518266,0.4817046887462472,0.2901916467062787,0.3778168368293451,3.181983793781537,0.04862589608376138,0.5350367658963376,47.13548547184334,-10.157000560584894,33.97204357456012,-102.55687732988288,5.289357571187656,0.08580981320194261
0.0227828515259306,0.01431097459399086,0.01995900538461799,0.5391914121781071,0.0024730922001029196,0.06268801140637154,0.495024673240159,0.2972012659949551,0.3852049628715294,3.0204790403527064,0.049866842399291435,0.5340582849266335,47.49745553452899,-10.15387552695369,33.82417969640455,-104.09176328392806,5.295722222787001,0.08070663245453058
0.023799719828224347,0.01491937778858427,0.020743983091296343,0.5449051614021948,0.0025753481798556585,0.06375415373687836,0.508434151146874,0.3042015972967049,0.39248885333917705,2.856874612043893,0.05112798987636944,0.533071165253411,47.84427454170569,-10.15913985040823,33.66989372762673,-105.4440840666319,5.302290793739008,0.0760038786148787
0.024843577070042464,0.015541755826252458,0.021543308733655092,0.5502880672228533,0.0026801686755056247,0.06481830617557804,0.521928620909058,0.3111890188340939,0.39966282117937413,2.6914529103292573,0.052410247824983,0.5320762193498434,48.175875107006384,-10.172763917945392,33.50936554907769,-106.61484537145714,5.309076029128293,0.07166967801148194
0.025914584213226993,0.016178075739185317,0.022356751354264157,0.5553370559563595,0.002787597733717257,0.06588045454079303,0.5355035715922639,0.31815995646642964,0.40672131030453246,2.524494366753114,0.05371452910581602,0.5310741826074898,48.49219505521241,-10.194712799480612,33.3427781950391,-107.60531350700555,5.316088012190534,0.06767518196359851
0.02701289318131277,0.01682829751006557,0.023184069153088394,0.5600496100509346,0.002897681227956597,0.0669405859827821,0.5491544840428892,0.3251108854401259,0.4136588994121183,2.356277047287547,0.05504174711967017,0.5300657209945407,48.79317740025873,-10.224946233961308,33.17031761165701,-108.41700907224883,5.323334146069053,0.06399426599402228
0.02813864684538601,0.017492374174232602,0.024025009764458715,0.5644237625848634,0.0030104668536366026,0.06799868885872143,0.5628768320366201,0.33203833208351746,0.42047030568516086,2.187076266964388,0.056392812840002686,0.5290514379696629,49.07877032867321,-10.26341863517764,32.99217243045154,-109.05170034929999,5.330819149372652,0.06060325826147975
0.029291979012221536,0.018170251925125263,0.024879310541195233,0.5684580910152597,0.003126004117410416,0.0690547526201673,0.5766660834177622,0.3389388754463299,0.42715038836825925,2.017164215198135,0.05776863188690674,0.5280318807229356,49.34892718919392,-10.310079117231055,32.808533757014246,-109.51139642859025,5.338545065173259,0.05748069440727016
0.03047301441468124,0.01886187022289338,0.025746698845623042,0.5721517101996458,0.003244344320691294,0.0701087677117843,0.5905177012298523,0.3458091488840593,0.4336941522139055,1.8468095921930545,0.05917010164043908,0.5270075458084952,49.60360648905808,-10.364871539490519,32.61959497487169,-109.79834008147894,5.346511283032395,0.05460709628013896
0.03168186870435714,0.019567161906068505,0.026626892347211183,0.5755042647132541,0.0033655405374731513,0.0711607254802389,0.6044271448379483,0.3526458415875617,0.4400967507940703,1.6762772568041324,0.06059810839092863,0.525978884227296,49.84277189720578,-10.427734570748296,32.425551564372434,-109.91500039546129,5.35471457360233,0.05196477224737073
0.03291864844644315,0.02028605330618488,0.027519599326555483,0.5785159204856497,0.003489647586520708,0.07221061809226445,0.6183898710430044,0.3594457000581888,0.44635348967215027,1.5058278861978052,0.06205352452377843,0.524946306012779,50.06639225439309,-10.498601772176851,32.22660093634387,-109.86406518724957,5.363149135309808,0.04953763702050745
0.034183451116820654,0.02101846436524256,0.0284245189854166,0.5811873557809187,0.003616721997993301,0.07325843846099879,0.6324013351887525,0.3662055295288384,0.4524598294305569,1.3357176476345363,0.0635372057362964,0.5239101843671707,50.27444158996848,-10.577401698586282,32.02294228016177,-109.64843320908993,5.371806652597442,0.04731104912282283
0.035476365101343735,0.021764308755905182,0.02934134176251546,0.5835197515462615,0.0037468219745618076,0.0743041801797819,0.6464569922615407,0.37292219533131216,0.4584113885494308,1.1661978826713373,0.06504998828425324,0.5228708593915504,50.46689914483578,-10.664058017384203,31.81477642577948,-109.27120616373747,5.380676365169347,0.0452716643060794
0.03679746969731094,0.022523494004325968,0.030269749654779847,0.585514781154378,0.0038800073470741285,0.07534783746267926,0.6605522979836002,0.37959262421039325,0.4642039461321932,0.9975148040583216,0.06659268625616042,0.5218286414486806,50.64374939991339,-10.758489644549169,31.60230571917424,-108.73568054354884,5.389745147663351,0.043407303386170326
0.03814683511711145,0.023295921615496103,0.03120941654372764,0.5871745995655367,0.004016339524821483,0.07638940509106697,0.6746827099002543,0.38621380558506674,0.4698334444738964,0.8299092055793404,0.06816608887367744,0.5207838141938553,50.804982109201426,-10.86061089683922,31.385733910581983,-108.04533930916408,5.398997599150688,0.041706833114495495
0.03952452249403469,0.02408148720101073,0.032160008526664854,0.5885018319356622,0.004155881440455653,0.07742887836567824,0.688843688461619,0.39278279275731354,0.4752959914686069,0.663616185062741,0.06977095781708519,0.519736637305636,50.95059233639406,-10.97033165937055,31.165266054810452,-107.20384342323499,5.408416141846553,0.040160058834537854
0.04093058389023346,0.024880080609148546,0.03312118425236954,0.5894995616971909,0.004298697489606432,0.07846625306356882,0.7030306980993883,0.3992967040689075,0.4805878628523443,0.49886488076433005,0.0714080245753896,0.5186873489452893,51.08058049382198,-11.087557567617004,30.94110842284141,-106.2150232546236,5.417981128398781,0.038757627793047256
0.04236506230683215,0.025691586057161826,0.03409259526092636,0.5901713181397924,0.004444853465249095,0.07950152539951078,0.7172392082993431,0.40575272400663986,0.48570550427840997,0.3358782213007596,0.07307798782133107,0.5176361679709804,51.1949523823842,-11.212190202796062,30.71346842385578,-105.082869868433,5.427670957108928,0.037490942083660744
0.0438279916961727,0.026515882265674594,0.03507388632737089,0.5905210635183681,0.004594416486873813,0.08053469199137132,0.7314646946702724,0.41214810425638365,0.4906455332222651,0.17487268928781796,0.07478151081235887,0.5165832959302763,51.2937192310296,-11.344127299523983,30.482554536740544,-103.81152621715111,5.437462194428115,0.03635208029879311
0.045319396976192784,0.02735284259508738,0.03606469580879781,0.5905531797159972,0.00474745492451275,0.08156574982907584,0.7457026400100412,0.4184801647063933,0.49540474071345775,0.01605809881453224,0.07651921881946877,0.5155289188522603,51.37689773427906,-11.483262964539538,30.248576250063593,-102.40527824808262,5.44732970405969,0.03533372705414278
0.046839294046931955,0.028202335183887806,0.03706465599458272,0.5902724544897184,0.004904038317686112,0.08259469624679289,0.7599485353695867,0.4247462944002121,0.49998009289245554,-0.14036261313938847,0.07829169658668099,0.5144732088585198,51.44451008623795,-11.629487905214653,30.011744009432313,-100.86854594211763,5.457246781992442,0.034429109629888294
0.04838768980916331,0.029064223088766872,0.03807339345936393,0.5896840673272017,0.00506423728933579,0.08362152889801373,0.7741978811156763,0.43094395243953315,0.5043687323906068,-0.29419358125839323,0.08009948582483882,0.5134163256104258,51.496584009538616,-11.782689666490118,29.772269171083696,-99.20587429873721,5.467185296779349,0.033631941045698666
0.0499645821851499,0.029938364426441526,0.03909052941842759,0.5887935749424882,0.0052281234548244284,0.08464624573323065,0.788446187993295,0.43707066883732715,0.5085679795318301,-0.4452461923567286,0.08194308274431952,0.5123584176084592,51.533152777669876,-11.942752874798074,29.530363960490988,-97.42192428198584,5.477115834371075,0.03293636895088303
0.05156996014152706,0.030824612517084553,0.04011568008513763,0.5876068964390562,0.0053957693260887315,0.08566884497994631,0.802688978188578,0.4431240453215135,0.5125753333550193,-0.5933392517159911,0.0838229356321514,0.5112996233578335,51.55425522919987,-12.109559487460462,29.286241434712647,-95.52146374195236,5.487007846806684,0.0323369297710005
0.053203803714313526,0.03172281602926338,0.04114845703005071,0.5861302981685002,0.0055672482110485505,0.08668932512477291,0.8169217863932319,0.44910175608941194,0.5163884724565412,-0.7382991352779912,0.08573944247990967,0.5102400724133028,51.559935772472215,-12.282989045985772,29.040115447157778,-93.50935832609082,5.496829804060088,0.0318285076053102
0.05486608403605636,0.032632819126289715,0.04218846754135592,0.5843703783131037,0.005742634108387756,0.08770768489740255,0.8311401608714188,0.4550015485131674,0.5200052556526034,-0.8799599276982555,0.08769294866960287,0.5091798863148164,51.55024437945863,-12.462918931627616,28.79220061339772,-91.39056239448429,5.5065493483362555,0.031406297417319845
0.05655676336511656,0.03355446161388231,0.04323531498627925,0.5823340512205296,0.005922001597838848,0.08872392325625168,0.8453396645300969,0.4608212437962953,0.5234237224616666,-1.0181635462870489,0.08968374472554594,0.5081191794245679,51.5252365675773,-12.64922462151839,28.542712276619,-89.1701099529084,5.516133450109583,0.031065772104800604
0.0582757951171042,0.0344875790890452,0.044288599173094204,0.5800285315187577,0.006105425726120715,0.08973803937560165,0.8595158759938213,0.46655873758144506,0.5266420934074781,-1.1527598508859482,0.09171206414093352,0.5070580596749847,51.48497336843467,-12.841779943652405,28.291866471288667,-86.85310561728622,5.52554856519492,0.030802653074682523
0.06002312389847423,0.03543200309006406,0.045347916713381606,0.5774613180392603,0.00629298188869764,0.09075003263407425,0.8736643906850149,0.4722120005094294,0.5296587701437006,-1.2836067397487196,0.09377808128846263,0.5059966292362953,51.42952128261801,-13.040457328967474,28.039879883592775,-84.44471562284565,5.534760792143105,0.030612883983889283
0.061798685542295645,0.03638756124752309,0.046412861384184614,0.5746401775762292,0.006484745707547435,0.09175990260429723,0.8877808219107064,0.4777790787295159,0.5324723354015053,-1.4105702315155164,0.09588190942489735,0.5049349851114892,51.35895221985062,-13.245128058761882,27.78696980721082,-81.95015889099145,5.5437360292545,0.03049260733942402
0.06360240714620907,0.03735407743624494,0.0474830244897084,0.5715731285094509,0.006680792905147254,0.09276764904362872,0.9018608019567169,0.48325809436092537,0.5350815527618901,-1.5335245333892016,0.09802359879990957,0.5038732196657465,51.27334342402189,-13.455662505690047,27.533354093009173,-79.37469816659362,5.552440130509371,0.0304381436800375
0.06543420711258956,0.0383313719280558,0.04855799522221812,0.568268424318167,0.006881199174906971,0.0937732718858222,0.915899983190245,0.48864724590543007,0.5374853662548598,-1.6523520956418873,0.10020313487985881,0.5028114210967397,51.17277738281355,-13.671930366601536,27.279251091269675,-76.72363123806272,5.560839059719963,0.03044597308810626
0.06729399519093307,0.03931926154527759,0.04963736102179408,0.5647345370129699,0.007086040048301741,0.0947767712335254,0.9298940391717567,0.49394480861089474,0.5396828997879803,-1.7669436525985491,0.10242043669738506,0.5017496738516054,51.05734172186029,-13.893800885530847,27.024879585124282,-74.00228225224545,5.568899042219147,0.030512718804092176
0.06918167252248714,0.0403175598148487,0.05072070793460843,0.5609801405124444,0.00729539075897729,0.09577814735151707,0.9438386657770321,0.4991491347855547,0.5416734564071738,-1.8771982502627922,0.1046753553377747,0.5006880589958361,50.92712908360303,-14.12114306520612,26.770458713936435,-71.21599313581636,5.5765867134126745,0.030635132737466375
0.07109713168714744,0.04132607712297426,0.05180762096939436,0.5570140939909094,0.0075093261041233265,0.09677740066059476,0.9577295823301529,0.5042586540627799,0.5434565173929659,-1.9830232607675167,0.10696767257301791,0.4996266545388459,50.78223699121208,-14.353825865526773,26.51620788545912,-68.3701151344764,5.583869263537438,0.030810082687332596
0.07304025675264371,0.042344620870206316,0.052897684451785804,0.5528454252232088,0.007727920303431933,0.09777453173203579,0.9715625327481336,0.5092718736160302,0.5450317411957222,-2.084334383850304,0.1092970996543033,0.4985655357205138,50.622767698172744,-14.591718387561288,26.262346675707178,-65.4700004808931,5.590714577986678,0.03103454110363546
0.07501092332603933,0.04337299562685366,0.05399048237621324,0.5484833139520691,0.007951246855978719,0.098769541282561,0.9853332866978071,0.514187378323671,0.5463989622137174,-2.181055635569844,0.11166327627339244,0.4975047752626068,50.44882802433329,-14.83469004173847,26.009094715606192,-62.52099420192616,5.59709137258536,0.03130557523563207
0.07700899860757027,0.04441100328862022,0.05508559875504957,0.5439370753030779,0.008179378395384488,0.09976243016973824,0.9990376407654671,0.519003830883282,0.5475581894181665,-2.2731193244955916,0.11406576970288451,0.49644444358861395,50.2605291794113,-15.082610699046121,25.756671563622618,-59.528426075287946,5.602969323224504,0.03162033852870355
0.07903434144684958,0.04545844323237035,0.05618261796470879,0.5392161432718416,0.008412386543634132,0.10075319938776862,1.0126714196396582,0.523719971875067,0.5485096048296101,-2.3604660156181057,0.11650407412482208,0.495384609015194,50.05798657513548,-15.335350824209982,25.50529656373621,-56.497602745380576,5.6083191892921995,0.03197606314356499
0.08108680240146432,0.04651511247191825,0.05728112508840936,0.5343300543073574,0.00865034176394695,0.1017418500636049,1.0262304773073674,0.5283346197739496,0.549253561850284,-2.4430444822421307,0.11897761015640873,0.4943253379181367,49.84131962736427,-15.592781590001442,25.25518868828802,-53.43380000763897,5.613112930372355,0.032370053483688016
0.0831662237979918,0.0475808058137381,0.05838070625532398,0.5292884310150805,0.008893313213108576,0.10272838345335583,1.03971069826374,0.5328466709099237,0.5497905834573131,-2.5208116461384513,0.1214857245808134,0.4932666948754679,49.61065154966601,-15.854774972011887,25.006566365419047,-50.34225527028812,5.617323815718401,0.03279968062732436
0.08527243979546237,0.048655316012490554,0.05948094897584749,0.5241009660025928,0.009141368593688842,0.10371280093893599,1.053107998735288,0.5372550993762255,0.5501213602617555,-2.5937325062438608,0.12402769029013323,0.49220874279008203,49.366109139966085,-16.12120382343491,24.759647291008235,-47.22816020199658,5.620926526049004,0.03326237757024286
0.08740527645129517,0.04973843392626033,0.06058144247272484,0.5187774058901704,0.009394574006582012,0.10469510402492412,1.0664183279164048,0.5415589568848896,0.5502467484386732,-2.6617800562112164,0.12660270644658553,0.4911515429940623,49.107822561963445,-16.391941929608315,24.514648225216526,-44.09665357347694,5.623897247256369,0.03375563519393748
0.08956455178973284,0.05082994867139886,0.061681778007791906,0.5133275355079233,0.009652993804315833,0.10567529433559741,1.0796376692188359,0.5457573725692648,0.5501677675335334,-2.7249351911235244,0.1292098988669104,0.49009515533664927,48.83592512308893,-16.666864042287898,24.27178477394829,-40.95281430064844,5.626213755664169,0.03427699888195085
0.0917500758728,0.051929647776865026,0.06278154920409258,0.5077611623005288,0.009916690445583434,0.10665337361211269,1.0927620415335815,0.5498495527330832,0.5498855981503349,-2.7831866036972657,0.1318483206338003,0.48903963825763436,48.55055305082144,-16.94584589384644,24.03127115574494,-37.80165469653638,5.627855494521034,0.03482406571411742
0.09396165087380907,0.053037317337956434,0.06388035236314642,0.5020881009599073,0.010185724351457322,0.10762934370980827,1.105787500504535,0.5538347805457046,0.5494015795269168,-2.836530670310771,0.1345169529369444,0.4879850488477897,48.25184526919455,-17.228764191815827,23.793319954829087,-34.648113938642425,5.628803641467857,0.035394482174999964
0.09619907115343504,0.05415274216932282,0.06497778677715228,0.49631815830550063,0.010460153763747312,0.10860320659560387,1.118710139812983,0.5577124156831951,0.5487172070029354,-2.8849713272033397,0.13721470614499504,0.4869314428977972,47.93994317731445,-17.515496594409253,23.558141861214132,-31.49705175807562,5.629041166770746,0.035985942318723096
0.09846212333837887,0.05527570595715272,0.06607345503592427,0.49046111843110063,0.010740034605964208,0.10957496434547787,1.1315260924719106,0.5614818939149471,0.5478341293859951,-2.9285199372000004,0.13994042110844807,0.4858788749370026,47.61499043167211,-17.805921667876838,23.325945398984903,-28.353242356287495,5.628552882167792,0.03659618633760334
0.10075058640263662,0.05640599141042393,0.06716696332836704,0.48452672813645004,0.011025420347348385,0.11054461914200427,1.1442315321288792,0.5651427266356039,0.5467541462213857,-2.9671951473253073,0.1426928706920886,0.484827398263198,47.27713273396938,-18.09991882675216,23.096936644032457,-25.22136855481071,5.627325480234115,0.0372229994869564
0.10306423175138875,0.057543380411108166,0.06825792173830866,0.4785246826610953,0.011316361870416996,0.11151217327193332,1.1568226743760652,0.568694500342119,0.5454792049708144,-3.0010227376773586,0.14547076153430522,0.4837770649645246,46.92651762608925,-18.397368258240835,22.871318932691533,-22.10601618295404,5.625347564228458,0.03786421132273454
0.1054028233075205,0.058687654163219874,0.06934594453451952,0.47246461173721466,0.011612907342475462,0.11247762912380228,1.1692957780658757,0.5721368760558553,0.5440113981054295,-3.0300354619403262,0.14827273602923297,0.482727925934486,46.56329429373081,-18.698150832181426,22.649292562877257,-19.011668707961945,5.622609668442264,0.038517695212697295
0.10776611760078128,0.0598385933405993,0.07043065045475615,0.4663560659773743,0.011915102091528183,0.11344098918556422,1.1816471466303877,0.5754695886897152,0.5423529601183137,-3.0542728799201813,0.15109737452636085,0.48168003088097006,46.18761338009804,-19.00214799816845,22.431054489448094,-15.942702111704332,5.619104269130489,0.03918136808544248
0.11015386385958667,0.06099597823332007,0.0715116629836791,0.4602085036123863,0.012222988487010079,0.11440225604222441,1.1938731294026972,0.5786924463603837,0.540506264461475,-3.0737811824939993,0.1539431977409479,0.4806334283300956,45.799626810882785,-19.309241671568707,22.21679801563058,-12.903380017519678,5.614825786160674,0.0398531903848065
0.1125658041054629,0.06215958889261181,0.07258861062450349,0.4540312775936498,0.012536605825744769,0.11536143237347565,1.2059701229381117,0.5818053296458694,0.5384738204121969,-3.088613009368233,0.15680866936734542,0.4795881656256216,45.399487631618896,-19.619314110280587,22.006712482429055,-9.897849070397642,5.609770575572991,0.04053116620039915
0.11500167325012885,0.06332920527418909,0.07366112716425031,0.44783362307355845,0.012855990223517036,0.11631852095132483,1.2179345723329795,0.5848081907886346,0.536258269873414,-3.098827260045666,0.15969219888613376,0.4785442889245906,44.98734985830978,-19.9322477841816,21.800982958007708,-6.930134573250285,5.603936913298279,0.0412133435473751
0.11746119919520648,0.06450460737987854,0.07472885193247546,0.44162464527674966,0.013181174512626757,0.11727352463770446,1.2297629725388146,0.5877010528447232,0.5338623841125687,-3.1044888984043846,0.16259214455486093,0.4775018431898126,44.56336834204694,-20.247925239279553,21.59978992907124,-4.004136381590368,5.597324970332996,0.04189781477154586
0.11994410293454501,0.06568557539743736,0.07579143005336181,0.43541330777415954,0.013512188145769015,0.11822644638206395,1.2414518696692618,0.5904840087794117,0.5312890604431786,-3.1056687512950645,0.1655068165711284,0.4764608721797414,44.12769864814879,-20.56622895862797,21.403308996286544,-1.1236250585072505,5.589936779719513,0.042582717057508546
0.1224500986591397,0.06687188983845743,0.076848512691068,0.42920842117102925,0.013849057106560642,0.11917728921893643,1.2529978622973432,0.5931572205100347,0.5285413188530982,-3.102443301565155,0.16843448039581385,0.4754214184362408,43.68049695015772,-20.88704122208676,21.211710575778184,1.7077617085930286,5.581776195726014,0.04326623302040519
0.12497889386462037,0.06806333167425097,0.07789975728823442,0.42301863221918895,0.014191803827007365,0.12012605626547782,1.2643976027403385,0.5957209178967678,0.5256222985832115,-3.094894475920158,0.17137336022336158,0.47438352327069205,43.22191993884313,-21.210243967000935,21.025159608697034,4.486522428432482,5.572848845662941,0.043946591363001275
0.12753018946127953,0.06925968246961552,0.07894482779755449,0.4168524133631226,0.01454044711217799,0.12107275071897552,1.2756477983295778,0.5981753976822749,0.522535254660031,-3.0831094280331763,0.1743216425853126,0.47334722674885177,42.75212474617303,-21.535718651841258,20.843815280805885,7.209294862855189,5.563162074811064,0.04462206758193826
0.1301036798866043,0.07046072451437804,0.07998339490632532,0.41071805272849415,0.014895002072323181,0.12201737585432518,1.2867452126623753,0.6005210223812661,0.5192835543854157,-3.0671803173142247,0.17727748007259542,0.4723125676748275,42.27126888403768,-21.863346124793075,20.667830753946593,9.872858820138426,5.5527248849705355,0.04529098470854481
0.13269905322027087,0.07166624095262032,0.08101513625389804,0.4046236445609932,0.015255480062646296,0.12295993502147419,1.2976866668332903,0.6027582191211402,0.5158706737863613,-3.0472040837504846,0.18023899516155742,0.4712795835745045,41.77951019734037,-22.193006499202596,20.49735291115509,12.474138684791129,5.541547867169827,0.045951714070979754
0.13531599130155464,0.07287601590949036,0.08203973664195315,0.3985770801225377,0.015621888630902874,0.12390043164283164,1.3084690406418822,0.6048874784350181,0.5123001940275524,-3.0232822192277595,0.1832042841282891,0.4702483106787235,41.27700683091389,-22.524579037688802,20.332522117072898,15.010205684401607,5.529643129097861,0.04660267606564106
0.1379541698491029,0.07408983461550757,0.08305688823753138,0.392586039051054,0.01599423147297383,0.1248388692106446,1.3190892737741287,0.6069093530086038,0.5085757977891187,-2.995520535741844,0.18617142103547912,0.46921878390647914,40.76391720957885,-22.857942046611072,20.17347199516974,17.47827989448318,5.517024217842552,0.04724234092734003
0.14061325858301227,0.07530748352827243,0.08406629076875496,0.3866579811892412,0.016372508396525508,0.12577525128434136,1.3295443669546847,0.608824456382434,0.5047012656117897,-2.9640289309063776,0.1891384617758383,0.4681910368483807,40.24040003053382,-23.192972782444702,20.020329223142788,19.87573198264548,5.50370603853364,0.047869229488528564
0.14329292134914667,0.07652875045149483,0.0850676517131778,0.38080013888691916,0.016756715292837593,0.12670958148784256,1.3398313830672015,0.6106334616111977,0.5006804722114178,-2.9289211511610382,0.19210344815604272,0.4671651017505935,39.70661426715847,-23.52954737146522,19.87321334769871,22.200084693787662,5.489704769497004,0.04848191391892431
0.1459928162456266,0.07775342465125869,0.08606068647870704,0.3750195097807579,0.01714684411684793,0.12764186350684145,1.3499474482399663,0.612337099881925,0.49651738276462004,-2.8903145530806404,0.1950644120051681,0.46614100949945303,39.16271918322075,-23.86754074397847,19.73223661975274,24.449014078375924,5.475037774531981,0.04907901843800305
0.148712595751415,0.07898129696944459,0.08704511857704125,0.3693228500543942,0.01754288287543136,0.1285721010860553,1.3598897528941998,0.61393615909295,0.4922160491671012,-2.8483298631818488,0.1980193792917153,0.46511878960692554,38.60887435640695,-24.20682658415718,19.59750385090322,26.62035046621645,5.459723512923084,0.049659219993444914
0.15145190685691984,0.0802121599342359,0.08802067978957333,0.3637166681811545,0.01794481562389847,0.12950029802644944,1.3696555527524243,0.6154314823956561,0.4877806062660385,-2.803090936619844,0.20096637423355587,0.46409847019706785,38.04523971004251,-24.547277296364385,19.46911229185722,28.712079188484342,5.443781447791351,0.050221248899474547
0.15421039119652868,0.08144580786763811,0.08898711032570886,0.35820721915082976,0.018352622470669374,0.13042645818243667,1.3792421698044168,0.6168239667011024,0.4832152680677643,-2.7547245151623625,0.20390342338545223,0.46308007799362116,37.47197555183768,-24.88876398865567,19.347151533299243,30.72234105110105,5.427231953380613,0.050763889429812026
0.15698768518298542,0.08268203698994553,0.08994415897355257,0.3528004991811835,0.018766279590047813,0.1313505854590544,1.3886469932283743,0.6181145611537121,0.47852432392185396,-2.7033599848231185,0.20682855968921957,0.4620636383088576,36.88924261847848,-25.231156473963136,19.23170342951078,32.649432562880286,5.410096221859539,0.05128598036052612
0.15978342014351551,0.08392064552109409,0.09089158324291782,0.3475022409141221,0.019185759242992,0.13227268380912197,1.3978674802650417,0.6193042655742804,0.4737121346826257,-2.64912913353071,0.20973982647209516,0.4610491750337826,36.297202124886894,-25.574323289273277,19.122842044867493,34.49180592217675,5.3923961702007075,0.051786415458747626
0.1625972224576009,0.08516143377884332,0.09182914950061581,0.3423179090957166,0.019611029805750902,0.13319275723038154,1.4069011570426906,0.6203941288746155,0.4687831288489912,-2.5921659092027354,0.21263528137945065,0.46003671062978263,35.69601581699584,-25.91813173292505,19.020633623163256,36.248068766078404,5.374154347675819,0.05226414391360529
0.16542871369630285,0.08640420427373569,0.0927566330979829,0.3372526967385406,0.020042055806208145,0.13411080976262513,1.4157456193509856,0.621385247446181,0.4637417986835478,-2.532606178588006,0.2155130002286219,0.4590262661217938,35.08584602691979,-26.262447919969148,18.92513657954025,37.916983686476726,5.355393844479361,0.052718170706560374
0.16827751076302672,0.08764876180078597,0.09367381849060649,0.33231152176407563,0.0204787979677508,0.13502684548481125,1.4243985333619311,0.6222787635251451,0.4585926963117904,-2.4705874872324745,0.218371080771328,0.45801786109305664,34.46685572945447,-26.607136855354476,18.836401514641516,39.497467517633055,5.336138201963684,0.053147556918350825
0.17114322603561924,0.08889491352785851,0.09458049935021116,0.327499024122242,0.020921213260456595,0.13594086851217427,1.4328576362962555,0.6230758635362715,0.4533404298023341,-2.4062488209168063,0.22120764635289814,0.4570115136815089,33.83920859890015,-26.952062524537755,18.754471250449075,40.988590400132175,5.316411324935884,0.053551419970673364
0.17402546750968675,0.0901424690806947,0.09547647866866932,0.3228195633844312,0.021369254959371226,0.13685288299332998,1.441120737033763,0.6237777764180983,0.4479896592290792,-2.339730368905429,0.224020849457315,0.4560072405778606,33.20306906527928,-27.297088000953543,18.679380887129582,42.38957462637331,5.296237396432604,0.053928933800569845
0.17692383894301947,0.09139124062455842,0.09636156885410196,0.3182772168057543,0.021822872709627038,0.13776289310738074,1.4491857166663606,0.6243857719318587,0.44254509271631975,-2.2711732893384253,0.22680887512790582,0.4550050570253835,32.55860236910049,-27.642075569633796,18.61115788007731,43.69979327300073,5.275640795351579,0.05427932896652271
0.17983794000100475,0.0926410429424716,0.09723559181903774,0.3138757778515767,0.02228201259813576,0.13867090306102361,1.4570505289926439,0.6249011589565878,0.4370114824678895,-2.2007194770887915,0.2295699442543606,0.45400497682144075,31.905974613912022,-27.986886866130195,18.54982213622863,44.91876862590905,5.254646017281229,0.05460189268490401
0.182767366402911,0.09389169351001728,0.09809837906060086,0.30961875518277987,0.022746617231571006,0.13957691708566516,1.4647132009531163,0.6253252837728387,0.4313936207815598,-2.128511334398422,0.23230231671762336,0.45300701232077195,31.245352815981246,-28.331383029768148,18.495386128614978,46.04617040368691,5.2332775988295905,0.05489596879622555
0.1857117100689216,0.09514301256669208,0.09894977173270095,0.30550937209358653,0.02321662582034116,0.14048093943454626,1.4721718330052957,0.6256595283374037,0.4256963360500443,-2.0546915445966603,0.23500429438507764,0.4520111744405438,30.57690495053643,-28.67542487015447,18.447855028032993,47.081813785572116,5.211560045714942,0.05516095766078499
0.1886705592677979,0.09639482318379487,0.0997896207102012,0.3015505663951956,0.023691974268239813,0.1413829743798806,1.4794245994381519,0.6259053085513929,0.4199244887501274,-1.9794028491954672,0.23767422394932547,0.45101747266716713,29.900799994104094,-29.018873045761527,18.407226850629755,48.025657250192324,5.18951776483859,0.055396315983454014
0.1916434987650489,0.09764695132884282,0.10061778664504442,0.2977449907379053,0.024172595267449283,0.14228302621001035,1.4864697486254987,0.6260640725239737,0.41408296742161316,-1.9027878286451574,0.24031049960473402,0.45002591506487677,29.217207962575575,-29.36158825333355,18.373492620140503,48.87780023155177,5.1671750005222234,0.05560155656777249
0.19463010997148522,0.09889922592651085,0.1014341400143204,0.2940950133638566,0.024658418398562858,0.14318109922658248,1.4933056032181569,0.626137298834012,0.4081766846379875,-1.8249886870243144,0.24291156555678764,0.4490365082860625,28.526299944731544,-29.70343142679136,18.34663654346346,49.63848059889776,5.144555775050684,0.05577624799963454
0.19762997109203498,0.10015147891609444,0.10223856116026218,0.2906027192820029,0.02514937023528312,0.14407719774174915,1.4999305602748718,0.6261264947917926,0.4022105729708937,-1.746147040926887,0.24547591836013052,0.44804925758333614,27.82824813104616,-30.044263944260102,18.32663619822012,50.308071967263054,5.121683833623521,0.055920014261101825
0.2006426572746993,0.10140354530550026,0.10303094032216366,0.28726991185640555,0.025645374453447146,0.14497132607539578,1.506343091332163,0.6260331947029139,0.39618958095073964,-1.6664037127986575,0.2480021090820129,0.44706416682331235,27.12322583768021,-30.383947841807135,18.313462730925142,50.887080845625974,5.098582593780344,0.05603253427509547
0.20366774075952618,0.10265526322177301,0.10381117766021562,0.2840981147984771,0.026146351944024454,0.14586348855239994,1.5125417424134417,0.6258589581363765,0.3901186690259802,-1.5858985289642449,0.250488745288654,0.44608123850207804,26.411407525653075,-30.722346032451085,18.307081064376895,51.3761436297658,5.075275099329079,0.05611354138189828
0.20670479102748202,0.1039064739581706,0.10457918327126331,0.28108857455332786,0.026652220929730068,0.1467536894999246,1.518525133977913,0.6256053681987923,0.38400280552384525,-1.504770122574602,0.2529344928528073,0.4451004737623188,25.692968815258244,-31.05932252899293,18.307450112879604,51.77602344701247,5.05178397877208,0.056162822748501595
0.2097533749491019,0.10515702201780369,0.10533487719649434,0.2782422630699407,0.02716289708489317,0.14764193324474872,1.5242919608099363,0.6252740298165504,0.3778469626155147,-1.4231557416935905,0.2553380775815519,0.4441218724120687,24.9680864958515,-31.394742669219692,18.31452300391708,52.087606860196836,5.028131408191644,0.05618021871216783
0.21281305693280125,0.10640675515385906,0.10607818942107228,0.2755598809444793,0.027678293658221248,0.14852822411063882,1.529840991849679,0.6248665680276789,0.37165611228896533,-1.3411910627307064,0.2576982866640387,0.44314543294504416,24.236938531199765,-31.72847334204582,18.328247304919262,52.31190043820364,5.004339078527522,0.05616562205944742
0.21588339907273335,0.10765552440642914,0.10680905986573816,0.2730418609256485,0.028198321598100415,0.14941256641576386,1.5351710699660501,0.6243846262850438,0.3654352223329378,-1.259010009415388,0.2600139699395839,0.44217115256252115,23.49970406062429,-32.06038321317954,18.348565253790504,52.450027200610236,4.980428167149509,0.05611897724236603
0.21896396129607945,0.108903184135974,0.10752743837040953,0.27068837177065536,0.02872288968007468,0.15029496447015728,1.5402811116730466,0.6238298647724251,0.35918925233568166,-1.1767445774965946,0.26228404098713215,0.44119902719670917,22.756563396212773,-32.390342948937366,18.37541399190726,52.50322294396424,4.956419313604153,0.05604027953343593
0.22205430150966102,0.11014959205344381,0.1082332846698142,0.2684993224399763,0.029251904636150072,0.15117542257322844,1.5451701067907824,0.6232039587349086,0.3529231497023385,-1.0945246653395189,0.264507478037696,0.44022905153557534,22.00769801640228,-32.7182254368733,18.408725798338086,52.47283245730735,4.932332599390335,0.05592957412117755
0.22515397574576623,0.11139460924709367,0.10892656836120422,0.2664743666188175,0.029785271285573928,0.15205394501132657,1.5498371180526074,0.6225085968249312,0.3466418456950083,-1.0124779105793975,0.2666833247119268,0.4392612190490674,21.25329055625574,-33.04390600194145,18.44842832408986,52.36030563459716,4.908187531599039,0.05578695514821774
0.22826253830708593,0.1126381002060241,0.10960726886420365,0.2646129075528566,0.030322892666744882,0.15293053605535994,1.5542812806598447,0.621745479465219,0.34035025149971404,-0.9307295329804512,0.26881069058547735,0.4382955220166822,20.493524794765218,-33.3672626169719,18.494444825243704,52.16719349170863,4.884003030234519,0.05561256469392506
0.23137954191065752,0.11387993284048362,0.11027537537285291,0.26291410318558456,0.030864670169915447,0.15380519995847258,1.558501801785795,0.6209163172297587,0.334053254324631,-0.8494021836360109,0.27088875158528203,0.4373319515563252,19.728585639517703,-33.68817610630625,18.54669439390583,51.895144095714436,4.859797419019131,0.055406591703732744
0.23450453783071906,0.11511997849897132,0.11093088679992105,0.2613768715843167,0.03141050367035606,0.1546779409537814,1.562497960030768,0.6200228292438495,0.3277557135340743,-0.7686158006339164,0.2729167502203075,0.4363704976544026,18.95865910905293,-34.00653034151359,18.605092185968118,51.54589841414863,4.835588419471854,0.055169270867306774
0.23763707604037906,0.1163581119821797,0.11157381171356674,0.25999989664171813,0.03196029166165749,0.15554876325217556,1.5662691048300057,0.6190667416041903,0.3214624568228464,-0.6884874712993054,0.2748939956507146,0.4354111491970882,18.183932313230347,-34.32221242818514,18.669549644742844,51.121286091953294,4.811393148040603,0.0549008814479513
0.24077670535201198,0.11759421155381944,0.112204168266438,0.2587816340394882,0.032513931388856936,0.15641767104018098,1.5698146558164567,0.6180497858198722,0.31517827643562746,-0.6091313011149704,0.2768198635997232,0.434453894002703,17.404593431901908,-34.635112882890176,18.739974719612043,50.62322116378715,4.787228116061197,0.05460174606560142
0.2439229735562929,0.11882815894836957,0.1128219841173103,0.25772031746067303,0.03307131898108251,0.15728466847789127,1.5731341021404541,0.6169736972750662,0.30890792543614537,-0.5306582894075698,0.27869379611278766,0.433498718855147,16.620831692162582,-34.945125799461835,18.816272078908653,50.05369770934611,4.763109232311432,0.054272229435760266
0.24707542755978973,0.1200598393757978,0.11342729634537209,0.2568139650369207,0.03363234958342046,0.1581497596969679,1.5762270017484254,0.6158402137141156,0.3026561140308936,-0.4531762118761488,0.2805153011689721,0.43254560953831833,15.83283734441983,-35.252149003871466,18.89834331632541,49.414785459304625,4.739051807925707,0.05391273706701977
0.2502336135210354,0.12128914152329716,0.11402015135727642,0.25606038601686537,0.03419691748771979,0.1590129487987108,1.5790929806228442,0.6146510737496783,0.29642750595216316,-0.3767895100276741,0.282283952149666,0.4315945508714564,15.040801637489299,-35.5560841970414,18.98608715022726,48.70862535943339,4.715070563435721,0.053523713919631066
0.2533970769850068,0.12251595755408616,0.11460060478708667,0.2554571876417201,0.03476491626205979,0.1598742398522015,1.5817317319856927,0.613408015394499,0.2902267149051292,-0.3015991875726325,0.28399938716999984,0.4306455267453437,14.24491679288694,-35.856837085040276,19.079399615324746,47.93742510038636,4.691179637704652,0.05310564302776227
0.25656536301594235,0.12374018310332083,0.11516872138925402,0.2550017822140757,0.03533623887861682,0.1607336368925201,1.5841430154677707,0.6121127746173317,0.2840583010836759,-0.22770271382220408,0.28566130827851416,0.42969852015930016,13.445375978449142,-36.15431749619781,19.17817424624597,47.10345462057533,4.667392598525705,0.05265904408807098
0.2597380163284348,0.12496171727116781,0.11572457492477314,0.2546913943458415,0.03591077783967842,0.1615911439190379,1.5863266562462301,0.6107670839234894,0.27792676775955993,-0.15519393411710597,0.28726948053080203,0.42875351325890343,12.642373281371444,-36.448439484770816,19.282302252625794,46.20904158946724,4.643722454661584,0.05218447201730031
0.26291458141674034,0.1261804626130887,0.11626824804067194,0.2545230683712276,0.036488425301564396,0.16244676489378662,1.5882825441527626,0.6093726709604488,0.27183655794940004,-0.08416298730693558,0.28882373094298835,0.42781048737436866,11.836103680717487,-36.73912142088524,19.39167268541071,45.25656687854509,4.620181669108364,0.051682515481558444
0.26609460268225016,0.12739632512738652,0.11679983214299963,0.25449367591065214,0.03706907319622646,0.16330050373990565,1.590010632754901,0.6079312571489057,0.2657920511638418,-0.01469623028773237,0.29032394733103034,0.4268694230595202,11.026763019410268,-37.026286066571075,19.50617259415612,44.24846002706927,4.596782173375765,0.051153795399991986
0.269277624559076,0.12860921424006583,0.11731942726348579,0.25459992357146305,0.03765261335031031,0.16415236434016822,1.5915109384129218,0.6064445563396479,0.2597975602430807,0.05312383040545832,0.2917700770419262,0.42593030013128824,10.214547975679455,-37.30986063779853,19.62568717517044,43.18719470966491,4.5735353825854865,0.05059896342564507
0.2724631916377057,0.129819042787059,0.11782714192005127,0.25483836077139305,0.038238937601476314,0.16500235053558754,1.5927835393148544,0.6049142734965874,0.25385732828273644,0.119218599964985,0.2931621255830008,0.42499309770966287,9.39965603390435,-37.589776852510575,19.750099910434216,42.075284212638415,4.550452211200134,0.05001870040616485
0.27565084878668994,0.13102572699387155,0.11832309297135898,0.255205387670714,0.038827937911787326,0.16585046612410362,1.5938285744921163,0.6033421034062819,0.24797552565385747,0.1835134496604666,0.2945001551555059,0.42405779425803863,8.5822854547594,-37.865970964734366,19.879292697296343,40.91527692579588,4.527543089206525,0.049413714827124866
0.27884014127232654,0.13222918645270007,0.11880740546560019,0.255697263199128,0.03941950647798497,0.1666967148593514,1.594646242818288,0.6017297294142625,0.24215624712059922,0.24593776420699204,0.2957842830988221,0.4231243676238828,7.762635244540291,-38.13838378493383,20.013145969016982,39.70975185640007,4.504817978589864,0.04878474124060894
0.28203061487631365,0.13342934409707705,0.11928021248371791,0.2563101131635212,0.04001353583848815,0.1675411004495107,1.5952368019935421,0.6000788221884839,0.23640350905886265,0.3064249821965986,0.29701468025158917,0.4221927950796602,6.940905123525125,-38.406960686846965,20.151538806295918,38.46131417175381,4.482286389948059,0.04813253868190176
0.2852218160113481,0.13462612617409747,0.11974165497727572,0.2570399384228169,0.04060991897696038,0.1683836265562386,1.595600567517222,0.5983910385102126,0.23072124677890693,0.3649126296478524,0.2981915692361168,0.42126305336394987,6.117295493204688,-38.6716516011232,20.294349039985374,37.17259077674756,4.459957399108273,0.047457889076806314
0.2884132918346502,0.13581946221428282,0.12019188160118505,0.2578826231162929,0.041208549422305264,0.16922429679368398,1.59573791165104,0.5966680200926778,0.22511331195465922,0.42134234673797716,0.29931522267243993,0.4203351187226871,5.292007402200991,-38.93241099614791,20.44145334524809,35.84622593254573,4.437839663622116,0.046761595642331844
0.29160459035940084,0.13700928499913845,0.12063104854150933,0.25883394293187556,0.04180932134496204,0.1700631147275849,1.5956492623753333,0.5949113924278183,0.21958347016214227,0.4756599077913351,0.3003859613283874,0.4194089669504665,4.465242510683395,-39.18919784650453,20.592727327473842,34.48487692242142,4.4159414390283,0.046044481283306904
0.2947952605640824,0.13819553052646139,0.12105931933856758,0.25988957340108987,0.04241212964938609,0.17090008387444858,1.5953351023407785,0.5931227636614751,0.2141353985291249,0.5278152346071575,0.3014041522120245,0.41848457343184264,3.637203053086592,-39.44197558958586,20.74804560032143,33.09120977057473,4.39427059478617,0.045307386987625486
0.2979848524997182,0.1393781379734562,0.12147686470556313,0.2610450982075263,0.04301687006261172,0.1717352077008137,1.594795967817905,0.5913037234973969,0.20877268349777833,0.5777624032182291,0.30237020661281305,0.4175619131825651,2.80809179893497,-39.690712070919346,20.907281856297217,31.667895019591196,4.372834629795884,0.044551170222411784
0.30117291739501156,0.1405570496577171,0.1218838623429667,0.2622960174958878,0.04362343921880733,0.17256848962259508,1.5940324476467007,0.5894558421304469,0.20349881870179184,0.6254596441807564,0.3032845780978063,0.41664096089068603,1.9781120115834172,-39.93537947881984,21.07030893032369,30.217603572011964,4.35164068743453,0.04377670333386108
0.3043590077593886,0.14173221099613592,0.12228049674888485,0.26363775616889557,0.044231734739745655,0.17339993300451004,1.593045182188531,0.5875806692094201,0.19831720295906788,0.6708693365038718,0.30414776046916026,0.4157216909574798,1.147467404693737,-40.17595426902696,21.236998856788336,28.743002601296883,4.3306955700500005,0.042984871952975956
0.30754267748395364,0.14290357046179572,0.12266695902564641,0.26506567215956583,0.04484165531112405,0.17422954115958628,1.5918348622825136,0.585679732829906,0.1932311383807839,0.7139579953351483,0.3049602856891987,0.4148040775381149,0.31636209628149903,-40.412417080019154,21.40722292059464,27.246751537268008,4.310005752866175,0.04217657340965553
0.31072348194037047,0.14407107953891102,0.12304344668284097,0.26657506466661807,0.04545310075468248,0.17505731734875032,1.5904022282084191,0.5837545385576544,0.1882438285972753,0.7546962535261047,0.30572272177921467,0.41388809458201986,-0.5149994398140274,-40.64475263972871,21.580851702762974,25.731498130920276,4.289577397264713,0.0413527151574547
0.31390097807768663,0.14523469267587688,0.1234101634370427,0.26816118234103603,0.04606597209607874,0.1758832647804961,1.5887480686580682,0.5818065684829266,0.18335837710086547,0.7930588372089749,0.306435670698129,0.4129737158728869,-1.3464124251616116,-40.872949664404565,21.757755121151135,24.199874603284773,4.2694163634196585,0.040514213211184535
0.3170747245171208,0.14639436723648955,0.1237673190084536,0.269819231412082,0.04668017162849285,0.17670738661063262,1.5868732197171052,0.5798372803063392,0.17857778570544797,0.8290245355229768,0.30709976620705337,0.4120609150682569,-2.1776718307703686,-41.09700075038967,21.93780246687954,22.654493882820585,4.249528222270727,0.03966199059958275
0.32024428164483865,0.147550063449403,0.12411512891469823,0.27154438374135187,0.047295602971944295,0.17752968594210988,1.584778563858924,0.5778481064567266,0.17390495312231122,0.8625761646349556,0.3077156717257233,0.4111496657386328,-3.0085724339935354,-41.31690225958998,22.120862437057276,21.097945935603406,4.229918266830799,0.038796975835156844
0.32340921170274345,0.14870174435588615,0.12445381426200101,0.273331784793763,0.047912171128317645,0.17835016582492202,1.5824650289524107,0.5758404532415714,0.16934267365139488,0.8937005262055729,0.3082840781866745,0.41023994140606845,-3.838908878343628,-41.532654199418914,22.306803164410475,19.532794192364218,4.210591522831694,0.03792010140312202
0.32656907887731357,0.14984937575594728,0.12478360153397478,0.2751765615146794,0.048529782532103515,0.17916882925608638,1.579933587285059,0.5738157000305697,0.1648936359868771,0.9223883604581835,0.30880570189293377,0.4093317155821826,-4.668475736227378,-41.74426009800116,22.49549224441475,17.961572076215674,4.191552758719443,0.03703230227154425
0.3297234493865194,0.15099292615289311,0.1251047223782462,0.2770738301027057,0.049148345096873276,0.17998567917969746,1.5771852546028904,0.5717751984729099,0.16056042213571678,0.9486342940131537,0.30928128238488123,0.4084249618055491,-5.497067574575041,-41.95172687541289,22.68679676052929,16.3867796346865,4.17280649501789,0.03613451442440263
0.33287189156485636,0.15213236669639082,0.12541741339114124,0.279018703668017,0.049767768257516914,0.18080071848705428,1.574221089168493,0.5697202717488591,0.15634550644751746,0.9724367826556585,0.30971158032181934,0.4075196536784157,-6.324479023305915,-42.155064711725544,22.88058330811998,14.810880279463339,4.154357013084313,0.03522767341949473
0.3360139759465331,0.15326767112410333,0.1257219159006489,0.2810062997664369,0.05038796300828421,0.1816139500168597,1.571042190838365,0.5676522138562552,0.15225125475383786,0.9937980492099201,0.31009737538364623,0.4066157649027068,-7.150504846538237,-42.354286912603385,23.07671801764598,13.236297637018453,4.1362083632869435,0.034312712972745796
0.33914927534685435,0.15439881570196834,0.1260184757478786,0.28303174779983176,0.05100884193667998,0.18242537655549024,1.5676497001606247,0.5655722889325085,0.14827992361485426,1.012724016697431,0.31043946419788715,0.405713269315266,-7.974940016419243,-42.54940977318272,23.275066577664784,11.665412513079236,4.118364372637371,0.03339056357070902
0.34227736494184235,0.15552577916319377,0.12630734306722077,0.28509019627375365,0.05163031925327434,0.18323500083733482,1.5640447974940135,0.5634817306127136,0.14443365967107843,1.0292242369609343,0.310738658297178,0.40481214092229734,-8.797579789419778,-42.74045244093625,23.475494258189002,10.100559973671016,4.100828651915026,0.03246215111269973
0.34539782234614036,0.1566485426460427,0.12658877206541608,0.2871768199036333,0.05225231081749859,0.18404282554520074,1.560228702148997,0.5613817414244656,0.14071449909765554,1.043311814939816,0.3109957821121271,0.40391235393296515,-9.618219784909774,-42.92743677819473,23.677865934901565,8.544026545242424,4.083604602322614,0.03152839558403439
0.3485102276892436,0.15776708963048264,0.1268630207997333,0.28928682656120547,0.05287473415950719,0.18484885331078496,1.5562026715516308,0.559273492219968,0.1371243671586093,1.0550033287860867,0.3112116710042995,0.4030138827921154,-10.436656065801671,-43.110387224964576,23.882046114706267,6.998047536156455,4.066695421714052,0.03059020976182536
0.35161416369010506,0.15888140587377464,0.12713035095544983,0.2914154640532321,0.05349750849819494,0.18565308671520914,1.5519680004307381,0.5571581216459954,0.13366507785826648,1.0643187460133172,0.31138716934387695,0.40211670221208246,-11.252685221027276,-43.28933066264332,24.087898963058407,5.464804481608445,4.050104110436088,0.02964849795457547
0.3547092157301627,0.15999147934507915,0.12739102762282378,0.29355802672497955,0.05412055475546763,0.18645552828961623,1.5475260200288088,0.5550367356522615,0.13033833368698092,1.0712813358737114,0.3115231286363421,0.4012207872035475,-12.066104449590611,-43.46429627919383,24.29528833348413,3.9464227138073587,4.033833476826487,0.028704154776843932
0.3577949719248365,0.16109730015915658,0.12764531907374016,0.29570986188130155,0.05474379556687227,0.18725618051582707,1.5428780973369152,0.5529104070387086,0.1271457254581876,1.0759175781609944,0.3116204057023216,0.40032611310541766,-12.876711645921747,-43.63531543629601,24.504077799659452,2.444969059035544,4.017886142410095,0.02775806396005906
0.36087102319354414,0.16219886050924098,0.12789349653820767,0.2978663760185794,0.055367155288701266,0.18805504582705446,1.5380256343538108,0.5507801750422088,0.12408873223375062,1.0782570686389186,0.31167986091449884,0.3994326556136959,-13.684305486243476,-43.802421538950355,24.71413069038087,0.9624496629797448,4.002264546833274,0.02681109720060801
0.3639369633282827,0.16329615459916724,0.12813583398087672,0.3000230408611734,0.05599056000169181,0.1888521266086731,1.5329700673692652,0.5486470449631251,0.12116872133452526,1.078332421296993,0.31170235649527,0.3985403908093141,-14.488685515651298,-43.96564990796204,24.925310127717605,-0.4991920544923565,3.986970952576116,0.02586411304621611
0.3669923890608258,0.16438917857483154,0.12837260787774277,0.30217539919644637,0.056613937511448956,0.1896474251990429,1.527712866271575,0.5465119878321435,0.11838694843303023,1.076179167636493,0.3116887548785744,0.3976492951849046,-15.289652235601306,-44.12503765568555,25.137479068593517,-1.9380773141547853,3.9720074494788613,0.024917955821427668
0.370036900128584,0.165477930455067,0.12860409699319303,0.30431907050282825,0.05723721734572711,0.19044094389038388,1.5222555338790813,0.5443759401177364,0.11574455772512657,1.0718356531909252,0.3116399171390768,0.3967593456704866,-16.08700719149772,-44.28062356536471,25.350500350004168,-3.352393761104968,3.957375959116897,0.023973454593127053
0.37307009933917484,0.16656241006201614,0.12883058215754825,0.3064497563658001,0.05786033074871034,0.19123268492969997,1.516599605295424,0.5422398034745687,0.11324258217761715,1.0653429314859104,0.3115567014916169,0.3958705196580459,-16.880553060073485,-44.432447974352854,25.564236738030754,-4.740397116777504,3.9430782390556605,0.023031422176837624
0.3760915926337512,0.16764261895108235,0.12905234604524568,0.30856324567708787,0.05848321067243749,0.19202265051974995,1.5107466472881705,0.5401044445331028,0.11088194384871941,1.0567446556439064,0.31143996186357376,0.39498279502499023,-17.670093736262324,-44.58055266145165,25.77855098076972,-6.10041269897458,3.9291158870130176,0.022092654184424604
0.37910098914913193,0.16871856034054356,0.1292696729538025,0.31065541961276655,0.059105791765522525,0.1928108428200629,1.504698257690362,0.5379706947305984,0.10866345427842004,1.0460869678393314,0.31129054654251803,0.3940961501564613,-18.455434419269608,-44.724980738560525,25.993305865254985,-7.430836809804295,3.915490344953967,0.021157928114012847
0.3820979012787808,0.16979023904091084,0.1294828485836941,0.31272225638638546,0.05972801035932501,0.19359726394799587,1.4984560648244436,0.5358393501836407,0.10658781494579359,1.033418386809463,0.3111092969012442,0.39321056396649123,-19.236381697561512,-44.865776546781184,26.20836427840605,-8.730137991622607,3.90220290313761,0.020228002482360646
0.38508194473267676,0.17085766138411537,0.129692159819275,0.3147598357736375,0.060349804451728994,0.19438191597983184,1.4920217269479712,0.5337111716022649,0.10465561779045532,1.0187896936260044,0.31089704620199154,0.3923260159179876,-20.01274363250771,-45.00298555707979,26.423589271997333,-9.996858151276436,3.8892547041333123,0.019303616000578894
0.3880527385961176,0.17192083515260673,0.12989789451086586,0.3167643434055003,0.06097111368869174,0.19516480095191494,1.485396931720416,0.5315868842456762,0.10286734579542213,1.0022538159314014,0.31065461848137355,0.39144248604153925,-20.784329840430466,-45.13665427556449,26.638844131601743,-11.229613553141144,3.876646746818587,0.018385486793211836
0.3910099053874983,0.1729797695084457,0.1301003412581234,0.31873207482718613,0.06159187934372624,0.195945920861821,1.4785833956903354,0.5294671779194938,0.10122337362876987,0.9838657108429113,0.31038282751724744,0.3905599549530321,-21.55095157283508,-45.26683015339656,26.853992449426876,-12.427095681639697,3.8643798903670437,0.017474311661375808
0.3939530711151025,0.17403447492247445,0.1302997891948066,0.3206594393206382,0.06221204429548316,0.19672527766956113,1.4715828638021222,0.5273527070143731,0.09972396834160302,0.9636822467260228,0.3100824758784627,0.3896784038700692,-22.31242179461855,-45.393561501314835,27.06889820092433,-13.588071974118986,3.8524548582310665,0.016570765389973346
0.39688186533294556,0.17508496310364602,0.13049652777504656,0.3225429634887125,0.06283155300359944,0.19750287329881552,1.4643971089215069,0.5252440905857885,0.09836929011998796,0.9417620840371631,0.3097543540581386,0.38879781462719015,-23.068555260079094,-45.51689740871693,27.28342582502097,-14.711386425143184,3.840872242119748,0.015675500099461448
0.39979592119570345,0.1761312469285954,0.13069084656122384,0.3243792945995798,0.0634503514829811,0.1982787096381953,1.4570279313789434,0.5231419124746819,0.09715939308864581,0.9181655554336743,0.30939923969082966,0.38791816968988696,-23.819168586574502,-45.636887667207375,27.497440307788636,-15.79596006344404,3.829632505968637,0.014789144642089913
0.40269487551276345,0.1771733403715326,0.13088303501355256,0.32616520369027346,0.0640683872766884,0.19905278854253014,1.4494771585299897,0.5210467214686068,0.09609422616435093,0.8929545453468191,0.309017896853652,0.3870394521674156,-24.56408032570555,-45.753582698492416,27.710807269340894,-16.84079130294164,3.8187359898949174,0.013912304043004836
0.405578368801427,0.17821125843453844,0.13107338228146684,0.32789758842869565,0.06468560942759072,0.19982511183417895,1.4417466443317666,0.518959031502922,0.09517363395713671,0.8661923692110971,0.30861107545115946,0.38616164582440404,-25.303111031927923,-45.86703348647373,27.92339305371931,-17.84495616941995,3.808182914127156,0.013045558985973205
0.4084460453392961,0.17924501707834148,0.13126217699690199,0.3295734757337765,0.06530196844895768,0.20059568130436148,1.4338382689345666,0.5168793219015141,0.09439735771756877,0.8379436525404159,0.3081795106834786,0.38528473509126054,-26.036083328523766,-45.97729151336781,28.135064821507928,-18.807608404604704,3.7979733828967257,0.012189465343925676
0.41129755321587147,0.18027463315365438,0.131449707069559,0.33119002415385385,0.06591741629415156,0.20136449871450826,1.4257539382876765,0.5148080376564501,0.09376503632850601,0.8082742100386789,0.30772392259693954,0.38440870507338537,-26.762821970892183,-46.08440869965704,28.34569064489503,-19.72797944955062,3.7881073882744505,0.011344553754226022
0.4141325443833884,0.18130012433314618,0.13163625948423885,0.3327445260037121,0.0665319063255839,0.20213156579762664,1.4174955837584753,0.512745589745893,0.09327620733993079,0.7772509249291385,0.30724501571617147,0.38353354155919367,-27.483153907144683,-46.18843734765896,28.555139604882175,-20.605378309398017,3.7785848139337808,0.010511329238435563
0.41695067470691616,0.18232150904412525,0.13182212010033004,0.33423440926107895,0.06714539328309664,0.20289688425968055,1.4090651617638736,0.5106923554895345,0.0929303080455889,0.7449416286834154,0.3067434787563728,0.38265923102695726,-28.196908336017323,-46.289430088484515,28.763281890326553,-21.439191301706167,3.7694054388196303,0.00969027086654864
0.4197516040137425,0.18333880640200673,0.1320075734535307,0.3356572392237338,0.06775783325192507,0.2036604557809815,1.400464653413168,0.5086486789407348,0.09272667660033729,0.7114149813274254,0.3062199844142152,0.381785760650475,-28.903916762136326,-46.387439832144196,28.969988898489788,-22.228881690712498,3.760568940700222,0.00888183146538657
0.4225349961420653,0.1843520361446357,0.1321929025598852,0.33701071992872894,0.06836918363039626,0.20442228201758866,1.3916960641614007,0.5066148713144867,0.09266455317725109,0.6767403524975812,0.30567518923559867,0.3809131183035834,-29.604013048696196,-46.48251972054947,29.175133336756453,-22.97398921000181,3.7520748995778015,0.008086437370823124
0.42530051898900995,0.1853612185675362,0.13237838872221258,0.33829269533556205,0.06897940309751276,0.20518236460271572,1.382761423472329,0.5045912114502584,0.09274308116368968,0.6409877034165674,0.30510973355824395,0.3800412925635208,-30.297033467631046,-46.574723083150985,29.378589325179565,-23.674129476200704,3.7439228009332446,0.007304488223655592
0.4280478445579902,0.1863663744601536,0.1325643113390039,0.3395011502754695,0.06958845158056653,0.20594070514814203,1.373662784490133,0.5025779463087062,0.092961308395665,0.6042274699537247,0.304524241526888,0.37917027271315923,-30.982816747377782,-46.66410339495053,29.580232499504778,-24.32899329643251,3.7361120387789364,0.0065363568086161394
0.4307766490054282,0.18736752504315599,0.13275094771586388,0.3406342111693308,0.07019629022292381,0.20669730524562627,1.3644022237190123,0.5005752915011872,0.09331818842999041,0.5665304469306406,0.30391932117863835,0.3783000487421201,-31.66120411834658,-46.75071423662092,29.779940114323452,-24.93834587238866,3.72864191849387,0.005782388936097033
0.4334866126868479,0.1883646919068579,0.1329385728795715,0.34169014651698665,0.0708028813521155,0.20745216646831985,1.3549818407098522,0.49858343185094844,0.0938125818538167,0.5279676738279296,0.30329556459584617,0.377430611346792,-32.332039356227966,-46.83460925646997,29.977591146005636,-25.502025903979767,3.721511659415753,0.005042903366187124
0.4361774202023542,0.18935789695082753,0.13312745939483406,0.3426673671610755,0.07140818844836284,0.2082052903721784,1.3454037577531635,0.4966025219848146,0.094443257631281,0.48861032204441596,0.30265354812367345,0.37656195192926867,-32.99516882327626,-46.91584213398616,30.17306639506574,-26.0199445956357,3.7147203971648337,0.004318191774381419
0.4388487604415093,0.1903471623247358,0.13331787718380828,0.3435644263287855,0.07201217611366156,0.20895667849736885,1.335670119577536,0.4946326869541476,0.09520889448710437,0.44852958385500796,0.3019938326493581,0.3756940625952275,-33.6504415077185,-46.994466544709894,30.366248587618912,-26.492084568420537,3.7082671856754827,0.0036085187584709855
0.441500326627615,0.19133251037050342,0.13351009334846242,0.34438001945520247,0.0726148100415416,0.2097063323696704,1.3257830930528705,0.49267402288380735,0.09610808232707381,0.40779656320849234,0.3013169639400231,0.37482693615077056,-34.2977090614427,-47.070536126180926,30.557022475593165,-26.91849868121963,3.7021509989132526,0.0029141218858919904
0.4441318163614104,0.19231396356579902,0.13370437199585328,0.345112983792205,0.07321605698761308,0.2104542535018669,1.315744866897689,0.49072659764780163,0.09713932369543331,0.3664821685012805,0.30062347303573317,0.37396056609825057,-34.93682583612266,-47.14410444472113,30.745274935370027,-27.299308764340452,3.696370732256354,0.002235211780991009
0.4467429316641901,0.19329154446893956,0.13390097406639184,0.34576229780712064,0.07381588474100181,0.2112004433951291,1.3055576513898517,0.48879045157027595,0.0983010352692879,0.3246570074578268,0.29991387669437086,0.37309494663110554,-35.56764891793634,-47.2152249628232,30.9308950645374,-27.634704268946336,3.6909252035226436,0.0015719722513184986
0.4493333790203502,0.1942652756652405,0.13410015716517223,0.34632708037560667,0.07441426209677139,0.21194490354038456,1.2952236780800406,0.48686559815046276,0.09959154939019078,0.2823912842430143,0.2991886778847909,0.37223007262772734,-36.190038161033215,-47.283951006927715,31.11377427645039,-27.924940835814265,3.6858131536260674,0.0009245604523522855
0.45190286941936497,0.19523517971486085,0.13430217539643852,0.34680658977345924,0.07501115882942061,0.21268763541967334,1.2847451995073964,0.4849520248101807,0.10100911563313968,0.23975469892627949,0.29844836632460936,0.3713659396443902,-36.80385621989942,-47.350335735384306,31.293806392308248,-28.170338786971676,3.681033246848582,0.0002931070896894372
0.45445111839719843,0.19620127910218574,0.134507279201265,0.3472002224722825,0.07560654566753841,0.21342864050748786,1.2741244889167258,0.48304969366245015,0.10255190241325227,0.19681634941163184,0.2976934190588985,0.3705025439072661,-37.40896858076441,-47.4144321064089,31.470887730471336,-28.37128154382571,3.676584070716742,-0.0003222833420318538
0.45697784607715186,0.19716359618678528,0.13471571519852585,0.34750751174416655,0.07620039426969039,0.21416792027209497,1.2633638399767204,0.4811585422997744,0.10421799863042232,0.15364463594203193,0.29692430107598744,0.36963988230355516,-38.00524359218143,-47.47629284586307,31.6449171927567,-28.528213975450143,3.6724641354751526,-0.000921532284418769
0.4594827772101492,0.19812215315598652,0.1349277260292304,0.34772812608072823,0.0767926772016034,0.2149054761768385,1.252465566498653,0.4792784846006169,0.10600541535227784,0.11030716828082507,0.29614146595651086,0.36877795237175937,-38.592552494904226,-47.53597041470057,31.815796347468936,-28.641640680739272,3.6686718731523946,-0.0015045868057434464
0.46196564121445927,0.19907697197909172,0.13514355020430194,0.34786186743206243,0.07738336791470701,0.21564130968142076,1.2414320021550376,0.4774094115525984,0.10791208753577143,0.06687067566710489,0.2953453565518071,0.36791675229113013,-39.17076945116837,-47.59351697594216,31.98342950893943,-28.7121242081781,3.665205636218494,-0.002071419257514806
0.46442617221485477,0.20002807436327358,0.1353634219558774,0.34790866927133446,0.07797244072608249,0.2163754222431614,1.2302655001977623,0.4755511920909286,0.10993587578772866,0.02340091963600547,0.2945364056877389,0.36705628087031933,-39.739771573471955,-47.64898436105911,32.14772381336651,-28.740283217008226,3.6620636958359163,-0.002622026898082941
0.4668641090812052,0.20097548171117474,0.13558757109220673,0.34786859449091245,0.07855987079986249,0.21710781531823192,1.218968433175216,0.47370367395058544,0.11207456816466595,-0.020037390210994467,0.2937150368899967,0.36619653753526527,-40.29943895293371,-47.70242403566531,32.30858929076817,-28.726790583596877,3.659244239710934,-0.003156431484524602
0.4692791954665011,0.20191921508023625,0.13581622285623104,0.34774183313609924,0.07914563413011638,0.21783849036286462,1.20754319264795,0.47186668453075836,0.11432588201216229,-0.06338067740661689,0.2928816651269457,0.3653375223163453,-40.8496546872911,-47.753887064435396,32.465938932878146,-28.67237145683373,3.656745369554456,-0.0036746788336619596
0.47167117984430595,0.2028592951437764,0.1360495977879191,0.3475286999826672,0.07972970752524856,0.21856744883453427,1.1959921889024228,0.4700400317700763,0.1166874658440327,-0.10656657671600885,0.292036697566094,0.36447923583482716,-41.39030490858258,-47.803424075188225,32.61968875683698,-28.577801266395028,3.6545650981657696,-0.004176838353500606
0.47403981554563074,0.2037957421538387,0.13628791159044212,0.3472296319645363,0.08031206859392913,0.21929469219311157,1.1843178506623873,0.46822350503115145,0.11915690126150244,-0.14953400906545328,0.29118053434028573,0.36362167928865247,-41.92127881054155,-47.85108522209291,32.769757864549945,-28.443903687721118,3.6527013461565367,-0.0046630025461334434
0.47638486079522574,0.20472857590582466,0.13653137500026716,0.3468451854580556,0.08089269573256866,0.22002022190198675,1.1725226247974896,0.46641687599298487,0.12173170491252376,-0.192223253240356,0.2903135693197675,0.36276485443758477,-42.44246867571107,-47.896920147975045,32.91606849760383,-28.27154856755393,3.6511519383348205,-0.005133286483361338
0.47870607874728305,0.20565781570492425,0.13678019366124977,0.34637603342946105,0.08147156811434132,0.22074403942916226,1.1606089760286473,0.464619899549796,0.12440933049130845,-0.23457601429727193,0.28943619088633094,0.3619087635877568,-42.95376990227124,-47.94097794572116,33.05854608765651,-28.06164981387709,3.649914599773496,-0.005587827256148148
0.48100323752054264,0.20658348033435397,0.13703456800280592,0.34582296245217964,0.08204866567975293,0.22146614624831357,1.1485793866297829,0.46283231471486014,0.12718717077807287,-0.27653548864069255,0.2885487827058025,0.3610534095756503,-43.45508103055419,-47.98330711879671,33.197119302232366,-27.8151632540904,3.6489869515897513,-0.006026783399160018
0.4832761102327936,0.2075055880254099,0.13729469312224374,0.34518686960073713,0.0826239691287434,0.22218654383981665,1.136436356125484,0.4610538455279617,0.13006255971890612,-0.3180464257212518,0.2876517244952311,0.360198795751543,-43.946303769204114,-48.02395554091449,33.33172008587876,-27.533084465233163,3.648366506466081,-0.006450334291728588
0.4855244750347619,0.2084241564293401,0.13756075867133488,0.34446875922810133,0.08319745991430583,0.22290523369174156,1.1241824009841663,0.4592842019650994,0.1330327745455783,-0.35905518631790584,0.28674539278121863,0.3593449259624576,-44.42734302092618,-48.062970414906566,33.46228369665759,-27.216446580050608,3.6480506639455177,-0.006858679536355855
0.4877481151433745,0.2093392025910383,0.1378329487472049,0.34366973963335634,0.08376912023759771,0.22362221730081086,1.1118200543063068,0.4575230808491098,0.13609503793500471,-0.3995097973725048,0.2858301616459398,0.3584918045346468,-44.898106907751675,-48.10039823087201,33.58874873796723,-26.866318072668466,3.648036705536865,-0.00725203831615559
0.4899468188743891,0.21025074292455811,0.13811144178762083,0.34279101962665437,0.08433893304451273,0.22433749617332216,1.0993518655073116,0.45577016675990895,0.13924652020797354,-0.43936000335098074,0.2849064034575136,0.3576394362556502,-45.358506795735096,-48.13628472369011,33.71105718570859,-26.48380052760936,3.6483217896680635,-0.007630648732509293
0.49212037967437827,0.21115879319044428,0.1383964104707541,0.34183390499843214,0.08490688202367576,0.22505107182603407,1.0867803999945829,0.4540251329430885,0.14248434156663048,-0.47855731411112795,0.2839744895815143,0.35678782635595707,-45.808457318986335,-48.17067483000333,33.82915441082873,-26.070026395846323,3.648902946527519,-0.007994767124331392
0.49426859615205493,0.21206336847487556,0.13868802161949428,0.34079979489990686,0.08547295160581685,0.2257629457870147,1.0741082388383374,0.45228764221564155,0.14580557437009437,-0.5170550492626386,0.28303479107054225,0.3559369804903106,-46.24787640293199,-48.20361264479219,33.942989197293045,-25.626156741545604,3.649777072835604,-0.00834466737009415
0.49639127210892636,0.2129644831706108,0.1389864361103892,0.3396901781418855,0.08603712696447469,0.22647311959645208,1.0613379784357246,0.4505573478676332,0.14920724544745326,-0.5548083790106655,0.28208767932892254,0.35508690471868837,-46.676685286690464,-48.23514137767704,34.052513755555545,-25.15337898310414,3.65094092658963,-0.008680640174174137
0.49848821656926195,0.21386215095972816,0.13929180878728373,0.33850662941892606,0.08659939401797419,0.22718159480742606,1.0484722301677911,0.4488338945586752,0.15268633844726262,-0.5917743614797174,0.2811335267497481,0.3542376054869937,-47.09480854444011,-48.265303309094435,34.15768373161181,-24.65290463203316,3.652391121826932,-0.009002992338716154
0.5005592438093596,0.21475638479814438,0.1396042883797288,0.3372508054658858,0.08715973943261748,0.22788837298664105,1.035513620048825,0.44711691920810803,0.15623979622253564,-0.6279119765201335,0.28017270732164795,0.35338908960749266,-47.50217410565411,-48.294139746510695,34.258458211737334,-24.125967033183944,3.6541241234515596,-0.009312046022542986
0.5026041733860948,0.21564719690190007,0.13992401742622895,0.3359244411538764,0.08771815062702314,0.2285934557151191,1.022464788367616,0.44540605187784016,0.159864523250082,-0.6631821560047314,0.2792055972028262,0.35254136423903126,-47.89871327407433,-48.32169098084198,34.354799723025565,-23.57381910974934,3.6561362421705574,-0.0096081379882213
0.5046228301647351,0.21653459873519376,0.1402511322023948,0.3345293455326194,0.08827461577754332,0.22929684458885324,1.0093283893201563,0.44370091664684214,0.16355738808291634,-0.6975478106284714,0.27823257526009415,0.3516944368670671,-48.28436074529404,-48.347996243263424,34.44667422985674,-22.997731116409373,3.658423629585999,-0.009891618838921867
0.5066150443460017,0.21741860100014646,0.14058576265406345,0.3330673978261612,0.08882912382468491,0.22999854121942034,0.9961070906333138,0.44200113247634215,0.16731522583432135,-0.7309738532291152,0.2772540235707971,0.3508483152835489,-48.659054622822055,-48.373093662595394,34.53405112643867,-22.398988403919805,3.660982273488719,-0.01016285224627328
0.5085806514923596,0.2182992136282761,0.14092803233544748,0.3315405433888574,0.08938166448045635,0.2306985472345537,0.9828035731789951,0.4403063140648194,0.17113484069201407,-0.7634272186518853,0.27627032788572137,0.3500030075666784,-49.022736432503336,-48.397020223462064,34.61690322557305,-21.778889198369107,3.6638079933993035,-0.010422214170616229
0.5105194925535164,0.21917644577365997,0.14127805835236895,0.32995078962848534,0.08993222823655887,0.2313968642786749,0.9694205305783312,0.4386160726919421,0.17501300846072954,-0.7948768801860329,0.27528187805126014,0.3491585220605872,-49.37535113517531,-48.41981172542288,34.695206743810246,-21.138742398251267,3.6668964364009593,-0.010670092075006465
0.5124314138911071,0.22005030580776128,0.14163595131063175,0.32830020190327336,0.09048080637333748,0.2320934940133848,0.9559606687954095,0.4369300170506477,0.1789464791314009,-0.8252938626060031,0.27428906838930633,0.34831486735496087,-49.71684713744657,-48.44150274328014,34.76894128316393,-20.47986539242277,3.670243073307745,-0.010906884134333772
0.5143162673025473,0.2209208013158945,0.14200181526958172,0.32659089939956426,0.09102739096940456,0.23278843811791408,0.9424267057200892,0.43524775406661514,0.18293197947498505,-0.8546512518545355,0.27329229803353927,0.34747205226464406,-50.04717630049278,-48.462126588767745,34.83808980956505,-19.80358190192656,3.6738431952101465,-0.011132998440831543
0.5161739100440262,0.22178793909530337,0.14237574770089942,0.32482505099674513,0.09157197491184649,0.2334816982895326,0.9288213707394403,0.43356888970442814,0.18696621565885346,-0.8829242014095491,0.2722919712209688,0.3466300858092568,-50.36629394677309,-48.48171527382701,34.90263862823873,-19.111219848579776,3.677691910438356,-0.011348852207453741
0.518004204852621,0.22265172515482293,0.1427578394526665,0.3230048711259831,0.09211455190692208,0.23417327624391832,0.9151474042973586,0.43189302975978205,0.1910458758835447,-0.9100899353810362,0.27128849753780016,0.3457889771928539,-50.67415886458227,-48.500299475671774,34.96257735619338,-18.40410925313141,3.6817841419812884,-0.011554870970159115
0.5198070199675049,0.2235121647160972,0.1431481747187416,0.32113261562920625,0.09265511649115984,0.23486317371548562,0.9014075574419239,0.4302197806371353,0.19516763303755408,-0.9361277483884167,0.27028229211888183,0.3449487357836582,-50.97073331036603,-48.51790850384505,35.01789889201337,-17.68358016570328,3.6861146253972743,-0.011751487790645831
0.521582229150225,0.2243692622163217,0.14354683101347707,0.3192105776246605,0.09319366404276025,0.23555139245767343,0.8876045913600815,0.4285487501122575,0.1993281473677224,-0.9610190022728822,0.26927377580019923,0.3441093710938973,-51.25598300873856,-48.53457026946086,35.06859938314827,-16.950960631132883,3.690677907249714,-0.011939142460765273
0.5233297117040235,0.22522302131248004,0.1439538791518024,0.3172410833852541,0.09373019079320839,0.23623793424319298,0.8737412768992504,0.4268795480791752,0.20352406916267718,-0.9847471197031901,0.26826337522407306,0.3432708927597729,-51.5298771501574,-48.55031125682166,35.11467819089129,-16.207574691738266,3.695468344098141,-0.012118280709634333
0.5250493524921745,0.22607344488704217,0.14436938323469575,0.3152264882357798,0.09426469383900223,0.23692280086423617,0.8598203940754816,0.4252117872810636,0.2077520414466772,-1.0072975747371353,0.2672515228969192,0.3424333105215919,-51.79238838622229,-48.56515649759217,35.15613785323884,-15.454740429925495,3.700480102072134,-0.012289353414991211
0.5267410419553101,0.22692053505509155,0.144793400640058,0.3131691724749707,0.09479717115340146,0.23760599413264435,0.8458447315678168,0.42354508402468083,0.21200870268111732,-1.02865788040454,0.2662386571996188,0.3415966342040863,-52.04349282258277,-48.57912954770082,35.19298404581893,-14.693768052957434,3.7057071570524505,-0.01245281581979335
0.5284046761277071,0.22776429317284752,0.14522598201899972,0.31107153732820864,0.09532762159810293,0.23828751588003824,0.8318170861985251,0.42187905887798516,0.21629068947086322,-1.0488175733810532,0.26522522235073726,0.3407608736969496,-52.28317000945173,-48.59225246713078,35.225225541073925,-13.925958022098513,3.7111432954802965,-0.012609126755262046
0.530040156652505,0.22860471984754877,0.14566717129754472,0.308936000936558,0.09585604493474896,0.23896736795790946,0.8177402623989292,0.4202133373506207,0.2205946392725071,-1.0677681958253311,0.2642116683230169,0.33992603893561524,-52.51140292973849,-48.604545802747914,35.25287416587539,-13.152599228245274,3.7167821158121397,-0.012758747871529086
0.5316473907958261,0.22944181494866275,0.14611700568374786,0.30676499438764737,0.09638244183617646,0.23964555223767406,0.8036170716605651,0.4185475505569985,0.22491719310156566,-1.0855032744552973,0.26319845071374764,0.33909213988230363,-52.7281779848296,-48.61602857430273,35.27594475774453,-12.3749672160452,3.722617030634002,-0.012902142877020628
0.5332262914597691,0.23027557762038622,0.146575515680219,0.30456095779376313,0.09690681389731605,0.24032207061068878,0.7894503319714582,0.41688133586174037,0.2292549982355806,-1.102018296942119,0.2621860305697955,0.3382591865073606,-52.93348497806089,-48.62671826372572,35.294455119842254,-11.594322458398999,3.7286412694455304,-0.01303977678755619
0.5347767771942438,0.23110600629540082,0.14704272510203908,0.3023263364223565,0.09742916364565252,0.2409969249882306,0.7752428672373378,0.41521433750729153,0.23360471091003115,-1.1173106857033224,0.2611748741682371,0.3374271887709124,-53.12731709593682,-48.63663080782303,35.308425974885125,-10.811908683131781,3.734847882120229,-0.013172115186377231
0.5362987722076191,0.2319330987098479,0.14751865110004694,0.3000635768839984,0.09794949455115994,0.24167011730144033,0.7609975066876549,0.41354620722354335,0.2379629990039259,-1.131379769179072,0.2601654527537103,0.33659615660485914,-53.30967088716856,-48.64578059446046,35.31788091813343,-10.028951253508877,3.7412297430447667,-0.013299623495830581
0.5377922063761518,0.23275685191948658,0.14800330418947077,0.2977751233826422,0.09846781103562742,0.2423416495012308,0.7467170842663127,0.4118766048193428,0.24232654471191056,-1.1442267506780746,0.2591582422337449,0.33576609989522926,-53.48054623961367,-48.65418046230937,35.32284636958773,-9.246655604161976,3.7477795559363636,-0.013422766262035812
0.539257015252166,0.23357726231699819,0.1484966882838702,0.29546341403287857,0.09898411848129439,0.24301152355816064,0.7324044380070677,0.4102051987557957,0.24669204719970683,-1.1558546748818255,0.25815372283348453,0.3349370284649145,-53.639946355212174,-48.66184170420766,35.323351525518014,-8.466205733879187,3.7544898593335416,-0.013542006453128586
0.5406931400709531,0.23439432565040078,0.14899880073434957,0.2931308772486826,0.09949842323871709,0.24367974146227425,0.7180624093936039,0.40853166670130125,0.2510562252396861,-1.1662683920979984,0.25715237871134733,0.33410895205680713,-53.787877723024714,-48.668774074173456,35.31942830943933,-7.688762756602017,3.7613530327520115,-0.013657804772162219
0.5421005277563619,0.23520803704253734,0.14950963237399634,0.2907799282079712,0.1000107326337917,0.24434630522290895,0.7036938427043369,0.40685569606828137,0.2554158198233825,-1.175474520355695,0.2561546975373037,0.33328188031735656,-53.92435009048806,-48.67498579808945,35.3111113226347,-6.9154635118601,3.7683613034936263,-0.013770618985422978
0.543479130925046,0.23601839101160052,0.15002916756749185,0.2884129653970972,0.10052105497386284,0.24501121686847008,0.6893015843420535,0.4051769845315942,0.25976759674775834,-1.1834814054369986,0.25516117003556843,0.3324558227805646,-54.04937643301059,-48.68048358805697,35.29843779431382,-6.1474192357634445,3.7755067540932266,-0.01388090326705238
0.544828907889343,0.2368253814926578,0.15055738426583595,0.28603236723921555,0.10102939955285006,0.24567447844617496,0.6748884821485451,0.40349524052864183,0.26410834917205644,-1.190299078940842,0.2541722894936148,0.33163078885243585,-54.16297292203887,-48.68527266040192,35.28144753148361,-5.385714293560148,3.7827813303842386,-0.013989107560654412
0.5461498226587519,0.23762900186014022,0.15109425406612015,0.2836404888102624,0.1015357766553291,0.24633609202176676,0.6604573847044459,0.40181018374120386,0.26843490014210364,-1.1959392144765857,0.2531885512395189,0.33080678779589834,-54.26515889173028,-48.6893567572942,35.260182868593816,-4.631404974656506,3.790176850161249,-0.0140956769585881
0.5474418449399809,0.2384292449512583,0.15163974227627808,0.2812396586460906,0.10204019755950858,0.2469960596791992,0.6460111406145402,0.4001215455590437,0.2727441050789706,-1.200415082085913,0.252210452089733,0.3299838287162111,-54.355956804371985,-48.69273817192632,35.23468861700829,-3.885518350886687,3.797685012414265,-0.014201051099769768
0.5487049501355387,0.239226103090309,0.15219380798473597,0.2788321756441052,0.10254267453904752,0.24765438352029293,0.6315525977788562,0.3984290695253518,0.27703285422894325,-1.2037415009926964,0.25123848976946767,0.3291619205468709,-54.43539221468875,-48.69541777717742,35.20501201433996,-3.149051198707899,3.8052974071066314,-0.014305663586427486
0.5499391193408385,0.2400195681138372,0.15275640413487962,0.2764203060625425,0.10304322086366338,0.24831106566436498,0.6170846026499152,0.3967325117641003,0.28129807507182075,-1.2059347907813556,0.2502731623079317,0.3283410720360316,-54.503493733183674,-48.6973950576729,35.171202673675594,-2.4229689858894203,3.813005525465865,-0.014409941420503336
0.5511443393397916,0.240809631396616,0.15332747760424886,0.2740062806203326,0.10354185079848487,0.24896610824783189,0.6026099994765601,0.3950316413893967,0.2855367346846251,-1.2070127211049335,0.24931496741073886,0.3275212917334484,-54.56029298865577,-48.69866814513278,35.13331253270384,-1.7082049231548557,3.820800770753875,-0.014514304460242322
